/* XPM */
static char *dembele_east[] = {
/* columns rows colors chars-per-pixel */
"629 629 256 2 ",
"   c #14150E",
".  c #0E1613",
"X  c #141514",
"o  c #191615",
"O  c #151915",
"+  c #1A1A16",
"@  c #151619",
"#  c #161A19",
"$  c #1B1C1A",
"%  c #1A161A",
"&  c #0E0F0F",
"*  c #221D1B",
"=  c #231B17",
"-  c #261A12",
";  c #1D211C",
":  c #1A251B",
">  c #23231D",
",  c #242B1E",
"<  c #29281C",
"1  c #2D2C1E",
"2  c #1B1D22",
"3  c #0E1622",
"4  c #241E22",
"5  c #301E26",
"6  c #1D2423",
"7  c #1D2D32",
"8  c #232423",
"9  c #252C23",
"0  c #2A2C24",
"q  c #2B2C2A",
"w  c #292727",
"e  c #332B29",
"r  c #2C3225",
"t  c #2D332A",
"y  c #293629",
"u  c #323326",
"i  c #32342B",
"p  c #343B2D",
"a  c #3A392D",
"s  c #2B3634",
"d  c #343433",
"f  c #353B33",
"g  c #3B3C34",
"h  c #3C3C3B",
"j  c #383738",
"k  c #2F2D32",
"l  c #433C3A",
"z  c #432D33",
"x  c #3C4234",
"c  c #3C433B",
"v  c #364438",
"b  c #344231",
"n  c #42433C",
"m  c #45483A",
"M  c #4C503C",
"N  c #3B3C43",
"B  c #2D3A44",
"V  c #443D43",
"C  c #503D47",
"Z  c #3A4645",
"A  c #394D54",
"S  c #3B596D",
"D  c #3C6379",
"F  c #434443",
"G  c #4C4C4B",
"H  c #474946",
"J  c #534A4B",
"K  c #4B5448",
"L  c #54554B",
"P  c #494C53",
"I  c #564D53",
"U  c #4B5455",
"Y  c #545453",
"T  c #5C5C5B",
"R  c #585857",
"E  c #635A5B",
"W  c #645250",
"Q  c #5B625A",
"!  c #59624F",
"~  c #65655C",
"^  c #6F6559",
"/  c #5A5C63",
"(  c #465A6A",
")  c #655D65",
"_  c #6E5D69",
"`  c #5C6466",
"'  c #46667A",
"]  c #526673",
"[  c #646463",
"{  c #6C6B6B",
"}  c #686768",
"|  c #756A6A",
" . c #77766B",
".. c #696A73",
"X. c #766C73",
"o. c #7C7C74",
"O. c #7C7C7B",
"+. c #787575",
"@. c #6C726F",
"#. c #827C75",
"$. c #837D7B",
"%. c #877A79",
"&. c #837272",
"*. c #7E827B",
"=. c #7C8175",
"-. c #7A826F",
";. c #838276",
":. c #8A8376",
">. c #84837C",
",. c #8B847C",
"<. c #8C8A7D",
"1. c #87897A",
"2. c #92857D",
"3. c #928A7E",
"4. c #938678",
"5. c #908D7A",
"6. c #486B84",
"7. c #4B7289",
"8. c #587A94",
"9. c #54738B",
"0. c #7A7A84",
"q. c #6A7990",
"w. c #627597",
"e. c #3D6883",
"r. c #867C83",
"t. c #907D87",
"y. c #5B829A",
"u. c #718596",
"i. c #698AA5",
"p. c #7692AC",
"a. c #7A98B5",
"s. c #738DA9",
"d. c #6D94AF",
"f. c #7FA2C1",
"g. c #858582",
"h. c #8B8582",
"j. c #878983",
"k. c #8C8B84",
"l. c #8D8D8A",
"z. c #89858A",
"x. c #938683",
"c. c #938B84",
"v. c #9A8C85",
"b. c #948C8A",
"n. c #9B8D8B",
"m. c #978588",
"M. c #8E9188",
"N. c #939185",
"B. c #9B9286",
"V. c #94938B",
"C. c #9B938C",
"Z. c #9A998D",
"A. c #97988B",
"S. c #8A8B94",
"D. c #9C8D92",
"F. c #958C92",
"G. c #959492",
"H. c #9C9492",
"J. c #9C9A94",
"K. c #9E9C9A",
"L. c #9B9698",
"P. c #8B9396",
"I. c #A18E8C",
"U. c #A18C87",
"Y. c #A2938D",
"T. c #A29A8E",
"R. c #A4968A",
"E. c #A28E93",
"W. c #A58D98",
"Q. c #A39493",
"!. c #AA9594",
"~. c #A49B95",
"^. c #AA9B95",
"/. c #A4959A",
"(. c #A49C9B",
"). c #AB9C9B",
"_. c #AA969A",
"`. c #B29D9C",
"'. c #B29B97",
"]. c #9EA19B",
"[. c #A4A29C",
"{. c #ACA29D",
"}. c #A7A298",
"|. c #B3A39D",
" X c #B8A79E",
".X c #A1A08E",
"XX c #859BB9",
"oX c #9197A9",
"OX c #A59DA1",
"+X c #AB9DA2",
"@X c #AB9CA8",
"#X c #B39EA2",
"$X c #B69EA5",
"%X c #A99AB3",
"&X c #9BA4B7",
"*X c #8DA2B7",
"=X c #A5A4A3",
"-X c #ACA3A4",
";X c #ABAAA5",
":X c #A6A5AA",
">X c #ABA5AA",
",X c #ACABAB",
"<X c #A6A9A7",
"1X c #B3A4A3",
"2X c #BAA5A4",
"3X c #B4AAA5",
"4X c #BBABA5",
"5X c #B2A5AA",
"6X c #BBA6AA",
"7X c #B4ACAC",
"8X c #BBABAB",
"9X c #AEB1AD",
"0X c #B3B1AD",
"qX c #BBB1AD",
"wX c #B8B1A6",
"eX c #ADADB1",
"rX c #A8A7B6",
"tX c #B4ADB1",
"yX c #BAADB2",
"uX c #B5A6B3",
"iX c #B4B2B2",
"pX c #BCB3B3",
"aX c #BDB5B9",
"sX c #BCB9B8",
"dX c #ADB2B3",
"fX c #C1ACAC",
"gX c #C1A8A7",
"hX c #C1B3AD",
"jX c #C4B2A9",
"kX c #C2AEB2",
"lX c #C2B4B4",
"zX c #C2B8B6",
"xX c #C2B5BA",
"cX c #C3B9BB",
"vX c #C9B8BA",
"bX c #D1BEBE",
"nX c #89A6C3",
"mX c #96A9C8",
"MX c #99B2D0",
"NX c #A6ABC7",
"BX c #A7BAD9",
"VX c #B3B6CC",
"CX c #9DAED1",
"ZX c #C7BBC5",
"AX c #B0C2DB",
"SX c #B5C7E6",
"DX c #9EC1DE",
"FX c #C6C6D9",
"GX c #D0CACC",
"HX c #C8CCE6",
"JX c #D7D5EA",
"KX c #CED4F2",
"LX c #E4DBF1",
"PX c #F1EAF9",
"IX c #DFDFE9",
"UX c #C5C1BD",
/* pixels */
"n F m M I E E E &.l z - -   & - % 5 % % % = $ + + # O O : O O O O O   :   : + : + O O O O O # # O X X o O   + + + + + + + + - +   O + + o X X X X   X X X X   X o &   & o @ @ 3 X 3 X @ o & o   o o o o o - - & &         &               &     .     .         X & X &                 @ 3 @ @ @ @ @ @ @ @ @ & & @ @ @ @ @ @ @ & & @ @ @ @ @ & @ 3 @ @ % @ @ @ O O X X X @ $ 4 w j l l M C M z ^ W m l z z m z z l W m M W W ^ W ^ W W W W W W W ! L L J L E ^ -.^ ^ ~ ~ ~ } } ..} | } | | &.|  .&.&.&.^ ^ &.^ W _ &.W &._ &.&.^  .^ &.&.#.$.>.o.+.o.*.u.O.o.o.%.#.#.#.%.#.#.#.#.o.o.o.o.*.*.*.*.*.*.O.=.o.=.o.#.;.#.#.#.#.%.#.&.#.#.#.%.r.r.t.r.t.t.r.r.t.r.0.$.%.O.%.O.$.$.$.$.$.%.,.,.#.#.:.$.$.$.$.h.,.$.,.h.,.>.h.>.>.h.$.j.g.h.,.,.$.,.$.%.%.%.%.%.%.%.x.%.x.$.$.,.g.>.>.O.O.>.>.$.x.h.x.x.,.h.x.r.h.$.r.r.,.$.$.;.;.,.1.<.1.>.;.>.>.1.1.g.>.g.g.g.h.g.z.g.g.u.g.r.>.h.g.g.g.h.h.h.h.r.$.h.t.r.x.h.r.,.h.>.r.>.g.r.,.h.g.h.h.h.h.g.>.$.*.O.>.>.g.h.g.h.h.>.,.>.,.>.>.g.,.h.g.h.g.g.$.g.$.g.r.z.z.r.z.r.r.r.0.r.r.r.r.r.z.r.%.x.t.t.r.z.t.z.t.t.g.r.$.$.$.r.$.r.$.h.h.,.h.x.,.h.h.r.r.h.z.r.r.r.r.r.r.t.S.%.$.>.r.*.*.*.O.*.1.*.>.>.>.>.>.;.$.#.%.o.X.&.&.o.%.&.%.r.O.0.r.r.r.r.r.g.O.$.>.$.>.$.>.O.*.0.O.O.O.O.O. . . .&.+.o.%.$.$.$.>.g.$.r.O.O.+.+.+.+.+.+.+.+.+.0.+.O.@.+.@.@.@.{ @.@. .{ @.+.+.",
"m M m J W ^ E ^ &.C z - - - - o - % - % o + + + + # O O O O O O +   + + O + O : O : + + O O O + o X X + + + +   O + + + + + + + O + O + % X X   X X o & & o o &     & o X X @ . . @ @ @ o o o   o o o o - & & - -                             . .   .           X X X X               . @ @ @ 3 @ @ @ @ @ @ @ 3 X X & @ @ & @ % & % @ @ % @ @ & @ % @ @ @ @ @ @ O   X X X X $ $ 4 d l l z M M W ^ ^ L M M M M M M M W W W W ^ ^ ^ ^ ^ ^ ^ ^ ^ ^ ^ ^ ^ ^ ^ ^ |  .^  .-.~ @. .@.@...X.X.| X. .&.&.&.&.&.&.&.&.&.&.&.| &.&.&.&.&.&.&.&.&. . .%.$.>.o.o.O.>.:.o.O.O.%.%.&.%.#.#.$.#.o.#.o.o.o.o.=.*.u.*.*.*.=.=.-.;.;.;.#.:.#.#.%.#.#. .#.%.,.%.r.r.t.r.t.r.r.r.r.r.$.$.r.%.%.%.$.$.$.h.,.$.#.$.$.#.%.$.$.$.$.%.h.$.$.g.g.$.,.g.>.>.,.h.g.h.j.h.r.,.%.$.%.%.%.,.%.,.%.h.,.$.$.>.r.>.*.>.$.>.h.h.h.r.x.r.x.r.h.t.,.r.>.r.>.$.;.,.;.1.<.1.1.;.;.>.>.>.>.g.g.g.g.g.g.g.g.g.,.;.g.g.r.g.r.h.r.h.t.h.r.h.r.,.x.h.x.h.h.$.$.$.,.$.>.g.h.>.h.h.h.h.g.>.g.*.u.>.g.>.,.h.h.h.,.>.>.>.>.,.>.h.g.h.h.$.r.g.r.g.0.z.h.z.z.z.z.r.g.r.r.r.r.r.t.z.h.r.%.t.z.t.t.z.z.r.r.g.r.>.>.$.$.$.%.,.%.,.h.,.<.h.r.h.z.r.t.r.r.r.r.r.r.r.r.r.#.u.O.*.*.O.*.*.>.>.1.>.>.>.>.>.;.$.#.#.#.o. .#.%.%.%.r.r.%.r.r.&.0.r.X.r.$.$.>.r.;.>.>.*.O.*.O.O.*.O.@.+.+. .+.o.&.$.$.o.$.$.>.$.O.O.O.O.+.0.+.+.+.+.+.+.X.+.+.+.+.@. . .{ @. .@.@.X.+.+.",
"H M J L E | | | %.J e - - o - - - % % o % $ +   O O + + O o + O + O O %   : + + : O : O o @ @ @ X X X O O o X + + + + + + +   + + X O + o   X X   & o   o & X   &     & X . @ @ @ & @ @ o & o & - o o o & - - & -     +     -                 . . .   . . O O O X . X   .         .   . . @ @ @ & @ & % @ @ @ % X X @ X @ @ @ & @ & @ & % # % @ @ @ @ % @ @ @ & . .     X X @ + * k z l M M M M ^ ^ M L M M C M L W ^ ^ W ^ ^ ^ ^ &.&.^ ^ | | | | | ^ | ^ | |  . .&. . . . .+.+.+.+.+.&.#.%.%.#.:.#.#.%.&.&.&.&.&.&.&.&.&.&.&.&.&.#.#. .#.#.$.,.O.O.*.>.>.O.O.o.$.%.#.%.%.%.;.#.#.o.O.#.$.=.>.O.;.g.>.>.$.>.;.;.;.:.,.#.%.:.#.#.#.o.#.$.%.r.r.%.r.t.r.r.r.r.g.0.r.O.r.$.r.>.$.$.>.$.#.$.>.#.$.#.,.$.$.$.$.$.$.$.$.,.$.h.$.>.h.h.h.$.h.h.h.x.h.h.,.%.%.$.%.h.x.x.%.%.$.,.>.$.>.>.>.$.>.>.h.$.h.x.%.r.x.h.h.h.h.r.h.>.$.,.>.;.;.,.<.1.>.;.>.;.;.>.*.>.g.g.g.h.j.z.g.g.,.u.g.g.h.h.r.g.h.z.h.h.h.r.,.h.,.h.h.r.h.$.$.g.>.g.g.>.g.r.,.r.g.h.,.g.>.g.:.>.g.g.g.h.h.h.,.,.,.>.,.>.h.>.,.r.g.h.r.>.g.r.g.r.z.u.z.g.z.r.r.r.r.r.r.r.t.t.h.%.2.h.r.h.t.h.r.r.z.r.g.$.$.>.$.r.>.g.h.,.j.h.,.h.,.h.r.z.z.r.r.r.r.r.r.r.r.r.r.O.$.#.*.*.*.>.*.>.*.g.>.>.>.>.>.#.#.#.&.o.&.#.+.%.$.$.0.%.0.+.r.+.0.%.r.*.O.>.$.$.>.$.0.O.O.O.+.0.O.+. . .o.o.o.O.$.o.$.$.O.$.O.%.O.+.+.+.+.+.+.+.+.+.+.+. .+. . .+.@.@.{ @.{ +.X.@.+.@.",
"K K M L ^ ^ ^ &.%.J e - % o & o % % o o + + + + :   + O + O % X O   + o :   + + + + + O @ @ o % O % @ o @ X + X X +   o     +     X @   @ o & & @ X X X X X @ o X   & X & @ . 3 @ @ @ @ % o % % & & o o o & & - o o o o         +         .   & . . .       O   @ X X X   X       O   O @ @ @ @ & 3 3 & @ @ @ @ @ @ X X @ & & X & @ & @ O X @ X % @ @ @ @ & @ @   O     X X @ % * e a a z C M W ^ ^ W ~ W W W W ^ ^ ^ | &.^ &.^ &.&.&.4.&.&.#.#.,.,.,.#.:.#.;.:.&. .#. .-.o.O.O.0.O.$.r.$.;.%.%.:.#.:.%.%.&.&.&.%.&.&.%.&.&.%.%.;.&.#.;.#.#.;.;.o.$.$.*.*.*.*.O.#.$.#.#.%.#.#.#.$.>.o.>.o.>.=.>.;.>.$.O.;.;.$.;.;.:.%.:.:.%.%.#.o.#.$.>.r.$.r.r.%.r.r.r.r.g.r.$.$.$.>.r.>.$.$.$.$.;.$.;.#.$.o.#.$.>.;.>.>.,.$.>.g.$.,.,.h.h.h.$.h.h.x.h.h.x.h.x.$.h.x.h.x.%.,.r.$.$.g.$.g.>.g.>.g.g.,.j.,.h.$.$.h.,.r.x.r.t.h.h.r.>.h.$.>.,.,.;.1.1.>.1.>.>.>.>.>.g.>.g.z.j.j.g.g.g.,.g.g.g.z.j.j.g.h.h.h.h.r.h.,.r.r.,.,.,.h.h.h.g.g.g.$.g.>.g.>.,.g.$.g.g.g.g.,.>.g.g.$.h.h.h.h.j.>.,.g.,.g.h.g.h.g.>.g.g.$.$.g.g.g.z.z.z.z.z.h.r.g.r.r.r.z.h.h.h.%.h.h.r.h.r.h.g.r.g.g.>.$.g.>.>.h.g.h.,.h.,.h.g.r.h.z.z.r.z.r.r.r.r.0.r.g.0.>.r.;.u.>.*.>.O.>.>.>.>.>.>.$.,.>.$.O.;.#.o.o.#.%.O.$.$.&.0.+.r.0.O.0.+.O.O.*.O.$.#.#.O.*.*.+.O.+.O.O.%.O.+.o.o.#.#.$.$.$.o.%.O.o.+.+.+.+.+.+.+.O. .+.+.+.+.X. .+.@.X.@.@.| @.@.| @.@.@.@.",
"M ! M W ~ ^ ^  .%.J e - o o   & o % o % % o + O   + o o o + X o o o o o o o o % % + % @ @ @ o @ @ @ o @ @ X @ X o @ X X o     X X X @ & @ X X X o X @ X @ X @ X X       & @ . @ @ 3 3 @ % % & % o o o & & - &   o     X   . O     o & @ @ X X . . X X X O X X X @ X X             O   O O O @ @ @ X @ X & % @ & @ X @ X O     O % %   + X X     O o + + @ @ X X             +   > i z m m M z M M W M ! W M W ! ^  .#.#.&. . . .&.&.;.&.&.;.#.;.#.#.o.&.#.#.&. .#.&.&. .o.O.O.O.$.0.0.>.$.;.>.#.;.,.$.%.%.%.%.%.%.%.%.%.#.#.#.#.#.:.#.#.;.#.;.;.o.>.>.O.=.o.*.o.o.$.#.>.$.#.>.#.>.#.;.>.$.,.$.>.g.$.>.>.$.$.;.;.;.,.;.;.;.;.$.$.;.o.=.>.$.g.g.r.r.r.g.r.u.g.r.$.r.*.$.g.>.>.:.;.h.>.;.>.$.=.;.*.$.*.*.>.>.>.$.>.$.,.$.,.$.h.h.x.x.h.h.x.h.x.h.%.h.,.,.r.$.$.h.$.,.$.,.>.,.g.>.$.g.g.g.,.g.$.r.,.$.x.x.r.h.h.h.r.r.h.g.>.>.1.:.,.>.>.>.;.>.>.>.>.$.g.g.g.g.z.g.g.g.g.g.j.j.z.z.z.z.h.z.j.h.h.h.r.>.r.>.g.>.h.$.g.j.j.g.g.g.g.1.u.r.,.h.h.g.g.g.j.g.g.g.h.h.h.h.>.j.,.,.j.,.h.h.j.h.g.h.$.g.>.h.g.g.g.z.h.z.z.z.z.r.h.r.r.z.r.t.z.,.,.,.j.h.r.g.g.g.g.g.>.r.>.g.>.1.g.1.1.j.1.j.j.>.g.r.g.r.g.z.r.r.g.r.r.z.0.r.u.r.*.*.*.g.$.$.>.>.>.$.>.>.>.$.>.>.$.o.>.$.o.o.O.$.$.%.$.0.%.O.o.X.0.+.0.O.O.O.*.#.O.$.$.O.O.O.O.O.O.+.X.o.+.%.o.%.O.%.#.O.$.o.%.+.+.+.+.+.+.+.O.o. .+. .+. . .@.@. .@.+.@.@...@.+.@.@.X.X.",
"M M ! ! ! W ^ ^  .m e   o & o X % & @ % % % + + + + + o X o o o & @ o o & @ % % + % % % @ o @ % % @ @ @ % X o X X X o X X X X X @ @ X X & @ @ @ @ X @ X X @ @ o X   X X @ . @ . @ & & @ & @ % @ @ & @ X o o   o X   X         X O + @ @ @ @ @ @ X X X X O X o   X @ X     .         O O O O @ @ @ @ @ @ @ & & % +   o O +   +   % % > + + + + + + + +   % % o o :   +   ; : -   > e l l l M M W M ! ^ ^ ^ ^ ^ ^  .o.#.#.#.#. .+.&.&. . . .^ |  .,.,.$.;.,.,.,.:.&.#.;.;.$.$.$.r.O.$.$.O.>.$.#.;.$.%.$.$.%.%.%.%.$.$.%.,.,.;.;.;.;.#.#.#.;.;.;.;.;.;.=.=.o.=.>.O.#.$.>.#.>.;.$.>.>.;.$.>.>.;.,.>.$.,.$.%.>.#.;.#.;.,.,.;.$.;.#.o.=.;.>.>.>.$.$.>.>.r.g.>.$.;.g.O.*.>.>.*.>.>.>.u.g.>.>.>.>.>.>.*.*.>.>.*.g.$.>.g.g.>.h.r.h.,.h.%.h.x.x.h.x.h.,.h.h.r.,.$.,.>.r.,.r.,.$.h.$.>.g.g.j.>.g.,.,.h.,.,.,.%.r.h.h.t.h.h.h.g.h.,.,.;.1.1.1.;.1.;.>.<.>.<.g.h.g.h.g.g.g.g.g.g.z.z.z.j.k.k.z.z.h.h.r.g.r.g.g.>.g.>.g.g.h.j.k.j.j.j.j.<.1.g.g.h.h.j.j.j.g.g.g.g.g.>.h.g.h.h.h.,.j.,.j.j.,.h.h.h.g.h.h.h.r.g.g.r.z.z.g.z.z.z.z.z.z.z.r.g.z.r.r.,.g.>.>.>.g.>.0.>.g.>.>.g.1.>.1.j.j.g.g.g.1.g.g.g.g.,.r.g.g.r.z.z.z.h.r.r.$.#.g.r.g.r.O.>.g.$.>.>.g.,.$.h.g.>.>.*.$.*.*.o.o.>.#.#.O.O.$.O.O.#.O.O.O.O.O.O.O.*.%.#.$.O.O.$.O.O.O.O.O.O.+.%.o.%.%.#.o.$.$.o.O.+.+.-.+.+.+.O.+.O.@.o.o.@.+.@.O.@.+.+.@.@.+.0.O.@.@.@. .@.@.",
"W M W M ! W ! ! E a 0 o o   X X % % & % % + + + o + o o o o o o o o o % o o % & % % % o o % @ @ @ @ @ @ X @ @ X @ X X X @ @ X X @ @ X @ o @ @ @ @ @ @ @ @ @ @ X O X X X X X X X @ @ @ @ @ @ @ @ & @ o o o & o o X X X X O X O X @ X @ @ @ @ @ % @ # X X X X X   X & X X O             O @ @ X @ @ o X o o @ % % O +   + +   + + % - ; + + ; + ; > + > ; ; + o + - : -   - : - : < l m m M M M M M ^ ! ^ ~ ^  . .o. .o.;.;.O.o.o.4.;.&.;.-.;.o.#.o.X.&.#.#.%.%.#.%.%.#.,.$.$.r.*.$.#.$.*.$.*.;.;.,.;.$.,.$.$.%.2.,.r.g.,.;.,.1.:.:.;.:.;.:.;.;.;.;.>.;.-.-.=.=.-.>.o.#.>.;.$.;.>.>.,.,.>.h.$.,.%.h.$.r.,.%.#.,.%.,.;.,.;.,.;.;.>.;.o.>.>.>.O.>.$.O.>.g.O.>.*.0.*.O.*.*.*.O.g.1.g.>.*.g.:.>.*.>.*.g.>.>.g.g.>.g.,.r.,.,.,.r.2.h.x.t.x.h.x.h.r.,.%.,.h.,.>.>.g.,.>.g.$.>.r.g.>.h.>.,.,.g.j.h.,.h.r.r.x.r.x.h.h.t.h.h.h.j.,.j.,.;.;.;.;.1.1.<.1.j.j.g.j.j.j.z.j.g.j.j.j.j.z.j.k.l.l.k.z.j.z.j.g.r.g.g.>.>.g.g.g.g.k.j.j.j.z.j.j.j.z.j.h.h.h.h.j.j.g.g.>.$.g.>.r.h.h.h.j.g.g.g.h.j.h.g.j.h.g.g.g.g.h.z.z.h.z.h.z.z.z.z.h.z.g.g.z.g.h.g.g.>.j.>.g.>.g.>.>.:.1.g.1.j.j.*.j.1.g.>.1.g.1.g.g.g.u.u.g.r.g.u.h.u.j.r.g.h.r.g.>.$.h.g.$.$.h.h.$.,.h.>.h.>.>.g.*.>.*.*.O.O.*.O.u.O.>.0.$.O.u.r.O.O.O.o.O.O.O.O.o.$.$.$.$.O.0.O.O.+.O.%.%.o.o.O.o.o.o.>.$.o.o.=.o.=.+.@.O.+.-.o. .-.@.-.+.+.-.+.O.O.O.0.o.+.+.+.+.+.X.@.",
"M W M M L M L L L 0 0 + o   X O % % % % $ + X + +   o   - o o   % o o o o o o o % % % o % @ % @ % @ @ @ @ @ X @ X @ X @ X o X % @ X @ X @ @ o % o @ @ @ o @ @ o @ X X X . @ X @ & @ & @ @ @ % @ X @ o & o o o o X X O X O X X @ @ @ @ @ @ @ % 3 % @ % @ X X X X X X                     X X X & X X X X % o % % + + + + + + +   o o + ; + + - , > > > > > > ; - : - : : - < < - 1 l M M M C M W M ! ^  . .^ #.o. .o.*.*.>.>.>.:.&.:.-.^ ;.-.-.o.;.#.;.%.#.:.%.%.:.%.%.%.%.$.$.O.u.;.>.>.>.>.>.>.,.$.,.$.h.h.,.h.>.r.>.>.;.>.1.;.;.;.;.:.;.:.;.;.>.;.;.;.o.;.>.;.o.=.*.=.*.>.>.>.>.>.>.h.,.,.$.,.h.x.$.,.,.,.,.,.,.,.j.,.,.>.;.>.=.=.>.*.>.>.O.*.*.>.g.*.*.>.>.O.>.*.O.O.*.*.j.j.g.g.1.u.*.>.*.g.*.g.>.g.>.g.g.g.,.h.h.x.r.,.%.,.,.,.t.2.h.x.h.h.h.h.g.h.>.$.>.>.$.>.,.,.>.h.>.g.h.g.h.>.>.r.>.,.h.%.h.x.r.r.h.r.h.h.h.j.<.,.1.;.>.1.>.<.j.<.j.j.j.j.h.j.j.g.g.z.j.z.j.j.z.l.z.l.l.j.j.j.h.g.g.g.g.g.g.g.g.g.g.k.l.j.l.k.k.k.k.k.j.h.l.h.z.h.h.h.>.g.g.$.>.g.h.g.j.j.j.,.j.g.j.j.j.j.j.h.j.h.j.j.z.z.z.z.j.z.j.z.z.j.z.z.h.g.g.g.>.1.>.>.>.>.>.>.>.>.:.u.1.j.1.j.1.g.1.1.>.j.>.g.g.g.g.g.g.r.u.r.r.g.z.g.g.g.g.g.>.r.g.$.g.>.g.,.$.$.$.%.$.$.$.>.g.>.*.*.*.*.*.*.*.O.g.;.#.u.>.*.0.*.O.O.O.O.=.*.%.$.$.%.0.%.0.%.r.r.$.+.%.O.$.&.$.o.%.O.o.$.O.o.+.+.+.+.o.-.+.+. . . . .o.o.+.O.O.O.O.0.u.+.0.O.+.+.X.@.X.",
"^ ^ M M M u M a u < - : +     O # # # $ + + + +       - o o o o o o & X & o % % % % % % % % % % @ @ @ @ X X @ X @ @ X X X X X X + @ @ @ @ @ @ @ @ @ @ % % # % # O O O O O O + + % o @ @ @ % % @ % + $ * ; + +   O O O X o X o + @ @ % 2 @ @ % 2 $ 2 $ 4 > 8 $ $ $ $ % % + + $ + + O + + + X X + &   X + + + + + > > + ;   :   : - -     & & & &   - < < < < 1 ,       o   - - + < u u m l m W ! ^ ^ ^  . . .;. .-.o.-.>.;.>.g.1.O.*.*.>.g.>.>.g.>.$.$.h.$.%.x.%.%.%.%.%.%.,.$.O.>.*.>.*.*.;.;.;.>.,.$.h.>.$.g.>.g.>.>.>.>.=.;.;.;.;.;.;.;.;.-.;.1.1.;.=.-.#.-.;.=.*.*.*.>.>.>.>.,.>.>.,.,.j.1.5.%.,.%.,.$.%.:.%.;.,.>.>.1.:.=.;.5.=.=.*.*.5.*.*.>.*.*.1.*.*.*.*.*.1.u.1.>.g.g.*.1.1.1.g.g.*.>.>.g.u.5.;.>.>.>.>.g.g.h.h.h.h.x.x.x.x.h.x.h.x.h.h.h.h.h.,.g.>.h.g.,.g.h.h.,.$.h.,.,.h.,.h.j.g.h.h.x.h.r.x.h.t.h.z.h.h.h.h.j.,.:.>.1.>.<.<.<.k.j.j.h.j.j.j.j.j.z.j.z.j.g.k.g.z.l.l.k.k.j.<.g.g.>.*.>.*.g.g.j.z.j.j.M.j.j.M.k.j.z.k.j.k.h.k.h.h.h.j.j.h.$.g.r.>.g.g.j.j.j.j.,.g.j.j.k.k.h.j.k.j.k.k.j.h.j.h.g.h.r.g.z.k.g.g.g.z.g.g.j.j.*.1.*.1.1.*.1.1.j.*.k.1.j.j.1.*.1.:.1.1.j.j.g.j.u.g.g.g.,.u.u.g.g.j.j.g.g.g.g.u.%.:.$.$.>.$.r.$.r.$.$.>.>.O.O.>.*.g.u.1.*.*.*.u.;.*.*.u.u.-.=.=.*.*.@.O.+.O.O.O.$.$.r.O.r.r.+.%.0.+.O.o.o.+.o.O.o.$.$.o.O.O.o.@.o.o. .O.+.=.-.@.-.-.-.@.@.=.O.*.0.*.u.*.+.0.X.@.X.+.@.",
"^ M M M 1 < u 1 1 < - : +   X # # # O O + + + + - - o o o - -   o o % o & o % % % % o & @ @ % @ @ @ @ & X @ X @ X X X X @ @ @ X @ @ % # X X X X & X X X X X X @ X . X X X X O O X o & X % $ % @ % o $ $ ; + + + + $ $ + $ $ + $ 2 2 2 $ 2 @ % $ % % $ $ $ $ * $ 8 $ 8 > > > > > > > > * + > $ ; > > , 0 u u i i 0 < , - - < 1 1 u b x m m M M ! L L M L M L M K H m m M m m m m M L W ! L ! ^  .^ &. .-. .o. .;.#.o.o.*.#.u.*.u.=.*.*.*.*.g.>.g.>.$.,.%.r.2.h.x.2.2.2.2.$.,.,.>.>.*.>.>.>.>.=.;.$.;.,.;.>.r.>.g.g.g.g.>.>.*.>.=.*.;.*.;.*.;.;.=.1.;.;.-.=.-.o.=.=.*.=.1.>.*.>.>.>.,.$.,.,.;.1.1.,.%.,.%.,.%.$.;.$.;.$.;.=.;.;.-.*.=.=.*.*.*.*.5.*.*.*.1.*.1.*.j.>.*.:.1.g.*.g.*.>.1.u.g.g.>.>.:.j.*.*.1.>.>.g.*.>.>.,.h.h.,.h.r.r.2.r.h.r.,.h.h.k.h.j.j.>.g.j.j.h.j.>.j.g.h.$.h.$.$.g.g.j.,.h.j.h.h.r.h.h.h.z.h.h.h.h.h.,.;.;.:.;.;.1.j.k.<.j.<.k.h.k.k.z.j.z.h.g.g.j.z.z.l.l.l.z.k.j.u.g.g.g.1.g.>.g.g.j.j.j.l.u.<.j.j.g.k.j.j.j.h.l.z.l.l.h.h.h.h.h.g.,.g.>.g.j.j.j.g.g.g.>.j.j.j.j.j.g.k.k.k.h.z.j.z.h.g.g.h.g.z.z.g.g.g.g.k.j.*.1.1.1.*.1.*.1.g.1.1.j.j.1.j.>.1.1.u.1.g.g.j.g.>.j.g.g.g.g.g.g.g.>.u.g.j.g.g.g.g.>.$.$.g.r.>.,.,.,.$.$.$.r.g.>.*.>.*.;.=.*.*.*.*.*.*.>.;.*.*.=.u.@.*.*.=.=.+.o.O.O.O.O.$.O.O.O.O.O.%.O.+.O.o.o.%.o.o.o.O.;.o.o.=.@.o.+.-.-.=.-.@.-.@.=.=.O.*.*.*.>.O.+.0.0.@.@.+.+.@.@.",
"^ ^ W M - : , 1 : :   : + + + + # # O +   + o -   o - - o       o o X   o o o o o o % @ & & X & @ @ @ % @ @ @ X % X @ @ + O + + + % $ $ % + % O % + @ @ @ + % # 6 2 2 6 ; > ; = o = $ * 2 4 * $ ; - ; > ; + : + X     O + + - + % 2 4 $ % % * * 8 8 8 > > ; ; > $ 8 8 w w w 0 w 0 q i i a g f f u e e i b b b b M m x m x m M M M M M L M ! ! ! ~ ! ! ! L ! L L ~ ~ ^ ! ~ ^ ! ^ ^ ^ ^  .^ ^  .o.&.-.;.;.o.#.#.=.o.o.*.*.>.>.u.*.*.*.*.*.*.>.g.$.$.$.>.$.$.2.x.h.m.x.x.x.h.h.>.>.>.>.>.*.;.=.;.;.#.:.$.>.>.>.;.:.g.g.g.*.*.>.>.>.*.;.*.;.>.>.*.;.>.1.=.;.;.-.;.;.*.*.*.*.>.*.>.*.>.>.>.$.$.$.*.1.;.$.%.;.$.$.>.>.>.*.>.;.-.;.;.=.-.*.=.5.-.*.*.=.=.1.=.*.*.1.1.*.*.>.>.>.1.;.1.g.g.g.g.g.g.>.>.u.1.>.j.1.>.g.g.>.$.g.>.g.h.h.h.h.,.h.$.h.,.,.h.$.h.h.>.>.h.j.h.h.,.g.j.>.,.,.r.,.h.,.h.h.h.,.g.,.h.h.x.r.h.t.h.t.h.h.h.>.,.,.:.:.>.1.1.<.<.<.,.j.j.k.j.z.k.k.j.z.z.j.j.z.k.k.k.l.g.z.j.z.g.g.u.<.<.u.g.j.j.j.z.k.j.k.j.j.j.j.g.g.l.j.k.k.h.l.h.k.h.h.h.h.h.j.j.j.j.g.g.g.g.g.g.g.,.g.j.j.k.k.j.M.h.z.h.h.g.h.,.j.j.j.g.j.j.j.j.j.*.j.u.5.u.;.1.1.*.j.1.1.1.j.u.5.>.>.>.g.g.:.>.g.g.g.g.$.u.,.g.g.*.1.g.g.1.1.g.g.>.g.>.>.>.$.>.>.h.g.>.$.>.$.$.>.>.;.>.*.*.*.u.=.:.*.*.;.=.=.*.*.*.=.O.@.*.O.O.*.O.O.$.O.$.$.r.O.O.O.O.O.O.O.O.o.O.O.o.$.O.$.*.*.o.o.o.o.-.+.+.-.-.-.-.-.-.=.-.*.O.O.u.o.O.O.+.0.O.@.+.+.O.",
"R.4.^ M < 1 :   -   -   + o   + % # + + + +   o   -       o o o     X X & o o % % % % % % % @ @ $ % % % % + + % + X % % $ + $ = $ ; $ > 8 > > > > * 8 > > ; 8 > $ $ ; : + + + o + o + + + $ + + + + ; > > ; + : + X     % = * > $ % $ $ $ $ + > * > > = +   X + > > 0 i i d u i d g h l m F m M J K K G L M L M L L L L ! ! ! M ~ ! ! ~ { ^ ~ -.-. .-. . . . .o.;.#.#.o.#. .#. . .-. . .o. .$.=.;.;.;.&.#.o.;.;.>.o.*.*.;.;.#.O.*.*.*.O.>.*.>.>.h.,.h.h.x.x.r.,.%.t.$.$.%.,.$.>.>.>.;.>.=.;.o.;.#.,.%.;.;.;.>.u.g.g.g.g.g.>.>.>.*.>.>.*.>.>.1.*.*.;.*.=.=.;.=.>.g.1.g.1.1.>.>.>.>.>.>.;.$.;.*.5.,.,.>.,.g.,.j.j.>.>.>.;.1.;.=.;.*.*.=.*.5.*.=.=.1.=.*.1.1.*.j.1.>.>.*.>.u.:.>.>.g.>.g.*.g.g.g.>.g.1.1.u.g.g.>.g.>.>.>.h.g.h.>.h.h.,.h.,.,.r.>.$.,.h.g.h.,.j.h.h.j.h.j.h.g.$.,.$.,.r.,.h.h.j.h.j.r.2.r.h.h.r.h.h.z.k.h.h.j.1.1.1.;.1.;.<.j.1.j.<.j.h.j.h.z.z.k.z.j.z.k.j.k.z.z.k.z.j.j.z.z.g.j.j.1.j.j.j.j.j.k.j.j.j.j.j.g.g.g.h.k.l.l.h.l.h.z.k.j.h.h.g.j.k.z.j.g.g.g.g.>.g.>.g.>.g.g.j.j.j.j.M.k.h.j.h.h.h.g.j.j.g.g.j.j.k.j.k.1.u.1.*.1.1.*.>.1.*.*.j.g.g.1.1.j.g.g.g.g.u.>.g.r.g.g.g.>.>.g.g.*.:.u.g.u.g.g.g.g.g.$.g.>.r.g.r.h.$.>.r.>.g.g.*.u.#.O.*.*.=.=.1.u.*.*.u.*.*.*.=.*.O.=.O.O.O.0.O.>.*.*.g.#.u.r.r.0.r.0.+.o.O.+.o.O.o.O.O.o.*.O.*.=.o.o.@.o.-.@.+.-.-.-.-.O.@.=.@.O.O.O.O.O.O.0.+.O.+.O.+.@.",
" XjXbX.XM ,   1 :     : -   o o $ $ ; # + + = - -     o -   o o         X   O X % + % O # O @ @ $ $ $ + % O   X X   O + + + + ; + ; > > > > ; > + $ $ > > > ; $ 6 q q q 0 u e 1 a u u a a n n m x m m m m m x b , ; * - 0 e e e g g g g x m n m H J L K G K K L R T Q [ } ~ [ ~ } } ^  .^  .^ ~ ~ ~ ~ ~ ~ ~ ~ -.^  .-.-.-.-.-.-.! ! ! ^ ! ~ -.~ ~ ^ ~  . . . . .|  .|  . .^ ^ |  . .^  .@.| o. .-. . .;. .#.o.-.>.>.>.>.>.*.$.g.O.*.$.*.$.$.>.$.h.h.h.h.r.h.%.x.x.%.h.%.;.>.>.>.>.*.;.;.;.;.;.#.:.:.:.:.;.;.>.g.*.j.<.j.j.>.g.g.*.*.*.g.>.;.>.>.>.=.=.*.>.*.>.;.j.1.g.g.g.1.>.>.>.>.>.>.*.*.5.*.>.;.;.>.>.j.j.j.g.g.*.>.1.=.;.=.5.5.*.*.1.-.1.5.=.1.=.1.1.1.1.1.1.>.>.>.>.>.$.g.>.g.g.>.g.g.g.>.>.g.g.j.>.g.>.g.>.g.>.g.>.h.g.$.j.j.h.,.h.>.g.,.h.,.j.h.h.h.h.h.h.>.j.h.,.h.h.$.$.x.h.j.j.h.g.,.2.h.r.x.r.h.h.x.h.h.h.k.k.,.<.,.<.,.1.1.1.1.j.j.j.k.j.k.l.l.l.k.k.j.z.j.z.j.j.l.k.k.z.j.j.S.u.k.k.k.z.j.j.j.j.j.j.j.g.j.g.,.h.g.k.k.j.z.j.h.z.x.x.j.k.h.j.h.z.k.z.j.g.g.g.j.j.j.k.j.g.j.1.j.j.1.h.k.h.k.<.j.j.h.j.j.g.g.j.j.j.k.1.1.1.*.1.1.;.1.>.1.>.g.g.g.j.g.j.j.h.g.g.g.%.u.u.g.r.>.g.>.>.g.g.*.:.>.1.>.g.g.>.g.g.*.g.>.g.g.g.g.$.g.g.>.O.>.>.*.o.;.*.=.*.*.*.u.;.*.*.=.*.=.=.*.*.O.O.*.0.O.u.;.g.u.,.$.0.g.r.O.O.O.O.O.u.-.O.%.o.O.*.o.O.=.*.-.-. . . .@.-.-.-.-.-.@.=.@.O.o.*.O.O.O.O.@.O.O.+.O.+.0.",
"bXbXbXjX^ 1 -     - - - - : = = ; $ $ ; * * * > - > - - o + + + O + O O O + + $ % % % + % # $ $ % $ % $ $ + O + + + + + + + + $ > > > ; $ > + + + + ; > > $ ; + 2 6 6 9 q u e e u a a l m M L ~ ~ ^ ^  . .~ ~ ! T L L R E E | ^ ~ ~ ~ ~ ^ ^ ^ | ^ ^ } } } } { | { { | {  .| { } | | @. . .^ -. . . .~ ! -.^ ^ ~ ^ { ~ -.-.^ ^ !  .~  .^ -.~ ^  .-. .-.-.;.-.-.-. .|  .{  . . . .^  .^  . . . .+.&.;.#.-. . .o.o.>.>.>.g.>.g.>.g.g.$.$.$.$.$.g.$.$.h.%.h.x.h.x.h.r.x.x.,.h.,.>.;.>.1.;.>.1.1.;.:.:.:.:.:.:.;.>.g.u.g.u.z.j.g.g.g.>.g.*.g.,.1.>.g.>.>.>.1.>.1.1.1.g.*.>.1.1.>.>.>.>.>.1.>.*.5.*.*.>.;.>.>.>.>.g.g.g.>.>.*.1.=.=.;.=.*.5.=.-.1.-.-.-.-.1.1.1.*.1.*.>.>.>.*.>.*.>.*.*.g.g.g.g.g.g.r.g.>.>.g.g.>.g.g.$.>.>.;.>.>.>.>.h.>.j.h.,.h.j.h.h.h.h.h.h.j.,.j.g.g.h.>.h.h.%.x.h.%.,.h.,.h.g.j.r.x.h.h.x.h.z.x.z.h.h.h.j.<.<.1.1.j.1.<.<.j.j.j.k.j.l.k.k.z.l.z.z.k.k.z.j.k.z.z.j.z.j.j.j.j.<.j.j.j.j.j.j.j.g.j.g.h.g.g.h.h.j.h.z.k.j.k.h.j.x.x.h.x.h.z.h.j.z.k.j.j.g.z.g.>.j.j.j.j.j.<.j.j.j.j.h.j.j.h.h.h.j.j.h.j.g.1.1.j.j.j.1.u.u.1.u.1.1.1.1.,.>.g.j.j.j.g.j.j.z.g.g.g.,.r.$.,.g.>.>.1.;.1.u.>.u.g.*.g.g.1.g.>.>.>.g.*.g.g.$.>.g.>.g.$.g.*.*.*.>.;.u.=.*.*.*.;.>.*.*.*.*.=.*.=.*.*.O.*.>.g.*.=.*.*.u.r.g.r.r.0.0.O.=.+.@.*.o.O.o.O.o.O.o.O.=.=.+.o.@.-.-.@.-.-.-.] -.-.=.-.+.-.*.@.O.O.O.O.O.0.+.O.O.",
"5..X.X5.^ < -   : : - : < - > > $ 2 ; > > < * < < < > > > > < , : : , : , 8 9 9 8 8 , 6 9 9 9 w 8 w w 0 0 0 w w 0 0 q 0 0 0 0 0 0 1 0 u i q u u u u u u i i u i h v c F H m M M L M M L ! ! ~  . . . . . .^ @.^ ~ ~ ~ ^ | | |  .~  .^ { ^  . .|  . .+. . . . .@.@. .+. . . .@.+.| { @. .-. .^ -. . . . .~ -.-.-. .~ -.~ ~ -.! -.! ~ ~  .-. . .-. .~ ^ -. . . . .X.o. . . . . . . .#. .-.*.O.*.*.-.&.;. .#. .;.#.>.;.>.,.g.g.$.>.g.$.>.$.$.>.%.2.%.h.%.h.h.2.h.r.x.h.h.,.>.>.;.>.1.>.1.1.1.:.:.5.:.:.:.:.1.>.>.1.:.*.j.g.z.g.g.>.>.,.g.g.g.u.g.>.*.>.>.*.*.1.*.1.>.1.1.>.>.>.*.>.>.1.g.>.*.*.*.5.>.=.>.*.*.u.:.>.>.g.1.1.*.*.=.-.5.*.*.5.-.1.1.-.1.-.=.1.>.1.>.;.;.>.>.>.O.;.g.>.$.g.>.g.g.g.g.g.g.>.g.>.>.g.>.>.g.>.g.:.>.*.>.g.>.g.g.h.h.j.h.h.j.h.h.h.h.h.,.$.g.>.h.$.,.h.h.%.2.r.r.h.h.j.g.g.x.h.h.t.h.t.h.x.h.j.h.k.h.<.1.<.<.<.j.<.<.<.h.j.j.k.k.z.l.l.l.l.l.l.z.k.j.z.z.j.k.j.j.S.g.j.u.j.j.j.j.j.j.j.g.g.h.g.h.h.h.h.h.h.j.k.g.j.h.h.h.c.z.x.h.h.j.j.k.k.z.k.j.j.g.j.j.j.j.h.j.j.1.k.k.k.h.j.h.h.h.j.j.j.>.j.>.g.u.1.1.>.>.1.1.1.g.1.>.1.g.g.h.j.h.h.z.h.k.j.g.z.z.z.z.z.g.h.>.g.>.>.>.;.:.>.1.>.g.*.g.g.g.:.>.>.O.#.;.g.O.$.$.g.g.>.%.u.g.0.>.u.u.*.g.u.*.u.*.>.*.*.>.=.*.=.*.O.$.r.u.g.*.-.>.$.#.0.r.$.0.0.O.O.O.u.-.=.o.O.O.o.+.=.o.O.=.O. .-.@.-. .-.-.] @.-.@.-.O.@.@.-.@.O.O.+.+.o.O.O.O.O.O.",
"^ ^ ^ -.! : , , , - , - - < < - * * * > < 5 e 1 0 1 0 0 w 0 0 0 r r t i i t t t t t t t t j j g d d g h h c n h n c l n n n n n x n n n m M H J K G H M H H J K R T T Q Q E ! L W W ! ^ ! ~ ~ {  . .^  . . .-. .|  . . .#. .#.&.-.~  . . . . .|  . . . .o.o.o.-.o.O.+.o.+.+.o.=. . . . . .-.^ -. . . . .-.~ ! ^ ~ -.^ -.-.^ -.^  . .~ -.~ -.^  .-.-. . . . . . .o.#.o. . . . . . .;. .-.o.+.*.O.-.;.;.;.:.;.:.,.;.>.>.$.$.>.>.$.$.g.$.$.$.h.h.r.h.h.h.h.%.r.h.%.$.,.$.$.$.#.>.-.=.;.;.;.:.1.:.5.4.4.4.4.,.:.1.*.>.>.g.j.j.g.u.>.g.u.j.j.j.*.g.>.*.>.>.>.1.>.>.>.>.>.g.g.1.g.g.1.*.*.>.*.5.*.*.*.>.*.>.*.g.1.>.>.j.j.j.j.1.1.1.;.*.*.5.=.1.1.-.1.-.1.1.;.;.;.:.>.;.>.>.o.>.*.$.*.>.>.>.g.g.g.h.g.j.>.>.g.>.>.$.>.>.*.>.u.g.>.*.*.*.g.>.>.j.j.j.j.c.h.x.h.h.,.h.$.>.g.>.g.,.h.h.x.%.,.h.,.h.,.j.h.h.x.x.z.z.x.z.z.z.c.h.x.x.k.<.<.j.j.<.<.j.<.k.k.z.j.k.k.z.l.l.l.z.k.l.z.j.j.j.j.j.j.<.u.j.j.<.g.j.j.j.g.g.g.g.g.g.h.g.h.h.j.z.k.j.j.g.h.h.h.h.h.z.k.h.j.j.j.j.g.z.h.j.j.j.j.j.j.j.j.j.j.M.<.k.k.j.,.h.j.k.<.h.k.g.g.j.>.1.;.u.:.>.u.g.g.g.g.j.j.g.j.j.j.h.j.z.l.z.z.z.g.z.z.z.g.z.j.j.>.>.1.,.>.:.>.*.>.>.g.g.*.>.u.>.*.*.u.>.$.O.O.>.0.g.>.;.g.*.>.>.>.:.1.>.;.0.*.*.;.u.*.*.=.$.>.*.*.;.;.#.g.*.u.u.;.>.g.u.$.r.0.O.O.O.@.+.=.+.o.O.o.O.-.+.+.=.o.o.-. .@.-. .-.@.-.-.@.-.-.@.=.+.+.O.+.O.O.O.O.O.O.O.O.",
"L x K x M + - : < > < > < 5 e e w 5 = 5 5 5 1 u a a a a j l n F x m m m K K K K Z Z K K K G K G H m c K K L L R L ! ! ! ! ! K M K L M L ! ! { ^  . . . .-.o.-. . . .~ -.@. . .~ ^ ~ ^ ~ } | } ^ ^ | ^ |  .| | | | ^ } | | ~ | ^ ~ ~ ^  . .{ |  .{ { | {  .@. .o. . . .+. .@...+.+.O.+. .;. .^ ^ -.^ -.;.^ -. .-.-.-.-.-.^  .-.^ -. . .-.@. . .-. . . . .#.-.;.#.#.#.+.+.&. . .o. .o. . .o.o.O.O.O.#.O.o.o.#.O.o.g.>.>.>.$.>.>.$.$.%.,.$.$.%.h.h.r.2.h.r.x.x.h.r.,.$.$.$.;.>.>.;.=.;.1.;.:.:.5.:.:.5.:.:.:.:.,.1.j.*.>.g.>.j.u.z.g.u.g.z.g.,.>.g.>.>.>.;.<.;.:.;.>.1.1.>.1.g.1.1.*.1.*.*.*.*.*.*.*.*.*.=.>.;.g.g.g.g.g.1.j.1.>.1.*.*.u.5.>.1.>.>.>.>.;.>.,.>.;.>.>.>.=.=.1.*.*.>.>.>.j.j.g.>.j.>.j.,.>.h.h.>.h.>.*.>.>.>.>.*.*.*.u.:.;.1.>.g.j.j.h.h.h.h.h.g.>.g.g.,.g.r.>.h.$.h.h.%.h.%.h.h.h.h.z.z.m.z.z.b.z.b.b.l.l.x.l.k.k.k.<.<.<.<.k.M.1.j.M.j.j.h.z.g.z.g.g.j.j.k.j.j.g.z.j.g.k.z.k.j.g.g.j.g.g.g.h.r.h.r.r.g.j.h.z.h.l.l.z.z.j.h.h.g.h.r.z.k.g.j.z.j.g.j.g.g.>.j.h.g.g.g.j.j.j.k.j.j.<.<.M.1.M.<.k.j.j.j.k.k.z.g.j.>.g.g.g.g.g.z.j.z.j.z.k.z.z.h.z.x.h.z.z.l.z.z.z.h.r.g.z.h.h.,.h.;.,.;.=.1.;.>.>.>.g.*.g.>.:.u.*.g.g.g.g.*.$.u.#.$.g.g.>.g.g.g.g.u.#.$.r.*.>.O.*.o.*.;.;.;.=.1.=.*.*.*.#.u.O.>.u.*.*.0.O.=.0.O.+.O.=.=.O.O.O.-.+.-.@.-.o.@.o. .@.@.@.-.-.] -.] -.-.@.=.@.+.O.+.+.0.0.0.O.-.+.=.O.",
"@.Q { ~ @.K K L n m l l l l l J W I W W W L W W L J L L L I Y L L L ! ! ! ! ! ! ! ! K ! ! ! T ~ { ~ } ~ ~ { { ~ { @.@.@.@.~  .-. .| -.~ ~ ^  .~ ~ ~ { ~ ~ | {  .@.-.-. .@. . .-.{ ^ @. .| ^ | ^  . . . . .#. .|  .|  . . . .| |  .{ {  . .|  .| {  .@.| {  . .+.o. .+.@.+.+.+.+.O.+.o.#.^ -.;.;.-.-.^ ^ ;. .-. . .~ -.~ -.-.-. . . . . .-. . . . .o.o.o.#. .#. .#.&.&. .+.&.o.#.o. .o.o.o.+.-.+.O.o.#.&.o.O.#.$.>.$.h.$.>.>.$.>.;.$.;.%.$.,.,.$.$.h.r.h.h.r.h.h.$.>.,.$.#.>.=.;.;.;.;.;.:.:.:.5.:.:.:.;.:.:.:.;.>.>.>.>.g.>.1.g.g.j.z.g.z.u.g.>.g.>.,.1.,.1.,.;.>.1.j.1.j.1.1.*.j.*.*.*.=.*.*.*.1.*.1.;.*.;.u.g.g.g.g.g.j.<.>.>.*.5.*.1.1.>.>.1.g.1.j.,.,.,.,.h.>.1.1.>.;.>.>.>.>.>.g.j.g.j.g.j.,.r.h.>.>.h.>.g.g.g.>.g.>.g.>.>.1.*.1.u.g.j.h.j.h.g.g.$.g.g.g.g.g.g.h.$.h.>.h.$.h.$.r.2.r.x.h.t.x.x.z.z.z.z.x.z.z.x.k.z.h.c.k.c.<.<.1.k.<.k.M.j.k.k.k.j.k.g.g.g.j.<.j.h.z.h.k.j.j.k.k.k.k.j.j.g.z.h.z.h.g.g.>.g.g.h.h.z.k.z.j.x.z.c.l.z.h.z.g.g.g.z.z.j.g.g.g.j.1.>.h.j.g.g.g.h.k.j.j.k.j.k.N.j.1.<.1.j.1.1.k.1.j.k.k.j.j.,.u.g.j.g.u.z.z.k.z.l.j.z.l.x.z.z.z.x.m.z.z.F.h.z.h.h.j.h.>.h.>.,.$.,.1.;.*.*.*.*.>.>.g.>.$.g.r.>.0.0.0.g.*.>.;.g.g.g.>.u.g.z.j.$.u.O.r.O.O.O.$.>.*.>.=.;.=.*.*.*.*.>.>.*.>.#.#.>.0.O.*.u.=.=.=.=.o.O.=.=.*.@.O.=.+.+.o.o. .-.-.-.@.-.-.@.-.-.] -.-.@.u.@.+.=.+.0.O.+.+.+.O.=.=.",
"~ { { @.~ ! L ! L L J L W W R W E ^ E ^ E ^ ~ ~ ^ ^ ~ ^ ~ ~ ~ [ ~ ~ ~ ^ { ~  .~ ` ~ Q ` ~ ~ { ~ } ~ ~ ~ ~ ~ Q Q ~ ~ ~ @.~ @.! ^ ^  .~  .^ ! ~ ~ ! ~ ~ Q ~ ~  .~  . .@. .@. .@. .^ | | |  .| | |  .&.| &.&. .X. . . . .o. . . .| | |  . . .X. .+.o.o.o.o.o.*.*.*. .+.+.o.+.+.+.+.O.o.o.+. .&. . .^ -.^ ;.;.-. .-. .-. .-.-.-.-.-.-. .-.-.o.o.-.-.;.#. .#. . . . .o.#.o.o.o.o.o.#.o.o. . .+.+.-.O.o.$.O.o.o.$.$.$.>.,.g.>.>.$.>.$.$.;.%.;.$.%.,.r.h.h.h.h.h.h.t.h.,.%.#.>.;.>.;.;.;.-.;.;.:.:.:.:.:.:.:.:.;.:.;.;.1.>.;.>.*.g.g.j.g.g.g.h.g.g.g.g.g.,.,.1.1.;.,.;.1.g.1.1.1.1.u.:.1.*.1.*.=.*.*.*.*.*.;.1.>.1.g.>.>.g.g.g.>.>.;.1.j.*.1.1.>.j.,.,.j.j.,.,.,.h.h.,.>.>.1.;.1.>.1.,.<.j.j.g.j.h.j.j.h.h.>.h.h.$.g.,.>.g.>.>.g.g.>.g.u.*.j.g.j.j.h.h.h.h.h.g.,.g.g.>.h.h.>.h.r.h.g.$.2.h.h.h.,.,.h.x.z.x.z.x.z.m.h.l.l.h.k.k.k.h.h.h.j.1.<.<.1.k.j.k.k.k.j.k.k.z.z.g.u.<.j.j.z.k.k.k.j.z.z.l.z.l.k.z.h.h.h.j.h.g.r.g.h.g.j.h.h.h.h.z.k.k.h.h.h.j.j.j.j.k.j.j.j.j.g.g.j.,.g.j.h.j.j.z.k.z.k.j.k.<.<.1.<.<.1.<.M.1.j.k.k.k.k.j.j.j.g.g.z.g.j.h.z.z.l.z.z.z.j.z.z.b.z.m.z.z.b.z.z.x.h.h.h.h.h.h.,.>.;.,.>.1.=.1.>.>.>.g.>.>.g.O.u.;.>.g.>.g.g.0.g.0.g.g.g.z.z.g.g.g.O.>.O.O.O.$.O.>.>.;.=.=.*.=.>.*.*.*.>.O.*.u.$.*.$.>.u.#.O.=.=.-.-.=.=.=.*.*.O.@.-.@. .@.o.@.@.-.-.-.@.-.-.-.-.-.] -.+.O.O.O.O.O.@.O.+.+.O.+.O.",
"+.-. .-.{  .~ ! ! L L L Y W E E E E _ E ^ ^ E ^ ^ ^ ^ } | |  .|  . .-.^  .@. .~ @.~ Q ~ ~ ~ { { @. . . .~ ~ ^  .~ ~ ~ ~  .~ -.^ ~ ^ ~ ^ ~  .~  . .{ ~ ~ { {  .{ @. . .@. . . . . .| |  .|  .| | |  .&. . .&. . .&. .&.o.o.o. .| X.{ |  .&.+.X.+.+.+. .X.+.+.+.O.o.o.#. .O.O.O.O.O.%.o.&.-.&.;. .-.-.-.;.-.-.-. .-.^ -.-.-.~ ^ -.@.-.-. .-.=.=.+.-.;.;.o.#.#.#.#.#.&.&.#.o.#.$.#.o.;.;.-.-.-.+.-.O.#.#.o.o.O.$.$.g.$.$.,.>.g.>.r.$.%.;.%.$.,.$.$.h.x.r.x.h.h.r.h.r.,.;.>.>.;.*.;.;.1.-.;.;.;.:.:.:.:.:.:.;.:.>.1.1.>.:.1.u.g.g.g.g.z.z.u.z.g.g.>.g.j.j.,.,.<.,.1.>.1.>.j.1.1.1.1.1.1.*.*.5.*.5.*.1.1.u.1.*.g.g.>.>.g.g.g.1.,.>.,.1.1.1.1.>.g.,.j.,.>.,.j.,.>.h.,.,.>.,.,.>.j.j.j.j.j.h.h.k.c.z.h.h.h.h.h.h.h.>.h.>.g.g.g.g.>.>.h.5.1.j.k.j.k.h.j.h.h.g.h.g.g.g.g.h.g.h.g.j.>.h.h.r.h.$.h.h.t.x.h.z.t.h.x.z.k.k.c.l.x.h.k.h.k.j.j.<.1.k.1.k.<.k.1.k.k.j.z.z.g.k.z.z.z.k.z.k.z.z.j.j.j.k.z.k.l.z.k.z.l.h.j.h.h.h.h.h.h.h.h.h.l.k.h.c.z.k.h.h.h.k.z.g.g.g.j.j.g.j.g.j.j.j.j.j.j.l.l.k.k.k.k.<.<.1.<.M.1.k.1.M.1.k.j.j.k.k.g.z.h.j.j.z.z.j.k.k.z.z.k.l.k.z.z.z.z.z.b.b.z.z.z.z.z.z.h.h.h.h.g.g.,.,.>.>.*.>.>.*.>.>.*.*.g.*.r.>.$.0.g.g.g.g.g.g.g.g.g.g.j.z.g.g.r.g.0.O.O.O.O.=.=.>.=.1.=.;.;.=.1.*.*.>.*.>.*.0.g.#.u.>.#.*.O.=.O.o.=.y.=.*.=.=.-.+.+. .o. .-.-.-.-.-.=.-.=.+.-.-.-.-.=.O.*.@.O.@.O.O.+.-.-.+.+.",
"{ | } { Q { ~ Q ^ ~ R R Q E E E | _ } ^ | ^ ^ ^ ^ ^ ^ ;. . . . . .^  . . . . .~ ~ ~ ~ ~ ~ @.~  .} } { ~ } ~ } }  .^  .{ ^ -.^ ^  .^  .^ -.^ -. . .{  . .^  . . . . .^  . . . . . .|  .| |  .&.| &.&.&.#.&.#.#.#. . .#.#.#.o. .X. .|  .+.&.o.o.o.o.o.o.o.+.o.#.o.#.#.o.o.O.O.O.O.%.O.O.o.o.o. .-.-.-.:.;.o.;. .o.-.-. . .-.-. . .o.o.o.;.=.=.o.o.o.#.#.#.#.o. .#.;.^ &.;.&.#.;.;.;.-.-.-.-.-.-.-.=.*.#.o.o.#.>.>.$.,.>.$.;.>.>.>.,.$.$.$.$.>.>.,.h.h.h.h.h.h.,.h.>.$.,.$.>.>.>.>.1.-.*.;.$.;.;.;.:.;.;.;.1.>.>.>.g.1.g.g.g.g.g.g.g.g.g.g.g.*.g.g.j.j.h.,.,.,.j.,.>.,.,.g.j.1.g.>.>.g.>.>.>.>.>.g.1.*.1.j.h.>.g.g.g.j.,.g.,.g.,.>.j.1.,.,.j.,.h.,.j.,.,.,.h.,.,.,.,.,.j.h.,.h.,.,.h.h.h.k.l.x.h.l.h.h.,.h.g.h.>.>.j.h.>.g.j.h.g.j.k.j.k.j.z.j.h.h.h.>.h.g.g.,.g.g.h.j.h.h.,.,.g.h.,.h.$.%.h.h.h.h.h.h.h.h.x.h.k.h.h.h.h.k.j.1.j.1.1.<.k.1.k.k.k.k.j.k.z.j.k.k.j.z.j.z.z.z.z.l.j.z.z.z.l.z.l.z.z.l.c.k.h.l.h.h.j.j.g.h.g.j.h.h.k.h.k.z.j.z.z.h.k.k.j.j.j.j.j.j.j.j.j.j.j.k.z.l.j.l.k.k.k.j.k.1.1.<.1.1.M.1.j.<.M.1.l.l.j.k.k.j.g.z.z.k.z.z.j.l.j.z.l.x.l.z.b.x.l.z.z.z.l.z.l.z.l.h.g.h.h.h.,.>.>.,.1.>.*.;.*.>.>.>.>.>.u.#.#.;.g.r.g.g.g.g.g.g.g.g.g.z.g.g.g.r.>.>.*.$.$.O.$.>.o.=.;.>.=.*.*.*.*.*.*.>.*.*.r.*.u.>.*.#.#.;.*.=.-.o.@.=.*.@.=.O.-.+.@.-.@.=.-.=.=.u.=.=.=.=.O.O.O.o.@.=.O.+.+.-.O.+.+.o.o.@.=.",
"+.o.@. .} o. . . .} { ~ } ^ } { | | | ~ ^ | { ^ -.^ &.^  .&.&.^ &. .&. .~  . .{  .-. .~  .@.@.@. . . . .| |  . . .|  .^ -.^ ^ -.~ { ^  .~  . .~  .| ^  . . . . . . .-. . . . . .#.&.&. .&.&. .&.&.#.#.&.#.&.&.#.%.%.&.#.#.o.&.o.#.+.+.%.%.&.+.%.%.>.$.>.;.j.>.>.;.#.#.#.#.%.o.%.$.O.$.o.o.o.o.o.-.:.-.-.=.=.-.o.-. . .-.;.^ ;.-.o.o.o.-.=.o.=.=.-.#.;.o.o.#.;.;.;.;.;.&.#.#.o.#. .;.&.-.-.-.;.-.#.#.;.$.>.$.;.>.>.;.>.>.,.>.,.>.$.;.>.$.>.,.r.,.>.,.g.h.h.r.g.$.;.$.$.>.=.=.>.*.=.1.>.>.$.>.$.>.:.;.1.1.*.>.>.g.g.g.g.g.j.g.>.g.g.g.g.g.g.g.j.g.h.j.h.g.g.,.j.,.j.,.j.,.>.j.>.j.1.>.1.>.1.g.1.>.1.j.1.j.j.,.h.g.j.g.>.h.,.,.,.,.1.j.j.,.,.h.,.j.h.h.h.<.h.h.h.x.2.<.,.,.,.,.j.x.h.h.x.x.z.k.l.b.j.h.j.h.h.>.>.h.,.g.g.j.,.j.j.j.j.g.k.k.h.k.j.j.h.,.g.,.>.j.g.,.j.,.h.j.h.h.h.,.h.2.x.h.,.<.x.x.h.h.h.h.k.h.h.k.j.h.j.<.j.1.1.>.1.k.<.k.1.M.k.<.k.k.k.k.k.z.l.l.S.z.k.l.z.k.z.z.z.l.j.z.z.l.z.k.z.k.h.h.h.j.h.h.h.h.h.z.l.h.j.z.k.h.h.h.h.k.k.z.j.z.j.j.j.j.k.j.h.h.j.h.k.k.l.h.k.k.k.j.j.1.M.1.<.M.1.M.1.M.j.M.k.j.l.j.k.<.z.j.k.z.l.z.z.z.S.z.l.z.l.l.z.z.z.z.z.z.z.l.z.z.h.z.h.h.j.h.>.,.,.>.>.1.*.1.>.O.*.>.g.*.>.>.u.g.g.g.g.g.z.g.g.g.g.g.g.g.g.g.u.g.*.>.g.*.>.O.=.o.;.=.=.*.*.;.>.1.*.*.*.O.*.*.>.;.;.$.*.u.>.*.*.*.*.o.=.=.*.*.@.O.+.+.=.+.=.*.-.@.-.-.*.o.O.*.=.=.=.o.=.*.O.-.=.@.@.=.-.@. .-.@.",
"+.+.| X.~  .{ { {  . .@.| @. .@.| |  .|  . . . .-.^ ^ ;. .&.^  .^ &.|  . . . .{  . .@.@.{  . . . .{ | | |  . . . . .-. .;.^ :.^ -. . . . .o.-.-. . . . . . .^ -. . . . . .&. .#.#.#.#.&.#.&.&. .&.&.&. .&.#.#.&.#.%.%.#.#.&.#.o.&.o.&.&.%.&.%.%.%.O.%.O.#.O.%.o.:.#.#.#.#.%.O.O.O.O.O.o.o.o.o.o.-. .-.;.=.o.#.-.#.o.-. .;.-.;.;. .-.-.#.#.-.o.-.;.;.;.;.;.#.#. .;.;.;.;.;.;.o.#. .;.-.-.;.;.;.-.;.$.>.;.>.,.>.>.;.,.,.>.,.g.>.,.,.$.;.,.r.,.h.>.r.,.,.g.g.,.$.,.$.;.o.;.$.o.>.$.;.*.>.$.>.g.$.$.*.1.=.1.1.g.j.>.g.j.j.j.g.>.g.>.*.g.g.g.g.,.j.j.j.j.j.g.g.>.g.j.,.,.,.h.j.,.<.,.>.g.>.j.>.g.h.,.>.,.k.1.h.h.h.j.h.h.j.h.,.j.,.h.j.,.j.h.h.h.2.<.x.<.h.x.h.x.h.x.2.h.x.%.h.,.h.%.,.%.x.z.x.x.b.x.h.h.h.j.,.h.>.h.>.g.,.h.j.j.j.j.k.k.k.l.j.j.h.,.>.g.g.,.j.j.g.j.,.h.h.h.h.k.j.h.h.r.r.h.h.h.h.h.x.j.h.,.h.k.h.k.j.,.<.<.1.j.k.1.k.k.k.<.M.M.k.k.l.k.k.l.k.k.k.z.z.l.l.z.S.j.k.z.z.k.z.j.z.k.j.z.h.z.k.j.z.k.j.z.j.j.k.h.h.l.z.j.h.h.j.h.h.h.g.k.z.j.l.j.k.l.j.l.k.k.j.k.k.k.k.j.M.j.k.j.k.1.j.<.1.<.M.u.M.j.j.l.l.j.l.j.M.u.l.j.k.j.k.l.k.k.j.k.z.j.z.z.z.k.h.h.h.z.h.z.h.l.h.j.j.h.j.j.j.,.h.j.1.>.>.>.*.>.>.*.g.>.g.>.g.g.g.g.g.g.g.z.j.g.g.u.g.*.g.g.;.;.u.:.g.$.>.>.=.*.*.#.=.1.;.*.*.1.*.1.*.*.>.*.u.;.>.:.$.;.*.g.*.*.*.=.=.O.@.@.-.*.*.O.O.+.=.@.=.@.@.=.O.O.>.o.*.=.=.*.+.@.-.=.-.-.@.@. .@.+.-.O.",
"X.X.| | @. . . .{ @.@. .{ { @. .| | {  . .| | | ^ ;.&. .&.^ &.&.&.&. .^  . .|  .@. .@. . .{ ~  .+. . . . .#. . .&.#. . .^ ;.^ ^ ^  . . . . . . .#. . . .o. .;.^ &. .&. . . .#. . .#.&.#.&.#.#.&.#.&.#.&.&.#.%.$.#.#.&.#.&.o.#.#.o.&.o.%.o.o.o.o.O.%.#.O.%.%.o.o.#.#.;.#.#.O.$.$.O.O.O.O.o.o.+.o. .-.-.-.*.*.o.o.-.-.-. .;.^ ;.^ #.-.o.o.;.o.;.#.;.#.;. .;.;.;.;.&.;.&.;.-.&.;. .-.-.&.;.-.-.;.-.#.$.>.>.h.>.,.h.>.$.>.>.>.>.,.j.>.,.,.$.,.j.h.h.>.h.h.h.$.>.$.$.;.#.>.#.#.>.O.>.*.>.>.>.r.>.g.g.j.1.1.u.g.g.g.j.g.g.j.j.h.j.>.,.>.>.$.>.>.j.j.k.j.g.,.g.g.g.g.g.h.j.j.,.,.j.,.g.,.>.,.>.,.>.,.j.j.<.k.j.h.j.h.,.h.h.h.h.,.h.h.x.,.j.h.,.j.,.h.x.3.h.3.h.<.h.,.<.h.x.h.x.,.,.2.%.h.x.h.x.x.x.z.x.k.h.h.h.j.h.g.>.h.,.>.g.g.<.h.j.k.g.k.k.h.g.h.>.h.>.h.j.,.h.<.j.>.h.h.h.h.h.h.h.,.h.2.,.h.h.x.h.<.<.<.x.<.c.<.k.,.<.<.>.<.j.1.1.k.<.<.M.k.k.k.M.l.l.k.l.z.k.k.k.k.l.z.l.k.z.z.j.k.z.z.z.u.<.z.j.k.j.h.j.j.k.h.h.j.j.k.l.j.k.k.h.h.j.h.h.h.j.j.j.k.k.j.l.j.k.l.k.k.j.j.j.j.j.j.j.j.k.j.j.1.M.1.<.j.M.5.5.k.k.l.l.l.l.j.M.l.j.z.j.l.S.k.z.l.S.k.z.z.j.j.g.k.z.j.l.h.z.l.z.h.h.z.h.j.h.h.h.h.j.g.>.g.>.1.*.>.*.>.*.>.g.>.g.g.g.g.,.g.g.g.h.j.g.>.%.g.>.O.>.>.;.>.1.>.*.o.>.>.>.>.>.1.*.1.;.*.*.>.*.>.*.*.>.O.>.>.u.g.;.u.>.>.>.=.=.*.=.*.=.=.@.=.*.=.=.*.@.=.=.=.@.o.o.O.;.u.*.O.*.-.O.-.@.@.-.-.-. .o.@.o.=.",
"+.X.X.X. . .{ { ~ @.-.@. . .@. .+. . .+.X. .X. .;.&. .&.&.&.&.&. .&.X.| &. .+.o.-. . .@. .{ ^  .|  . .X.+.o.o.+.o.#. .#.&. .^ :.-. .#.#.o.#.#.#.#. .#. .;.;.&.-.-.&. .;.;.;.;.;.;.;.&.;.#.#.#.#.#.&.#.%.%.%.#.%.%.%.;.#.%.#.$.#.#.#.#.#.#.$.#.#.#.$.#.o.#.#.*.#.#.#.#.#.#.#.>.;.*.$.*.o.O.o.O.O.-.o.O.*.*.O.o.=.#.o.#.;. .;.;.;.#.o.;.;.;.;.;.;.#. .;.;.;.;.;.;.;.;.&.;.-.;.&.-.-.;.^ ;.;.;.;.;.;.>.,.>.<.<.<.j.>.<.>.<.;.,.;.>.$.g.j.j.j.,.,.>.>.,.,.$.>.$.>.#.>.;.#.#.O.;.>.$.O.$.r.r.g.g.r.r.u.;.u.>.j.g.g.g.g.g.$.g.$.,.r.>.$.>.>.>.g.j.h.k.j.h.j.h.j.g.g.g.>.>.j.,.,.h.h.,.h.g.h.,.>.h.>.h.,.$.h.h.,.h.x.,.,.h.h.<.h.h.j.,.h.,.,.,.,.>.j.>.,.j.,.j.,.j.h.2.x.,.h.h.h.,.h.r.z.h.h.x.z.x.z.k.h.j.j.h.,.,.h.h.h.k.h.k.h.k.h.k.j.j.,.,.>.,.g.,.j.j.h.<.h.h.k.h.h.h.,.,.,.h.h.h.<.h.h.<.<.h.h.h.,.<.<.<.,.<.,.<.<.j.<.j.<.j.k.k.k.k.<.N.k.k.M.c.k.k.k.g.z.k.k.k.l.l.z.z.z.l.z.z.z.j.z.z.z.z.g.h.g.g.g.j.j.k.k.k.h.k.h.k.k.j.j.j.h.h.j.h.,.j.j.h.j.k.g.g.j.j.j.j.g.j.j.j.j.j.1.j.j.k.k.k.j.M.M.j.M.j.k.M.l.l.k.M.l.M.j.j.l.j.l.l.l.k.k.z.k.z.k.z.j.h.g.g.z.k.z.k.z.k.z.l.z.k.z.h.l.x.l.h.j.j.j.g.>.g.1.u.:.>.*.*.>.g.>.>.g.g.u.1.u.g.g.g.g.u.:.>.$.*.>.>.*.>.*.*.O.o.>.;.;.=.>.O.>.=.>.*.*.1.*.1.=.>.*.1.*.;.>.*.O.u.#.>.*.*.>.*.=.O.-.O.=.=.=.*.=.O.=.O.=.*.O.O.O.$.r.>.0.>.=.o.-.=.-.@.-.-.-.@.=.-.=.O.+.",
"X.+.X. .| |  .@.-.~ @. .-.@. .@. . .+. . . . . . . . .&. .&.&.;.&.&.&. .|  . . .@.@. . .~ @. .^ |  . .+.o.o.o.&.&.&.&.&.&.#.;.;. .-. .o.o.#.-.#.;.o.#.o.^ -.-.;.&.-.^ &.^ ;.&.&.&.;.;.&.#.#.&.#.#.#.%.#.%.#.%.#.$.;.$.#.;.#.#.#.$.#.$.#.$.#.$.#.$.;.#.o.O.#.;.#.#.#.&.-.#.;.#.;.>.*.$.O.*.O.*.O.O.*.O.>.>.O.$.>.;.=.;.o.#.#.;.&.;.#.#.#.#.;.;.;.#.#.;.;.;.;.;.;.;.;.;.-.;.;.;.;.&.;.-.;.;.;.;.5.,.;.>.,.,.>.,.,.<.,.,.>.,.>.<.>.>.>.,.,.,.j.>.>.,.>.>.>.$.;.>.$.;.*.$.;.>.#.$.>.$.$.g.g.z.g.g.g.g.g.g.g.g.g.g.g.g.g.h.h.h.>.>.,.>.>.>.>.>.j.j.h.j.j.j.g.g.g.z.g.g.h.g.h.h.,.g.h.h.h.h.h.h.h.h.$.$.,.%.h.h.2.x.h.<.x.h.h.h.h.h.j.x.j.h.h.,.,.,.,.,.,.,.j.h.,.j.,.h.,.h.x.h.h.$.,.x.h.x.x.x.z.c.z.h.j.j.>.g.j.h.j.k.h.j.h.j.<.h.j.h.h.h.j.,.<.,.j.j.<.h.j.<.k.k.3.,.,.h.,.,.h.,.x.h.,.<.h.h.<.h.3.,.<.,.<.1.<.<.,.j.<.k.<.k.<.1.<.k.j.j.k.k.k.k.k.z.k.k.k.k.k.z.g.z.z.l.l.l.z.z.k.z.z.j.k.z.g.z.g.j.j.,.j.j.h.h.j.j.h.k.k.j.k.j.g.h.j.h.j.h.j.j.j.h.h.j.j.j.j.z.j.k.g.j.g.j.1.1.g.1.j.k.k.M.1.j.M.j.M.j.l.j.M.k.l.l.j.j.l.j.l.j.l.k.k.S.l.k.j.S.l.z.g.j.z.j.z.S.k.l.k.l.z.z.k.j.j.k.h.l.k.h.k.j.g.1.g.g.1.;.>.>.>.g.>.g.g.g.*.1.g.,.g.g.g.g.g.>.>.g.*.g.*.>.>.>.>.;.;.;.=.>.=.=.>.=.>.>.=.=.*.=.=.>.=.*.1.1.u.>.*.>.O.;.o.>.*.*.*.=.*.O.O.y.=.=.*.=.*.O.o.=.O.=.O.O.O.$.>.$.*.O.O.*.*.*.=.=.-.=.=.-.+.=.@.-.",
"&.&.X.X. .{ {  .~ -.~ -. . .@. . .o. . .&.+.o.+. . .&.#.&.&.-.&.o.&.&.&.&.&. .o. . . .~ -. .^  . . .+.o.%.+.%.+.O.+.&.o.&.&.;.^  .o.#.#.o.#.;.o.;.#.o.o.;.;.;.;.-.&.;.;.-.&.^ ;.-.&.;.&.#.#.#.;.#.#.#.%.%.#.:.%.#.#.#.#.$.#.#.#.#.;.#.$.;.$.>.>.;.$.>.*.$.=.o.o.#.#.o.#. .;.#.o.$.*.>.O.*.$.$.*.>.r.*.0.*.>.>.>.>.:.;.;.;.&.;.-.#.;.;.;.#.;.:.;.;.&.;.;.;.1.-.;.;.:.;.;.;.&.;.;.;.;.;.;.;.;.:.:.;.,.;.>.>.<.,.>.>.,.j.1.>.>.,.;.,.>.,.g.,.g.>.,.>.>.,.;.#.>.#.o.=.;.;.=.#.o.;.$.>.,.g.h.g.g.j.g.>.g.g.g.g.>.>.>.h.>.,.h.h.$.h.,.h.j.j.g.g.h.j.h.j.h.j.j.1.j.u.j.g.h.g.j.h.j.j.j.h.j.h.g.h.>.r.,.h.,.r.,.<.h.<.h.<.<.k.h.k.k.k.h.,.j.,.,.g.>.g.>.>.g.,.>.,.>.,.j.g.g.1.<.h.h.h.h.h.h.j.z.x.l.z.j.j.j.,.g.g.,.j.j.h.j.j.k.h.h.h.h.h.3.x.,.<.h.<.<.j.<.k.<.<.h.c.h.,.h.,.$.,.,.<.h.<.h.h.h.h.k.j.<.h.<.<.<.<.,.>.<.<.j.k.j.k.k.j.k.k.j.k.j.j.k.k.k.k.k.k.k.k.j.k.k.k.k.z.k.k.j.l.k.l.k.z.k.k.g.j.j.g.j.h.j.j.j.k.g.j.j.j.j.k.j.j.k.h.h.j.h.,.j.h.j.j.k.k.k.j.k.j.k.j.j.j.g.5.1.j.1.1.j.j.j.M.M.M.M.k.l.j.j.l.l.M.l.j.l.l.k.l.j.M.l.l.z.k.l.k.k.j.j.g.g.j.g.j.j.j.k.z.k.k.k.k.g.z.k.l.j.z.k.l.h.k.z.g.g.g.j.j.g.j.g.j.g.>.j.g.g.g.g.z.0.g.z.g.g.g.>.g.*.>.*.>.*.*.1.>.-.;.;.*.;.>.*.>.=.*.=.=.1.=.;.;.1.*.*.u.>.*.*.;.>.>.*.*.*.>.>.*.*.=.*.o.-.*.*.*.=.*.*.*.O.O.O.$.$.O.O.O.O.O.O.O.*.=.=.O.=.o.=.-.O.@.=.=.",
"X.+.+.X. .{  . .-.~ -.^ ~  .-. .+. .+.o. .o.+.&.&. .#. .;.;.&.;.%.#.&.+. . . .+. .-. . . . . . . .-.*.O.O.O.+.r.%.+.%.&.;. .&.;.#.o.o.#.#.#.o.#.o.#. .#.^ ;.-.;.;.-.&.-.&. .;.;.&.-.&.-.#.#.#. .#.&.#.%.;.#.#.:.$.o.$.$.#.$.O.#.$.$.$.>.#.>.;.>.>.>.>.#.>.o.>.o.o.#.#.o.;.#.#.;.>.$.O.>.O.>.>.$.>.>.>.>.>.>.>.>.;.:.;.1.;.;.;.;.&.#.;.#.:.;.#.;.;.;.;.;.;.1.1.;.;.:.^ ;.;.;.;.;.;.;.;.;.;.;.;.;.;.>.>.,.;.>.;.,.,.>.,.,.;.,.>.,.g.$.g.>.>.,.g.,.>.>.$.;.>.#.;.;.;.>.o.;.>.$.>.$.,.g.h.h.g.g.j.g.g.g.g.>.g.g.>.r.g.h.h.$.>.h.h.r.h.,.j.j.h.j.j.j.l.z.j.j.j.1.5.k.>.j.g.,.j.j.,.>.h.j.h.h.,.g.,.g.r.h.2.h.x.h.<.<.k.3.h.k.k.c.j.h.h.,.j.>.h.,.1.g.,.>.>.g.j.j.>.,.1.j.j.<.h.>.g.g.g.k.z.k.l.z.k.j.j.j.h.g.j.j.h.h.h.k.h.h.h.h.k.x.x.h.x.h.h.h.j.k.k.j.k.j.k.k.k.k.x.2.,.h.h.,.3.h.h.k.h.c.c.h.k.N.k.<.<.<.h.j.j.1.j.<.<.j.1.j.j.j.j.N.<.k.j.k.j.k.k.j.j.g.g.g.k.g.g.k.k.k.l.k.z.l.k.l.l.k.z.k.k.j.j.j.g.g.g.j.g.g.j.j.j.j.j.k.k.g.h.h.j.h.h.h.j.j.z.k.k.k.k.k.k.k.z.z.g.j.u.j.1.*.*.1.j.1.j.M.1.M.l.j.l.M.l.j.M.M.M.l.l.l.l.l.j.j.k.k.k.j.z.l.k.k.j.k.j.j.j.j.j.j.l.k.k.z.k.k.k.k.h.l.k.l.k.l.k.k.j.g.j.g.j.j.j.j.j.j.j.>.j.1.g.g.g.g.g.g.g.g.*.g.>.>.>.>.>.*.1.;.;.>.;.;.;.>.>.*.*.>.*.>.=.*.1.=.=.;.1.*.:.>.O.g.#.u.*.*.*.*.*.;.*.*.*.*.*.=.*.=.u.-.u.-.O.*.O.O.0.O.$.%.O.O.>.O.*.O.O.O.O.*.*.=.O.O.=.=.@.",
"X. .+. . . . . .-.^ -.-.^  . . .o.o.o. .+.o.o.+.+.+.0.&. .#.#.#.$.o.o.o.o.@. .-.-. .-. . . .#. .o.o.o.O.+.+.O.0.0.O.&.+.&.#.#.&.#.#.%.o.o.$.#.#. .#.-.;.&.;.:.;.&.-.^ ;.;.-.^ ;.-.-.;.-.&.-.#.#.o.#.#.#.#.#.$.o.#.O.;.o.o.;.o.*.;.>.#.=.>.;.>.=.>.=.;.*.=.=.-.o.o.=.$.o.O.o.$.#.>.;.g.$.>.>.r.>.$.>.$.;.$.;.;.>.:.,.:.=.;.;.;.;.;.:.;.:.#.:.#.:.;.;.;.1.;.;.;.;.-.;.;.;.-.;.&.-.;.;.;.;.;.;.;.;.;.,.;.;.,.,.>.;.<.>.,.;.>.,.,.;.>.,.$.g.,.>.,.>.;.>.;.;.;.;.;.=.;.=.>.=.>.$.,.,.,.h.,.g.j.j.g.g.h.j.,.>.>.>.,.>.h.,.h.x.h.h.h.h.h.h.j.h.h.j.j.h.h.k.k.j.j.j.j.*.k.g.j.g.j.g.g.j.h.h.h.j.h.h.h.h.h.h.,.j.<.h.<.k.k.N.j.j.l.k.z.k.k.h.j.<.1.g.1.1.*.1.1.5.>.g.1.j.*.1.j.5.j.j.j.1.j.g.z.k.N.j.k.z.j.j.j.j.j.j.j.j.h.k.<.h.k.h.h.h.x.<.,.x.<.j.<.k.<.k.j.k.k.<.c.<.x.,.,.,.,.x.,.x.c.<.<.k.k.3.k.3.3.h.<.h.<.<.j.j.j.<.j.k.g.k.h.j.k.h.k.j.j.h.k.k.j.<.j.<.j.j.j.,.j.k.k.k.k.l.k.k.l.l.k.l.k.k.k.k.j.j.<.j.<.1.j.>.g.1.j.j.<.j.j.j.<.j.j.j.,.h.j.j.j.k.N.j.M.j.k.k.j.j.j.j.j.u.1.j.<.1.u.5.5.M.5.M.k.j.k.l.l.l.M.l.k.l.l.l.l.l.k.l.k.z.k.l.z.k.l.k.j.j.<.u.j.u.k.k.k.z.k.k.k.h.k.k.l.l.k.l.l.z.k.k.j.j.g.g.j.j.k.k.k.j.j.j.1.j.g.g.g.g.g.g.g.g.g.>.g.*.*.>.>.1.*.;.:.;.;.;.1.;.>.>.>.>.;.>.1.*.*.*.=.1.=.1.;.*.>.*.u.;.:.*.*.>.>.*.*.;.*.*.-.=.*.-.*.*.u.*.u.=.O.O.O.0.O.O.O.#.O.O.0.o.O.O.O.O.O.O.O.*.O.=.u.",
"+.+.+.@. . . .-.-.^ -.^ -. . .-.o. . .#.+.%.+.+.r.+.%.+.#.#.O.#.o.O.O.o.+.O. . . . . . . . . .#. .o.o.o.+.O.O.O.%.0.r.%.%.&.#.#.#.#.o.%.o.#.#. . .#.&.-. .;.^ ;.;.;.;.-.;.^ -.;.-.&.;.;.&.-.;. .o.o.#.o.#.#.$.;.#.o.o.>.*.o.>.#.=.;.>.;.=.;.=.>.;.>.=.=.=.o.=.o.o.*.;.>.>.*.;.o.$.;.>.>.;.$.,.$.,.,.$.;.;.;.,.;.1.1.;.;.;.-.;.;.;.:.:.:.:.:.;.;.;.:.:.;.;.;.;.-.-.-.;.^  .;.;.-.^ ;.;.:.;.;.;.;.>.;.>.>.>.;.>.,.;.>.>.,.,.<.>.,.j.h.g.,.g.,.g.,.,.,.>.,.:.;.;.>.*.>.;.>.,.;.,.h.,.$.h.;.>.1.>.>.,.>.,.,.>.r.r.h.,.r.h.h.h.x.h.h.h.h.h.k.h.h.j.k.k.k.k.k.k.j.j.j.j.k.j.j.g.j.g.g.k.h.h.h.h.h.h.h.h.k.h.h.h.h.k.<.5.k.k.N.k.k.k.j.k.h.j.,.g.1.g.g.j.1.1.u.j.1.5.u.M.*.j.u.k.j.j.5.z.j.l.j.u.M.k.k.h.j.j.j.h.>.j.h.k.h.h.h.h.h.h.x.x.2.2.x.2.<.h.<.k.<.1.N.k.c.k.k.x.x.2.<.,.<.3.<.<.h.c.<.<.k.h.c.k.<.k.<.j.<.<.j.j.j.j.j.k.j.k.j.j.j.h.j.j.k.j.h.k.k.k.j.j.<.j.h.<.j.k.j.k.k.k.N.k.k.k.M.k.j.l.k.k.j.j.<.>.j.j.j.1.j.g.j.j.j.j.1.h.,.,.j.,.<.<.j.<.k.k.k.M.M.M.k.j.S.j.1.1.5.j.1.M.1.1.1.*.1.u.M.S.z.l.k.l.l.M.l.l.l.M.M.l.l.j.j.l.k.l.k.l.k.M.k.M.k.j.M.j.l.j.k.k.l.k.k.z.l.l.l.l.k.l.k.l.l.k.z.j.g.g.g.>.k.j.j.j.j.g.j.g.g.j.g.g.g.g.r.g.0.>.g.g.>.g.1.1.>.1.1.1.;.1.1.1.1.g.1.>.g.1.1.1.1.1.1.1.=.1.*.>.1.>.*.>.>.>.*.*.*.*.>.u.;.>.*.u.=.*.u.*.=.o.*.o.O.O.0.O.%.$.0.O.%.u.g.u.=.g.*.>.#.*.O.*.*.*.*.=.",
" .X.+.o. . .-. .-.-.^ -.-. . .&. .#. .#.o.+.+.+.0.+.+.r.O.0.O.O.o.o.=.+.o.+. .@. .-. .-.o. . . .-.-.o.+.+.O.0.0.0.%.0.O.%.#.#.#.o.o.&.#.#.&.o.&. . .#.&.;.-.;.;.;.;.;.;.;.-.-.;.-.-.-.^ ;.;. .#.#.#.o.$.>.=.>.o.#.*.o.=.o.*.>.o.=.;.o.=.;.*.;.=.=.=.=.o.=.-.=.=.*.>.>.*.;.>.*.>.$.>.$.,.$.,.$.#.,.#.%.;.#.,.;.,.1.;.1.;.;.;.;.;.:.:.:.#.#.:.;.:.:.1.1.1.;.;.-.;.;.;.;.;.;.;.;.;.:.;.:.;.;.;.;.;.,.;.,.:.,.;.;.,.1.;.,.1.1.>.,.<.h.j.g.>.>.>.j.>.>.>.;.>.1.;.:.>.1.>.>.>.,.,.,.,.,.,.;.,.>.>.>.>.>.,.%.,.,.,.,.2.,.x.h.h.h.h.h.x.z.h.z.h.h.h.l.l.k.k.k.j.j.j.1.j.j.z.k.j.j.g.g.g.g.j.h.h.h.h.j.j.h.h.h.k.h.<.<.3.<.k.k.l.k.k.k.k.h.j.j.>.1.j.5.u.1.j.M.*.1.1.1.1.<.M.M.j.j.u.j.u.<.u.u.j.k.j.j.z.k.k.j.j.j.g.h.g.h.j.h.h.h.h.h.h.h.2.,.h.,.<.h.k.k.j.k.k.<.c.k.c.c.x.<.3.x.<.x.c.c.h.<.k.h.3.k.<.<.k.<.k.<.k.j.k.j.j.k.z.z.j.j.j.j.j.j.j.j.j.k.j.k.k.j.j.k.j.k.k.j.<.k.<.k.j.N.j.k.k.k.j.k.N.k.k.<.j.k.j.k.j.j.<.j.,.j.<.<.j.,.j.<.j.,.,.>.,.g.g.j.h.N.M.k.M.k.k.l.u.k.k.k.1.j.1.*.u.5.1.1.M.*.M.j.k.z.l.l.l.u.M.l.M.M.M.l.M.j.j.k.k.k.l.k.l.l.k.k.k.k.j.M.<.j.j.k.k.z.k.k.l.z.k.k.l.z.l.z.k.j.z.j.g.g.>.g.g.g.j.1.>.g.g.g.j.g.g.g.z.u.g.g.u.:.g.g.>.g.*.*.*.1.=.1.1.1.1.1.1.1.1.j.g.1.u.1.1.*.1.=.1.;.1.1.;.*.g.:.;.g.*.1.*.*.*.>.>.*.*.*.*.*.*.*.u.o.*.0.O.O.u.u.#.0.O.O.r.g.0.r.,.g.0.u.#.0.*.u.o.u.o.*.",
" .+. .o. .-. .-.-.-.-.;.^ ;.#.#. . .#. .+.X.%.X.0.r.0.r.+.O.%.+.O.+.O.=.+.-.-.@. . . .@. . .o.o.=.o.o.+.O.$.0.%.0.%.r.%.O.%.#.#.#.#.$.o.o.o.o. .&. .&.-.&.;.&.;.&.-.^ :.;.-.;.^ ;.&.;.;.-.-.-.o.O.%.>.#.>.>.>.>.=.o.O.o.>.o.=.*.O.=.=.;.=.;.*.=.>.=.=.o.o.o.=.*.*.*.>.>.>.*.$.$.>.>.,.$.,.,.$.#.,.,.;.#.;.;.;.,.1.;.=.;.;.;.;.:.:.:.:.:.:.;.#.:.:.:.1.:.;.;.;.;.;.;.;.;.;.;.;.:.;.:.;.;.;.:.:.:.,.,.1.;.,.;.,.;.:.,.;.;.,.1.1.,.k.h.h.j.>.,.j.,.j.1.g.1.>.1.;.1.>.>.,.>.;.,.,.,.,.,.,.>.;.g.>.,.,.$.,.,.%.x.%.h.h.,.x.h.h.x.h.x.k.x.j.z.z.k.h.k.z.k.j.j.j.j.k.k.j.j.j.j.g.j.g.g.g.j.h.j.g.j.h.x.x.h.x.h.k.k.h.<.j.j.k.k.j.k.k.k.j.j.j.<.1.1.1.1.j.j.1.*.M.5.u.j.u.M.j.1.M.<.j.j.1.j.j.M.<.u.S.k.k.z.k.j.>.h.j.>.k.h.k.h.k.h.h.x.,.2.2.,.h.<.k.<.N.<.5.k.N.k.c.5.N.c.c.h.x.c.k.<.<.<.<.h.<.k.<.k.c.<.k.<.h.k.h.j.j.j.j.g.j.j.j.j.j.j.,.<.<.j.<.k.j.N.N.<.j.<.k.<.k.<.j.j.k.k.j.k.<.k.k.M.k.M.M.N.k.j.j.j.<.j.j.j.j.1.j.j.j.>.g.>.>.>.>.>.g.>.>.1.j.j.j.j.M.k.k.k.l.M.k.k.k.k.M.1.<.5.1.1.M.*.M.*.S.k.k.k.l.l.l.M.l.M.l.M.P.j.j.z.k.z.l.k.l.l.l.P.j.k.j.k.1.u.j.M.k.z.k.k.l.k.l.k.l.k.l.k.l.k.z.g.j.g.g.*.g.g.g.j.:.u.1.g.1.j.g.j.g.g.j.>.>.g.;.>.>.1.1.1.1.1.1.1.1.1.1.;.;.1.1.j.>.>.>.1.*.1.1.*.1.=.1.>.1.u.1.*.u.g.*.>.*.*.*.*.g.>.>.*.*.*.=.*.-.o.o.u.O.O.O.#.$.0.$.%.#.u.>.0.g.u.g.r.0.O.O.+.O.O.O.O.=.",
"#.#. .#. .;.&.^ ;.;.^ ;.-.-.^ ;.;. . .#. . .+.r.+.0.0.&.$.+.%.o.+.o.O.o.o.o.+.+.o.o.o. .-.-.#. .#.o.o.#.#.%.r.r.&.&.r.r.&.#.#.%.#.#.#.;.-.&.;.^ ^ ;.^ ;.-.;.&.;.o.;.-.#.o.;.;.=.;.>.;.*.>.o.o.>.$.O.$.,.g.$.>.O.*.O.=.=.*.*.*.*.*.*.1.*.=.>.>.1.*.>.>.*.>.=.>.O.*.=.=.*.*.O.$.>.g.g.$.,.$.#.#.;.;.$.;.;.>.,.,.;.,.;.;.;.;.;.;.;.:.#.:.:.;.;.;.;.1.;.1.1.;.=.=.1.>.;.>.1.:.1.;.;.;.;.:.1.,.,.2.,.,.,.,.<.x.,.x.h.<.,.>.<.,.,.1.,.h.h.h.r.,.j.h.h.h.h.,.j.,.>.>.>.,.:.,.,.,.:.:.:.1.1.<.1.j.j.g.>.h.,.$.,.h.r.t.h.z.z.h.r.,.,.,.,.h.h.x.h.l.l.k.b.k.c.M.1.1.M.M.j.k.k.j.j.j.h.h.j.,.j.h.h.h.,.,.h.h.h.x.c.k.h.x.<.<.h.<.j.<.j.j.j.j.<.g.1.>.j.<.1.j.j.<.j.j.j.j.j.k.j.M.M.1.u.j.j.j.j.j.u.j.k.l.l.l.M.j.j.j.j.u.5.k.h.l.c.k.z.h.k.x.3.c.x.3.c.c.k.3.k.c.<.c.c.c.N.M.M.M.M.M.j.N.k.j.3.<.<.<.k.3.<.<.<.c.<.<.M.<.<.k.k.M.M.1.j.1.1.1.>.>.>.>.,.1.j.j.<.k.<.1.<.M.1.M.k.k.k.k.k.l.k.l.l.l.V.S.l.V.l.M.l.k.N.l.k.l.k.k.z.k.k.j.h.j.>.g.j.j.1.*.>.u.g.<.j.u.M.l.l.k.l.M.k.M.j.M.j.1.M.1.j.1.<.1.M.1.M.j.j.k.j.M.M.M.j.l.l.l.l.l.j.l.z.j.M.j.l.l.l.l.z.j.g.j.z.k.j.k.j.j.l.S.l.l.l.k.k.M.M.l.M.M.l.l.l.S.j.z.j.z.,.g.g.z.j.j.<.>.g.g.1.u.g.g.g.g.1.j.g.g.*.*.1.1.*.1.>.1.*.;.1.1.g.1.g.>.>.1.;.>.=.;.*.1.1.1.1.*.j.g.j.j.u.*.g.*.*.>.*.>.$.O.o.o.+.@.-.*.u.+.O.0.u.%.r.O.0.$.0.$.0.0.O.u.$.O.0.>.O.O.*.u.o.O.O.0.",
" .#.#. .-.&.-.-.-.-.&.-.;.-.^ -. .o. .-.o.#.+.+.0.&.O.0.+.#.o.o.O.O.O.+.o.+. .o.o. . .o. .;. .#.-.#.#.#.%.#.%.r.%.r.&.r.%.&.%.%.#.#.#.&.&.&.;.-.:.;.;.;.&.-.;.-.;.o.;.;.-.#.-.#.>.=.>.;.>.>.*.o.$.;.>.>.>.>.*.>.>.O.>.O.o.*.*.*.*.>.*.>.*.*.>.>.>.*.*.>.o.>.>.;.>.=.>.=.O.>.>.>.g.h.g.$.,.#.:.#.>.;.>.>.>.>.>.<.;.;.;.;.#.:.:.;.;.:.;.:.;.;.;.&.;.1.=.=.1.1.;.1.>.>.j.1.1.5.:.:.:.:.:.:.,.,.,.,.,.,.,.,.,.,.<.<.,.<.,.<.1.1.,.<.h.x.%.x.2.r.h.h.j.h.h.,.h.>.>.$.%.,.,.:.,.:.:.<.1.,.>.j.j.g.j.j.,.r.h.r.r.h.h.z.h.x.h.x.j.,.,.,.k.j.l.h.h.x.x.b.c.j.N.M.M.j.1.j.j.z.g.k.j.j.j.j.j.<.<.h.<.h.<.,.h.x.c.x.c.<.k.h.k.h.h.<.j.<.<.j.<.j.j.j.g.<.>.j.<.g.j.<.1.j.<.j.k.<.1.j.5.5.1.M.j.j.M.5.j.k.k.l.M.j.l.j.j.j.1.;.j.k.h.k.h.c.c.h.k.x.<.<.k.c.<.3.<.h.3.x.c.<.c.c.l.l.M.k.N.N.j.k.<.k.k.<.5.<.<.3.<.3.3.k.M.<.<.k.1.k.j.<.1.1.u.1.1.1.;.1.;.<.<.<.N.<.k.1.M.<.<.M.j.k.k.k.k.k.k.l.b.k.l.V.V.b.P.V.b.l.l.k.k.l.k.k.k.k.k.k.h.j.j.h.j.j.j.g.>.:.<.j.j.j.<.l.M.j.l.j.j.k.j.k.j.k.k.j.M.1.M.1.<.<.1.1.1.k.k.j.l.k.M.l.l.j.S.j.k.S.j.S.l.k.M.l.l.l.l.S.z.z.z.l.j.k.j.l.z.j.j.k.k.j.M.k.k.M.k.M.l.l.k.j.l.j.z.j.j.u.g.g.z.g.j.u.j.>.g.g.:.1.g.>.g.g.g.g.1.>.1.*.*.1.>.1.*.1.*.*.g.*.1.1.>.1.>.;.>.>.>.>.1.u.g.g.g.g.j.*.1.1.g.g.g.*.*.g.>.$.>.O.*.=.u.-.u.-.u.@.+.r.r.r.r.O.r.$.O.r.$.r.>.$.g.0.0.O.0.O.O.=.O.O.O.",
"&. . .#. .;. .-.&.;.^ -. .-.;.-.#. .&. .o.+.&.O.%.0.&.0.o.O.o.o.o.O.o.+.o.o.o.o.o.o. .#.;. .;.;.#.o.#.#.&.%.%.%.&.%.r.t.#.#.&.;.&.#.&.;.;.;.;.&.;.;.;.^ ;.-.;.;.-.;.o.-.;.;.=.;.o.;.>.>.>.o.#.$.$.$.>.>.$.g.>.$.>.*.*.O.*.*.*.*.*.>.1.>.>.>.>.>.>.>.>.>.;.$.#.*.;.*.>.O.>.>.$.;.r.g.$.;.$.;.#.;.>.>.>.>.>.1.,.>.;.;.;.;.;.#.:.;.;.;.;.;.;.;.;.;.;.;.;.;.=.;.;.;.1.>.1.<.1.1.1.:.:.:.,.,.3.,.,.,.%.,.,.2.,.:.,.,.h.<.<.h.<.<.<.j.h.h.,.r.,.r.,.%.$.g.$.h.$.h.,.,.%.,.:.,.:.,.,.:.,.1.<.1.j.j.g.g.g.,.h.>.h.h.z.h.h.h.h.h.,.,.,.,.h.j.h.k.x.z.l.x.c.k.k.<.1.1.1.j.g.j.g.g.h.j.h.j.,.h.,.h.h.<.<.,.h.h.x.h.x.h.h.<.h.h.j.<.1.j.h.<.<.j.j.<.j.j.<.j.j.j.,.j.<.j.j.j.k.k.j.1.M.M.j.j.j.k.1.j.j.z.j.l.j.k.j.j.,.j.g.j.j.h.j.k.k.k.h.h.k.3.k.c.h.3.k.c.<.k.c.k.<.k.c.k.k.k.M.M.j.j.j.k.N.<.k.3.k.<.<.k.k.<.k.k.<.M.1.M.M.1.k.k.1.1.5.1.j.1.1.1.j.<.k.<.<.M.M.<.M.1.k.<.k.k.j.k.N.j.M.k.l.l.l.l.l.V.b.l.b.l.l.k.l.l.k.z.k.l.k.j.k.j.j.j.z.j.g.g.j.j.j.z.k.j.k.k.j.M.k.l.j.l.j.k.k.j.k.k.1.j.j.M.<.M.1.M.k.k.j.k.j.l.j.l.S.k.l.l.S.z.S.k.l.j.j.l.l.z.S.j.z.l.j.j.S.l.k.l.j.l.M.k.k.j.k.k.j.M.l.k.l.k.k.j.z.u.<.z.g.g.g.g.g.g.g.g.g.>.g.*.;.g.>.g.g.g.g.g.>.>.g.1.1.1.1.>.1.1.1.1.j.*.g.>.g.1.g.>.>.1.>.>.j.g.g.g.g.j.g.j.1.>.g.*.;.u.*.g.>.>.>.g.u.=.*.*.*.*.*.O.0.0.,.u.0.r.0.%.>.O.O.g.O.r.*.O.*.0.*.O.u.@.*.0.*.",
"o. .#. . .&.#.&.^ ;.;.;.&.&. . . . . .+.o.+.O.O.O.O.%.+.O.=.o.-.+.o.O.=.o.+.o.o. .o. .-.&.;. .#.#.o.#.#.O.&.%.&.t.%.%.%.:.:.:.&.&.#.;.&.;.:.&.:.;.;.;.&.;.;.#.;.;.-.;.-.=.o.;.;.o.;.O.;.>.>.>.$.$.>.$.>.>.>.>.O.O.>.$.>.$.>.>.>.>.*.>.>.>.>.>.>.>.>.;.;.$.>.$.;.;.>.=.>.$.*.u.%.>.h.$.>.$.;.;.#.>.;.>.>.>.>.;.,.;.;.#.#.#.;.#.;.:.#.;.;.;.&.;.;.=.;.;.1.=.;.=.;.;.>.>.,.1.<.:.1.5.1.4.<.:.,.h.,.4.,.:.,.,.:.,.,.k.<.x.<.h.h.<.h.h.h.h.h.r.,.$.h.$.,.>.h.h.g.,.,.2.,.4.%.4.,.:.,.1.,.,.<.h.j.j.j.>.,.g.g.h.h.h.z.h.h.h.j.j.,.1.<.h.h.h.h.h.c.x.x.k.h.k.j.k.j.k.1.j.g.h.j.h.j.j.j.j.<.h.h.<.<.j.,.x.,.<.h.<.3.h.h.<.h.h.<.g.j.k.j.k.h.j.j.j.1.j.<.1.j.j.j.j.j.<.k.j.1.N.N.M.1.k.k.k.j.k.k.j.k.h.j.j.k.k.z.j.j.j.,.h.j.h.k.c.z.c.k.h.k.<.c.<.k.<.c.<.<.<.<.h.<.<.c.k.k.j.M.j.M.j.N.j.j.k.<.<.N.3.<.3.<.<.N.M.<.M.1.1.M.k.1.1.1.1.1.1.1.M.*.<.j.<.k.k.<.k.k.<.k.k.N.k.k.k.k.j.k.j.M.k.k.l.N.l.l.N.l.k.l.k.l.k.k.k.k.k.k.k.z.z.h.j.k.k.j.g.j.k.k.k.k.j.k.j.j.S.j.k.k.k.j.M.j.k.k.j.k.1.M.1.M.1.1.1.M.k.k.M.j.k.j.M.j.l.j.z.k.j.l.j.k.l.l.l.j.k.k.u.S.u.k.z.l.j.j.k.j.j.j.j.j.j.k.j.j.k.k.j.M.k.j.S.S.j.S.k.j.z.g.g.z.g.g.g.g.>.g.>.g.j.>.1.:.u.1.1.g.*.g.>.>.1.g.1.j.5.u.5.u.1.j.g.1.u.j.g.>.g.g.g.g.g.j.g.j.g.g.g.g.g.g.*.g.;.>.*.*.*.>.>.*.=.=.*.*.*.=.u.=.O.>.g.j.$.O.$.O.0.O.r.O.r.*.0.*.*.O.O.O.O.O.*.O.@.",
"o. .o. .&.&.#. . .#. .&. . .&. . . .&.o.%.O.O.+.+.0.O.o.=.o.-.+.o.O.o.O.#.o.o.o. .;.&.-.-.;.;. .#.#.#.#.#.&.%.&.%.%.%.%.4.4.:.&.#.&.:.#.:.:.:.:.;.;.;.&.o.#.;.;.o.-.-.;.-.=.;.*.o.>.#.;.>.$.$.,.$.,.$.;.$.,.$.$.$.;.$.>.>.$.>.>.1.>.>.>.,.>.>.>.>.h.;.$.;.;.,.$.:.;.>.;.>.$.r.>.$.>.O.>.o.;.;.>.>.>.>.>.>.1.>.;.;.#.;.-.;.#.#.;.;.;.#.;.;.;.;.;.;.;.;.;.;.;.;.=.>.;.,.1.1.1.<.<.:.<.:.<.,.,.,.,.,.:.:.:.,.:.,.:.h.<.k.h.c.x.k.h.h.<.j.,.h.>.$.>.h.%.,.h.h.,.h.r.x.,.%.2.,.,.,.,.,.<.<.h.h.h.j.j.g.g.>.j.g.j.j.j.z.k.j.j.j.,.,.g.j.h.j.h.h.c.k.l.x.k.k.j.j.j.<.j.j.j.j.j.k.g.k.k.h.k.<.h.h.,.<.,.<.x.h.<.j.h.h.x.<.j.h.k.h.<.k.k.k.h.h.h.k.h.h.h.k.h.h.<.k.3.h.k.<.k.3.<.c.j.k.j.k.k.l.k.k.k.j.h.z.j.h.j.h.h.h.h.j.z.c.b.c.l.c.l.c.k.k.c.k.<.x.h.h.h.k.<.k.h.k.k.j.k.k.k.j.k.N.k.N.j.k.<.k.k.<.k.N.<.M.1.M.M.<.M.5.*.M.1.1.1.u.5.<.M.1.M.k.<.k.k.<.M.k.k.k.k.k.<.1.k.1.k.k.<.k.k.k.M.l.c.l.b.l.k.k.l.k.k.k.k.l.k.l.k.l.h.k.k.j.h.k.j.g.j.k.M.k.j.k.k.k.j.k.k.k.k.l.j.M.j.1.k.k.1.j.1.1.M.<.k.<.k.l.j.k.k.j.l.j.j.k.j.l.j.k.j.j.S.l.k.l.M.S.j.z.z.j.z.k.l.k.k.j.l.j.k.j.M.j.1.j.1.j.k.k.l.j.l.z.l.j.l.k.u.z.z.u.<.j.g.g.g.g.>.g.>.>.g.>.1.g.*.g.*.1.g.1.g.<.j.<.>.1.g.g.g.g.g.g.g.1.j.j.j.j.g.g.j.j.1.j.g.j.g.g.j.j.>.u.>.>.>.*.g.g.>.*.*.*.=.-.y.*.*.-.=.*.u.j.*.>.O.*.O.*.*.$.>.O.>.*.$.$.O.$.O.*.O.=.=.*.",
"o.&.o.+.#. .#. .&. .&. .&.;.#.&.&.+.#.O.+.%.+.O.O.+.o.o.o.-.o.-.o.o.O.+.o.%.#.o.&. .;.&.;.&.;.;.#.;.#.#.#.%.%.%.%.%.%.%.#.%.&.:.#.#.#.:.&.:.:.:.;.;.;.;.#.#.#.-. .;.-.-.o.-.o.;.o.;.o.>.,.$.;.$.,.$.,.;.;.$.;.$.$.;.;.>.>.>.>.>.j.>.>.$.,.j.,.>.,.$.,.;.>.%.,.$.%.;.,.$.,.>.>.$.$.$.>.*.*.>.*.>.>.>.1.>.>.>.,.>.$.;.#.;.#.;.:.;.:.;.;.:.;.;.:.:.;.;.;.1.;.;.;.1.;.,.,.;.1.1.,.1.<.1.1.:.,.,.,.,.:.2.,.:.:.,.:.:.<.h.c.c.k.k.k.j.h.h.h.h.h.,.h.g.h.h.h.h.h.h.h.h.x.x.x.,.%.,.,.,.,.<.h.<.h.k.z.h.g.1.g.g.>.j.j.k.j.j.k.j.,.j.1.j.j.j.j.h.k.k.h.x.k.c.k.k.<.k.<.j.j.j.j.k.k.k.k.h.h.h.k.k.<.<.,.<.h.<.h.h.h.<.h.<.k.h.<.h.k.k.k.k.k.c.k.k.k.<.,.j.<.<.k.k.h.k.<.k.k.<.h.k.h.k.c.k.k.M.x.k.k.z.l.h.x.x.x.x.x.h.h.x.x.k.k.x.l.c.l.b.k.k.k.h.k.h.j.<.h.k.k.h.<.c.<.j.j.k.j.k.N.j.j.k.j.N.j.N.j.M.N.<.k.k.M.1.M.1.1.M.M.M.1.*.j.j.1.5.j.<.M.1.k.k.<.<.k.<.<.N.N.N.c.h.M.1.M.1.1.M.k.M.k.k.k.k.l.k.l.k.k.z.k.l.l.l.h.k.l.k.k.k.l.k.k.k.j.j.j.j.k.z.l.k.l.k.j.k.j.k.z.k.j.k.j.l.M.j.j.M.j.M.<.j.k.k.M.1.k.l.j.j.k.j.j.l.j.k.j.S.j.S.k.l.M.M.l.l.l.S.l.k.S.S.l.j.l.l.l.j.j.1.k.j.M.M.<.<.j.k.j.j.j.S.l.l.z.z.k.z.z.j.j.j.z.j.j.j.g.j.g.g.g.g.:.u.1.>.>.g.>.>.1.g.j.j.1.j.1.j.j.g.g.g.g.g.,.g.g.,.g.g.z.j.<.u.g.g.g.j.j.j.j.1.:.g.>.g.g.g.1.>.*.*.-.=.-.=.-.u.u.*.*.-.1.*.O.*.O.o.O.O.O.>.>.O.>.O.$.O.$.>.O.*.*.O.*.",
"&.O.&.#.#.o.#.&.&.&. .&. .&.&.#.o.%.+.%.$.$.%.+.+.o.o.o.o.-.o.-.o.O.o.o.o.O.&.o.;.-.-.;.&.;.&.;.#.#.#.#.%.#.%.%.%.%.4.%.#.4.&.:.:.%.:.#.:.:.;.;.;.&.;.&.#.#.%.#.o.-.o. .-.o.o.;.o.o.#.;.;.;.;.,.%.,.,.$.$.#.$.;.$.;.$.,.,.,.,.>.j.j.,.,.,.j.,.%.,.,.,.,.%.,.%.,.%.:.%.$.$.,.,.$.>.>.O.$.>.*.>.>.g.>.>.>.>.>.>.>.;.#.;.#.:.;.;.,.;.:.;.;.;.:.1.:.1.1.;.;.1.;.;.:.:.,.;.;.>.:.,.1.1.,.,.,.;.,.,.,.,.:.<.,.,.:.,.,.<.x.c.k.c.k.c.j.,.j.<.h.h.,.,.,.h.h.x.h.x.x.t.x.x.x.t.$.x.,.2.x.x.<.x.h.k.z.h.h.g.j.g.g.j.j.1.k.j.g.k.j.j.j.j.j.g.,.h.j.h.h.k.k.k.k.k.k.k.j.j.j.k.k.l.h.k.k.k.k.k.h.c.<.h.<.<.,.,.h.<.k.h.k.k.<.<.h.h.j.<.k.k.k.c.c.k.h.x.h.h.<.h.h.h.h.k.h.h.c.<.k.c.<.c.k.h.c.l.b.b.k.m.l.x.l.x.x.x.x.x.x.c.z.l.x.x.x.h.c.x.l.k.k.k.<.h.h.<.j.k.c.c.k.k.h.k.h.k.k.l.k.M.k.k.j.k.j.N.j.k.k.l.k.k.k.M.M.M.M.<.1.*.5.1.M.M.1.M.M.j.j.k.M.<.M.<.j.1.<.M.k.N.N.k.<.1.k.<.M.<.M.<.<.k.k.k.M.N.k.k.k.k.k.k.l.k.k.k.l.k.l.k.l.k.j.l.k.j.j.k.j.k.j.k.k.k.l.j.z.k.k.k.k.j.j.k.k.k.k.M.1.j.j.j.M.j.j.k.k.M.j.j.k.l.j.j.j.j.j.j.j.l.z.j.k.M.M.j.l.l.P.l.S.S.j.l.S.S.M.l.j.j.M.1.M.1.M.M.<.M.j.M.S.l.l.S.S.l.k.j.k.z.k.z.k.k.j.j.j.g.j.g.>.g.>.;.>.>.>.>.>.*.g.g.j.j.j.k.g.j.j.z.u.h.g.g.g.z.g.g.g.g.z.j.z.1.j.g.g.1.1.>.j.j.g.g.>.j.g.g.g.,.>.*.-.u.-.=.-.-.*.*.=.*.1.*.1.=.=.=.*.*.O.;.*.>.O.$.>.$.O.O.$.*.o.=.O.O.",
"o.&.o.&.#.&.&.#.;. .&.&.#.&.&.#.#.%.%.%.$.O.+.o.O.o.+.+. .-.-. .o.o.o.O.O.#.#.$.;.&.&.;.;.;.&.;.#.:.%.:.&.4.#.%.%.%.%.4.#.&.:.&.:.#.:.:.:.:.&.;.:.;.;.;.#.o.o.o.o.o.-.-.o.o.o.-.o.o.#.>.;.,.%.,.,.;.%.#.,.,.$.$.#.$.>.$.>.h.,.,.,.,.,.>.h.,.$.,.h.,.%.,.,.%.,.%.%.,.,.,.,.$.$.;.$.$.$.*.O.>.*.>.g.>.>.>.>.>.,.>.$.;.$.;.;.,.:.,.:.:.:.#.;.;.1.:.;.:.;.1.;.;.;.:.;.>.;.;.;.:.:.,.,.,.,.;.,.;.g.,.:.:.:.4.:.,.,.:.<.<.h.k.l.c.h.h.h.,.j.h.h.j.h.<.x.h.h.x.x.h.h.h.h.x.h.,.,.,.,.,.,.,.h.x.h.h.h.h.g.g.1.>.j.j.5.u.k.k.j.j.j.1.1.j.g.g.g.h.j.h.k.j.N.k.N.k.k.h.j.k.l.l.l.l.c.k.h.c.k.k.k.h.j.<.,.<.<.j.k.k.c.k.k.h.k.h.<.<.k.x.k.c.N.k.k.c.k.<.<.h.<.h.3.k.h.c.h.k.c.x.<.c.h.3.c.h.k.x.b.b.b.b.b.x.m.c.x.x.z.c.m.c.x.l.x.c.z.k.h.j.c.x.k.k.<.h.j.<.k.h.<.k.k.k.h.h.k.k.l.l.j.N.k.N.k.N.k.k.k.k.k.k.k.M.1.M.<.<.1.M.u.5.1.1.*.M.M.M.1.M.<.1.M.1.j.1.k.M.N.N.k.<.<.k.k.1.<.<.k.<.k.M.5.k.k.M.j.M.j.k.l.h.k.h.j.l.k.l.l.k.l.k.k.l.h.l.g.g.k.k.k.g.j.j.l.k.k.k.j.k.k.k.l.M.j.M.j.k.j.k.k.M.1.j.k.j.k.j.l.j.S.l.j.j.j.k.j.z.l.j.l.j.z.S.j.l.l.M.l.l.S.M.k.P.l.l.j.M.k.k.j.1.M.j.<.M.<.M.k.k.M.j.S.l.S.M.l.z.S.l.k.k.z.l.z.j.j.j.j.1.j.>.>.g.j.>.;.:.u.>.*.1.1.j.j.k.j.j.j.k.j.<.j.u.z.g.g.g.g.z.g.z.g.g.>.g.>.g.u.1.g.>.j.j.j.j.g.g.j.j.1.u.*.u.*.-.-.-.-.=.=.=.-.*.-.-.o.o.o.o.o.o.O.*.$.>.>.$.>.$.$.$.O.=.*.*.=.",
"&.o.#.#.%.&.&.#.&.&.&.&.#.&.#.o.&.o.&.o.o.+.+.O.@.o.=.=.=.-.-. .o.o.o.o.#.o.o.o. .;.o.#.#.#.#.;.#.#.$.#.%.:.%.4.&.4.%.#.:.#.#.#.#.#.&.:.&.&.:.4.,.;.$.%.#.#.o.o.-.-.o.o.o.o.o.o.o.-.#.$.;.;.;.;.,.,.;.$.$.#.;.;.#.$.:.,.,.,.,.,.,.,.,.h.h.$.,.,.$.%.%.,.%.%.,.%.%.:.%.:.2.%.#.$.$.o.>.O.>.>.#.u.>.g.>.>.>.g.$.>.$.;.>.,.,.>.,.;.;.:.;.:.1.1.:.5.,.;.:.,.:.;.;.,.;.;.;.:.#.,.;.,.,.,.>.,.>.,.h.>.<.,.,.:.,.,.,.1.,.h.x.h.<.<.h.h.j.<.<.<.<.h.k.h.x.x.x.h.z.x.c.m.r.h.x.h.2.,.1.1.,.2.,.2.j.h.j.h.u.1.1.1.1.g.j.M.k.j.j.j.j.j.k.j.,.j.j.j.j.j.j.j.k.l.k.l.k.k.k.l.h.h.k.l.l.l.b.l.M.k.h.<.>.<.>.j.k.k.k.M.k.M.k.k.k.k.j.N.h.k.N.k.k.c.k.c.h.<.h.k.c.h.k.<.x.k.c.k.x.c.3.x.x.c.c.c.b.b.b.b.m.m.x.z.x.x.x.t.x.h.x.z.x.x.l.c.c.b.l.c.k.k.k.l.h.l.h.k.c.k.k.l.k.h.l.j.k.k.k.M.k.k.k.z.k.l.k.l.k.l.M.k.M.M.A.5.M.<.<.<.5.5.M.5.u.5.A.M.k.M.k.k.k.M.k.N.k.M.M.M.M.M.M.5.<.<.<.j.5.j.k.k.M.k.k.k.k.k.k.N.l.k.l.l.k.k.l.k.h.k.l.k.k.l.k.j.k.h.j.<.<.j.k.k.M.k.k.j.k.<.k.k.j.j.j.k.k.j.k.k.j.l.j.j.k.j.k.l.l.j.k.k.j.j.j.j.j.j.j.k.k.j.l.k.l.l.l.M.l.P.S.l.S.M.l.l.l.l.M.M.M.k.M.j.N.k.M.M.k.M.M.l.S.G.S.l.P.l.z.k.j.k.k.l.j.j.k.j.j.k.g.j.1.>.g.>.*.>.>.*.g.g.j.g.j.j.j.j.z.j.j.j.z.j.j.g.z.g.z.z.j.z.z.j.k.j.j.g.g.g.k.g.k.j.k.k.g.j.z.k.g.j.j.<.1.*.=.=.=.-.=.=.=.=.;.=.o.-.o.=.o.=.o.>.g.>.>.$.$.$.>.$.=.*.;.=.*.",
"#.#.&.&.o.#.#.&.#. .#. .o.&.&.&.#.O.%.O.o.%.o.o.o.o.o.=.-.-.-.o.o.o.o.o.O.o.o.O.-.&.#.;.#.;.#.;.#.$.$.#.,.#.#.4.4.&.4.#.#.#.#.:.4.&.:.#.:.:.:.:.%.,.%.;.$.$.%.#.o.=.-.o.=.o.o.o.o.o.;.;.;.,.;.1.j.,.,.;.;.$.;.$.#.;.,.%.,.,.j.,.g.h.>.,.,.h.,.h.,.,.,.,.%.2.%.,.4.%.2.%.:.:.,.#.#.>.$.$.>.>.>.g.g.>.*.g.>.g.,.>.;.$.>.;.;.,.$.;.;.;.:.1.1.:.:.:.:.:.,.;.;.:.:.;.;.;.;.:.:.;.,.;.,.$.g.>.>.g.>.,.,.1.;.,.1.;.,.,.3.,.<.h.x.h.h.3.x.,.2.h.<.h.h.h.l.l.h.x.h.k.h.z.x.h.%.j.,.<.:.5.,.,.,.,.,.h.h.,.1.j.1.1.j.j.k.1.k.1.N.j.k.j.g.j.g.1.1.j.<.j.j.<.j.k.k.j.k.k.l.k.l.x.l.l.x.b.M.c.c.k.k.<.>.1.<.j.k.k.k.k.k.M.k.k.k.k.j.<.k.c.k.c.c.k.c.h.k.c.k.x.c.k.h.x.k.h.k.x.<.c.<.x.c.h.c.c.c.m.c.m.c.z.x.x.x.x.x.x.x.x.x.h.x.x.c.z.l.l.c.l.c.k.c.l.k.c.z.k.z.k.k.x.l.k.h.k.l.k.k.k.k.l.k.k.k.l.l.k.k.l.k.M.M.M.5.u.M.<.M.1.A.5.5.*.5.A.M.M.k.M.k.k.k.j.j.N.k.k.k.M.M.M.M.<.k.k.<.<.N.5.k.k.j.N.k.j.k.k.N.j.k.l.k.k.j.l.k.l.l.k.k.l.l.l.j.j.k.k.j.<.j.j.k.k.k.M.k.k.N.j.j.<.k.k.k.j.j.M.M.j.k.j.j.j.j.k.j.k.S.S.j.S.l.j.k.k.k.k.j.k.k.z.S.k.k.k.l.l.l.l.l.P.l.S.S.l.l.M.l.l.k.k.j.N.M.k.<.M.M.l.l.l.M.l.S.P.l.l.l.l.S.l.l.j.k.S.k.j.j.j.j.j.>.g.1.*.1.>.>.g.g.1.j.1.j.j.k.j.j.S.k.M.j.u.g.g.g.z.z.g.g.z.z.z.g.j.g.g.>.g.g.k.k.j.z.j.k.j.j.k.l.j.j.u.j.*.*.*.*.*.*.=.1.=.=.=.=.o.=.=.;.=.o.*.>.>.>.$.>.$.$.>.O.>.=.*.=.",
"#.#.&.#.&.#.#.#.#. .&.&. .#.o. .#.o.o.o.%.O.+.o.o.o.@.=.=.@.o.-.-.o.=.o.o.o.o.=.-.#. .;.;.$.;.;.>.>.,.%.%.#.%.%.4.4.%.4.4.#.%.#.#.&.:.4.#.#.#.:.,.%.,.$.%.$.$.$.O.o.o.o.;.o.-.#.=.;.;.=.;.;.;.;.>.,.;.;.;.;.;.>.$.;.;.,.,.,.,.,.,.>.,.>.,.,.,.,.,.,.%.%.%.,.2.,.%.:.%.:.%.%.;.#.;.>.>.>.r.u.g.g.g.>.g.>.g.>.>.g.;.>.>.,.,.>.,.$.:.:.1.;.,.,.:.;.:.,.:.:.,.,.:.:.:.;.:.:.;.,.>.,.>.h.>.,.,.>.,.,.,.1.,.,.,.1.,.,.,.,.x.x.h.3.2.,.2.<.2.2.x.x.<.<.k.h.h.k.h.h.h.h.,.h.,.,.,.,.1.1.:.:.;.,.<.<.h.h.k.k.1.M.k.M.1.M.k.1.j.j.j.j.j.g.j.j.1.>.1.j.<.j.j.k.k.k.k.k.l.k.b.b.b.b.N.b.l.c.c.k.j.1.j.<.>.j.j.j.j.k.M.1.k.k.<.k.h.k.h.k.k.k.k.k.k.c.c.k.h.k.j.h.k.<.h.k.<.h.h.x.,.x.h.x.x.x.x.x.x.z.x.l.x.h.x.z.h.x.x.h.x.l.z.h.x.c.x.b.b.x.c.l.c.l.z.c.c.c.x.k.l.l.x.l.x.l.l.k.c.c.l.k.M.l.l.k.l.k.l.k.k.k.u.5.M.M.M.<.M.5.5.A.5.M.M.M.M.M.k.k.l.k.k.h.k.k.k.k.M.k.M.M.5.A.k.<.N.<.j.N.k.N.M.k.k.k.l.k.k.k.l.h.k.k.h.h.k.k.k.l.l.k.h.l.k.k.c.k.h.h.<.k.k.c.k.c.k.k.h.k.k.j.k.k.j.k.M.j.k.j.j.k.j.j.z.<.j.j.j.S.j.l.j.M.k.k.1.M.M.k.k.P.l.l.M.k.k.M.l.S.l.S.S.S.l.l.l.l.k.l.k.k.j.k.<.M.k.M.k.M.l.l.l.l.S.l.S.l.l.z.j.k.M.k.k.j.j.j.j.j.1.1.1.1.*.g.g.>.>.1.g.j.j.g.j.k.j.j.j.S.j.<.z.z.g.g.h.g.g.g.g.z.z.g.j.g.g.>.g.g.g.g.g.k.g.j.j.j.z.k.j.j.j.g.1.;.1.*.1.*.1.=.=.1.=.1.>.=.=.o.o.o.o.$.O.>.O.>.$.$.r.>.O.=.*.=.$.",
"#.&.#.#.o.&. .#. .#. .#.#.o.#.#.o.o.o.o.o.o.o.o.o.o.O.-.=.=.-.o.=.O.O.o.;.*.O.*.;.;.;.;.$.>.;.;.$.;.;.;.:.:.:.%.#.4.4.%.4.#.%.,.#.4.#.&.4.#.4.#.$.,.%.$.,.$.%.>.;.>.>.>.;.;.=.;.;.-.;.1.;.>.1.>.1.,.>.>.;.;.>.;.;.$.;.;.;.,.;.,.$.,.,.r.>.,.,.,.$.,.h.,.x.,.,.%.2.%.:.%.%.:.%.:.$.>.,.>.>.:.r.g.g.g.g.g.>.g.h.,.,.$.>.>.;.,.;.;.;.:.;.5.>.>.,.<.,.:.,.,.:.:.;.:.:.:.#.:.,.,.$.>.h.>.g.>.>.g.>.>.<.,.j.<.,.<.<.,.,.,.<.,.3.<.3.x.2.3.2.2.3.<.x.c.h.x.h.h.j.k.j.j.j.,.g.<.,.1.1.1.:.1.1.1.<.<.<.<.1.M.k.<.1.k.1.M.M.k.j.k.j.j.h.j.>.1.j.j.g.g.j.1.j.j.k.k.l.l.l.b.V.b.G.b.b.k.l.k.k.h.j.<.<.>.1.1.1.1.<.k.k.k.k.M.j.j.h.<.<.k.h.c.k.c.k.k.c.k.k.k.k.<.h.k.<.h.<.k.2.<.x.,.3.h.h.c.l.x.x.c.z.x.x.z.x.x.x.h.x.x.z.x.x.x.l.x.b.x.l.l.x.b.k.x.c.c.z.h.c.z.c.x.c.x.x.b.k.k.M.k.k.l.l.k.M.k.l.l.k.k.j.z.1.<.M.1.M.5.<.5.*.5.M.5.5.M.M.P.b.b.c.c.k.c.<.j.k.1.j.M.k.1.u.5.M.M.j.N.N.j.k.M.M.k.N.l.k.k.l.k.k.l.j.k.k.l.l.k.l.k.k.l.k.k.k.k.k.k.c.j.h.<.k.k.N.k.c.c.k.k.c.k.k.M.M.k.k.l.l.M.k.l.j.j.u.<.j.j.z.z.S.z.l.j.k.1.M.j.k.M.k.k.S.l.k.k.l.l.l.l.S.l.l.l.k.l.S.l.k.k.j.j.k.k.1.k.1.M.k.l.M.l.l.S.l.P.k.l.l.j.j.j.j.j.j.j.k.j.j.g.1.5.1.g.g.1.*.1.g.*.g.>.j.j.j.j.j.k.l.j.S.u.u.g.g.g.;.u.r.g.g.g.g.g.j.j.g.g.>.g.h.g.g.g.g.j.g.j.j.k.g.g.g.g.u.1.*.=.1.*.=.1.=.=.>.>.>.;.o.=.o.o.o.o.O.O.$.O.O.O.g.O.O.;.O.O.O.",
"#.#.&.#.&. .#.&. .o. . . .-. .;.-.o.o.o. .o.o.o.=.o.o.o.o.o.o.o.=.=.=.=.=.=.*.=.>.=.O.>.>.*.o.$.;.>.%.,.4.%.4.%.4.4.4.%.,.%.,.%.%.%.%.:.#.%.4.%.%.,.%.,.$.;.;.,.$.;.$.>.>.$.;.;.;.=.1.=.1.1.=.1.>.>.1.*.1.>.1.*.;.,.>.;.>.;.,.;.,.h.>.,.h.>.,.h.$.,.,.,.,.h.,.,.$.,.%.,.#.:.:.#.,.>.h.$.>.g.g.g.g.h.g.g.g.>.j.h.>.>.,.$.,.>.;.h.g.g.g.g.,.h.,.,.%.,.:.:.:.:.:.:.;.:.:.%.,.%.,.,.>.h.$.>.>.>.>.r.g.,.k.j.h.k.<.<.,.3.3.<.,.3.3.3.4.2.3.2.2.3.k.x.h.h.k.k.j.j.j.j.j.j.,.>.5.-.5.1.;.5.1.1.1.<.<.<.k.k.k.k.M.<.k.1.1.k.k.k.j.j.z.j.1.*.1.*.j.5.1.1.u.<.<.k.z.l.b.l.b.V.l.V.l.x.l.j.k.<.j.j.k.1.j.1.j.j.j.M.j.M.j.k.N.j.h.<.j.h.k.<.k.k.k.k.k.M.k.M.k.j.j.<.j.<.j.h.<.x.<.3.<.h.h.c.x.k.x.b.x.b.l.l.x.x.z.x.c.x.l.x.c.x.l.x.b.x.x.x.z.b.b.b.m.x.l.x.z.m.c.x.x.b.b.b.c.k.c.k.b.k.l.k.M.l.l.k.l.j.j.z.M.j.k.k.1.<.<.<.5.5.<.c.M.c.b.b.b.b.x.h.k.c.k.k.M.k.k.k.M.u.5.M.k.k.M.k.l.M.b.l.M.b.l.l.l.k.l.k.k.k.k.k.k.l.l.k.k.l.l.k.k.l.k.l.c.k.k.<.c.<.k.c.<.k.c.k.<.k.<.N.k.M.k.M.M.M.l.j.l.j.j.j.g.g.g.<.S.u.j.S.j.k.M.M.M.k.k.M.k.M.l.l.l.j.l.l.S.j.S.S.l.S.S.k.j.k.j.k.j.j.j.h.k.j.j.j.M.M.k.M.j.l.S.j.l.k.j.j.l.j.j.j.k.j.j.j.j.j.1.u.g.*.g.1.1.g.>.>.g.j.j.g.k.z.j.j.l.j.j.k.j.g.g.g.g.*.g.g.g.g.g.g.h.g.g.g.g.g.>.g.>.g.g.g.g.j.j.j.g.g.>.>.>.>.>.>.1.u.5.;.>.;.>.;.;.>.#.=.o.o.o.o.O.O.O.0.0.*.$.u.O.*.O.O.O.",
"&.#.:.&.#.#.#. .+.-. .-. . .-. . .-. .-.o.o.o.o.=.o.+.o.o.o.o.O.=.o.=.=.=.=.O.=.*.*.;.=.o.o.o.o.#.;.;.%.%.4.%.4.4.%.4.4.2.%.$.%.%.:.%.%.%.4.4.%.,.%.:.%.,.,.%.%.,.>.%.;.$.>.;.*.=.=.-.1.=.=.=.=.;.*.1.*.*.1.1.1.>.>.;.;.$.,.>.>.>.>.>.>.>.>.>.$.>.>.h.,.h.,.h.,.x.%.2.%.:.%.,.:.;.,.>.h.r.g.r.z.g.g.g.g.>.g.>.h.>.,.>.>.$.h.,.>.r.h.r.h.j.j.h.,.,.:.,.:.:.#.:.#.:.:.:.:.,.>.,.g.g.r.g.r.g.g.>.>.,.g.h.k.h.c.h.<.,.:.<.3.3.3.<.2.2.3.2.2.2.3.3.<.c.k.k.k.k.j.j.g.j.<.j.<.-.5.1.1.1.;.;.1.1.1.<.<.1.k.1.k.1.<.1.<.1.<.k.1.k.g.j.j.M.M.<.1.1.u.j.*.j.j.j.j.c.h.l.x.l.b.x.x.k.k.k.h.j.j.k.<.1.1.k.1.j.j.j.k.k.1.k.M.k.j.c.h.<.k.h.k.k.j.k.M.k.M.M.c.M.N.j.j.k.k.k.j.<.x.,.,.x.<.c.h.x.b.b.x.b.b.x.b.l.l.k.c.k.k.x.x.b.x.m.b.b.b.x.c.m.b.x.x.m.c.z.b.m.b.x.b.b.b.x.b.b.c.l.N.k.b.l.N.l.l.l.l.u.l.j.j.M.l.k.k.N.<.<.5.5.<.3.3.N.c.b.x.b.b.b.l.z.h.l.k.j.k.l.j.5.5.M.*.k.M.N.M.N.k.l.M.k.k.l.l.l.l.l.l.l.k.l.k.k.k.k.k.l.x.l.k.k.l.k.c.k.k.c.k.k.N.k.<.N.c.<.k.k.c.k.j.M.k.M.k.l.j.k.l.k.k.l.j.k.g.j.u.z.k.z.S.j.l.j.k.1.<.k.M.M.l.P.l.k.l.j.M.l.k.k.l.z.l.k.j.j.j.j.j.j.j.j.j.j.k.j.<.j.j.k.k.M.l.l.k.j.l.l.l.j.l.l.j.j.l.k.j.1.j.j.1.1.1.1.>.g.1.u.1.>.j.1.g.j.j.k.j.j.j.z.z.j.j.g.g.g.g.g.r.0.g.$.g.g.g.h.g.g.g.j.h.g.g.g.g.g.g.g.h.h.g.g.g.g.h.j.j.k.j.j.1.g.>.g.>.>.;.;.#.;.o.O.o.>.>.O.O.>.0.$.#.$.*.>.*.*.",
"&.;.&.&.&.&.#. .o.o.-. .-.~ -. .-. .-.-.-.-.o.-.=.o.-.=.o.+.o.o.O.-.=.-.=.=.=.=.=.=.o.*.=.o.=.*.;.#.#.4.4.%.%.4.4.4.%.4.r.t.r.r.%.%.%.2.,.%.%.4.,.$.%.,.$.%.$.:.$.,.,.$.#.>.#.>.-.1.-.=.=.-.=.=.=.=.1.1.;.*.;.*.;.;.-.#.;.;.,.,.>.g.>.>.,.>.>.>.;.,.,.h.,.j.,.,.2.,.,.,.:.%.%.:.;.,.g.$.g.r.r.r.g.>.g.$.g.>.,.>.h.g.$.,.>.>.h.h.g.h.z.g.h.h.g.h.:.2.4.4.:.:.:.:.:.:.:.:.,.,.g.h.h.g.h.$.g.>.g.g.h.h.h.k.k.h.h.h.3.<.3.:.3.:.4.4.4.3.2.3.x.3.x.c.k.c.l.k.k.j.j.j.k.k.j.<.1.1.-.5.1.1.1.1.1.1.1.1.k.k.1.M.<.<.<.1.<.j.1.j.g.k.l.k.M.1.5.5.1.*.M.*.j.j.k.z.h.l.c.c.l.x.l.l.x.l.k.k.j.j.k.k.k.j.1.k.j.k.k.1.M.M.j.k.N.k.k.<.k.h.k.<.k.k.j.k.k.M.k.M.k.M.j.M.N.j.k.<.<.<.<.3.h.h.k.x.l.x.l.b.b.l.l.b.b.k.k.k.l.l.c.l.b.b.x.b.m.b.m.b.b.m.m.m.b.x.m.m.m.b.m.b.b.z.m.x.b.c.b.k.l.N.l.l.l.M.l.k.M.M.l.k.M.k.M.k.3.5.<.5.<.3.3.c.c.m.b.x.b.x.x.x.c.x.k.k.5.u.j.j.M.u.M.j.M.l.j.M.k.M.b.k.l.l.S.V.b.l.l.k.l.l.k.l.l.k.l.l.N.k.l.k.k.k.l.k.k.N.<.c.k.c.c.k.k.k.c.<.c.k.k.M.M.k.k.M.k.l.j.k.k.l.z.j.z.j.j.z.z.S.z.z.l.k.k.M.M.1.M.j.M.M.S.l.M.l.j.k.S.j.l.j.S.j.S.j.z.j.j.j.u.,.j.k.k.k.j.k.j.j.k.k.j.l.M.l.l.j.l.j.l.k.l.k.l.k.j.k.k.j.j.k.j.1.1.1.1.1.:.1.g.j.g.j.j.j.k.j.j.u.j.j.j.j.g.g.g.>.g.g.>.g.>.>.g.>.g.>.h.g.g.>.g.g.g.>.g.g.g.$.g.>.>.h.h.g.h.h.h.h.>.j.g.>.g.g.g.,.>.>.$.O.$.O.O.>.g.O.#.u.g.0.$.*.*.r.*.",
";.&.&.:.#.#.#.#.o.-.-.-.-.-. .-. .o. . .o.o.-.=.=.=.o.o.o.o.O.O.O.-.O.-.-.=.-.=.=.o.=.=.O.>.=.>.#.:.:.%.#.4.4.%.%.%.4.%.2.r.,.$.%.4.%.2.%.2.:.%.%.,.;.#.,.%.$.%.h.$.$.>.;.$.;.#.1.*.1.1.-.=.=.-.-.=.=.;.;.1.;.;.;.#.;.;.#.;.;.1.,.;.>.>.>.$.,.,.>.>.,.h.h.x.,.h.h.2.,.,.:.,.,.,.,.,.$.,.g.r.z.g.r.>.>.g.>.r.g.>.g.,.>.;.,.,.,.h.g.r.r.g.h.r.h.>.:.4.%.#.:.:.:.:.:.:.:.;.,.>.>.g.g.g.g.g.g.g.g.h.h.j.h.k.k.k.c.,.<.4.3.3.3.4.3.,.4.2.2.x.2.3.h.c.c.k.M.M.M.M.j.j.M.<.M.<.1.5.5.1.1.:.1.1.5.1.<.<.1.1.k.<.<.M.<.<.1.1.1.j.k.k.k.k.j.M.u.M.M.M.*.M.k.j.j.k.k.h.z.z.l.x.x.b.l.l.x.x.M.1.k.M.1.M.k.<.k.k.M.M.M.j.M.1.M.k.k.k.c.k.k.k.<.j.j.N.l.M.N.N.M.k.N.k.j.j.j.N.h.h.<.<.h.k.h.k.b.k.b.l.b.l.x.x.k.l.k.l.k.x.l.x.b.V.V.b.V.b.b.b.b.m.b.z.b.b.x.c.b.m.b.m.b.m.b.x.b.k.k.c.b.b.k.b.l.l.l.M.l.l.k.M.l.k.k.k.<.c.5.5.<.:.<.c.c.m.z.l.b.b.x.x.c.l.k.M.M.M.M.M.<.M.u.j.k.k.k.k.l.k.l.l.l.l.b.l.l.l.l.k.N.l.l.k.l.b.l.b.l.l.l.k.l.k.k.k.N.<.k.N.N.k.<.N.c.M.k.k.k.N.k.M.M.M.k.M.l.j.M.j.k.k.l.k.z.j.j.S.l.z.k.l.j.l.j.k.1.M.k.M.j.l.j.l.j.l.j.l.j.S.z.S.j.S.z.k.j.j.j.j.j.j.z.k.k.k.j.j.1.j.j.k.M.j.M.M.M.j.j.l.j.l.M.M.k.k.M.j.k.k.k.1.g.1.g.1.j.>.1.>.g.g.j.j.j.j.j.k.j.<.j.g.j.j.j.g.g.g.g.g.>.>.>.>.g.g.g.g.>.g.g.g.h.j.>.g.$.$.g.>.g.>.>.>.$.g.j.j.r.g.>.>.$.>.O.$.j.,.>.$.>.O.>.O.O.g.O.>.O.O.r.*.$.:.u.*.>.",
"&.:.;.^ :.-.^ -.#.o.o.o.o. .o. .o. . .;. .;.-. .o.o.o.o.o.o.#.=.+.-.=.-.+.=.=.=.=.=.=.=.*.>.,.h.,.>.>.$.,.,.%.2.x.2.2.x.%.%.%.,.%.%.:.,.;.,.$.,.$.#.o.#.$.#.>.>.>.>.$.;.$.#.#.o.;.;.>.>.>.=.;.=.;.>.,.;.#.:.#.:.#.:.;.,.>.,.>.>.;.;.>.,.>.1.>.>.1.j.j.,.h.x.2.h.%.x.,.,.%.,.:.;.,.;.>.$.*.>.r.*.r.>.g.h.r.g.h.,.g.$.,.>.,.;.,.,.,.>.g.,.g.h.h.h.,.,.,.,.,.:.:.:.,.:.1.1.>.1.u.5.*.*.u.5.g.g.j.j.j.j.j.,.h.<.h.,.3.2.3.3.2.4.4.2.2.2.2.2.2.2.,.x.c.k.k.k.j.N.k.k.1.1.j.<.<.j.<.<.1.<.,.1.1.1.1.1.<.1.<.1.1.1.<.>.<.<.j.j.j.j.j.h.j.k.1.j.g.g.k.k.z.z.l.z.c.m.z.m.m.c.x.b.x.l.z.k.c.c.k.k.j.N.<.j.1.M.<.k.M.M.M.<.<.k.k.k.k.1.1.k.j.k.k.k.k.M.N.M.M.l.k.M.j.k.k.k.N.k.k.h.k.k.b.k.b.l.k.x.x.l.b.z.l.k.l.l.N.b.b.l.k.b.b.N.b.V.b.M.b.l.b.c.x.b.b.x.b.m.m.b.x.b.c.x.l.x.b.b.b.x.x.b.b.b.l.k.j.j.M.k.l.k.k.c.k.<.<.<.<.<.N.c.c.c.b.b.x.b.c.l.c.x.l.k.k.k.k.k.l.j.j.M.j.k.k.k.l.k.l.l.l.M.l.l.V.l.l.l.l.k.l.k.l.l.k.M.b.k.l.l.k.k.l.M.k.N.N.j.M.M.M.M.M.k.k.l.k.j.k.k.j.k.z.k.x.z.k.j.l.h.k.k.l.j.j.j.j.j.k.k.l.k.5.u.j.j.k.k.j.k.k.j.j.j.S.j.z.S.S.S.S.k.l.j.j.j.j.k.g.j.j.,.j.j.k.k.k.l.k.M.l.M.l.k.M.j.k.j.j.k.M.<.M.M.M.1.j.<.j.1.1.*.1.j.g.j.j.g.g.g.g.z.j.j.j.j.j.j.j.j.g.g.,.j.>.u.:.>.j.g.1.>.>.g.g.>.g.g.u.1.j.j.g.g.*.g.g.1.*.1.u.:.;.g.g.>.>.O.>.#.$.;.O.*.>.>.>.>.>.>.O.O.*.>.*.g.O.0.O.O.*.o.=.*.>.",
";.&.&.;.;.&. .;.o.-.-.o. .o. . .#.#.&.;.;.&.;.;.#.=.o.o.o.-.O.=.+.=.=.+.-.=.=.=.=.=.=.*.;.g.2.h.,.>.,.$.%.h.2.%.%.x.,.%.$.,.%.;.:.#.:.%.$.>.$.;.;.O.>.o.=.>.*.>.;.;.;.$.;.;.;.#.>.#.;.:.;.:.:.;.,.>.;.;.,.:.#.:.%.%.#.,.,.;.1.;.;.,.,.;.>.1.>.1.>.>.,.j.,.h.2.,.h.x.,.$.:.,.;.:.;.;.>.>.$.*.*.>.>.h.$.$.,.h.>.h.,.,.;.,.,.,.>.,.;.,.,.>.,.,.h.h.r.h.,.,.,.:.:.4.,.;.,.:.1.=.*.*.*.*.*.5.g.g.h.h.h.h.h.<.,.h.,.,.,.2.,.2.2.2.2.4.2.2.2.x.x.h.<.x.<.k.<.<.j.1.j.<.j.1.,.j.<.,.<.<.1.<.1.,.<.:.<.:.<.<.<.<.j.<.<.j.j.<.<.1.h.j.k.j.j.j.j.j.h.j.j.k.l.l.x.z.z.z.b.x.z.x.l.x.x.l.c.h.k.k.c.k.<.N.j.N.j.<.M.M.<.<.M.k.M.M.1.1.<.k.k.1.M.k.N.k.k.M.k.N.N.k.b.k.k.M.k.M.k.M.c.k.k.l.k.l.l.c.x.l.b.b.b.l.b.l.b.l.l.l.N.b.b.l.l.b.V.l.N.M.M.b.b.b.l.b.b.b.b.b.c.b.b.m.x.b.x.c.b.x.b.b.c.b.b.x.k.l.M.j.u.M.M.k.N.k.N.<.<.N.3.k.h.c.l.b.b.m.b.b.b.b.l.k.l.c.l.k.l.k.k.l.j.k.k.k.k.k.k.l.M.l.l.V.N.b.V.l.V.l.b.l.b.l.l.k.l.b.l.k.k.k.k.l.k.l.M.j.k.k.k.l.M.V.l.M.l.l.l.S.l.j.l.k.c.l.k.l.l.k.k.l.k.z.j.l.k.j.j.S.j.k.j.k.M.M.M.M.k.k.k.k.k.j.l.j.l.k.l.l.j.l.k.S.k.S.k.j.j.j.j.j.j.j.k.k.l.k.l.l.M.l.M.k.l.M.k.M.<.M.M.1.M.M.M.1.M.M.M.j.1.k.1.1.1.j.j.j.g.g.g.g.g.g.j.g.j.j.j.k.j.g.g.g.1.1.>.>.>.j.j.g.u.:.g.>.>.g.g.>.1.,.g.g.g.*.*.>.*.g.g.>.1.1.;.1.g.>.*.>.>.u.r.>.g.$.g.>.*.>.O.*.*.*.>.>.$.*.>.*.O.O.=.;.;.=.>.",
"&.;.&.&.-.&.-. .=.o.o.o.-.o.o.#.#.#.&.&.;.;.;.&.o.#.#.#.#.#.O.#.=.=.O.=.=.-.*.=.=.=.*.=.>.,.h.x.j.>.,.,.,.$.%.2.%.x.x.%.,.,.%.%.$.#.#.$.;.$.;.$.$.O.=.>.o.>.o.*.>.=.=.1.$.o.>.>.;.#.;.;.>.;.;.;.>.>.,.#.#.%.%.%.%.:.:.$.;.;.>.>.,.:.,.;.>.>.1.;.>.>.,.,.h.,.r.,.h.%.,.$.%.;.,.;.;.;.$.>.>.>.$.g.,.g.,.h.>.r.,.>.$.,.$.,.>.h.,.>.;.,.>.>.h.h.h.h.h.,.h.2.,.:.4.,.,.,.,.;.u.1.=.*.u.*.*.u.j.>.g.j.j.j.h.j.j.<.3.,.2.,.2.2.3.3.3.3.%.2.2.2.3.x.x.c.<.h.<.<.<.j.j.j.1.g.,.<.<.,.1.,.1.;.:.1.1.<.1.<.<.<.<.<.<.j.h.k.<.<.h.<.k.<.c.<.j.j.j.j.j.k.k.h.x.z.x.z.m.x.z.z.x.l.x.c.x.c.h.k.c.k.k.k.M.j.N.<.M.<.M.k.M.<.<.k.M.1.1.k.j.k.<.k.k.k.k.k.c.l.l.N.k.k.c.k.k.c.c.N.l.k.c.k.c.k.b.b.h.l.l.b.b.x.b.b.l.c.l.N.V.b.V.l.k.l.b.l.l.l.M.l.V.N.M.b.M.V.b.l.b.b.b.b.b.x.b.x.b.b.x.c.m.x.b.m.x.c.x.l.k.M.M.M.N.N.b.c.k.N.N.c.<.3.c.k.c.b.b.b.b.b.c.b.b.l.k.k.k.l.k.l.k.M.u.k.k.k.k.k.k.l.b.M.l.l.V.l.l.l.V.l.M.M.l.l.b.l.M.l.M.l.l.k.k.k.l.k.M.j.M.<.k.l.l.l.l.l.l.l.l.l.l.l.l.b.l.b.b.l.k.k.l.k.l.k.j.j.j.j.j.j.<.j.j.l.l.M.u.N.j.M.l.j.j.j.k.l.k.S.S.l.S.l.S.l.j.k.j.j.j.g.1.<.j.j.j.k.l.l.l.l.l.l.M.l.l.M.M.1.M.1.1.M.M.k.1.1.j.<.1.1.j.1.j.1.j.j.j.g.g.j.g.g.g.g.g.j.g.g.g.g.g.g.g.g.1.u.>.g.j.j.g.g.g.g.g.>.g.g.>.j.j.g.g.1.g.>.g.g.g.1.1.*.1.>.>.>.>.*.*.*.0.>.>.u.:.g.$.O.*.O.*.O.>.O.*.*.>.O.O.*.O.o.*.*.;.>.;.",
":.;.;.;.&.;. .-.o.o.-.#.#.#.;.#.&.#.;.;.&.&.;.;.#.;.#.#.#.o.o.o.=.=.*.*.*.-.y.=.*.*.>.>.$.,.%.,.,.j.,.>.,.,.2.%.2.2.%.,.%.%.;.#.o.;.$.#.$.#.$.=.o.;.o.o.o.=.o.o.=.=.=.=.=.;.;.o.#.o.;.;.;.:.,.,.;.,.;.:.:.%.#.%.#.%.%.$.;.,.;.:.,.,.<.,.,.>.,.>.>.>.j.,.,.,.2.r.$.h.,.,.,.;.;.#.;.;.#.#.$.$.g.>.>.,.$.>.>.,.r.>.,.>.,.>.h.>.>.,.>.>.,.j.h.h.j.h.h.h.h.,.4.2.,.,.,.j.>.>.;.1.*.*.*.*.5.5.g.g.,.j.h.,.,.h.,.h.2.h.,.,.3.3.2.x.2.x.v.2.x.2.x.3.h.<.,.j.,.j.<.1.<.,.<.1.<.>.>.,.1.1.,.1.:.,.<.:.<.<.1.,.<.<.N.5.<.c.c.<.k.<.h.k.h.k.j.j.j.j.h.k.z.l.l.l.b.l.x.z.z.x.h.x.z.z.l.h.l.h.k.k.c.k.5.j.j.k.1.k.5.k.N.M.N.k.<.M.M.<.k.<.k.<.N.c.M.c.k.c.k.k.c.k.k.k.k.M.k.c.N.M.M.k.l.b.b.M.h.k.h.l.l.x.b.b.b.M.V.b.M.b.l.b.M.c.k.l.k.l.k.l.l.b.l.V.b.b.V.b.b.b.b.c.b.b.b.b.b.b.b.b.b.b.b.b.b.b.l.M.l.l.M.l.M.M.k.N.N.N.5.N.c.k.b.b.b.b.b.b.b.b.b.x.b.x.l.x.l.k.M.k.M.j.5.j.k.z.k.z.k.k.l.l.V.l.V.V.V.V.l.V.M.b.N.l.l.N.l.N.b.l.M.l.l.l.k.b.M.M.k.M.k.k.k.k.M.l.l.l.l.l.P.l.b.l.b.l.b.l.l.k.k.l.M.k.l.k.l.k.j.l.u.M.j.M.j.l.k.j.N.u.M.M.M.j.j.j.k.j.j.l.j.l.k.j.l.j.j.j.1.j.1.u.1.j.j.k.j.k.M.M.k.M.l.M.k.l.M.M.1.M.M.1.1.M.1.j.<.j.1.j.1.1.k.<.j.j.j.j.g.>.g.z.g.g.g.g.j.j.g.1.g.g.g.g.g.g.g.>.j.g.g.g.>.>.g.g.j.g.j.g.j.j.g.g.g.g.g.g.g.j.g.g.g.*.g.*.>.*.g.>.>.g.g.g.>.g.g.*.>.O.O.*.O.>.>.O.*.>.=.$.=.>.o.;.=.>.=.",
"#.;.#.o.-.-. .-.o.-.#.-.#.#.#.#.#.&.#.#.:.#.#.#.:.;.%.;.#.O.&.o.=.*.=.*.*.*.=.*.>.*.1.>.;.$.$.,.j.,.h.;.%.,.$.,.%.2.%.%.%.,.$.#.#.o.o.o.#.=.>.o.>.o.>.o.*.o.=.o.=.=.*.*.;.=.=.=.>.>.;.;.;.;.;.;.;.,.$.,.%.:.%.%.#.:.#.%.,.%.,.,.<.,.,.,.,.,.,.>.j.>.g.j.j.g.,.h.g.>.>.>.>.;.;.;.#.;.$.;.$.,.,.$.,.,.>.,.,.$.;.$.g.h.,.g.r.,.g.h.,.g.j.h.h.h.h.j.h.h.h.,.,.,.,.,.h.h.g.g.:.u.>.1.5.*.5.*.5.*.1.1.j.,.,.j.,.<.x.<.,.2.3.<.3.3.3.3.x.c.3.c.<.x.,.<.,.>.<.,.<.<.,.<.<.<.<.<.<.<.<.<.,.,.:.<.,.,.<.<.<.<.<.<.<.<.c.N.k.3.N.k.k.h.k.c.j.h.k.h.k.k.z.c.k.c.b.b.b.b.z.z.x.z.x.x.h.k.h.k.k.c.k.k.x.h.<.c.k.c.k.N.c.c.k.c.N.N.j.N.N.j.<.N.c.N.N.l.b.k.k.c.c.k.k.c.c.c.N.l.c.M.b.b.N.l.l.b.x.l.k.x.b.b.b.b.b.b.b.V.b.b.V.V.l.l.k.k.k.l.l.l.b.l.M.l.V.l.b.V.V.b.b.b.b.l.b.b.b.b.b.b.b.x.b.c.b.V.l.l.N.l.k.l.M.k.k.c.<.<.N.N.N.c.c.b.b.C.V.b.b.b.b.b.b.l.c.l.k.k.z.l.k.N.M.M.k.l.l.k.l.b.l.M.l.V.V.G.V.V.b.V.V.l.M.V.V.V.l.V.l.l.l.k.c.l.l.M.k.k.l.j.k.S.l.l.l.l.G.l.P.S.l.l.b.b.V.V.N.l.l.l.l.l.k.M.l.k.j.l.M.M.u.5.l.M.j.j.k.j.l.l.S.j.l.u.k.j.j.l.l.k.M.j.M.j.M.j.j.1.k.1.j.j.j.j.j.j.j.j.k.M.M.l.k.M.l.l.k.M.k.M.M.k.k.M.j.*.M.1.1.j.M.k.k.k.k.j.j.j.u.<.j.z.<.u.g.g.z.j.g.j.>.g.j.g.g.j.j.j.j.g.j.g.j.g.j.j.g.j.j.j.j.j.j.g.g.j.j.g.g.g.g.g.>.g.*.u.#.;.g.g.g.g.z.g.g.>.g.g.>.$.o.O.O.*.*.*.o.o.o.>.=.>.*.o.o.>.*.",
" . .o.-.-.;.;.;.o.-.o.#.#.:.#.:.4.#.4.#.:.;.:.#.%.:.:.#.$.#.#.o.1.*.*.*.*.*.*.*.*.*.*.>.,.,.,.,.,.>.$.,.,.,.%.,.h.,.,.,.,.%.;.#.#.*.>.o.o.O.o.o.o.*.o.o.=.*.=.*.*.*.*.*.=.*.;.1.;.>.;.1.;.,.;.;.$.;.:.%.2.%.4.,.2.%.:.:.:.%.,.,.2.2.,.2.,.,.j.,.1.<.j.j.h.h.>.g.>.>.>.>.#.$.;.;.;.;.;.#.;.%.,.,.,.;.,.;.;.,.,.>.$.h.h.$.h.g.r.>.g.h.h.h.z.z.h.z.h.h.x.h.h.x.h.x.x.h.h.g.1.1.1.u.5.*.u.5.*.5.M.1.,.,.j.g.h.<.x.,.x.<.3.x.c.c.x.x.N.k.c.3.<.,.,.,.,.,.,.,.,.h.,.<.h.3.h.<.h.h.<.<.1.,.1.<.<.3.<.<.<.<.<.k.<.N.N.k.k.c.k.<.3.k.k.h.j.h.k.k.l.x.h.h.h.z.z.x.z.x.x.z.h.x.h.k.c.l.x.k.k.k.c.k.c.k.k.N.N.<.x.c.c.c.c.<.N.j.k.<.<.j.k.M.c.l.b.N.b.N.c.k.M.c.k.k.k.k.k.b.M.M.k.N.b.b.N.N.l.x.l.b.b.b.F.n.b.b.V.b.V.b.V.b.l.k.k.l.k.k.l.k.l.V.b.N.l.V.V.b.b.l.V.V.b.V.b.b.l.b.b.b.b.c.b.l.b.b.V.b.M.l.M.k.N.N.k.k.<.N.<.N.5.c.N.N.b.b.D.b.b.C.b.b.l.b.M.c.j.k.k.M.M.u.M.M.l.b.k.k.l.k.l.b.V.l.V.l.l.V.l.V.l.V.l.l.l.l.l.M.V.l.c.l.l.k.l.k.l.k.k.k.j.k.l.l.S.l.l.l.l.l.S.V.l.N.l.b.b.N.b.M.M.k.l.l.l.k.k.k.j.j.j.M.j.j.j.S.l.k.l.l.l.l.S.M.l.M.l.M.l.M.l.M.M.M.j.1.<.<.1.k.k.l.k.j.l.j.M.j.l.l.l.M.M.l.j.M.M.k.k.M.k.M.j.k.j.M.j.j.j.k.j.j.k.k.j.j.z.j.z.j.z.j.k.z.j.j.j.g.g.j.j.j.j.g.j.j.k.j.j.j.j.g.>.j.>.g.j.g.j.j.j.j.j.1.j.j.j.j.g.g.g.g.g.g.g.>.g.>.O.g.0.>.g.g.g.>.g.g.*.$.>.O.O.o.$.*.>.=.=.=.;.>.o.o.=.o.o.",
"+.o. .o.-.-.-.-.o.o.o.;.#.#.&.#.#.:.4.4.#.4.#.#.:.%.%.:.$.#.#.o.=.=.*.*.*.*.-.*.o.*.*.>.>.,.>.%.$.$.;.$.$.,.h.,.,.,.,.,.%.,.%.,.*.o.*.o.=.o.o.o.o.o.=.>.>.o.*.=.*.*.*.*.*.*.>.=.>.1.>.1.<.;.,.;.,.,.,.,.,.,.2.,.%.,.%.2.,.:.,.2.,.,.%.,.h.,.j.<.g.j.g.g.j.j.g.>.>.g.>.>.>.;.;.;.:.;.,.,.,.:.%.%.,.:.,.,.,.,.>.,.g.,.h.r.h.r.h.r.g.g.j.z.x.z.z.h.x.h.x.h.h.h.h.x.z.h.z.j.j.j.j.1.u.*.5.*.5.5.*.1.,.>.,.<.<.<.<.<.<.c.3.c.3.x.3.3.c.k.<.k.<.h.h.<.,.,.,.<.,.,.,.x.h.<.h.h.<.h.<.3.<.3.<.3.<.<.<.3.<.k.k.5.<.N.k.c.<.k.k.c.k.k.h.k.h.k.k.k.h.x.h.h.h.x.c.m.b.x.x.l.l.h.l.h.h.x.l.b.c.k.k.k.k.k.<.<.3.x.c.c.c.c.x.c.c.N.N.k.k.N.N.j.k.b.N.l.N.b.k.k.k.b.c.k.k.k.c.M.N.l.k.N.l.b.b.l.V.b.F.b.b.V.n.b.b.n.b.b.b.V.V.G.N.l.l.k.k.k.M.M.M.b.M.l.l.N.l.N.l.M.V.l.V.V.V.V.b.V.b.b.b.l.l.b.l.b.b.M.l.M.l.l.k.k.k.3.<.<.N.N.c.N.b.V.n.V.V.D.n.b.b.b.b.b.b.M.j.l.l.k.M.k.l.M.k.M.k.l.k.M.k.M.l.V.l.V.G.l.V.l.N.l.l.V.N.l.V.l.V.l.M.k.l.k.l.b.k.l.l.l.l.l.l.l.V.l.b.l.l.l.l.l.b.k.l.b.V.b.b.l.l.l.M.M.l.k.l.k.k.k.k.k.k.k.j.k.k.M.S.l.l.S.S.l.l.M.k.k.M.M.M.M.M.k.<.M.M.<.1.k.k.M.l.M.k.l.l.k.M.M.l.k.l.k.M.M.M.k.M.M.k.k.M.k.M.j.k.1.k.j.j.k.k.k.j.l.j.z.j.S.k.l.l.z.z.l.z.z.j.g.j.g.j.j.j.z.j.j.j.j.g.j.g.g.g.j.g.g.h.j.j.j.<.<.j.j.k.j.g.1.g.j.g.g.g.r.g.g.g.g.0.g.0.g.u.%.r.u.u.#.>.*.*.=.$.=.o.;.;.=.o.-.o.=.#.*.*.",
"o.-.o.o.o.o. .o.;.-.o.#.#.#.#.#.:.#.%.#.4.4.%.#.,.%.,.,.%.#.&.o.-.;.*.*.*.*.-.*.=.>.>.>.>.$.#.$.>.#.$.$.,.$.,.,.,.h.%.,.%.,.,.,.>.o.o.>.>.o.o.*.o.=.*.o.>.>.*.>.1.*.*.*.1.=.=.*.=.1.>.;.<.1.<.,.,.,.,.,.,.,.%.2.2.2.:.%.%.2.%.%.2.2.x.2.x.x.x.h.,.>.g.1.g.*.g.>.>.>.*.>.*.;.;.;.,.:.:.;.%.,.,.,.:.,.;.:.,.,.j.,.h.h.g.h.h.r.z.r.t.z.z.l.b.l.z.x.h.h.h.h.t.x.h.h.l.x.h.h.k.j.j.j.5.5.A.=.5.*.5.1.1.,.,.,.<.h.<.h.c.c.x.c.c.3.c.3.c.<.c.h.k.3.h.<.,.,.2.,.,.x.<.x.x.<.3.<.h.<.<.,.<.3.<.<.<.3.<.3.3.<.5.<.k.<.N.c.N.c.N.k.c.k.k.h.c.k.c.k.c.h.h.h.h.h.z.z.l.b.z.l.l.x.h.k.l.l.b.b.k.c.k.c.<.c.k.c.x.3.v.x.c.c.c.3.c.N.k.c.<.N.j.N.k.N.b.N.N.l.c.k.c.M.k.c.k.c.k.k.k.k.N.k.b.l.k.l.b.b.l.V.b.F.F.b.b.b.b.C.G.b.V.b.V.V.M.k.l.k.l.l.l.l.l.l.l.l.l.k.l.l.l.V.l.l.V.V.V.b.V.N.b.b.x.b.k.l.k.M.M.l.l.k.k.M.k.<.N.3.N.N.N.N.b.b.V.D.n.H.n.V.V.b.b.b.M.b.k.l.M.M.M.k.l.k.b.l.l.k.l.l.b.l.V.l.V.V.l.V.l.V.b.l.l.b.l.M.b.l.l.N.l.b.l.M.l.M.k.l.l.z.l.M.P.l.V.l.S.l.l.l.l.l.k.k.b.l.V.l.l.V.V.l.l.l.M.l.k.M.k.1.k.k.k.k.k.j.l.u.l.S.l.S.S.l.l.k.k.M.k.k.k.M.M.M.M.M.1.j.<.<.M.j.j.j.k.k.k.l.l.k.M.l.l.M.l.M.k.M.M.M.M.M.1.j.k.k.k.k.j.k.k.j.k.j.j.j.j.l.l.l.S.z.j.S.j.j.z.k.z.j.j.j.j.k.j.k.z.k.j.j.j.g.j.g.>.g.g.g.g.g.j.g.u.z.k.k.k.g.g.g.j.j.z.g.g.g.g.g.g.g.g.g.g.*.>.0.$.;.g.*.r.O.>.>.=.*.>.=.;.=.;.=.=.O.=.O.;.",
";.=.-.o.o. .@.o. .+.-.o.o.#.#.#.#.#.#.:.:.%.%.4.%.2.%.%.#.%.#.#.;.o.>.>.>.*.=.;.*.o.>.=.$.;.,.h.#.$.>.#.$.>.;.h.>.$.h.,.$.,.%.$.>.=.=.=.O.o.O.o.*.o.*.;.>.;.>.*.*.*.>.*.;.=.>.>.>.1.1.>.;.1.;.,.,.,.,.,.,.,.,.,.,.,.,.2.%.2.2.2.2.t.%.,.r.,.r.h.j.j.>.g.>.>.*.*.>.g.*.*.>.=.:.;.:.:.:.:.:.%.%.,.:.;.1.:.:.;.,.>.>.h.r.r.h.g.z.z.z.z.h.z.z.z.z.z.t.h.h.h.h.h.t.h.z.z.h.h.h.j.g.g.j.j.<.<.<.:.:.<.<.1.,.,.,.,.<.,.j.<.x.<.3.h.c.<.k.j.<.<.<.<.<.,.,.,.,.,.2.x.,.3.c.h.x.<.x.<.<.,.,.,.<.4.<.<.3.<.<.<.3.h.<.c.k.<.N.c.N.c.l.k.c.k.k.c.c.h.<.x.x.x.x.x.k.z.x.k.l.h.l.k.h.k.c.l.l.N.c.k.k.c.c.k.c.c.v.x.v.v.c.x.c.c.c.N.c.k.c.k.j.N.c.l.M.b.N.k.c.b.b.c.c.k.b.b.N.b.k.M.k.k.l.N.l.b.b.G.V.b.b.H.F.C.H.b.G.V.b.C.V.V.b.l.l.l.M.l.M.l.l.l.l.k.k.k.l.l.N.l.l.V.l.l.V.V.C.b.V.b.l.k.k.k.M.c.l.k.l.M.l.V.k.k.c.N.N.N.N.N.N.N.B.V.H.V.n.b.V.C.b.b.b.b.l.b.l.V.M.M.M.l.M.k.k.l.k.l.l.l.k.l.k.l.b.M.V.l.k.k.l.l.N.l.l.N.l.N.k.k.k.z.l.l.k.k.l.l.l.l.z.l.l.l.l.l.l.l.l.l.l.z.l.c.N.b.l.N.l.l.l.l.M.l.k.z.k.k.j.k.j.j.l.j.l.l.l.S.l.P.l.S.S.z.j.1.j.M.M.1.M.1.1.<.M.1.1.5.M.*.M.j.k.j.k.k.j.l.M.M.M.l.l.l.k.M.M.k.k.l.k.j.l.k.j.k.l.j.k.l.j.k.j.j.j.M.j.j.j.M.j.j.j.z.u.k.g.g.g.g.g.g.g.j.g.k.k.j.j.j.j.>.>.1.j.g.>.g.g.j.j.k.g.j.g.j.g.g.g.g.g.g.g.g.g.g.g.g.g.>.$.g.>.*.g.g.g.u.,.;.g.*.*.>.>.>.=.o.o.-.-.;.;.*.*.>.>.",
";.*.o.o.o.-.-.o.-.-.o.o.#.o.#.#.#.:.:.#.:.%.4.%.4.%.%.:.$.#.#.o.>.=.o.>.>.>.>.O.>.>.>.>.>.>.,.$.>.;.>.;.>.>.,.>.,.,.h.,.h.,.,.$.>.$.>.O.=.;.*.>.O.>.#.>.O.>.>.>.>.>.*.>.=.>.1.;.>.;.;.1.<.,.<.;.,.;.,.,.%.,.,.,.,.,.,.2.2.,.%.2.%.2.x.x.2.2.,.,.>.,.g.>.u.:.j.*.>.>.*.>.*.:.,.1.:.:.:.%.%.2.:.:.;.:.:.:.;.,.>.,.,.r.g.h.r.z.z.z.l.z.z.l.z.h.h.h.z.h.x.h.x.h.h.h.h.z.z.h.z.h.h.g.<.,.,.1.<.,.<.,.,.1.,.1.<.,.>.,.h.<.<.x.k.x.c.c.<.N.N.j.h.<.h.<.,.,.,.2.,.3.x.x.<.3.<.x.3.h.3.<.3.3.<.x.3.3.3.<.<.<.3.<.3.<.c.N.c.N.N.N.c.b.k.c.k.k.k.k.x.x.h.x.h.x.x.m.b.l.k.l.x.h.l.z.k.c.b.b.c.b.c.l.N.N.c.N.v.v.v.c.c.c.c.c.c.c.k.N.N.5.N.<.k.c.c.c.b.b.N.k.c.M.M.c.c.k.N.k.N.l.c.b.l.b.V.b.V.b.b.G.b.b.b.b.b.V.b.V.G.b.G.b.V.V.V.l.l.V.l.l.N.k.b.k.l.k.l.l.l.V.V.l.l.V.V.l.G.C.V.b.b.l.l.k.l.l.l.l.l.b.l.l.M.k.k.N.N.N.N.N.c.N.b.V.n.C.b.G.n.b.b.H.V.b.V.N.G.l.l.l.l.M.M.l.l.k.k.l.l.l.b.M.N.l.V.l.l.l.l.l.M.l.l.l.l.l.l.l.l.k.l.k.l.l.b.l.l.l.l.z.l.l.l.l.l.l.l.l.l.b.l.M.N.c.l.N.N.b.V.l.V.l.l.l.l.l.l.z.j.k.k.k.l.M.l.l.z.l.S.l.S.z.l.z.k.M.j.1.1.M.<.M.1.M.<.<.M.1.1.M.j.l.j.k.j.M.M.M.l.k.l.M.M.l.M.k.M.M.l.k.M.l.j.M.k.l.j.M.M.j.M.j.j.M.j.j.M.M.j.j.j.k.j.z.j.k.z.g.g.g.j.g.g.j.j.j.j.k.j.z.k.j.j.u.g.g.g.>.>.g.j.j.j.g.j.g.j.j.j.>.g.g.g.g.g.g.g.g.u.:.g.O.*.>.O.g.$.g.g.g.g.>.>.*.*.>.>.-.;.-.#.-.o.>.>.>.>.",
";.=.-.o.-.@. . .o.o.o.o.#.#.o.o.;.;.:.#.:.:.%.4.4.%.:.%.%.,.$.#.$.;.;.>.>.>.>.>.>.>.>.>.$.>.>.>.>.,.>.>.>.,.>.>.,.g.,.>.,.,.%.,.>.#.o.>.>.>.>.>.;.>.$.$.>.>.;.>.>.>.>.;.>.;.>.>.>.<.1.,.<.<.;.<.;.;.,.>.>.;.,.,.>.,.,.,.,.2.%.2.2.2.2.%.2.h.2.h.h.,.g.g.u.1.*.u.;.;.>.;.>.>.1.1.:.:.:.:.:.:.2.:.5.:.1.<.1.,.,.,.h.>.r.h.z.z.z.S.z.z.h.z.h.h.h.h.x.z.c.h.x.h.x.t.t.g.h.h.h.h.h.h.j.,.<.,.<.,.<.<.;.:.,.:.;.1.,.,.3.<.c.k.k.b.l.b.<.k.<.j.h.<.h.<.,.2.,.x.h.x.<.c.3.h.x.<.<.3.c.<.<.3.3.3.N.3.N.3.<.<.k.3.3.N.N.k.c.N.b.N.c.N.b.k.c.k.h.c.x.h.x.x.m.x.z.c.b.k.k.z.h.l.k.l.l.b.l.l.l.c.c.c.c.c.c.c.c.v.c.v.v.c.c.c.3.c.k.c.k.N.k.c.c.l.k.b.b.c.b.c.b.k.b.b.l.c.b.b.b.N.l.N.b.l.V.b.F.V.b.b.b.n.F.b.b.V.b.V.V.V.V.b.V.b.V.V.V.b.V.V.b.l.l.k.b.c.b.N.b.b.l.l.l.V.l.V.V.G.V.G.l.l.l.l.M.l.M.l.l.b.V.N.M.l.N.c.5.N.N.N.c.N.b.V.b.b.F.b.b.H.b.C.V.b.b.V.l.V.V.l.l.l.M.M.l.l.N.l.l.N.M.b.l.V.l.V.V.l.l.V.c.l.b.l.c.M.M.l.M.l.k.l.l.V.l.l.b.l.l.c.l.c.l.b.b.l.b.M.b.b.N.N.V.c.N.N.N.N.l.V.l.V.M.l.l.l.l.l.M.k.k.j.z.l.l.l.l.l.l.z.l.l.S.z.j.j.5.M.M.1.1.<.M.<.M.<.M.*.M.5.M.k.k.l.l.k.M.l.l.M.l.k.l.l.l.M.k.M.l.l.M.M.M.l.l.j.j.M.k.M.j.l.l.j.k.k.j.k.M.j.k.k.j.k.j.z.z.j.h.g.g.g.j.g.j.j.l.j.k.k.k.j.j.j.j.g.g.g.g.g.j.j.g.k.k.g.j.g.j.g.j.>.g.g.j.>.u.g.g.>.>.*.>.*.>.*.>.*.>.g.g.>.>.*.>.=.;.=.;.=.-.=.#.:.*.g.>.",
"=.o.o.o.+.-.-.o.o.-.o.-.o.o.o.o. . .;.:.%.:.2.%.%.4.%.:.$.;.>.>.>.>.>.g.g.>.;.>.1.>.>.>.,.;.>.;.h.,.>.h.>.>.1.>.>.,.,.h.,.,.x.,.;.*.>.>.>.;.>.,.;.>.,.>.,.$.,.,.>.,.$.,.:.>.;.;.,.>.,.1.<.,.<.<.,.>.>.;.>.1.>.1.,.,.,.,.2.,.x.2.,.x.h.2.x.%.,.t.$.h.$.g.1.*.;.1.u.>.g.>.>.1.:.;.1.;.:.:.:.:.:.:.:.:.1.:.<.,.j.,.>.,.g.r.h.z.x.b.z.z.z.z.h.h.g.h.x.h.x.h.z.h.h.h.h.z.h.z.h.h.h.g.h.h.,.<.,.<.,.1.<.,.,.1.,.,.<.,.h.k.<.c.N.c.b.N.c.c.k.<.<.h.<.<.,.,.,.,.2.,.2.x.,.3.<.c.c.h.3.3.x.3.3.N.3.3.3.3.3.<.c.<.k.3.<.c.N.N.k.c.b.k.c.c.<.c.c.c.x.x.x.2.x.x.x.z.k.z.k.k.l.h.l.k.k.x.N.b.b.N.N.k.c.c.c.c.v.N.c.c.c.c.c.c.N.c.c.N.c.k.c.k.k.c.b.N.c.l.c.b.N.b.c.k.c.l.c.N.V.l.N.b.N.V.V.V.V.b.G.b.b.b.b.l.b.l.l.V.b.V.b.V.G.V.V.G.V.V.b.b.N.b.b.c.b.l.l.V.N.V.V.V.G.l.V.V.G.V.V.l.N.l.M.M.l.M.M.k.l.M.l.b.N.N.N.N.N.N.c.N.N.N.b.c.b.b.b.b.b.b.b.b.b.b.V.l.V.l.V.V.M.M.P.M.b.l.M.b.l.V.l.l.V.l.V.V.V.l.V.l.l.l.M.k.l.l.k.l.N.b.l.N.l.V.N.N.l.x.l.c.l.l.b.l.l.b.N.b.N.V.V.V.V.c.V.N.b.V.V.l.G.l.P.M.l.S.l.b.l.k.l.k.j.k.l.l.z.l.S.S.z.z.z.z.j.l.5.u.M.M.M.<.M.<.<.M.M.M.M.M.j.l.M.j.M.l.M.l.k.l.l.M.k.l.l.M.M.k.l.l.M.k.l.k.M.j.l.k.l.j.l.k.k.l.j.k.M.j.*.M.j.j.j.j.j.j.g.g.j.j.j.j.g.j.j.k.S.k.k.k.k.z.j.l.g.j.j.g.j.j.j.j.j.g.j.j.g.j.g.j.j.<.u.j.>.1.:.g.g.>.g.>.*.;.=.>.>.g.>.>.>.>.*.;.>.;.>.=.=.;.;.>.>.u.>.>.>.",
"#.+.o.o.o.-.=.o.-.-.=.-.=.o.o.o.-.;.;.;.1.:.%.:.%.4.:.:.%.,.>.>.,.>.>.,.j.>.>.>.j.,.,.>.>.>.>.$.$.,.;.>.>.>.>.>.>.g.j.,.,.h.,.%.>.>.$.>.>.,.,.,.$.,.,.$.,.h.2.%.2.2.%.2.,.,.,.,.,.>.1.<.1.1.1.<.>.1.1.1.>.1.1.1.1.>.<.<.,.2.x.,.h.,.h.h.h.r.2.h.h.,.r.g.1.g.u.1.g.g.>.>.;.1.;.:.1.;.:.:.;.:.:.:.1.,.,.<.,.,.j.,.j.h.h.h.h.h.z.z.z.z.z.h.r.j.,.,.h.x.h.h.t.x.r.,.h.x.h.h.h.h.h.h.<.x.<.,.2.<.x.3.,.;.:.<.,.<.<.<.k.3.k.b.N.N.N.b.k.<.c.<.k.<.<.<.h.,.,.,.,.x.2.x.x.x.<.x.x.x.3.x.3.3.3.v.3.3.3.3.c.3.<.3.c.3.c.k.c.c.c.c.c.k.c.k.k.c.c.c.v.x.x.m.c.m.x.x.x.k.k.l.z.k.l.k.b.l.l.b.k.b.c.N.N.c.c.c.V.c.N.c.b.N.c.c.N.k.c.k.M.c.k.c.c.c.c.b.b.c.B.c.b.B.c.b.b.c.b.N.V.M.b.N.V.V.b.G.b.b.V.b.b.b.b.x.l.M.M.M.l.V.l.V.V.G.b.b.V.b.b.n.b.b.b.b.b.b.b.b.b.V.b.V.b.V.b.V.V.V.l.V.M.V.M.M.M.M.M.l.l.N.b.b.N.l.N.c.N.N.N.N.N.c.b.c.b.b.x.b.b.b.b.b.b.b.b.V.V.l.M.P.M.V.M.M.M.M.V.l.V.l.l.V.V.l.V.V.V.l.V.l.M.l.l.b.M.l.l.b.G.l.V.l.V.V.M.l.V.b.l.k.k.N.b.N.N.c.V.N.N.N.A.B.N.B.V.V.V.V.V.l.l.V.P.l.P.l.b.P.l.l.z.l.S.z.l.l.l.l.z.k.l.z.l.z.l.j.l.M.j.<.M.<.5.M.<.M.M.M.M.M.M.l.M.l.l.M.l.M.M.l.k.M.k.M.l.k.M.P.l.l.j.M.l.M.j.l.l.j.l.j.M.j.l.M.k.M.M.1.1.1.1.j.j.j.g.g.g.g.j.j.j.g.<.u.l.j.j.j.l.l.l.M.j.j.j.j.j.j.j.j.j.j.k.j.j.j.z.j.j.g.j.>.j.>.j.>.g.1.>.>.1.>.*.;.*.=.g.>.1.>.*.*.>.*.=.;.;.*.;.>.*.=.>.>.u.;.;.",
"o.#.o.o.#.-.=.=.=.=.=.+.=.o.=.=.-.-.=.=.:.;.,.,.%.%.%.:.,.;.>.>.>.,.,.j.,.,.>.,.j.>.>.>.>.>.>.*.;.$.$.>.>.>.>.*.>.>.>.,.,.,.,.x.,.>.,.>.$.;.g.$.,.$.,.,.$.,.,.x.%.2.x.%.%.,.%.,.,.<.1.,.1.1.>.>.;.=.*.;.>.=.>.*.*.1.>.h.3.h.2.2.,.x.h.x.h.x.x.h.r.h.h.g.g.j.g.,.g.g.j.j.1.1.;.;.:.:.:.:.:.:.1.:.,.1.,.,.<.,.,.j.h.h.h.,.r.h.h.h.z.h.z.h.h.,.,.$.<.,.,.,.h.,.r.x.x.z.h.c.c.h.x.h.x.h.h.3.<.<.,.h.<.1.,.<.,.<.<.<.k.N.l.N.N.b.c.l.k.c.<.k.k.x.k.<.h.3.<.2.,.<.<.<.x.3.3.c.<.c.3.x.x.c.3.N.3.N.c.N.3.c.c.c.3.N.3.c.c.h.c.c.c.c.k.c.c.<.c.<.x.x.x.v.m.m.b.k.l.l.k.k.k.k.l.l.M.b.N.l.b.c.c.b.c.v.V.c.c.b.N.N.N.c.c.N.c.k.N.c.c.5.c.k.c.k.c.b.c.V.b.V.b.c.V.c.c.V.c.b.b.N.N.l.l.b.V.V.G.b.b.G.b.b.F.b.l.V.V.P.G.l.V.l.b.b.V.V.n.b.b.z.m.b.b.x.b.b.x.b.b.l.b.N.l.V.V.b.b.V.V.V.P.A.P.A.l.V.V.l.b.M.l.V.N.V.M.c.N.k.5.N.c.N.c.b.c.l.b.b.b.b.b.b.b.b.b.N.V.P.V.V.l.V.A.M.b.N.l.N.V.V.G.l.V.G.V.G.V.G.V.l.V.N.l.V.l.N.l.V.l.V.l.M.V.l.b.M.b.l.M.b.l.c.l.c.c.N.c.N.V.N.V.V.V.V.V.c.b.N.l.V.V.l.l.b.l.b.S.l.l.S.b.l.l.l.l.S.S.z.l.z.z.l.z.z.j.l.l.j.M.M.M.<.M.<.M.M.<.M.j.M.j.M.l.M.M.M.l.M.l.M.M.l.M.l.l.M.M.M.M.M.l.l.M.l.l.k.l.M.M.l.l.l.l.k.M.1.M.1.1.<.<.1.1.j.g.g.g.j.k.j.j.j.<.z.j.j.j.k.M.k.l.j.l.j.j.k.j.j.j.k.j.j.j.j.j.j.j.j.j.j.j.j.g.j.j.1.g.>.*.1.*.1.1.1.1.=.>.>.*.1.>.>.=.>.>.=.=.>.*.1.1.*.>.>.>.*.$.",
"#.#.#.#.=.;.=.=.=.=.=.-.-.-.-.+.-.=.;.;.;.;.,.,.:.%.%.%.$.;.>.>.>.,.>.,.>.>.>.$.,.,.$.$.>.>.o.>.$.$.>.>.>.>.>.>.>.>.,.>.,.h.%.%.,.>.>.$.,.,.,.%.$.,.2.,.x.%.%.x.%.2.%.2.2.:.,.,.,.<.,.1.1.;.;.>.*.=.=.=.=.*.*.*.1.>.1.,.h.2.x.,.,.h.h.h.t.h.x.h.,.h.h.j.j.j.j.j.h.h.j.,.,.1.1.;.:.:.:.:.1.:.:.1.:.,.,.<.,.,.h.,.h.h.h.h.h.h.r.z.z.r.j.h.,.g.,.;.,.,.,.h.h.h.x.x.x.h.c.x.h.x.c.x.x.3.h.3.h.c.x.h.,.,.<.,.3.<.<.<.<.c.k.c.b.b.k.c.3.3.c.c.3.<.x.c.c.<.<.<.h.<.h.c.c.3.x.x.x.3.3.x.3.c.c.c.v.B.c.3.c.c.c.3.c.3.k.c.c.h.c.3.c.c.k.c.c.<.x.3.x.x.v.m.c.x.m.b.M.k.k.k.k.l.l.l.b.M.N.b.k.c.c.b.V.c.b.B.N.N.N.c.b.N.M.c.c.N.c.N.k.c.k.c.k.c.c.b.n.c.N.b.V.c.c.b.v.N.V.b.N.M.N.N.b.V.b.V.V.b.b.V.b.n.G.l.P.A.A.M.V.l.l.V.N.V.b.n.n.b.b.b.c.m.m.b.m.x.c.b.x.b.l.b.N.b.l.b.M.b.M.V.V.V.M.M.P.M.M.l.b.b.l.V.l.M.c.N.3.5.N.k.N.3.c.k.b.b.V.V.n.b.b.b.N.b.G.b.V.V.l.V.V.V.A.P.G.l.V.V.V.V.V.V.l.l.G.V.l.V.l.b.l.l.V.N.V.G.l.l.V.V.l.l.l.l.N.l.b.N.c.k.k.N.c.N.M.c.N.N.N.N.N.B.V.N.V.N.N.b.l.M.l.l.l.P.l.P.l.l.F.S.S.l.S.l.z.S.l.l.k.z.k.l.l.l.P.l.l.l.j.M.A.M.M.<.M.j.j.M.M.M.l.k.l.M.l.l.l.k.M.k.l.l.M.l.M.l.l.M.M.l.M.l.l.M.l.l.j.M.l.M.M.k.k.M.M.1.M.5.M.<.<.k.1.1.j.j.j.j.j.j.j.j.j.j.j.l.l.j.j.M.M.j.k.k.k.j.k.l.k.z.u.j.z.j.j.k.j.j.j.j.j.,.>.g.g.g.>.1.1.>.1.1.1.1.*.1.1.1.*.;.*.;.=.=.=.=.>.>.1.1.*.>.g.g.*.*.>.",
"#.:.;.;.;.o.o.=.O.-.=.O.+.=.O.-.-.=.=.;.;.;.;.%.%.:.:.:.;.>.>.>.>.>.>.g.,.>.$.>.>.>.>.>.O.>.>.>.$.>.>.>.>.>.1.>.>.>.>.,.,.$.,.,.,.,.;.,.;.%.,.,.,.%.%.,.%.2.%.2.m.%.2.t.2.%.,.h.,.,.,.,.>.1.:.>.;.;.1.=.1.=.=.1.*.1.1.<.<.h.3.x.h.j.h.h.h.h.h.h.h.h.h.j.j.k.j.j.,.j.,.<.1.,.1.:.1.:.:.1.:.:.:.,.:.1.,.,.j.,.>.,.>.g.$.$.h.g.h.j.h.g.g.h.j.>.<.,.,.,.,.<.x.x.h.c.k.h.k.h.k.l.k.x.h.h.h.h.h.h.h.h.<.<.<.<.<.3.c.<.k.N.N.N.N.l.k.k.k.c.k.3.c.c.<.x.c.k.c.k.c.N.N.c.k.c.c.<.3.k.3.,.3.<.3.3.3.3.3.3.c.5.<.c.3.c.c.c.c.c.N.c.b.c.c.b.c.c.k.c.x.c.x.c.m.c.k.k.l.k.l.j.k.k.l.l.M.b.b.N.k.k.c.b.c.b.B.b.N.N.b.N.N.k.N.N.<.N.k.c.k.N.c.c.k.k.c.c.N.b.b.b.B.b.V.c.b.b.c.V.b.M.b.l.b.l.V.b.V.b.G.b.G.b.V.V.V.V.P.A.V.M.b.M.b.b.C.V.C.b.x.c.c.k.c.c.k.c.c.c.k.l.c.k.b.l.c.M.k.l.M.V.V.M.P.M.V.M.V.V.M.l.b.b.k.k.k.k.N.k.k.N.c.N.c.N.x.b.b.n.b.n.C.b.C.V.V.G.N.V.G.l.V.P.V.M.l.V.V.P.P.V.V.V.V.V.V.l.V.V.V.l.V.V.V.S.V.l.V.V.V.l.V.b.V.b.b.l.M.c.k.N.c.k.M.k.N.N.5.N.N.N.N.N.V.N.N.N.b.N.b.l.N.M.b.l.l.b.S.S.b.l.l.l.l.z.l.l.z.l.l.j.S.l.l.M.k.l.l.l.M.M.M.M.<.M.k.M.M.M.j.j.k.j.l.k.l.M.M.j.l.M.k.M.k.M.k.l.M.l.l.M.l.l.j.S.l.l.S.l.j.M.k.M.j.M.<.M.<.M.5.<.M.1.N.j.j.k.j.k.j.j.j.j.j.j.j.j.k.l.j.j.M.k.j.j.g.k.k.j.l.j.<.1.j.k.z.j.j.z.j.z.j.j.j.<.j.1.1.1.=.1.;.1.1.1.1.1.1.>.>.*.>.*.>.*.=.>.>.>.>.>.g.>.g.g.1.g.*.",
":.:.%.:.#.;.-.#.;.o.;.-.=.-.o.=.=.;.;.;.;.,.%.:.$.#.$.,.>.>.*.>.*.g.*.g.>.>.>.O.>.g.>.>.O.$.u.g.$.;.*.g.>.;.%.:.:.2.%.2.%.,.,.,.;.;.;.;.,.;.%.,.%.,.%.2.%.x.%.t.%.%.2.t.%.U.x.2.t.2.,.,.2.,.:.:.:.%.,.:.:.1.1.1.-.5.-.5.-.5.j.j.j.j.k.j.z.z.h.z.t.z.h.h.,.,.,.,.:.:.:.:.:.4.:.4.,.:.<.:.;.,.;.;.h.<.<.4.j.,.,.$.g.>.h.g.$.h.g.g.g.z.g.g.<.1.<.<.<.,.j.<.<.<.3.5.N.<.k.<.k.h.k.k.h.h.k.h.h.l.k.k.<.k.k.<.k.5.<.N.<.N.k.c.c.k.c.k.N.c.c.N.N.c.3.k.c.k.k.c.c.k.k.N.5.c.k.<.<.<.3.3.3.3.3.<.3.c.x.3.c.x.x.3.3.k.3.x.c.c.c.c.c.c.3.c.c.c.c.3.c.x.<.k.3.N.k.j.N.k.M.j.k.k.M.1.M.N.k.N.k.N.N.c.c.c.N.c.c.k.c.k.N.c.N.c.M.k.N.c.M.k.c.c.N.N.b.N.N.b.N.l.b.M.b.N.b.M.N.b.l.M.N.l.V.N.V.M.N.M.b.N.b.b.b.M.M.M.M.N.N.N.V.c.V.V.V.V.b.c.B.V.k.c.k.j.N.k.k.k.c.k.N.k.N.N.k.M.M.M.N.N.M.N.M.M.M.V.M.M.V.l.l.N.M.k.k.M.k.k.c.M.N.c.b.B.b.c.b.B.n.b.V.n.C.B.V.B.V.C.V.N.V.V.V.V.A.M.M.A.V.V.M.M.N.V.N.b.V.b.N.V.V.V.M.P.V.G.V.l.V.N.k.N.k.c.c.k.k.<.N.c.c.N.c.3.N.N.k.5.N.N.N.B.c.N.c.k.N.b.k.c.V.b.b.M.l.l.V.b.l.l.x.l.l.x.b.l.k.k.l.l.k.k.k.k.c.k.M.k.k.N.V.l.N.l.M.l.l.l.k.l.j.j.k.l.l.l.M.j.M.1.M.<.1.M.5.A.M.A.M.M.M.M.l.P.G.l.S.S.l.N.l.k.M.k.M.M.M.N.j.j.N.k.M.k.M.k.k.k.M.j.k.k.j.M.M.l.M.l.M.j.M.1.j.j.1.j.1.j.j.j.>.j.g.j.z.l.z.S.z.j.j.g.j.1.j.g.1.1.1.1.1.1.1.1.1.>.>.>.;.;.:.u.>.>.>.>.1.u.*.1.*.1.1.>.g.1.1.",
"%.%.:.#.#.#.#.#.o.;.o.o.o.=.-.-.=.-.>.,.,.;.:.#.%.;.%.$.>.>.>.>.*.*.>.>.u.*.g.g.g.>.0.0.*.$.#.0.u.;.u.>.j.,.,.:.%.%.:.:.2.h.%.,.;.;.;.:.;.;.:.:.%.:.%.2.2.%.2.%.4.4.%.U.t.%.t.2.%.x.x.%.4.%.:.%.%.,.%.,.:.=.1.-.-.5.5.-.-.5.1.1.1.1.g.g.g.g.z.z.t.h.,.t.2.2.:.2.4.4.:.4.:.:.,.,.,.,.,.,.,.,.,.,.,.,.,.,.,.,.>.h.>.,.$.g.g.h.>.g.h.r.g.g.>.1.>.1.1.j.,.j.<.<.5.5.<.k.<.k.<.k.<.k.j.j.j.j.h.k.h.l.k.k.<.c.5.k.<.5.<.c.5.<.c.c.c.c.k.N.k.3.k.c.k.c.<.c.<.c.c.c.N.c.N.3.<.3.<.<.c.k.h.<.x.3.3.3.3.3.x.<.c.c.x.x.c.c.c.x.c.v.c.c.c.x.c.k.c.k.k.<.<.<.k.k.k.N.N.<.<.N.k.M.M.M.j.N.N.j.M.c.N.c.V.c.N.c.c.N.c.N.c.N.c.N.c.N.N.k.c.k.N.k.N.k.l.b.V.b.N.c.N.b.N.b.N.b.l.N.M.N.l.N.M.M.l.l.l.N.M.k.k.M.M.k.N.N.N.N.N.b.V.V.V.B.B.V.B.V.N.V.N.<.5.N.k.5.N.5.N.<.<.N.k.N.N.k.N.5.N.N.M.M.N.N.V.V.V.M.V.l.l.M.k.M.k.k.M.M.k.b.b.c.b.b.n.b.n.c.c.n.n.B.b.b.n.V.V.V.V.V.V.N.V.N.A.M.P.V.V.M.V.V.l.l.N.N.b.N.b.V.M.l.V.V.M.l.V.V.b.c.N.c.c.<.c.c.c.c.<.N.M.c.k.N.c.N.N.c.N.c.c.N.k.N.N.N.N.k.c.k.l.l.c.l.b.x.l.b.b.b.l.l.l.z.x.l.l.c.k.k.k.k.M.k.M.k.N.k.k.N.M.N.V.l.l.b.l.k.l.k.S.j.l.l.l.k.k.k.k.M.M.<.A.<.M.5.M.5.A.M.M.M.l.S.S.F.b.l.l.l.M.c.k.M.M.k.k.M.M.N.k.k.k.k.1.M.k.k.M.<.M.1.j.l.M.l.j.l.j.M.j.k.1.1.j.1.1.1.1.1.j.j.j.j.S.j.l.l.z.k.j.j.g.g.1.1.1.1.1.;.1.1.1.1.1.1.g.>.g.:.$.r.g.,.g.>.,.1.1.>.1.1.*.1.>.1.>.",
"4.%.:.#.%.:.#.#.#.#.o.=.;.=.=.>.;.;.;.;.;.%.:.#.:.$.,.$.#.>.g.$.>.*.>.>.:.;.g.>.O.g.$.*.$.0.r.*.;.$.g.>.>.,.%.:.:.%.2.%.%.,.r.,.#.;.;.;.:.;.:.,.,.%.:.%.2.%.%.2.:.4.:.5.%.2.t.t.%.x.,.2.,.:.:.:.2.,.%.;.;.1.;.-.1.-.;.1.5.*.5.M.>.>.>.g.g.z.h.z.z.h.h.h.%.4.,.:.:.#.:.:.:.:.2.,.,.,.,.,.<.;.,.,.,.,.,.,.j.,.,.>.>.j.>.g.>.g.g.g.g.g.g.;.1.1.1.>.j.h.j.k.<.1.<.<.<.k.k.k.k.j.k.j.h.j.h.j.h.j.k.k.j.k.<.k.N.k.k.<.c.5.3.N.k.c.c.b.c.N.k.N.c.<.k.<.k.3.k.<.k.<.k.3.<.<.<.<.3.<.c.<.3.3.c.<.x.3.3.x.c.c.x.c.c.c.c.x.3.x.c.c.c.c.c.c.3.k.3.c.k.3.x.<.k.3.k.N.k.k.k.j.<.M.M.1.k.N.M.k.c.N.c.N.N.c.c.N.k.c.N.k.N.c.N.k.k.c.c.N.M.c.N.c.b.N.V.V.b.N.N.l.b.M.N.c.b.l.N.b.N.l.V.M.M.M.k.k.M.l.N.k.M.k.k.M.M.N.M.V.B.V.N.V.V.V.B.c.c.V.n.N.3.N.k.N.N.5.N.k.N.<.N.N.N.3.N.M.M.N.M.M.N.M.N.N.l.V.V.l.V.M.l.b.M.M.M.k.c.M.c.M.b.N.V.c.N.n.b.n.B.C.n.c.n.V.V.n.b.C.b.C.V.V.V.V.M.P.A.M.M.V.N.l.N.l.M.k.l.N.V.N.P.M.M.l.l.P.l.V.k.l.c.k.c.c.c.c.k.c.N.c.N.b.N.k.N.N.c.N.c.N.c.N.k.N.c.N.b.b.k.k.c.l.l.l.l.l.l.b.F.l.z.b.l.x.l.l.k.l.l.k.l.k.M.k.j.N.j.N.k.M.l.M.l.l.M.k.l.l.k.k.z.l.k.l.k.k.j.j.M.<.<.M.M.5.M.5.A.5.A.M.V.l.P.l.F.S.b.S.l.l.k.k.k.M.k.M.M.k.M.k.k.k.M.M.k.1.M.k.M.M.M.1.k.j.l.l.M.l.l.l.k.j.k.1.1.1.j.1.1.j.j.j.j.j.k.S.z.S.z.u.g.j.j.1.*.1.1.1.1.1.1.>.>.1.1.j.j.>.g.u.>.g.g.u.g.g.g.g.g.>.;.=.>.*.1.=.*.",
"%.:.%.:.#.#.;.#.o.;.#.=.#.;.;.>.>.;.,.;.,.;.%.#.:.%.$.>.,.;.>.>.>.>.$.>.;.$.,.g.r.O.*.O.r.>.O.$.g.>.>.r.,.$.,.:.:.:.%.,.%.$.$.;.;.;.;.;.#.:.:.:.:.,.2.:.2.4.%.4.:.5.:.:.2.m.4.2.x.x.%.,.,.,.2.:.%.,.2.:.;.;.1.-.-.1.-.1.-.5.1.*.>.>.>.g.h.h.z.x.z.t.r.,.2.:.:.%.:.%.#.:.:.2.:.4.,.:.,.,.>.,.>.;.,.,.3.:.,.;.,.,.,.>.,.<.,.,.g.h.g.g.g.<.;.1.<.1.j.j.k.k.M.M.<.<.j.j.k.k.k.k.k.<.j.k.j.h.j.j.k.j.k.k.k.c.<.<.<.N.5.c.c.<.c.c.c.c.c.k.c.N.c.k.3.k.k.<.3.k.3.k.c.<.j.<.<.h.<.<.<.3.<.c.3.3.c.x.c.3.3.c.c.3.c.c.c.c.c.c.c.c.c.c.c.c.c.c.k.<.3.k.<.k.k.3.k.c.N.<.<.N.M.k.M.M.M.k.N.N.N.k.N.k.c.N.c.b.N.c.k.N.k.N.c.N.N.N.N.c.c.N.c.c.b.N.b.N.V.V.b.N.V.b.N.V.N.N.V.b.V.N.M.V.M.c.M.k.M.N.l.N.l.M.N.k.M.N.M.N.N.N.V.c.B.V.V.N.B.N.B.V.N.N.N.5.N.k.N.N.N.N.N.<.N.<.N.5.N.N.M.N.M.V.V.M.V.N.V.N.l.V.V.l.N.M.M.k.M.k.k.b.b.b.c.b.B.b.B.b.V.b.V.n.V.c.b.B.V.b.V.b.V.V.V.V.V.M.P.M.A.M.l.V.N.M.N.l.l.N.N.M.l.V.V.V.l.N.V.l.k.c.k.x.k.c.c.b.c.N.c.N.N.c.c.N.c.c.k.c.c.k.c.k.c.k.N.N.k.N.c.M.l.b.M.c.b.b.k.l.l.b.b.x.l.l.l.b.k.b.k.k.k.c.l.M.N.j.N.<.k.N.k.N.l.k.k.l.h.j.l.l.l.k.k.l.j.M.M.k.<.M.M.<.N.M.5.M.5.M.M.M.l.V.S.F.S.l.S.l.l.l.l.k.M.k.M.k.l.M.k.M.M.k.k.k.M.M.j.k.1.k.k.k.k.M.M.j.l.l.l.j.k.j.1.j.1.1.1.1.1.<.j.j.j.j.j.z.j.j.l.j.j.g.j.j.1.1.1.*.=.1.1.1.1.j.g.1.j.g.>.g.g.>.g.g.g.j.g.g.>.1.1.*.*.1.>.=.>.",
":.:.$.#.$.#.#.$.#.#.#.#.#.;.;.$.;.,.;.,.:.%.%.#.%.$.%.,.h.h.,.,.h.,.r.,.$.,.$.$.>.>.$.r.*.$.u.>.r.$.$.g.,.$.,.%.%.%.:.:.$.,.$.$.;.:.%.:.,.:.:.,.:.:.:.:.%.:.,.:.5.;.5.;.:.:.1.;.,.h.h.,.4.,.,.,.5.:.:.;.;.;.-.;.;.;.;.-.;.,.,.,.>.>.,.j.h.h.z.z.x.z.h.2.2.2.%.:.%.:.%.:.:.,.2.:.:.,.,.:.,.;.,.,.:.<.,.:.,.<.:.,.1.,.,.;.<.>.j.j.j.j.j.1.1.1.1.j.j.j.l.l.M.k.j.k.j.k.k.k.z.k.k.k.k.k.<.j.h.<.j.k.<.k.k.3.3.N.<.5.k.3.c.N.c.c.c.c.c.k.N.c.<.c.<.<.<.<.<.x.k.<.<.k.<.<.<.<.<.<.c.<.c.3.c.3.3.c.c.c.c.c.c.c.c.c.c.c.c.c.c.c.x.c.c.x.3.k.x.c.h.<.x.3.c.c.c.c.c.c.c.x.M.5.c.N.b.N.c.N.N.N.N.N.M.N.k.N.5.M.N.N.N.M.b.N.N.b.N.v.c.c.c.N.c.V.b.V.V.b.V.b.V.b.V.V.V.b.b.V.l.N.b.V.N.c.b.N.V.N.b.c.b.V.N.b.b.N.N.V.b.N.V.V.V.B.B.b.V.B.b.V.N.N.3.c.N.5.N.N.5.N.<.N.N.<.N.c.M.N.N.V.N.M.V.N.V.V.V.V.V.l.V.l.M.M.k.N.M.l.N.b.N.b.V.b.b.n.V.n.C.b.V.b.b.V.b.c.b.b.C.V.B.b.B.V.N.V.V.V.V.V.b.V.l.l.M.M.M.M.A.M.A.l.M.M.M.M.M.N.l.l.c.l.b.c.b.b.b.b.b.N.b.b.b.c.b.b.b.l.k.h.c.c.c.k.N.k.k.b.b.M.N.b.b.M.b.l.b.b.l.b.l.b.x.l.l.b.c.l.l.l.k.M.b.M.j.N.c.M.k.M.l.M.l.k.l.k.l.l.l.k.k.k.j.k.k.k.l.M.M.A.N.N.M.5.5.M.M.c.M.N.l.l.S.F.b.S.l.l.M.k.l.k.k.M.k.M.k.M.M.k.M.k.M.k.k.k.M.j.M.k.k.j.j.S.l.j.j.l.j.k.j.j.*.1.1.1.>.1.1.5.;.1.g.g.j.k.k.j.j.j.j.j.1.j.1.1.1.1.1.1.1.1.1.g.j.g.j.j.g.>.>.g.g.g.z.j.j.j.g.1.>.>.*.=.>.*.*.",
":.;.;.,.,.;.;.;.;.;.#.;.$.;.;.,.<.,.,.,.,.%.,.%.,.,.%.h.%.h.,.r.r.,.x.%.h.%.$.$.$.O.g.>.r.g.:.$.$.g.$.$.$.h.%.,.:.2.,.,.;.$.>.$.$.,.,.,.,.,.,.:.1.:.:.:.4.4.:.:.;.5.;.5.:.1.1.5.,.,.,.2.2.,.,.4.5.:.5.;.1.;.;.-.;.;.;.1.,.;.,.,.,.,.j.j.h.z.z.z.z.x.h.r.%.%.%.:.:.:.4.:.:.:.,.,.4.,.,.,.,.,.;.,.:.:.:.<.1.,.1.:.,.1.1.,.1.,.<.1.j.j.,.1.1.1.<.<.h.k.z.l.M.k.j.k.k.z.k.k.k.k.k.z.k.k.j.k.<.j.j.j.j.k.<.k.<.N.<.<.N.<.c.<.v.N.V.b.N.c.k.N.N.k.k.c.c.k.<.k.<.x.x.<.<.N.5.c.<.c.<.<.3.c.c.N.c.3.B.3.c.c.c.c.c.v.c.v.c.x.c.c.v.c.c.3.c.k.3.3.c.c.k.c.c.c.c.c.v.c.c.x.N.N.N.c.c.N.N.V.M.N.k.M.k.M.N.M.M.M.k.M.k.M.N.b.c.N.b.N.V.c.c.c.b.b.B.b.b.N.N.b.b.b.b.c.c.V.c.N.c.b.N.b.V.V.V.V.V.V.V.V.N.b.V.N.b.N.N.N.V.V.B.N.V.V.V.B.n.N.B.N.N.3.N.N.N.c.N.N.N.N.N.N.N.N.N.<.N.N.N.N.V.N.N.V.V.V.V.M.G.V.l.b.l.N.l.M.M.b.N.V.b.N.c.V.B.b.n.V.V.V.V.V.b.V.V.b.B.C.B.b.V.n.b.n.N.N.N.V.V.V.V.N.V.N.M.M.M.M.M.P.M.A.M.V.M.V.N.M.N.b.l.c.b.b.b.b.b.N.l.b.b.V.b.l.l.c.l.x.k.b.b.l.M.c.k.c.N.N.k.b.V.l.b.l.V.b.P.b.F.b.b.l.l.b.b.l.l.l.M.b.N.k.M.l.k.N.k.M.M.k.N.k.c.M.l.l.b.k.b.l.l.l.l.l.M.l.M.N.M.1.M.M.M.M.M.5.N.N.l.l.V.G.S.G.S.l.G.l.l.l.b.l.N.k.M.M.M.k.k.M.M.M.l.l.M.k.M.M.1.M.k.M.k.k.j.k.j.j.k.j.k.j.1.1.1.g.g.1.u.1.1.>.g.1.1.g.j.j.k.j.j.1.<.j.j.1.1.1.1.1.j.1.1.j.g.j.j.>.j.j.g.g.j.g.j.j.j.j.1.g.1.>.>.>.>.>.*.",
",.>.;.,.>.$.;.>.;.;.;.#.$.:.,.:.h.,.,.%.%.,.%.2.%.,.h.,.%.h.x.$.t.x.t.,.4.%.r.$.$.,.>.g.r.,.g.h.,.%.$.$.$.%.,.$.,.,.,.$.>.>.;.>.,.,.,.%.,.,.,.,.1.:.:.1.1.:.:.:.5.-.;.5.5.:.5.1.,.,.,.,.,.,.,.,.:.:.5.:.-.5.;.;.1.1.1.1.1.,.,.,.j.<.h.h.h.h.h.x.x.z.h.x.2.%.:.:.%.:.:.%.2.,.,.2.,.,.,.,.;.,.>.;.,.:.:.5.1.<.:.1.:.<.1.,.1.<.1.1.,.<.<.1.3.1.<.<.z.l.z.F.b.l.k.k.k.h.h.k.k.l.k.c.<.h.<.<.<.,.<.,.<.k.k.c.<.<.<.<.3.<.5.N.c.c.b.b.N.c.N.c.c.c.k.c.3.k.c.<.k.<.<.x.N.<.N.k.3.<.k.5.3.c.3.c.v.c.v.c.c.c.v.c.c.c.c.c.x.c.c.c.c.c.c.3.c.c.c.c.c.c.c.c.c.c.v.c.v.v.v.v.N.V.v.N.V.V.c.c.N.c.M.<.<.k.M.M.k.M.M.N.N.M.b.N.V.N.c.v.v.v.c.v.V.b.V.V.c.V.b.V.V.B.V.B.B.V.V.b.N.b.V.V.C.V.V.C.V.b.V.V.V.b.b.N.N.N.N.b.V.N.B.V.B.V.n.N.b.B.n.N.N.N.N.N.N.N.N.c.N.N.N.N.N.N.N.N.N.N.c.V.N.N.V.V.V.V.V.V.V.b.V.V.N.M.N.M.N.N.V.V.b.V.B.b.V.n.b.B.V.V.V.V.V.V.C.V.C.n.n.V.c.b.n.m.n.b.V.V.V.V.V.V.M.V.N.l.M.A.M.A.M.M.A.M.M.M.l.N.V.b.b.b.b.b.n.V.V.b.F.V.b.b.b.b.b.c.b.k.l.b.b.l.c.M.k.c.l.c.b.N.V.b.V.V.b.V.l.b.b.b.l.b.l.b.l.b.N.b.V.l.M.N.M.N.N.M.M.k.M.N.M.M.M.l.l.b.l.N.l.M.l.M.N.l.l.l.M.k.M.M.A.M.A.M.M.M.k.k.b.M.V.b.V.G.l.F.G.F.b.b.l.M.k.N.l.k.k.k.N.k.M.k.M.N.k.M.M.M.1.M.M.k.l.k.l.j.l.j.j.j.k.k.1.M.k.1.j.1.1.1.*.1.1.j.1.g.1.j.j.1.1.k.1.1.1.1.1.1.j.1.j.1.j.>.g.j.g.j.g.g.>.j.g.1.g.j.j.j.j.<.j.>.1.>.1.>.1.",
">.>.;.>.;.,.>.,.;.:.%.,.#.:.#.%.2.2.,.,.,.,.x.%.,.%.2.r.x.,.r.x.2.%.x.%.t.x.%.h.$.r.$.h.g.h.>.$.,.r.$.$.%.$.$.,.,.,.>.,.,.>.>.>.,.2.h.2.,.%.:.,.1.:.1.:.:.1.:.:.5.;.;.;.;.;.-.5.,.;.,.h.,.4.2.,.4.<.;.5.1.5.-.5.;.;.1.;.1.,.,.,.<.,.h.,.h.k.h.z.t.h.,.x.h.,.2.4.2.:.2.2.:.,.,.2.,.,.,.,.,.>.,.,.:.:.:.:.:.:.:.<.1.,.1.<.1.,.<.1.<.x.<.<.<.5.<.3.h.z.z.F.S.l.l.k.l.x.z.l.h.k.l.k.k.k.<.h.<.j.<.<.j.k.k.<.k.N.5.<.N.3.N.k.c.N.b.B.N.N.N.N.N.c.N.k.N.c.k.c.<.c.k.<.<.k.5.N.N.c.N.<.c.c.3.N.c.3.c.B.b.v.N.c.c.v.N.v.c.3.c.c.c.c.c.c.c.c.c.c.c.c.c.c.n.c.v.n.v.v.v.v.v.c.v.b.v.N.B.V.N.M.M.<.M.N.M.M.k.N.M.M.M.N.N.N.N.N.n.c.v.c.b.c.v.V.b.B.V.b.V.b.b.V.b.b.V.b.b.V.V.V.b.C.V.b.C.V.V.b.b.b.N.b.N.b.c.N.N.V.c.V.V.c.B.N.B.V.B.b.V.B.N.N.N.N.k.N.N.N.N.N.N.c.N.3.<.N.N.N.V.N.V.V.A.N.A.V.b.V.V.V.b.V.l.k.M.b.b.V.C.V.V.b.B.b.B.b.C.b.N.V.V.V.C.V.V.C.V.V.C.n.n.n.c.c.b.B.b.n.B.V.V.V.V.V.V.V.M.M.M.M.A.P.A.A.V.V.V.l.V.V.b.V.n.b.F.F.b.V.V.b.G.l.b.l.b.l.b.l.b.b.b.N.N.k.c.k.l.N.M.N.V.V.b.V.G.b.G.b.F.l.b.b.x.k.b.l.l.b.l.l.N.l.N.N.V.M.N.M.N.l.b.M.N.l.l.l.V.l.M.b.G.V.V.l.l.k.k.l.M.M.M.M.M.M.M.M.N.c.N.b.S.b.G.F.F.G.l.l.b.V.b.N.M.k.k.M.N.l.k.M.V.N.N.N.M.M.M.M.M.M.k.M.l.M.j.j.j.l.k.l.k.M.M.M.k.k.k.j.k.1.j.g.1.1.*.1.1.1.<.M.M.<.1.k.1.j.1.*.1.g.1.g.j.g.j.j.j.j.1.j.j.g.j.g.j.g.j.j.j.j.1.<.u.g.>.1.g.",
"1.j.>.>.>.1.g.>.,.$.h.,.$.%.%.,.%.,.,.x.,.x.$.%.h.%.,.%.h.r.%.x.%.t.%.%.U.U.%.%.2.,.h.h.h.>.h.>.r.%.%.%.%.$.h.x.$.g.$.,.;.>.>.>.,.2.,.,.:.5.5.:.1.5.5.:.;.:.;.5.5.-.-.5.-.5.5.-.,.1.,.j.<.1.,.,.,.3.,.:.;.:.1.;.1.:.1.;.:.,.,.<.x.,.x.,.h.,.%.,.h.r.%.x.,.x.,.,.2.,.,.,.%.2.,.,.,.,.,.,.,.,.;.,.,.:.:.:.1.:.1.<.<.:.<.5.1.1.1.1.5.1.5.;.5.1.1.1.k.z.S.F.z.S.x.l.z.l.k.h.z.c.k.c.<.k.j.<.<.<.,.<.j.k.<.<.3.<.5.N.<.N.c.N.c.c.V.c.b.N.c.N.k.k.N.k.<.k.c.k.<.<.h.<.N.<.5.N.k.<.N.3.3.3.c.3.c.c.3.3.v.c.c.c.c.c.c.c.c.c.c.c.c.c.c.c.N.c.c.c.v.c.B.n.v.v.v.v.v.v.m.v.v.v.n.c.v.c.b.B.V.c.M.k.j.j.k.M.M.<.M.M.M.M.N.N.B.N.N.n.b.v.v.b.b.B.V.n.b.C.V.V.B.C.b.b.b.V.n.b.b.n.C.V.C.b.C.b.B.b.b.V.c.c.c.k.N.c.N.c.V.V.b.B.b.c.b.B.B.b.b.c.V.N.N.N.N.N.N.B.c.N.c.N.N.N.N.c.N.N.A.V.V.V.V.V.V.V.V.V.G.b.V.b.V.V.V.V.n.V.V.V.b.V.b.V.b.B.V.V.A.V.V.A.V.A.V.C.C.V.n.n.n.m.b.v.b.c.b.C.V.b.V.b.l.N.l.M.V.V.P.A.M.A.M.A.M.M.V.V.V.b.H.b.n.V.b.D.C.F.b.V.b.b.b.V.N.b.b.V.l.G.b.b.k.N.c.N.b.N.N.b.b.V.V.V.b.G.G.V.b.b.l.b.l.c.l.b.l.l.k.b.k.N.k.k.k.l.k.k.b.k.l.l.l.N.l.V.M.M.V.M.M.V.M.M.N.l.l.N.l.V.V.l.l.V.V.l.l.M.b.l.b.G.F.F.b.F.l.b.l.c.k.l.N.l.M.k.k.l.l.N.M.N.M.k.k.k.k.k.M.<.M.M.k.j.M.j.l.j.j.M.1.M.<.M.k.k.k.j.k.1.k.1.1.1.1.1.1.k.1.1.1.1.<.1.1.1.1.u.j.j.j.1.;.1.>.j.j.j.j.1.g.>.1.g.g.1.g.1.g.g.g.j.1.1.j.g.j.",
"1.>.1.>.>.>.>.>.>.>.,.$.,.,.,.%.%.,.,.2.h.%.,.h.%.$.$.%.$.2.h.x.%.%.m.%.%.%.4.t.%.r.$.x.h.h.$.h.%.2.%.2.,.$.h.,.,.$.,.>.>.>.1.;.h.h.2.,.:.:.5.5.:.:.1.:.1.1.5.-.5.-.5.-.5.-.-.5.;.,.<.<.,.,.1.,.,.,.1.,.1.:.:.:.1.1.:.:.:.:.:.,.,.,.,.,.,.h.h.r.r.,.h.h.h.,.2.,.%.2.2.,.,.,.x.%.,.,.,.,.;.>.,.:.:.:.4.:.:.1.:.:.5.1.5.1.5.1.5.1.;.1.5.5.5.5.:.1.k.x.z.b.l.b.z.l.x.k.k.l.k.l.l.k.k.c.h.k.j.h.<.j.k.k.k.<.k.3.k.<.c.N.5.N.N.c.c.c.N.c.N.c.c.c.c.c.N.c.<.c.k.c.3.<.5.k.c.<.<.c.3.k.c.3.c.N.B.c.c.c.c.B.n.c.N.v.v.b.c.c.3.c.c.x.c.x.c.c.c.N.c.b.b.v.v.n.c.v.v.n.x.v.c.v.c.v.N.b.B.V.V.N.N.k.N.N.5.M.k.M.<.M.M.5.N.N.V.V.c.c.c.c.v.B.V.c.V.B.C.V.n.C.b.b.V.c.C.b.V.B.B.V.V.n.V.B.b.V.b.B.v.b.b.c.b.c.c.V.c.V.c.V.B.B.B.B.C.B.C.C.B.B.B.B.N.v.v.N.N.B.B.N.N.B.N.N.c.N.N.B.V.V.C.V.A.B.C.V.V.V.V.b.V.V.V.V.V.V.V.V.B.V.B.b.V.c.V.V.B.V.V.V.V.G.P.A.V.H.C.C.C.n.n.n.v.n.n.n.B.B.C.b.b.V.V.N.V.V.A.M.A.M.M.A.A.M.M.A.V.M.V.b.b.G.V.D.H.b.G.V.G.b.V.G.b.b.V.b.b.b.b.b.V.b.b.N.N.k.k.b.b.M.V.G.b.V.G.b.b.b.G.b.b.l.l.c.x.l.b.l.l.M.M.l.l.M.k.k.l.l.k.l.k.l.N.M.N.l.M.N.l.N.V.V.N.V.l.N.V.l.N.l.l.b.M.l.l.M.b.b.b.V.l.G.l.G.l.V.b.l.M.b.l.c.k.N.k.l.M.N.M.M.k.l.M.b.M.k.k.k.M.<.M.1.l.k.l.j.j.k.l.l.M.M.M.M.k.j.k.j.j.j.1.j.1.1.j.j.1.1.1.1.1.1.1.*.j.1.1.5.k.j.j.u.j.g.g.g.1.j.j.g.1.g.>.g.g.g.1.g.g.j.g.j.j.,.,.j.g.",
"g.>.>.>.>.>.>.>.$.,.,.%.,.,.r.,.,.,.,.r.,.,.$.,.r.,.r.,.%.r.,.%.m.t.%.2.2.t.%.2.,.,.,.,.,.,.>.$.x.2.$.%.$.$.$.h.,.g.,.g.<.>.<.,.x.,.<.4.5.5.5.:.1.1.5.5.;.5.;.5.:.5.;.:.-.5.-.-.1.,.>.,.,.,.;.,.,.1.:.,.,.1.,.,.1.,.:.:.:.:.:.2.,.,.,.,.%.x.,.,.2.r.2.x.h.x.r.2.%.x.%.,.2.h.2.2.,.,.,.,.<.>.1.,.<.:.<.:.1.:.,.<.:.1.1.:.1.5.1.1.5.;.5.5.1.5.:.5.k.z.l.S.F.z.x.l.l.k.k.b.x.k.l.b.k.c.k.c.c.k.k.c.N.j.c.k.k.<.5.N.c.5.N.c.c.c.b.b.c.N.c.M.k.N.N.k.c.k.c.<.3.k.3.k.N.<.5.N.N.<.N.<.c.3.3.c.c.3.v.c.b.n.c.c.V.c.c.c.c.x.x.c.c.3.x.c.c.c.3.x.c.c.c.v.B.c.n.v.v.c.v.v.v.v.c.c.n.c.c.B.N.V.c.M.N.M.M.A.M.N.c.M.M.N.N.V.c.V.N.v.B.b.n.c.n.b.C.b.V.n.V.n.n.V.c.b.V.C.C.C.V.n.B.n.n.b.b.B.c.n.b.c.b.v.b.V.N.c.N.N.N.B.v.V.C.C.C.C.C.C.C.C.N.N.N.N.N.N.N.N.N.N.c.N.c.N.c.N.N.V.A.B.A.A.C.A.V.V.C.V.V.G.G.C.V.V.V.V.C.V.b.V.V.V.V.b.b.V.n.V.V.V.G.A.V.H.C.A.C.V.C.C.B.b.n.n.c.v.n.b.C.b.V.B.b.M.N.V.M.V.A.P.A.A.M.V.V.M.V.A.V.G.C.b.C.n.G.G.b.V.G.l.b.l.l.N.l.b.b.b.V.l.l.b.N.k.c.l.N.N.b.b.V.b.V.V.b.V.F.V.G.b.b.b.b.l.l.b.l.b.k.l.k.N.k.M.l.k.k.k.l.M.l.V.l.N.l.N.l.N.N.M.N.c.N.N.V.b.V.b.b.l.b.l.b.b.b.F.G.l.l.b.b.F.G.l.b.G.V.l.b.l.l.l.k.c.k.N.b.c.c.k.k.k.k.k.k.k.k.k.M.M.M.k.j.l.j.j.M.l.j.M.k.M.<.M.M.k.k.j.j.1.k.j.k.M.k.j.M.M.1.M.1.1.k.M.j.j.1.j.j.k.j.j.g.j.j.j.j.j.1.1.g.1.1.1.>.1.1.*.1.,.1.j.g.j.>.j.1.",
">.>.>.*.>.>.>.;.,.,.,.,.,.,.2.h.,.x.,.,.,.>.h.$.>.$.,.$.h.x.h.t.2.%.m.%.%.%.h.%.%.$.,.,.,.h.,.,.,.%.r.%.r.>.$.h.g.h.g.,.,.,.,.,.,.,.1.:.1.:.:.5.:.1.:.:.5.;.5.-.:.;.;.;.5.-.5.5.>.;.<.;.,.>.1.;.:.;.:.:.:.1.:.;.:.,.;.:.%.,.:.:.,.:.2.,.,.,.2.h.,.2.h.%.h.%.h.h.h.h.x.,.h.,.,.h.,.,.,.,.;.,.;.,.:.,.,.:.:.,.:.,.<.1.5.<.5.1.5.1.5.5.;.5.5.:.1.:.j.h.z.x.l.b.k.l.k.l.c.k.l.b.c.l.k.k.c.k.M.c.M.c.k.N.N.k.5.N.<.<.3.N.3.N.N.c.c.c.c.c.M.c.N.c.c.N.<.c.k.c.k.c.N.k.k.N.N.k.3.c.3.N.3.c.N.B.v.N.B.c.B.c.c.B.v.c.v.c.c.c.c.c.c.c.c.c.x.c.c.c.c.c.v.v.n.v.n.c.v.c.n.c.v.c.n.c.c.B.V.n.B.V.N.N.M.M.A.M.M.V.V.N.M.N.N.N.c.N.b.B.V.B.N.v.V.V.C.C.C.C.B.V.N.c.b.B.n.V.C.C.n.C.b.C.C.B.b.b.c.c.V.n.N.n.n.b.b.N.c.V.c.V.V.B.C.V.C.C.C.C.C.C.B.c.B.c.N.c.N.c.N.B.N.N.N.B.N.c.B.A.A.C.C.Z.G.A.C.V.B.V.V.V.V.V.V.B.b.C.b.b.V.C.b.V.b.N.b.V.V.V.V.V.A.V.C.V.V.H.H.C.C.C.C.n.C.n.n.V.V.n.V.B.V.b.V.V.V.V.P.A.V.V.P.M.A.A.A.V.V.M.V.V.G.G.D.V.C.n.G.b.b.b.b.b.b.b.b.l.l.b.b.b.x.l.b.k.N.N.N.b.M.V.V.G.V.l.F.V.V.b.b.F.b.l.l.l.b.l.c.M.c.l.M.k.N.k.l.l.l.k.k.l.l.N.V.M.N.l.N.M.N.l.b.V.N.c.V.N.V.l.l.b.l.b.l.l.N.S.l.b.l.F.l.G.b.F.l.l.b.b.l.N.c.l.b.k.b.N.k.M.k.k.c.k.c.k.c.M.c.N.<.M.k.k.M.k.M.M.j.l.k.k.k.M.M.M.k.j.j.M.k.M.j.j.k.k.k.k.k.j.j.1.k.1.1.j.j.j.k.k.j.k.k.j.k.j.j.<.j.,.j.1.1.1.>.1.1.*.>.1.u.1.j.j.j.j.j.j.j.",
"$.>.>.>.$.>.>.,.g.,.g.h.g.h.h.h.,.,.,.h.r.g.>.$.>.g.r.h.h.r.h.r.r.x.2.r.%.$.%.,.,.$.,.,.%.,.,.,.2.,.h.%.,.$.h.g.g.g.$.>.,.,.:.,.,.:.,.;.:.:.:.:.:.:.5.-.;.5.5.;.;.:.;.;.:.<.,.,.,.>.>.,.>.;.1.1.;.1.1.;.,.1.,.:.:.,.,.%.:.:.:.2.:.,.:.2.4.2.,.,.x.%.,.h.t.r.2.h.x.x.h.h.%.x.h.,.,.,.,.,.;.,.;.;.,.,.,.,.:.,.1.<.<.<.<.<.5.1.1.1.1.;.5.5.5.5.5.5.h.l.x.l.z.l.k.h.c.k.c.k.x.k.h.c.k.h.x.b.l.x.V.l.M.k.c.k.N.N.<.<.c.5.N.c.N.c.b.c.c.k.N.c.c.N.N.c.k.c.k.k.3.k.k.N.N.N.<.N.N.N.3.k.c.c.B.c.c.v.v.N.B.b.n.c.c.N.v.c.c.c.c.x.x.c.c.c.c.c.x.x.c.c.c.N.V.v.b.v.V.v.c.v.m.c.v.c.c.N.B.V.V.B.N.b.N.V.V.N.V.V.N.V.c.V.V.N.V.N.B.V.V.B.V.V.C.C.C.C.C.n.n.C.n.c.c.B.C.H.H.n.C.n.n.C.n.b.b.v.n.c.b.n.n.B.C.n.N.V.c.B.B.V.n.b.B.B.C.C.n.B.C.n.V.B.B.V.N.B.V.B.B.B.c.B.N.v.N.N.V.B.C.H.A.C.Z.C.G.C.V.C.G.b.G.b.C.b.B.V.V.b.V.C.b.V.V.N.V.N.V.N.V.C.V.A.A.G.C.C.H.C.C.D.C.C.C.C.b.B.n.V.n.C.b.V.V.V.C.V.G.V.V.V.P.A.V.P.P.P.V.V.H.V.C.C.C.n.V.B.b.V.b.b.b.b.N.l.l.b.b.b.l.l.c.b.l.c.N.N.b.N.M.V.V.V.b.G.V.F.V.G.F.b.b.b.l.l.l.b.M.b.M.l.M.l.M.l.k.h.l.k.k.b.l.l.M.N.b.M.M.c.M.M.N.N.k.N.b.V.l.b.b.b.l.F.b.l.F.b.F.b.S.b.V.F.b.V.b.V.b.V.b.l.b.b.N.l.c.k.k.k.c.c.k.c.k.c.c.b.N.M.1.M.k.k.M.l.j.M.M.l.j.M.k.M.1.1.k.M.l.j.k.j.k.j.z.k.k.k.j.j.j.j.j.,.j.j.j.j.k.j.j.j.k.j.M.1.<.j.j.j.j.1.1.1.1.1.1.>.*.>.g.g.j.j.j.j.j.j.j.",
"h.g.$.>.>.g.$.g.,.r.$.j.,.h.,.h.h.,.r.,.,.>.>.g.$.g.>.h.h.h.x.h.x.h.%.$.%.,.h.%.,.%.%.:.2.,.,.2.%.2.r.,.h.h.r.h.g.h.h.,.,.,.:.:.,.,.,.;.;.;.;.:.:.5.-.5.5.-.5.;.:.;.:.:.;.;.,.,.>.,.>.;.;.;.>.;.:.,.;.1.;.:.:.,.:.:.:.:.:.:.:.:.%.4.%.,.:.%.,.2.h.,.x.,.,.,.x.%.%.h.%.x.x.r.2.2.,.,.,.,.,.;.,.,.,.,.,.,.,.;.,.,.3.<.<.3.<.<.5.<.5.5.5.;.:.5.5.5.c.x.l.k.x.b.c.c.k.k.h.c.k.k.c.k.c.k.k.l.b.l.l.b.k.N.k.<.k.<.N.5.c.N.N.N.c.V.c.b.N.N.c.k.c.k.k.c.N.k.N.c.c.N.c.c.<.<.N.<.k.3.3.N.N.3.3.N.N.c.B.v.c.v.N.B.c.n.v.c.c.c.c.c.c.c.c.c.c.c.v.c.c.B.n.c.n.N.B.b.c.N.V.v.V.v.b.B.n.b.C.B.V.V.B.N.A.N.N.V.V.B.B.c.N.N.c.N.N.c.V.B.V.C.C.V.C.C.n.H.C.C.C.b.B.b.b.b.C.n.C.C.n.C.n.C.B.n.v.n.c.n.n.b.b.n.n.C.B.V.V.B.b.B.V.B.C.b.n.B.v.n.b.B.B.C.B.V.B.c.B.B.B.N.B.c.c.B.B.B.B.A.A.C.C.Z.C.G.C.V.C.V.V.H.V.C.V.V.V.b.B.V.b.V.V.b.b.b.l.b.N.b.b.V.V.V.V.V.V.V.V.C.C.C.n.C.b.n.C.n.N.n.V.B.C.V.C.V.A.G.V.V.A.V.A.G.A.A.V.V.V.V.V.C.V.V.V.V.B.B.V.b.V.b.l.b.b.b.b.c.l.l.b.b.b.k.N.M.N.c.N.V.b.b.b.V.b.V.b.G.b.V.b.G.V.l.b.b.b.b.b.M.b.l.l.N.M.c.l.l.k.l.k.l.l.c.M.k.M.M.N.M.N.N.N.N.N.N.N.N.G.V.b.l.b.l.S.b.S.b.l.F.b.F.b.b.b.G.b.b.b.l.b.b.b.N.N.V.M.b.c.k.l.N.c.l.N.l.N.M.b.M.M.M.M.M.M.l.l.M.l.l.k.l.k.M.M.M.l.j.k.l.j.k.j.k.j.k.g.j.j.j.j.j.j.j.j.j.j.j.g.j.j.j.j.k.1.M.1.<.1.j.1.1.*.1.1.*.*.1.1.>.g.g.g.j.j.j.j.j.j.",
",.g.h.$.r.,.h.h.g.,.>.h.g.$.h.>.,.h.,.r.g.>.g.>.>.g.g.h.z.h.h.t.h.,.$.$.$.$.$.%.,.,.%.,.,.,.2.,.,.,.r.,.h.h.j.h.j.j.j.,.,.%.,.:.1.:.:.;.:.:.:.:.-.:.-.5.5.-.;.-.:.:.:.:.,.;.;.j.,.,.>.;.>.1.1.1.1.1.:.;.,.:.;.:.:.,.%.:.:.:.:.4.2.:.4.2.2.2.,.2.,.2.2.,.h.x.h.%.r.2.x.%.h.h.,.h.h.,.,.,.,.:.,.;.,.,.,.,.,.,.,.<.5.<.5.k.<.N.<.k.5.5.:.5.:.5.5.5.N.k.b.b.b.k.k.3.<.c.c.k.c.h.x.k.c.k.x.l.x.b.b.l.c.M.c.N.3.N.N.<.5.N.N.N.B.b.c.N.N.c.c.N.c.N.N.3.c.c.c.N.N.k.c.k.N.N.N.N.5.k.N.c.N.v.c.3.c.v.N.B.n.N.v.b.b.B.V.c.c.c.v.c.v.c.c.c.v.v.c.c.c.b.V.n.N.n.N.B.V.c.V.N.n.B.B.b.B.C.C.B.B.B.B.V.V.V.N.V.V.N.v.V.N.V.N.b.N.c.V.C.C.A.V.B.C.C.H.C.H.C.V.C.n.n.b.B.b.C.C.C.C.n.C.n.n.n.v.b.b.v.n.n.B.n.n.b.n.V.B.C.B.V.B.V.C.n.B.b.n.B.B.C.B.B.B.B.c.B.B.V.C.B.N.c.v.N.c.V.V.B.A.C.A.C.A.C.V.V.C.V.C.H.V.F.b.C.V.C.b.V.C.V.N.V.N.b.b.N.b.N.b.V.V.b.V.V.b.C.C.C.C.C.C.V.C.C.B.V.n.V.V.n.V.C.H.V.A.C.A.A.A.G.G.A.A.G.G.V.G.V.V.V.A.B.n.V.N.N.b.V.b.V.b.b.b.b.N.b.N.b.b.b.b.N.N.c.c.N.V.b.N.N.b.G.V.V.b.V.V.b.F.F.V.b.l.l.V.l.l.l.M.M.M.M.k.M.l.l.l.l.k.l.k.l.k.M.N.N.N.M.N.N.N.c.c.N.V.b.V.b.b.b.l.G.l.F.F.F.F.b.b.l.F.b.V.b.b.b.b.V.V.b.b.b.V.N.b.N.c.M.c.c.M.c.b.N.b.N.l.N.M.k.k.l.j.l.l.M.k.l.M.l.k.k.k.M.M.M.l.k.j.j.k.j.j.j.j.g.j.z.j.z.j.j.g.j.g.g.z.g.j.j.j.j.j.1.1.j.1.j.1.j.1.1.1.1.1.g.1.>.g.j.g.z.z.k.z.j.k.",
",.$.>.,.>.>.h.h.,.h.g.>.,.g.>.$.h.>.g.>.>.>.g.g.g.g.g.j.h.h.h.j.h.h.,.$.$.,.%.,.%.:.:.2.%.,.,.2.,.%.$.h.g.g.h.g.h.h.j.,.,.2.:.,.,.,.,.1.:.:.:.:.:.-.-.5.-.5.-.5.:.:.:.:.,.,.,.,.j.j.,.>.;.;.:.1.1.;.1.:.:.:.;.,.;.:.:.:.%.:.:.%.%.2.:.:.,.:.,.,.h.,.h.h.%.,.r.x.h.t.h.x.r.h.h.x.,.,.,.,.:.,.;.,.,.,.j.,.,.>.j.,.M.k.N.<.5.5.5.5.;.5.:.:.5.5.5.3.N.c.N.b.N.N.3.N.N.c.N.c.N.c.k.c.l.l.b.b.l.b.l.b.k.c.k.N.N.N.N.N.c.N.c.c.N.N.c.N.c.N.N.N.c.k.c.k.N.N.N.c.N.c.c.k.N.3.c.N.N.N.3.N.c.3.N.c.c.c.v.b.B.v.v.N.n.c.c.v.v.c.V.c.v.N.c.v.c.c.B.b.B.B.B.V.B.V.N.N.N.N.N.N.N.N.B.V.V.A.C.C.V.V.V.V.B.B.N.c.N.V.c.N.c.c.N.V.c.V.V.A.B.A.V.V.C.H.D.C.H.n.D.C.b.V.n.c.n.C.C.H.n.C.n.V.b.b.b.c.n.b.c.B.C.C.C.C.B.C.C.C.C.C.C.n.C.B.B.v.n.n.n.C.v.B.V.N.b.B.v.V.B.B.N.B.c.N.B.C.N.B.V.C.H.A.C.A.C.C.G.C.b.V.C.V.C.V.b.C.C.C.V.b.b.V.V.N.b.M.M.N.M.b.b.N.b.b.V.b.V.n.G.b.H.C.V.n.C.b.V.b.V.V.V.V.C.G.A.G.V.G.G.A.G.P.P.G.V.G.V.G.V.B.V.V.N.c.M.M.B.B.V.b.V.b.N.N.N.c.c.b.N.N.b.b.b.N.M.b.V.M.b.V.V.V.b.V.G.b.V.G.V.V.b.b.b.b.l.b.N.b.b.l.b.M.N.l.b.b.k.l.l.k.l.k.l.k.k.M.M.M.V.V.N.M.N.M.N.M.N.G.V.M.b.S.G.S.F.G.F.S.F.F.V.F.F.N.b.V.b.b.b.b.V.b.b.b.V.N.V.M.b.k.M.l.k.N.k.l.c.k.k.k.M.M.l.l.l.M.M.l.M.j.M.j.M.k.k.j.j.l.l.M.j.M.g.g.z.k.z.z.j.z.j.j.j.g.g.;.,.u.j.j.j.j.1.M.1.1.1.j.1.1.*.1.;.>.1.1.1.j.>.j.g.j.j.j.j.k.g.",
">.;.>.,.>.,.>.,.g.>.g.g.h.g.g.>.u.1.1.g.1.u.g.g.g.g.>.g.g.h.>.,.g.h.g.>.>.;.,.#.,.:.:.:.%.,.,.%.h.,.h.h.g.h.j.h.h.h.,.,.,.,.,.:.;.>.,.;.,.<.1.,.1.1.;.;.:.:.:.:.5.:.:.4.:.:.4.:.,.,.;.>.,.:.1.1.-.5.5.-.-.4.4.4.4.%.4.4.4.%.%.4.:.4.:.:.,.,.h.,.j.h.j.h.h.,.r.$.r.t.t.r.r.z.x.z.t.,.%.,.#.,.:.:.,.>.j.,.,.h.j.j.k.k.<.<.1.5.5.<.5.5.5.5.5.5.5.-.N.<.M.N.k.3.<.k.N.<.c.5.k.<.k.x.l.c.b.l.b.b.b.V.N.c.N.3.3.5.N.5.N.c.5.N.c.N.3.N.N.N.N.N.c.N.c.N.c.c.k.k.k.N.c.N.N.c.N.k.N.c.N.c.c.M.c.c.N.c.B.3.v.c.B.v.v.B.3.B.c.v.c.N.c.c.B.c.c.V.b.c.c.b.V.B.A.N.N.A.N.5.N.M.N.M.M.N.N.A.N.A.A.N.V.V.V.V.b.N.N.N.c.k.N.5.N.V.V.A.A.C.A.A.N.V.C.H.H.D.H.D.D.H.D.b.n.D.n.H.n.Q.H.B.C.C.B.V.B.c.c.v.b.B.v.V.n.C.C.A.B.C.C.C.n.n.C.n.n.v.U.U.U.B.B.B.V.c.N.v.c.N.B.v.B.N.B.B.B.B.V.B.V.C.B.A.Z.Z.Z.Z.C.V.A.V.C.V.n.n.n.b.c.B.H.C.V.V.V.V.N.V.l.V.A.V.M.M.M.A.V.G.V.V.b.H.b.C.D.G.G.A.G.V.A.A.A.A.V.A.A.P.A.V.V.P.G.P.G.G.Z.G.V.H.b.V.n.N.5.A.N.N.V.B.b.B.c.V.v.V.b.B.b.c.n.b.n.V.c.N.M.V.M.N.V.l.V.M.N.M.l.N.l.V.l.V.V.N.N.l.l.l.M.l.N.l.k.l.M.M.k.N.j.k.k.z.l.l.N.V.b.V.M.V.N.N.k.M.5.5.N.M.V.M.V.M.l.P.l.P.F.S.F.F.b.F.F.b.b.b.n.b.n.b.b.n.B.b.c.N.N.V.c.N.c.c.c.k.N.l.c.l.l.k.l.k.k.M.k.M.k.k.k.M.M.l.l.l.j.M.k.M.1.k.k.S.j.j.z.u.u.j.k.z.z.l.z.j.z.j.k.g.g.g.g.g.g.1.j.<.1.1.1.;.1.1.1.1.1.j.1.1.1.j.j.j.j.k.z.k.j.j.z.",
"$.;.;.$.>.>.,.g.>.g.g.g.>.g.g.g.j.*.1.*.>.,.;.;.g.g.>.g.g.>.;.j.$.>.,.>.>.;.;.;.:.%.:.#.:.:.,.2.,.j.r.,.g.,.g.,.,.,.,.j.1.,.<.,.>.<.>.>.>.;.1.:.:.;.;.:.;.;.;.;.5.:.4.:.:.4.,.,.r.,.,.,.,.;.;.:.4.-.4.4.5.-.4.-.4.4.4.%.%.4.%.%.4.%.:.4.,.,.j.j.j.j.k.j.,.h.%.h.h.t.t.z.t.x.h.x.,.,.,.,.:.,.:.;.,.,.,.j.j.h.h.j.<.h.<.<.1.5.5.5.5.5.*.5.5.5.5.5.5.5.k.c.M.5.N.5.k.c.k.c.c.k.k.k.c.l.l.b.b.b.b.N.c.N.3.N.N.3.c.k.N.N.c.N.N.N.B.N.c.N.3.N.N.c.N.c.N.k.c.N.c.c.M.N.c.M.c.N.k.c.c.M.k.c.c.c.v.N.N.c.B.B.v.c.v.c.v.c.3.v.3.v.B.c.c.B.V.b.b.b.b.b.V.A.B.A.B.N.A.M.N.5.N.5.5.N.N.V.A.A.V.A.C.V.n.N.V.b.V.N.c.N.c.N.c.V.B.C.A.H.C.A.V.B.H.D.H.H.H.H.C.D.n.C.n.n.D.n.Q.C.n.C.V.C.B.n.V.B.V.N.c.c.N.v.V.B.C.V.C.n.C.n.B.Y.n.Y.U.n.U.n.U.n.n.B.B.B.B.N.v.N.c.N.c.B.V.B.V.B.B.B.B.B.C.A.A.C.A.A.C.A.B.A.V.V.C.n.n.n.n.V.C.V.V.C.V.V.V.V.P.A.P.M.P.P.M.V.G.V.G.V.G.b.D.n.b.C.A.V.V.V.P.A.A.P.V.V.A.M.A.V.V.A.A.P.G.G.L.G.H.C.C.V.N.N.M.N.5.A.V.c.N.v.B.b.c.B.V.b.c.V.b.b.V.b.V.M.V.V.N.M.M.V.M.V.V.M.V.M.M.V.V.V.l.l.M.M.b.l.l.b.l.l.M.M.M.M.M.k.M.k.k.l.l.l.G.l.V.V.V.V.M.A.N.N.M.M.N.M.M.V.M.V.M.l.l.b.l.l.b.b.F.b.b.F.b.b.b.b.b.b.n.b.b.b.c.c.v.N.v.c.c.k.k.k.b.b.b.M.b.l.k.M.k.M.l.l.l.M.M.l.l.M.M.k.k.k.M.j.M.k.k.j.l.S.z.k.S.z.z.j.z.j.S.z.u.j.g.g.<.1.>.g.j.j.j.k.j.1.1.1.1.1.1.1.1.1.1.k.j.1.1.j.j.j.g.k.j.j.k.",
";.;.;.>.;.,.,.>.h.g.>.>.>.g.$.>.g.*.g.>.>.g.g.u.g.g.g.g.>.,.,.>.>.g.g.>.;.,.:.:.;.#.:.:.:.:.,.,.h.r.>.h.$.,.,.h.>.<.,.<.,.<.1.:.,.,.;.,.;.;.:.;.;.:.:.:.5.;.:.:.:.:.5.:.2.%.,.,.,.,.,.;.;.,.1.:.4.-.-.4.4.-.4.4.4.4.%.4.4.%.%.4.%.4.%.4.2.h.h.j.x.h.k.h.h.,.,.$.x.t.t.t.r.x.%.h.%.2.%.:.;.:.:.;.,.;.,.<.,.h.h.<.,.j.,.1.1.<.5.1.5.5.5.5.5.5.5.5.<.3.c.k.k.k.N.3.<.k.k.k.3.k.c.h.l.c.l.b.l.b.l.b.N.3.N.c.c.N.c.M.3.c.N.N.N.N.N.N.c.N.N.c.N.N.N.b.c.N.c.N.c.V.N.V.c.N.c.N.c.N.N.c.c.k.N.N.N.c.N.v.c.3.N.N.3.c.B.B.v.N.B.c.3.v.c.v.b.c.c.N.N.N.V.V.A.N.A.N.N.N.N.M.N.N.A.M.N.A.A.C.V.V.C.V.V.V.b.c.V.N.c.N.N.N.V.V.C.V.A.H.C.A.A.B.H.D.H.H.H.H.H.H.n.V.n.C.C.n.C.n.B.C.B.A.C.V.V.b.v.N.B.b.n.N.N.N.n.C.C.n.B.C.C.n.B.n.Y.B.n.n.Y.n.C.A.B.A.B.V.B.b.V.b.B.B.V.n.B.V.C.C.C.C.C.A.B.C.V.A.C.A.V.B.A.C.C.n.n.c.v.n.C.b.C.C.V.V.V.V.A.V.A.V.G.l.P.A.G.G.G.V.n.V.n.G.n.G.P.A.A.V.A.M.A.M.M.V.A.A.G.A.A.G.J.P.A.A.V.G.n.C.B.V.N.N.A.N.M.5.N.B.c.V.N.b.B.V.c.B.b.N.b.n.b.b.N.M.N.l.M.V.N.l.M.N.M.M.l.V.M.l.V.l.l.V.b.l.l.N.N.l.l.N.b.M.N.M.N.N.k.N.l.l.k.l.l.V.b.V.V.V.N.N.N.V.N.N.M.A.M.M.V.l.l.b.l.P.l.l.l.F.b.n.z.m.b.b.b.b.b.V.V.b.A.N.B.c.c.N.c.N.c.k.k.N.5.M.c.M.M.l.M.k.k.k.M.k.k.M.k.M.k.M.M.M.k.M.1.k.j.k.k.S.j.S.l.l.z.l.z.S.j.z.z.k.k.j.z.g.z.u.g.g.j.j.k.j.k.1.1.-.1.1.1.1.*.1.1.5.1.>.g.j.j.j.j.j.k.h.k.",
"$.$.;.$.>.>.$.>.h.>.g.>.O.g.$.>.>.>.*.>.>.>.g.g.r.g.g.>.h.>.>.,.,.$.,.>.>.1.;.:.:.:.:.;.:.%.:.%.,.,.$.;.>.,.$.,.,.,.>.,.,.1.,.,.,.;.,.;.,.,.;.;.;.:.:.1.:.5.5.5.:.:.:.4.,.,.x.,.,.,.>.:.,.;.:.;.-.5.5.-.4.4.5.-.:.4.4.4.4.4.%.4.4.%.%.4.%.,.,.,.h.h.h.h.h.2.%.,.r.h.h.x.h.r.x.,.,.,.%.:.:.:.:.:.,.<.1.<.<.h.h.h.j.,.,.,.<.1.1.<.5.5.5.5.5.-.5.5.<.k.k.k.c.N.<.N.k.3.3.<.k.k.k.k.k.b.k.N.l.b.b.M.c.N.c.N.c.N.N.c.N.N.N.c.v.N.v.v.N.c.N.N.N.v.N.B.V.b.B.c.B.c.n.B.c.c.c.c.N.c.c.N.N.c.N.N.N.N.N.3.c.N.3.A.B.c.c.c.3.c.v.c.B.c.B.N.b.B.n.N.c.n.B.N.V.B.N.N.A.N.A.N.A.M.N.A.A.V.V.V.A.B.V.V.n.b.C.V.b.N.V.b.V.V.G.V.A.A.C.A.A.C.A.V.H.V.H.n.H.n.V.D.D.C.C.n.Y.C.n.H.B.V.C.C.B.n.B.b.b.B.N.b.B.c.n.c.B.B.C.B.C.B.n.B.n.B.v.n.v.C.C.B.Q.C.C.C.C.C.C.C.B.B.C.V.B.B.b.B.C.C.C.C.B.V.V.V.V.B.V.C.V.A.V.V.C.C.C.B.V.n.b.C.V.b.V.V.V.V.A.V.P.V.V.V.V.V.V.G.V.V.C.G.V.V.H.n.V.V.A.A.A.M.A.A.A.A.P.A.A.Z.A.A.A.P.J.A.A.C.C.V.b.B.N.c.5.N.N.M.B.N.B.b.n.B.b.B.b.V.v.b.b.b.b.V.V.b.l.V.M.M.V.V.V.M.V.V.N.V.V.N.l.V.V.N.l.M.l.M.b.l.l.N.k.M.M.M.N.k.N.M.N.l.N.l.l.V.P.V.V.V.M.A.N.N.V.V.A.M.A.V.l.V.l.M.l.l.b.b.b.x.b.b.b.b.b.b.b.V.b.b.V.V.N.V.b.N.V.c.M.b.c.N.M.M.M.M.M.M.N.N.M.M.M.M.M.M.k.M.M.k.M.k.l.l.l.j.M.M.j.M.k.l.j.S.z.S.S.z.j.j.z.z.l.z.z.u.g.g.z.z.j.j.j.k.1.k.j.j.1.1.1.1.1.1.1.1.1.u.>.1.>.>.g.g.k.z.j.j.j.",
";.#.>.>.;.$.>.,.h.h.g.,.g.>.r.>.>.;.>.g.g.r.h.h.h.g.,.h.$.,.$.,.g.$.$.h.,.,.:.,.:.,.,.:.%.:.%.:.:.,.$.:.:.,.,.:.,.,.:.<.,.:.:.,.:.3.,.:.,.:.:.,.:.,.:.:.<.:.3.,.4.:.,.:.,.,.,.%.,.,.$.,.:.:.;.5.4.4.-.5.-.4.5.4.:.4.4.:.%.4.%.%.%.4.2.%.U.%.r.x.h.,.h.2.2.,.4.,.2.h.x.r.2.%.,.,.,.:.:.%.:.:.:.,.1.1.,.<.<.<.h.h.,.j.<.<.j.<.,.<.k.k.<.5.5.5.-.5.<.k.c.b.l.c.N.c.k.<.k.k.k.k.k.N.k.l.l.k.k.b.l.l.M.k.N.c.N.M.b.N.N.c.b.v.c.b.n.c.c.N.b.c.c.N.N.n.v.B.n.n.v.B.v.v.c.c.c.v.V.c.b.c.b.b.N.N.N.N.c.N.5.N.N.5.3.N.B.5.B.N.N.v.3.B.B.v.B.v.N.v.c.N.v.B.C.V.V.V.V.V.C.C.A.A.C.A.B.H.V.C.C.G.G.n.V.V.b.G.V.F.V.V.V.G.V.C.V.C.C.C.A.C.C.A.V.V.H.V.H.V.H.C.V.C.V.C.B.C.C.B.C.C.V.B.C.V.n.B.B.V.b.B.b.V.c.c.C.b.n.C.B.C.C.b.B.B.v.A.B.B.C.C.C.J.C.C.C.C.C.C.C.C.A.B.C.B.B.V.C.C.C.C.C.V.V.C.V.A.V.V.V.A.V.A.V.C.C.V.b.C.b.V.V.b.b.V.b.V.b.V.V.V.V.V.A.V.V.V.V.C.C.V.V.V.V.V.A.A.A.A.M.A.N.A.M.A.N.A.A.A.A.A.A.A.A.M.A.A.A..XN.N.N.N.N.N.M.N.N.V.V.V.N.B.V.V.b.b.V.c.b.b.b.b.V.M.l.V.V.V.M.V.V.M.V.V.V.P.V.V.V.V.l.V.b.M.b.V.M.N.M.l.M.M.M.M.k.N.M.N.M.M.b.M.l.G.l.G.V.V.V.V.V.V.V.V.V.V.V.V.V.b.b.M.l.b.b.M.b.N.b.l.k.N.c.N.V.M.b.N.M.M.A.M.b.N.b.M.c.c.M.k.M.<.M.M.M.M.M.M.M.M.M.M.k.M.5.M.M.M.k.M.M.l.M.k.M.k.M.k.j.l.l.l.z.S.S.z.l.l.z.l.j.z.j.z.z.j.j.j.j.k.j.k.j.k.k.1.1.1.1.1.1.u.*.1.>.g.g.>.g.g.u.:.j.j.j.j.g.",
";.;.$.,.>.>.>.>.>.$.g.>.>.>.$.>.,.,.>.,.>.h.z.h.t.h.r.h.%.h.,.,.$.h.h.,.;.,.1.,.3.:.<.:.,.:.,.%.$.,.:.%.,.%.:.,.,.:.,.1.,.:.1.:.,.,.:.,.,.<.<.3.<.,.3.,.3.3.,.<.,.:.4.,.,.,.,.x.,.,.,.,.;.:.:.:.5.-.-.5.5.5.4.4.4.:.4.4.4.4.4.4.4.%.%.2.2.m.2.x.t.,.t.2.4.,.,.2.h.2.,.2.2.2.,.,.%.,.:.%.:.,.:.:.1.:.:.<.,.<.<.h.h.x.h.h.c.h.x.h.j.M.<.M.5.5.5.5.x.k.b.k.b.b.k.M.<.k.M.k.k.k.M.j.b.k.k.l.l.k.l.k.k.c.k.b.l.b.N.b.c.b.c.c.v.c.b.v.B.b.V.N.B.n.B.N.n.b.B.n.n.n.v.U.c.c.v.v.n.B.B.c.N.N.N.N.c.N.N.c.N.M.N.N.N.N.c.N.B.5.B.B.v.B.B.B.B.c.B.c.B.c.c.c.C.B.B.B.n.V.C.H.A.B.C.n.C.C.C.V.H.H.C.G.C.V.b.b.b.b.F.V.C.b.C.V.A.C.V.C.V.A.A.C.V.H.V.H.V.H.V.C.C.C.C.B.n.C.C.C.b.B.C.C.B.C.V.B.C.B.V.B.B.b.B.V.C.B.V.B.B.b.B.B.B.V.V.N.C.A.V.A.C.Z.C.Z.T.Z.C.Z.C.C.C.C.C.C.C.C.C.Z.C.C.V.A.A.B.C.C.C.C.A.C.C.A.C.G.C.A.V.C.C.A.V.C.V.b.V.V.C.B.B.V.V.C.C.V.C.V.V.V.V.V.V.C.V.A.A.N.M.A.N.A.A.N.N.N.A.A.A.A.A.A.M.A.A.A.A.5.A.5.B.N.N.N.N.N.A.V.N.B.c.B.V.N.V.B.V.b.b.b.N.l.b.V.V.V.V.N.V.N.V.M.l.N.V.V.A.A.V.V.l.l.V.l.P.b.l.l.M.k.k.N.5.M.5.M.M.5.M.M.N.N.l.M.l.l.V.V.P.V.G.V.V.V.C.V.G.V.N.V.b.V.M.b.k.b.b.N.c.c.N.c.c.N.N.k.l.N.M.l.M.M.P.M.V.N.N.b.k.M.l.M.M.1.1.M.1.1.A.<.5.5.5.M.k.M.k.M.j.M.M.k.l.M.k.l.k.M.k.l.M.l.l.j.j.l.j.S.P.k.l.S.j.S.S.j.j.z.l.j.z.j.j.k.k.j.j.j.M.<.1.1.1.5.1.g.g.>.g.>.>.g.g.<.j.j.z.j.j.",
">.;.>.$.,.>.>.>.h.,.,.g.g.,.h.,.,.,.,.h.h.h.x.h.h.z.x.h.x.%.,.,.h.2.,.$.,.,.,.:.:.<.:.<.,.,.,.2.,.:.:.,.%.:.,.:.:.:.,.:.:.,.:.,.:.:.,.:.,.4.4.,.<.3.3.,.,.4.<.2.,.4.4.,.,.,.,.h.,.h.,.:.,.:.:.:.4.-.4.5.:.:.:.4.:.4.:.:.4.:.4.%.%.%.t.t.x.x.x.x.2.x.x.2.4.4.:.4.4.,.2.3.2.,.2.,.4.:.,.,.:.,.2.3.:.:.<.<.<.<.3.h.k.h.x.k.k.h.h.l.j.j.5.1.5.-.-.5.k.c.x.l.l.x.k.c.c.M.l.k.M.k.k.N.k.l.k.l.k.l.l.l.k.l.k.k.c.k.N.b.b.b.b.b.n.m.n.v.b.V.b.V.b.n.v.n.B.v.B.B.U.U.v.U.x.v.v.v.B.C.n.b.V.N.N.c.N.k.M.N.5.A.A.5.N.5.N.N.N.B.B.3.3.3.B.U.B.v.v.B.B.3.c.x.C.C.V.C.C.H.H.H.H.C.Q.H.H.n.H.H.H.C.H.V.V.H.H.V.V.F.F.b.b.G.V.b.V.B.V.B.B.B.A.C.A.G.C.V.C.V.V.C.C.A.V.B.C.A.B.B.B.V.V.B.B.V.B.n.C.C.C.B.C.B.C.C.b.n.B.n.n.B.C.n.V.V.V.V.N.A.A.H.C.C.Z.C.C.C.C.C.J.Z.C.C.C.C.C.C.Z.Y.Z.C.C.Z.A.C.J.C.Z.A.G.A.A.G.V.V.H.C.H.C.C.C.C.C.C.C.b.C.C.C.V.N.C.A.C.V.A.B.C.B.A.N.A.A.V.N.V.A.A.N.A.A.N.A.A.N.N.A.A.A.V.M.A.A.A.M.A.A.5..XN.N.B.N.N.V.V.V.A.B.V.N.c.V.V.B.C.V.V.V.V.b.V.b.N.V.M.V.V.V.V.M.M.V.V.A.A.V.V.V.l.F.S.V.V.l.l.M.k.N.N.N.M.5.5.M.5.5.N.5.N.M.j.k.V.V.l.G.G.G.V.P.V.V.b.G.H.b.b.b.N.N.b.c.c.M.b.k.3.N.c.5.5.M.N.M.N.M.M.V.M.M.M.M.l.V.M.l.l.N.N.M.M.M.5.5.1.M.M.M.u.5.1.5.<.M.<.<.M.<.k.k.M.M.M.l.M.k.k.M.M.l.S.l.l.l.P.k.l.S.l.S.l.z.z.k.j.S.j.l.l.k.k.j.j.k.k.k.1.j.k.j.j.j.<.g.g.>.,.>.g.g.g.g.j.h.j.g.z.",
"$.,.>.>.>.,.h.,.$.g.h.$.h.g.h.,.,.,.2.,.x.x.x.x.h.x.t.h.h.x.x.%.h.r.h.,.,.,.:.,.,.:.,.,.4.,.,.2.;.,.:.:.:.:.:.:.:.,.:.,.3.:.:.:.:.:.:.:.:.:.,.3.x.2.3.3.x.,.2.,.<.:.,.2.%.2.,.,.,.;.,.,.:.,.:.:.5.4.5.4.4.5.:.:.4.4.4.4.4.:.2.2.4.U.U.%.t.x.t.x.x.2.2.2.4.4.%.:.4.,.3.3.x.2.<.4.,.:.2.:.,.,.,.:.1.5.3.:.,.<.<.<.<.h.h.h.h.c.h.l.l.k.M.5.5.5.5.5.k.l.F.b.b.l.c.h.c.j.k.N.k.N.k.M.l.k.l.k.b.k.k.l.k.k.k.l.l.b.b.b.m.n.n.b.n.n.n.n.B.V.B.B.v.N.b.v.v.n.U.U.U.v.v.3.U.v.B.B.B.B.B.C.B.V.N.c.k.M.M.V.A.A.N.A.N.N.5.N.N.5.3.B.B.B.B.3.3.N.B.v.v.N.c.c.n.B.C.b.C.H.H.H.H.Q.Y.H.D.C.D.C.H.H.C.H.D.V.V.F.F.b.G.G.b.b.N.c.V.b.V.N.V.V.C.V.V.C.V.V.V.V.C.V.A.C.A.C.B.C.B.A.n.B.b.C.C.B.V.V.C.V.C.C.B.V.C.V.n.B.n.B.B.b.V.V.V.V.V.V.V.V.G.A.Z.C.Y.C.Z.C.Z.C.C.C.~.C.C.J.Z.C.C.J.C.Z.Z.C.J.Z.Z.Z.Z.H.Z.A.A.A.V.C.C.G.C.G.G.C.C.H.C.C.H.C.H.C.B.n.B.C.B.A.A.B.V.A.N.A.A.N.V.A.A.N.N.A.N.A.A.N.N.A.A.A.N.M.A.M.5.A.5.5.A.5.u.A.A.N.N.A.V.A.V.A.A.N.B.N.V.B.V.V.V.B.V.b.G.b.b.V.M.V.V.V.M.M.V.V.M.M.V.G.A.G.A.P.l.l.V.l.l.N.M.M.N.N.j.N.M.5.M.5.k.M.M.M.5.M.M.k.l.l.G.G.l.b.G.G.F.b.H.C.G.V.b.b.b.b.k.N.N.c.N.c.N.N.5.N.N.<.N.5.M.M.M.M.M.M.M.M.V.l.b.M.k.k.M.k.5.M.M.u.5.1.<.<.5.5.5.M.<.5.<.M.j.k.M.l.M.l.l.M.k.M.M.j.M.j.j.l.P.l.l.l.l.l.l.k.j.l.j.j.j.j.l.l.k.k.k.k.k.j.j.k.k.k.j.k.j.j.k.k.g.j.u.g.g.g.g.g.j.j.j.k.g.",
">.g.>.h.h.>.,.j.,.h.h.,.x.h.2.,.2.4.U.2.U.t.x.x.x.x.x.r.h.%.%.,.%.x.r.h.2.:.%.:.:.:.,.:.,.,.,.,.2.:.,.:.:.:.2.,.:.:.4.:.:.,.,.%.:.:.2.:.,.4.,.4.2.2.,.x.,.2.,.2.:.:.3.<.,.h.,.,.,.,.,.%.:.:.:.%.4.4.4.5.-.4.-.4.:.4.:.:.:.4.,.2.x.x.x.x.x.t.x.m.x.t.U.%.4.4.4.%.4.:.4.,.4.4.3.,.3.,.,.4.,.,.,.:.:.5.:.<.4.3.<.3.h.x.h.h.c.k.x.x.x.m.x.k.3.3.<.3.x.x.b.b.z.b.m.l.k.l.k.l.k.l.l.l.c.N.l.k.M.k.M.N.l.l.l.l.x.l.m.b.b.b.b.m.n.n.D.n.n.V.n.b.b.n.n.c.U.R.U.U.R.4.U.3.v.v.B.C.Y.C.B.N.C.V.V.b.N.N.M.V.A.N.N.A.5.A.N.5.B.5.B.5.B.B.v.B.B.B.B.c.v.3.B.v.C.n.V.b.C.H.H.C.Q.E.H.n.D.H.H.H.n.H.H.C.H.V.H.H.G.D.F.b.b.B.N.B.B.V.B.B.B.V.C.b.C.V.V.V.C.V.C.C.C.C.A.A.B.B.C.B.V.B.C.B.V.B.V.B.C.V.C.C.C.A.C.B.n.C.n.C.b.C.B.V.B.C.N.V.V.M.M.A.G.C.C.C.C.C.H.H.T.H.C.H.H.~.H.H.H.Z.C.C.H.C.H.Z.H.H.Z.Z.C.Z.Z.G.A.J.G.A.H.A.A.J.~.H.C.C.n.C.H.n.B.B.C.Z.Y.C.A.B.A.A.V.N.N.A.V.V.A.N.N.A.N.A.N.A.A.N.A.5.A.N.M.5.A.5.5.A.5.A.5.A.A.M.A.M.A.N.V.V.N.N.V.N.V.N.c.V.V.V.V.C.V.G.V.b.N.V.V.V.V.M.V.V.M.M.M.V.M.V.V.V.V.l.V.l.V.l.V.l.k.M.5.5.M.5.M.M.M.M.M.M.N.<.k.k.V.G.G.G.G.G.G.G.G.F.V.V.G.b.l.V.c.N.N.M.<.N.A.5.<.5.5.N.M.5.A.M.M.A.M.<.M.M.M.M.V.V.V.M.M.k.M.M.N.N.k.k.k.M.M.<.A.5.M.M.N.<.k.<.M.1.M.M.l.k.l.l.M.k.l.l.l.k.l.k.k.k.k.P.k.z.l.k.z.k.j.j.j.j.j.j.M.j.j.M.k.k.j.k.j.j.j.k.k.k.j.k.j.g.j.g.z.g.g.g.j.j.j.j.h.",
"g.>.h.>.g.h.h.,.>.,.,.h.h.,.,.x.4.%.%.4.2.2.x.x.x.2.t.x.x.h.2.2.h.,.x.,.,.:.:.:.:.:.:.:.,.:.,.,.:.,.:.%.:.2.:.:.:.,.<.,.4.,.4.:.,.,.:.,.,.,.,.:.,.,.2.,.,.,.,.,.:.:.3.,.,.,.,.,.h.,.2.,.,.,.:.:.-.4.4.4.5.4.-.4.:.:.4.4.:.4.2.x.h.t.x.x.x.x.x.t.x.2.%.4.4.%.4.4.3.4.,.4.4.,.,.3.,.4.,.,.4.:.<.,.:.:.3.:.5.:.3.<.3.,.x.h.h.c.z.l.b.z.c.x.3.5.3.<.c.k.b.z.b.b.b.b.N.l.c.l.l.k.k.k.k.k.c.M.c.k.k.k.k.x.k.b.b.V.b.b.b.m.b.b.n.n.D.I.C.b.V.B.n.V.B.c.3.3.U.R.U.!.3.3.3.B.U.R.Y.C.B.n.B.c.b.N.c.b.N.M.N.N.A.5.A.5.N.5.N.c.B.c.v.3.B.c.B.v.v.B.c.B.v.N.C.B.C.C.C.b.D.H.n.C.E.E.Y.n.Q.Q.C.H.G.H.G.C.C.G.D.H.H.C.C.V.B.N.B.C.C.B.C.C.C.C.C.G.C.V.V.V.C.V.Z.Z.C.A.C.C.C.B.V.C.V.B.n.C.C.b.C.B.C.B.C.C.C.C.C.C.B.C.B.B.n.B.A.V.A.V.V.A.A.A.C.V.V.n.C.V.C.H.C.C.H.H.C.C.Z.H.H.C.J.C.Z.H.G.C.A.J.G.J.G.Z.G.Z.A.G.A.G.G.H.H.H.J.C.C.n.C.n.C.C.Y.C.Y.C.C.Z.C.A.B.A.N.A.V.N.V.N.A.A.N.N.A.N.A.N.A.A.A.N.N.N.A.N.A.5.A.5.A.5.A.A.M.M.V.M.M.V.V.V.V.B.B.N.N.V.V.N.B.V.V.V.C.V.b.V.V.V.V.V.V.M.V.M.V.V.V.V.V.V.V.V.l.V.l.l.l.N.l.N.N.M.M.M.5.M.5.M.5.5.M.5.k.N.N.N.N.M.l.V.l.G.P.F.V.G.G.F.G.V.V.V.N.N.N.N.N.<.M.M.5.N.N.5.5.M.5.M.5.M.M.M.M.M.M.M.l.M.M.M.M.N.k.k.j.N.<.M.k.M.k.M.5.M.5.M.M.k.k.M.1.M.k.k.l.k.k.M.l.l.l.l.k.M.k.k.l.l.l.k.l.l.S.l.j.k.j.k.z.k.j.k.j.k.l.j.k.j.k.j.j.j.S.j.k.z.j.j.z.g.g.g.j.g.g.g.g.g.h.g.g.",
"g.>.>.g.>.h.h.r.,.h.$.,.,.x.,.3.4.4.4.%.2.U.%.t.t.x.x.%.%.x.2.%.r.x.,.2.%.4.%.:.:.%.:.:.,.:.,.:.4.:.:.,.:.2.:.,.,.2.3.,.,.x.2.,.2.,.,.,.,.%.:.,.,.,.,.,.,.,.,.:.<.<.:.<.<.2.<.h.,.x.,.2.3.,.,.:.4.4.4.-.-.4.4.4.4.5.:.4.5.:.4.,.%.x.t.2.t.2.x.x.t.U.%.4.%.4.%.4.4.,.2.4.3.3.2.3.,.4.2.,.,.3.<.,.3.3.<.:.3.:.,.,.,.3.h.x.h.c.z.b.l.b.k.x.5.4.5.3.b.l.z.b.x.b.c.b.V.l.N.b.l.c.c.l.b.k.k.c.l.k.c.k.b.k.b.l.b.b.C.b.b.b.n.n.n.n.n.m.n.V.b.n.n.b.v.c.R.U.U.U.U.3.3.R.U.3.v.U.B.B.B.B.n.V.c.b.b.b.b.V.N.N.N.N.M.5.N.N.N.B.B.B.B.v.v.B.v.B.c.c.v.c.N.v.C.A.C.B.V.V.C.C.H.H.n.H.n.H.H.C.C.H.C.C.C.C.C.H.C.C.T.R.C.B.B.B.A.B.C.V.C.C.C.G.C.V.V.G.V.V.V.C.H.C.C.C.C.C.C.C.B.C.n.C.B.V.B.C.C.C.B.C.V.C.C.B.C.n.B.n.C.n.V.V.V.V.A.N.M.V.A.V.C.C.C.C.C.n.H.C.C.V.H.V.C.C.H.C.C.C.H.C.C.G.C.J.J.A.A.J.J.H.A.G.G.A.A.H.A.H.H.C.C.H.C.C.n.C.C.C.C.C.C.C.Z.Z.C.B.A.B.A.B.N.A.N.A.N.N.A.N.B.A.V.A.N.A.5.N.N.N.N.N.N.N.N.5.A.u.5.5.A.A.V.A.V.A.V.V.V.N.V.V.V.c.N.N.V.V.C.V.V.G.V.V.A.V.V.V.V.V.P.M.M.V.M.V.V.V.V.V.l.M.l.V.l.V.N.M.5.M.N.<.M.<.N.5.M.M.N.k.N.k.N.k.l.N.l.l.l.G.F.G.V.V.M.P.V.N.V.V.l.V.M.M.M.N.M.5.M.5.M.N.5.M.M.A.k.M.M.M.M.M.5.M.k.N.c.k.c.j.N.k.k.M.M.k.l.k.M.M.A.5.A.u.k.M.M.k.k.k.M.k.k.M.k.l.l.l.l.k.M.l.k.M.k.M.M.l.l.k.k.j.k.j.j.j.j.j.k.j.l.k.l.k.k.j.j.j.k.k.j.k.j.j.j.j.j.j.j.g.g.g.g.g.g.h.h.j.h.",
"$.g.g.>.h.>.>.h.,.,.,.x.,.h.,.2.U.4.4.4.%.2.m.2.x.x.x.r.x.h.,.t.r.2.t.,.,.2.,.:.:.,.:.:.%.:.,.,.%.,.:.:.:.,.,.2.,.2.x.,.,.x.x.,.,.,.,.,.,.,.;.,.,.,.,.,.:.:.,.,.:.:.1.:.,.2.h.,.h.h.x.3.,.4.4.4.4.-.4.4.4.4.4.-.:.,.4.:.:.:.,.,.,.h.2.t.x.x.t.x.2.%.2.%.4.%.4.4.,.4.,.,.4.,.3.,.3.,.,.2.<.3.c.<.<.3.<.3.<.4.:.<.,.,.,.<.x.z.m.x.z.c.x.<.3.5.3.3.c.x.x.m.l.b.c.b.b.b.b.V.b.b.l.b.c.N.k.b.N.c.c.N.b.b.b.b.b.b.m.b.C.b.n.b.n.n.n.D.n.V.D.V.V.v.B.n.U.U.U.R.3.!.3.R.3.U.B.U.B.n.B.c.c.c.B.b.b.G.b.V.V.c.V.N.A.M.N.N.B.c.c.B.v.N.n.B.B.c.B.c.c.N.v.N.C.C.V.V.C.V.V.C.H.C.H.n.H.H.H.H.n.C.C.C.C.C.V.B.C.Z.Z.R.B.A.C.B.B.B.B.B.C.G.H.C.G.H.H.V.C.H.V.H.C.H.C.C.C.C.C.C.B.V.B.V.n.C.B.V.V.C.C.C.B.C.C.V.C.Y.C.n.C.B.B.c.V.c.N.V.A.A.V.A.V.n.V.V.V.C.V.C.C.C.C.A.C.C.C.V.~.C.C.J.H.H.A.C.C.G.H.C.G.Z.Z.Z.G.V.V.H.A.A.C.G.C.C.C.C.H.C.Y.H.C.R.Z.Y.R.C.B.Z.A.C.N.A.A.N.A.B.A.B.N.A.B.A.A.V.A.A.A.A.A.A.A.N.5.N.N.M.5.A..XA.A.M.A.V.A.V.G.V.B.V.B.V.V.V.B.V.C.G.A.C.H.V.G.V.G.A.P.A.V.A.V.V.V.V.V.V.V.A.G.V.V.V.V.M.V.l.N.N.M.k.k.<.5.M.5.M.M.5.k.k.N.M.M.k.N.l.G.V.V.l.G.G.P.V.A.A.b.P.b.l.V.M.M.5.M.M.M.<.M.M.5.M.M.<.A.<.N.c.M.N.M.N.M.N.5.N.<.N.N.<.j.<.M.k.M.M.M.l.l.l.M.M.M.A.M.l.l.l.k.M.k.k.k.M.M.k.j.l.k.M.l.M.M.k.M.M.M.M.l.l.l.j.1.j.j.j.j.k.l.j.j.M.k.l.M.M.l.l.j.l.k.k.j.z.j.j.j.g.g.j.g.g.g.j.h.h.h.h.h.",
"g.>.g.$.>.h.>.g.,.,.,.,.%.2.2.2.4.4.4.4.2.2.x.x.r.r.x.x.x.h.h.h.2.%.x.2.2.4.,.2.,.:.:.:.:.#.,.,.:.:.:.2.,.,.,.2.%.h.x.,.h.x.r.,.$.,.,.,.h.>.,.,.:.1.;.,.:.1.:.;.:.:.:.:.1.,.,.h.x.<.2.2.,.2.4.:.4.:.:.:.4.4.4.4.:.:.2.:.%.,.r.,.h.,.h.x.,.x.t.2.%.U.2.2.4.4.%.4.,.,.2.2.,.2.,.2.2.2.3.,.x.3.3.3.3.3.x.<.3.,.:.4.<.,.4.h.x.z.x.x.x.c.x.3.4.5.5.3.x.k.m.m.b.c.c.c.b.b.b.b.b.b.b.b.V.b.b.V.c.c.b.v.V.n.b.c.b.c.c.c.B.b.v.n.n.n.v.C.n.F.C.n.b.C.n.B.B.B.B.B.B.B.3.3.3.5.R.3.B.v.B.B.V.n.V.n.C.H.n.H.V.c.B.V.V.b.B.c.V.b.n.B.n.C.b.V.C.b.b.B.N.b.B.V.C.C.C.A.A.V.V.A.C.H.C.C.C.C.H.C.C.C.C.B.B.B.C.B.5. X5..X5. X'.3.B.B.B.B.n.H.D.D.C.H.C.D.D.C.H.n.H.C.C.Q.H.C.Y.H.C.V.V.B.V.n.B.C.C.C.B.V.B.C.C.C.C.n.C.B.B.C.B.V.n.V.V.A.V.V.A.G.V.C.H.n.C.D.n.C.H.V.H.H.H.H.C.C.H.H.H.H.H.H.G.H.V.H.G.G.A.H.A.G.A.V.V.H.C.H.A.A.H.C.C.C.C.C.H.Z.Z.C.Z.Z.C.Y.Z.C.C.C.Z.C.V.C.A.V.A.A.V.B.A.V.B.C.C.V.V.V.A.A.N.A.A.N.N.A.A.M.5.u.M.P.A.A.G.G.A.A.A.A.V.V.V.B.V.N.G.C.G.A.G.V.V.G.A.G.G.A.V.V.M.V.A.M.V.V.M.V.V.V.M.M.M.N.M.M.N.M.N.N.j.N.N.k.k.M.k.M.l.k.k.M.M.N.M.N.V.G.G.V.G.G.M.A.P.P.A.M.M.M.M.V.M.M.M.M.M.M.j.M.M.M.M.M.M.M.M.N.c.M.c.N.c.N.c.5.5.c.N.<.k.c.M.k.l.l.l.l.l.b.M.u.l.l.V.l.P.N.M.k.k.M.k.M.M.M.M.l.M.M.M.M.M.N.M.M.M.l.l.M.j.j.j.1.j.j.k.j.k.k.k.M.l.k.j.M.j.l.l.l.j.j.k.j.j.k.j.j.j.1.g.g.j.g.h.h.h.j.h.",
">.g.g.g.>.h.h.,.,.,.%.2.2.,.2.2.4.4.%.4.%.2.%.%.x.x.h.x.x.x.x.h.x.t.x.%.%.:.2.,.:.,.:.:.:.:.,.#.:.%.%.4.,.2.,.,.,.2.x.h.x.z.x.%.,.h.r.h.h.j.h.,.,.,.,.:.;.:.:.1.:.;.;.:.,.;.,.,.,.x.<.2.3.,.,.4.:.:.:.4.4.-.4.-.:.:.%.2.,.,.x.h.h.,.h.h.x.2.x.t.U.%.m.%.4.4.4.4.2.,.2.,.2.,.x.,.,.3.3.x.<.x.<.x.h.x.3.2.<.4.4.<.3.3.,.2.x.l.x.m.z.x.c.3.4.5.3.3.c.c.z.b.x.c.c.b.b.x.b.b.b.b.C.b.b.c.b.B.b.B.N.v.B.b.B.b.m.c.c.c.b.B.b.b.b.n.b.n.b.C.b.n.C.b.B.n.B.B.B.B.B.B.R.3.3.R.3.B.B.c.c.B.v.n.C.C.H.n.H.b.n.n.n.C.n.C.n.b.v.B.n.V.B.b.C.n.V.C.C.b.B.V.V.N.C.A.A.A.B.B.A.A.C.H.C.G.H.C.A.B.C.B.B.A.C.B.B.C. X5..X3.5.5.5..XB.B.Z.B.C.H.H.H.F.H.H.H.H.G.H.H.Q.H.Q.C.n.Q.C.C.B.C.B.v.V.B.V.C.V.C.C.C.C.V.C.B.C.Y.C.Y.C.C.C.C.B.C.B.A.V.A.C.Z.G.C.C.H.H.C.G.G.n.H.H.C.C.H.H.H.H.C.H.H.A.H.A.J.H.G.A.H.G.G.G.H.C.H.V.C.C.C.H.C.C.C.C.H.H.H.C.H.Y.Z.Y.C.Z.Z.C.~.C.C.A.A.C.V.C.A.V.N.V.V.C.V.A.V.V.A.C.A.A.N.B.V.A.P.M.M.M.A..XA.A.A.J.A.Z.A.A.A.B.V.C.V.C.V.V.A.V.A.V.V.H.b.G.V.G.A.A.G.A.V.A.V.V.V.V.V.M.V.V.N.N.V.N.M.N.N.N.N.M.V.N.N.k.5.N.k.M.l.b.l.N.M.N.M.N.V.M.V.V.G.V.P.P.A.M.A.P.A.P.M.M.M.M.M.j.M.M.M.M.M.j.M.M.M.M.5.c.N.N.c.N.3.c.5.5.3.c.5.c.<.M.c.c.N.b.l.l.b.l.l.P.A.S.l.l.S.l.l.l.M.l.M.k.M.M.M.P.M.S.l.M.N.M.M.M.M.M.M.l.l.l.j.j.j.j.j.1.k.j.j.j.k.M.j.M.M.k.j.l.k.k.j.j.j.k.k.j.j.k.j.j.1.j.1.k.z.k.h.z.",
"g.>.>.g.r.>.h.,.,.,.,.%.2.2.%.2.%.4.4.3.2.2.t.2.x.t.x.h.h.z.h.,.x.x.x.%.2.2.:.2.2.,.:.,.:.,.#.,.:.:.2.%.2.,.%.x.h.x.x.x.x.x.x.2.h.h.h.j.,.h.,.j.1.,.,.:.1.:.:.;.;.1.:.;.>.,.,.h.x.h.3.,.2.4.,.:.:.&.:.4.-.4.4.4.:.,.,.,.x.h.h.h.k.h.h.x.x.t.2.t.t.U.m.4.3.4.4.4.x.x.c.h.x.x.<.3.3.x.3.,.3.<.3.3.2.h.,.3.4.<.3.3.3.c.3.h.x.h.c.z.c.z.x.3.5.5.3.3.x.c.c.b.b.b.c.c.b.b.x.b.m.n.b.b.c.v.c.c.c.c.v.c.c.v.c.c.c.c.x.x.b.c.c.v.c.N.B.C.n.F.n.H.D.C.n.B.B.n.v.B.B.5.R.5.3.B.3.R.B.B.B.v.B.B.C.C.H.n.n.n.n.H.n.n.n.H.n.C.n.n.n.V.n.H.C.D.H.C.C.V.V.C.B.V.A.B.N.A.N.A.A.A.A.A.G.C.A.V.A.V.V.B.A.B.B.B.A.B. X5.5. X5.5.5.5.R.5.B.R.n.H.D.L.H.H.H.D.D.H.D.H.Q.H.H.Q.Q.Q.Q.C.C.C.B.V.V.n.B.C.C.B.C.B.C.C.C.C.C.C.Y.C.C.Y.C.C.C.C.C.C.C.Z.Z.H.H.H.H.H.H.C.C.n.H.V.b.H.C.H.H.C.H.C.H.C.H.A.H.H.H.A.G.G.H.V.G.V.C.Z.H.C.C.J.Z.H.J.C.J.C.J.C.J.J.Z.H.J.C.H.C.J.C.H.C.C.C.C.A.H.C.V.V.B.V.H.V.H.V.C.A.G.C.C.A.G.C.A.A.A.A.A.A.P.A.A.].P.A.J.G.A.V.A.A.V.V.V.V.A.A.G.V.V.V.V.V.V.V.V.V.A.V.V.V.A.V.M.V.V.M.V.N.M.N.N.N.N.V.N.M.V.M.N.M.M.N.M.N.k.N.V.G.l.M.k.M.M.N.N.M.N.l.V.V.G.V.M.M.A.M.M.M.M.M.M.M.l.l.M.M.M.M.M.j.M.k.M.M.M.M.k.c.c.c.3.v.3.c.3.N.3.N.3.5.N.k.k.c.b.b.b.b.b.b.M.S.S.S.G.P.b.l.l.l.l.l.M.M.M.M.V.P.l.V.M.M.M.M.M.M.k.M.k.l.S.g.j.1.k.j.j.j.k.1.k.j.j.l.k.M.M.k.M.l.k.j.j.j.j.j.j.j.j.j.j.<.j.j.j.h.l.h.k.",
">.O.g.$.>.h.$.,.h.,.%.2.%.%.2.2.4.4.%.%.4.2.2.2.h.z.x.x.x.x.x.t.x.x.x.x.%.2.,.,.,.4.,.,.,.:.:.%.%.%.,.2.r.x.,.x.h.x.c.x.x.x.x.t.h.j.j.h.j.h.j.,.,.1.1.1.,.1.1.:.:.;.:.1.,.<.<.h.h.3.h.3.3.,.3.,.4.4.4.4.4.4.4.-.,.,.2.,.x.x.c.c.c.h.k.x.x.x.x.%.m.2.2.U.2.3.4.4.v.v.x.x.x.x.x.<.x.h.x.3.3.,.,.<.,.2.x.,.3.3.3.3.3.c.x.x.c.c.x.z.x.x.3.3.3.3.5.3.3.x.h.x.x.b.m.c.b.m.b.b.b.b.m.b.c.b.c.c.c.c.c.c.x.x.c.c.c.c.v.v.c.c.c.c.n.v.b.n.n.n.b.n.b.C.C.B.N.B.B.N.3.B.3.B.3.3.3.3.c.B.b.N.n.n.n.H.n.H.D.m.n.n.H.C.D.C.D.H.b.V.n.C.n.V.C.V.C.G.G.n.G.b.A.B.A.A.A.N.A.A.A.C.G.Z.G.J.H.C.B.V.B.B.B.B.B.B.B.B.5. X5.5.5. X.X5.5.A.B.B.H.H.H.D.H.H.H.D.H.H.n.H.H.H.Q.Q.I.C.C.Q.C.V.B.V.c.V.C.A.C.A.C.V.C.V.C.B.C.Y.C.H.C.J.T.~.C.~.H.T.C.C.H.Z.C.H.J.H.H.G.G.H.n.H.n.H.F.C.H.H.H.H.H.H.H.H.H.G.V.G.C.A.C.G.A.G.H.H.C.H.H.Z.H.C.J.J.Z.H.J.~.J.C.Q.J.H.C.H.~.H.J.C.H.V.H.C.C.C.H.V.C.V.V.V.A.V.A.C.G.A.C.G.Z.G.Z.A.A.A.A.A.u.M.M.M.P.A.A.G.Z.Z.A.A.V.A.A.A.V.V.V.A.V.V.N.l.V.V.F.V.V.N.V.V.G.V.V.V.M.M.V.M.M.M.k.N.N.N.N.N.N.N.V.V.V.N.N.M.M.l.l.G.G.l.V.N.N.N.M.N.N.N.M.V.l.G.V.A.M.P.P.A.M.P.j.P.M.M.j.j.M.M.u.M.M.l.M.M.M.M.M.N.c.B.c.c.3.c.v.5.5.4.5.N.3.c.c.b.l.l.l.l.S.S.S.P.l.P.l.S.l.P.b.l.M.M.l.M.l.k.M.l.l.P.M.M.M.M.k.M.k.M.l.k.k.j.j.M.1.1.1.j.k.j.j.1.j.k.j.k.k.j.j.j.k.k.j.j.1.N.M.5.k.<.N.j.k.j.j.c.k.z.c.z.",
"u.:.g.g.>.h.h.,.,.%.2.4.4.%.%.4.4.4.4.4.2.2.2.2.%.x.t.,.x.r.x.x.x.h.r.,.2.,.,.,.,.,.,.,.,.,.,.,.2.,.,.x.r.x.x.%.x.x.2.2.x.%.x.x.h.,.,.j.h.j.2.2.h.h.,.,.,.:.4.4.1.:.1.<.1.<.<.<.h.<.<.3.<.,.<.,.4.4.4.,.3.:.3.:.:.4.,.x.,.x.m.b.x.z.x.x.x.r.2.2.x.2.m.3.2.v.4.2.U.2.v.v.2.2.2.<.x.3.3.<.,.<.2.,.,.3.<.3.2.k.3.3.N.c.c.3.c.k.c.c.c.c.<.c.3.3.3.N.c.c.c.N.l.b.c.b.b.c.b.c.b.c.c.b.c.n.v.b.m.c.v.x.c.c.c.b.N.c.b.n.c.c.c.c.v.m.B.n.n.n.b.C.C.n.C.n.B.B.c.B.B.B.B.v.B.N.N.B.B.B.n.B.c.v.n.n.n.n.n.n.H.D.H.n.n.F.B.C.n.N.n.V.B.V.C.C.H.H.n.H.G.C.V.C.G.A.A.V.N.N.A.G.C.H.H.H.H.C.C.C.C.C.C.B.B.A.R.R.A.R.B.5.B.3.R.R.5..XB.T.Z.H.H.H.H.D.Q.H.H.D.H.C.H.C.Q.C.Y.Z.Y.Z.C.A.B.A.V.V.B.B.B.A.B.A.V.A.B.C.C.C.C.Q.Z.J.J.J.C.J.C.J.C.J.H.H.J.G.Z.G.H.Z.G.C.C.H.H.Z.C.H.C.C.C.H.V.A.H.C.H.C.C.V.H.V.C.G.C.C.J.J.C.Z.Z.H.Z.G.A.H.G.Z.G.J.J.C.H.H.H.Q.J.Q.L.H.Z.H.Z.G.A.C.V.C.V.A.G.V.G.A.G.A.A.A.G.A.A.V.C.A.A.A.A.A.M.A.A.A.A.M.A.A.P.A.P.A.A.A.A.A.A.V.V.A.V.C.V.C.G.b.V.V.b.b.b.V.V.G.P.A.G.V.V.l.b.V.V.B.A.N.V.c.V.N.B.V.N.V.l.l.V.l.V.S.G.G.G.l.N.N.N.M.5.N.5.A.M.M.M.V.G.P.V.P.V.M.V.l.l.M.l.l.l.M.k.M.l.l.M.l.l.l.V.V.b.N.N.c.N.3.3.3.N.5.5.N.c.N.c.V.l.l.P.l.l.P.S.M.l.S.b.P.l.l.l.V.M.k.M.M.l.l.l.M.V.S.l.G.l.l.l.l.V.M.M.k.l.k.j.l.1.1.<.<.j.M.k.k.j.j.j.M.1.j.<.<.j.M.j.j.j.<.M.1.1.k.M.<.b.k.h.h.l.z.l.z.b.",
">.;.>.g.h.>.>.,.:.2.2.%.%.4.%.4.4.%.%.4.4.2.2.x.%.x.2.t.x.x.x.x.h.h.2.h.,.h.,.h.,.,.2.,.,.,.,.,.,.,.h.x.x.,.x.x.%.x.t.2.%.U.x.x.,.,.,.,.,.,.h.m.k.h.j.,.,.,.,.4.:.:.1.:.<.,.<.<.<.<.<.<.<.<.<.<.4.4.:.:.,.4.4.3.,.,.3.,.x.h.z.b.b.z.z.h.x.r.x.r.x.x.2.v.x.3.3.3.2.U.2.2.2.2.2.<.k.<.x.<.3.<.,.2.<.,.<.3.x.3.c.c.n.N.c.x.c.x.k.c.k.c.3.3.5.N.3.3.<.3.c.c.b.b.x.b.b.b.c.b.b.c.b.c.m.c.b.c.m.v.v.m.c.c.k.b.b.b.b.b.n.c.m.v.v.n.n.n.n.b.b.n.b.C.V.B.b.B.B.B.B.V.N.B.c.N.3.B.c.B.V.B.n.c.n.v.n.n.n.n.E.C.n.H.H.C.C.C.N.c.N.B.B.B.B.C.H.H.H.b.C.F.C.V.C.V.N.A.A.A.V.A.H.H.H.H.H.H.C.C.C.A.Z.B.B.Z.5..XR.B.R.R.B.B.R.5.5.R.B.Z.T.J.Q.H.H.H.C.H.Y.H.C.C.C.H.C.C.C.C.C.Y.C.A.C.B.B.V.N.A.N.V.V.C.B.A.B.A.A.Z.Z.Z.Z.Z.H.Z.C.H.G.C.J.G.A.H.A.Z.G.Z.A.G.A.G.J.J.C.C.J.C.C.J.V.H.C.H.C.G.G.C.J.A.C.C.A.G.C.G.J.C.J.J.G.J.J.Z.J.A.Z.C.A.A.H.C.H.Q.Q.H.H.H.J.J.Z.A.Z.Z.C.A.C.A.V.A.A.V.G.A.A.V.G.A.A.A.A.A.A.A.A.V.5.A.A.5.A.M.A.M.A.A.A.A.A.A.V.V.G.V.V.A.C.C.V.V.V.V.V.H.V.V.H.C.G.A.V.V.A.G.G.G.l.l.V.b.V.V.V.N.B.N.V.V.V.V.F.V.V.V.l.V.V.l.G.G.G.l.M.M.M.5.N.5.M.N.M.A.V.M.G.V.G.F.l.G.l.b.l.M.M.l.l.l.M.l.l.M.M.l.M.l.M.M.N.N.c.N.N.3.N.3.N.3.N.<.N.N.M.M.b.V.N.l.l.l.l.S.l.S.l.l.V.l.M.M.M.M.M.k.M.M.l.l.l.V.b.V.P.N.l.V.l.V.M.l.l.l.l.k.M.1.1.M.k.l.k.k.k.j.k.j.<.<.1.<.M.j.M.j.1.M.1.k.k.1.5.M.k.c.k.k.l.x.x.z.z.",
"g.g.>.>.h.,.$.h.2.%.:.%.4.4.%.%.4.4.4.U.,.3.x.3.x.2.h.2.x.x.h.x.x.h.h.h.x.h.,.,.,.2.,.,.,.,.,.4.x.h.x.h.h.k.h.x.2.,.,.x.v.%.x.2.x.,.x.,.r.x.U.t.x.h.,.,.:.,.4.4.:.5.:.<.:.<.<.:.<.<.<.h.<.<.<.h.4.4.4.5.3.,.<.,.,.2.<.3.h.x.h.x.z.x.x.x.,.x.h.h.%.2.2.3.2.U.v.2.v.3.m.2.x.3.2.3.<.3.3.c.3.3.3.3.3.<.x.3.N.c.c.c.c.c.c.c.k.c.k.c.c.<.3.c.c.<.x.3.3.<.k.x.c.x.m.b.b.c.b.c.c.b.v.m.v.b.v.m.n.v.m.v.c.b.c.c.n.c.v.b.c.b.c.c.c.n.n.B.H.b.D.b.B.n.B.n.B.B.B.B.B.B.B.3.N.v.B.c.v.v.B.n.v.v.v.n.n.Y.n.n.I.C.E.Y.C.E.C.n.v.B.B.B.B.C.B.B.H.V.C.b.V.C.V.C.V.C.V.B.V.V.A.H.H.H.H.H.C.n.H.C.H.B.B.Z.C.B.R.C.C.R.B.T.B.B.B.B.R.B.R.T.C.H.J.C.H.Q.Q.C.H.n.H.Q.C.C.Y.C.C.R.C.T.C.C.B.C.B.B.B.B.B.B.B.B.C.C.C.C.C.Z.C.Z.C.Z.H.H.H.A.C.A.H.H.G.Z.A.A.Z.Z.H.A.H.A.J.J.J.J.H.Z.H.C.C.A.G.A.H.H.H.H.Z.C.G.C.C.Z.Z.H.Z.C.J.C.H.H.C.H.H.H.H.C.H.C.H.H.H.Q.H.Q.Q.L.H.J.Z.Z.J.G.H.A.C.A.C.G.A.A.H.G.C.H.H.A.H.A.A.B.B.V.N.N.A.N.A.M.M.A.A.A.P.A.A.A.A.A.A.V.V.A.V.C.A.V.A.V.V.V.V.H.V.H.H.C.H.G.G.Z.P.Z.A.G.V.V.V.b.n.V.b.V.B.V.V.V.V.V.b.V.V.l.G.V.G.G.G.G.b.l.M.N.A.5.5.5.A.M.N.N.M.P.F.P.b.V.G.G.l.P.l.l.l.l.k.M.M.l.l.l.l.b.l.M.N.k.b.N.N.M.N.c.N.N.<.N.M.N.N.k.l.V.N.l.l.l.l.l.l.S.S.l.l.l.l.l.M.k.M.M.k.M.l.k.l.l.l.l.P.P.M.M.l.M.l.l.M.l.l.M.j.l.1.M.M.1.j.j.l.k.j.k.j.l.M.1.M.1.l.M.l.j.j.M.j.k.k.k.M.l.l.z.x.z.x.z.c.k.x.",
">.g.g.g.>.j.$.,.%.,.:.,.4.%.4.4.4.4.4.2.3.3.3.c.2.,.2.h.,.h.x.r.%.h.h.h.h.x.h.,.,.,.<.,.,.,.,.,.h.h.k.h.x.x.h.h.h.,.h.h.2.x.x.x.,.x.%.x.x.%.4.t.x.2.,.2.:.4.4.%.:.1.<.:.<.,.,.<.<.<.h.3.<.h.<.,.4.:.:.4.,.4.:.3.4.<.x.x.x.h.x.h.x.h.x.z.t.h.x.x.m.m.x.x.3.2.2.2.2.2.4.x.3.2.3.,.c.k.3.<.x.3.x.3.2.3.c.c.3.c.c.N.N.c.c.c.c.c.c.c.x.c.c.<.3.3.3.<.<.3.c.h.b.b.b.b.b.c.v.b.c.v.c.v.v.v.m.m.v.v.v.v.x.b.c.b.c.b.v.b.v.b.m.b.c.B.B.C.b.n.b.C.b.C.b.B.n.N.c.B.B.B.B.B.B.c.B.v.B.c.b.v.n.v.n.n.n.n.E.I.Y.U.I.U.I.C.I.B.U.B.v.B.B.B.C.A.B.H.C.C.V.C.b.V.V.V.V.V.A.A.A.J.G.H.C.H.H.H.C.C.C.B.A.R.C.C.C.B.Y.Y.Y.B.Y.B.Y.Y.T.Z.B.Z.Y.Y.H.H.D.C.H.H.H.Q.Y.C.Y.C.Q.Y.T.C.R.C.R.Y.Y.C.Y.B.Y.B.Y.Y.B.Y.Y.B.Y.B.C.C.Z.A.Z.C.C.C.V.C.V.H.C.G.H.H.G.G.Z.G.C.G.A.J.Z.H.C.J.T.H.C.C.G.C.C.C.A.V.C.A.H.G.C.H.C.G.C.C.H.J.J.C.Z.Z.H.Z.Z.H.C.C.V.b.V.C.H.Q./.H.~.J.J.J.G.G.Z.Z.C.C.C.C.G.H.H.J.A.H.J.A.A.C.C.V.A.N.A.A.A.M.5.A.M.A.A.5.A.A.A.A.A.P.M.A.A.N.A.V.A.V.B.V.V.C.C.V.G.V.G.A.C.G.G.G.Z.G.J.A.G.A.G.V.V.G.V.b.V.N.V.c.V.b.C.V.V.V.G.V.l.V.l.G.G.G.G.l.M.N.M.5.N.M.5.M.M.M.V.l.l.b.P.P.V.l.G.l.V.M.l.l.l.b.l.b.M.M.N.l.c.l.k.c.V.N.b.N.N.N.N.c.c.k.c.N.c.V.N.M.V.V.V.l.l.l.l.M.P.l.P.l.l.l.l.M.<.M.M.M.j.l.j.M.l.G.b.l.P.M.V.l.l.M.l.k.l.l.l.l.M.M.j.M.M.l.k.j.l.j.l.j.j.j.M.M.j.S.M.S.M.M.j.l.k.l.k.l.b.l.l.x.k.k.c.h.k.",
">.g.r.g.g.>.$.,.;.,.;.;.:.:.:.1.4.4.:.:.3.3.3.5.2.,.,.<.,.h.,.h.h.,.h.x.c.h.,.h.,.,.,.,.2.,.,.<.<.k.k.k.l.k.x.h.h.k.h.x.h.h.x.h.t.2.%.m.%.U.%.%.t.2.%.2.4.%.4.4.3.3.<.:.<.:.3.,.4.3.,.x.,.,.h.2.h.2.h.2.,.,.3.,.3.h.x.k.x.x.x.h.z.t.h.x.h.x.x.x.x.x.x.x.2.2.3.2.2.2.2.2.3.2.<.2.<.3.<.c.3.c.3.c.3.c.3.v.c.N.v.c.c.v.c.c.x.c.c.x.c.3.3.<.3.3.<.3.3.3.,.x.c.c.c.b.v.c.v.c.m.x.v.v.v.v.m.v.U.m.2.m.b.c.c.c.c.c.n.N.v.c.N.v.b.b.C.C.n.H.b.n.C.b.v.N.B.v.N.v.N.B.3.B.B.v.B.v.v.v.v.v.v.n.n.v.Y.U.I.I.U.R.U.R.I.R.I.U.R.B.U.B.B.B.B.R.C.C.B.B.C.A.V.C.V.b.V.C.A.H.C.J.H.A.H.H.G.Z.H.C.Q.C.C.C.n.Y.Y.Q.Q.Q.E.C.Y.B.Y.B.C.Y.C.Y.C.C.H.~.H.Y.n.Q.Y.C.H.Y.Y.Y.Y.C.Q.Y.Y.Y.Y.Y.Y.Y.Y.U.U.Y.U.U.U.Y.Y.Y.v.Y.C.Z.C.C.Z.C.C.C.C.b.C.V.H.H.C.H.J.Z.C.Z.J.A.Z.C.H.H.H.H.H.H.C.C.C.H.C.C.Z.G.C.C.J.C.C.J.A.H.C.J.Z.C.Y.J.C.J.C.Z.Z.Q.C.A.C.B.C.C.Q.Q.~.Q.J.J.J.J.J.A.G.Z.H.C.C.C.H.Z.Z.G.J.G.A.J.J.A.A.A.H.V.V.V.A.5.A.M.A.A.A.A.A.A.A.A.A.A.A.A.A.A.A.C.A.V.V.V.V.V.G.V.G.A.G.G.H.H.H.A.G.G.A.G.A.A.A.A.V.V.b.V.N.V.V.b.b.V.V.V.V.V.b.l.P.V.G.G.G.G.G.l.k.N.N.M.<.N.M.N.N.V.l.V.b.l.F.V.b.V.G.b.b.l.b.l.N.b.V.l.N.N.b.N.N.N.l.l.b.V.V.b.V.M.V.b.N.M.c.N.M.N.l.V.l.l.N.l.M.M.M.M.b.P.b.l.l.M.M.M.M.M.k.M.j.l.l.M.M.M.l.V.M.l.M.l.l.l.M.l.k.l.l.M.j.M.l.l.z.l.k.S.z.l.z.l.M.<.M.M.l.S.l.z.l.l.M.j.l.l.l.l.b.S.S.z.k.k.c.k.c.",
"g.g.,.,.,.g.,.,.,.,.,.:.,.,.<.<.4.4.5.5.:.5.3.3.,.3.,.,.x.,.x.,.h.h.x.h.<.x.h.2.<.x.<.,.<.h.,.<.h.<.k.k.k.k.x.k.k.h.x.l.x.h.h.h.x.t.t.m.t.t.t.U.%.2.4.%.%.4.4.4.,.:.<.3.3.:.:.<.,.,.h.<.x.,.,.h.h.h.h.,.,.,.3.,.h.,.h.x.x.z.z.r.h.x.h.c.m.z.z.l.c.x.x.2.m.2.2.2.2.2.2.2.,.,.2.<.<.k.3.c.3.c.v.3.c.3.c.c.c.c.c.c.b.c.N.c.b.b.x.c.c.c.x.x.3.3.3.4.3.2.3.c.c.c.m.c.v.v.v.n.v.v.v.v.x.v.v.v.U.3.U.v.c.m.v.c.n.B.c.v.c.c.c.c.c.b.C.n.H.n.n.H.C.b.b.B.c.B.3.B.B.B.B.B.B.v.v.B.B.v.v.v.n.B.U.n.Y.B.Y.I.U.R.U.U.I.U.R.U.R.3.B.B.R.B.B.A.C.B.B.A.C.V.V.A.V.H.V.V.G.V.H.A.Z.G.A.H.H.C.C.C.H.C.Q.C.C.H.H.Y.Q.H.Q.D.I.Y.C.Y.T.C.R.C.Y.C.C.C.n.Q.Q.n.Q.Q.Y.Q.Q.Y.Y.Y.Q.T.Y.R.Y.Y.Y.R.Y.Y.Y.Y.R.Y.Y.Y.U.Y.Y.U.B.C.B.T.Y.C.Z.C.C.H.A.C.H.C.H.H.J.J.J.J.H.H.G.C.C.G.A.A.C.C.C.H.Z.J.J.H.H.H.Z.C.H.J.J.C.H.C.H.Z.T.~.Z.C.Z.C.Z.Y.C.Z.Z.C.C.A.C.C.H.H.H.Q.J.Q.H.J.C.H.J.Z.J.A.C.J.H.G.G.J.J.Z.H.C.G.H.C.A.C.A.V.A.A.A.M.A.5.A.M.A.M.A.M.A.P.A.G.A.C.Z.Z.C.C.V.B.V.V.C.V.C.G.Z.G.C.H.A.Z.H.Z.A.G.A.G.G.V.P.C.V.V.b.b.B.N.B.V.V.B.V.G.V.V.V.b.V.l.V.G.G.V.l.M.V.M.<.M.N.N.N.V.l.V.l.V.F.V.F.G.F.b.b.b.V.l.V.l.V.b.V.V.b.V.b.b.l.b.b.V.l.S.V.l.V.S.V.M.c.M.b.b.V.V.V.l.M.l.M.M.M.M.V.G.l.G.l.P.M.M.M.M.k.k.k.M.M.l.M.M.V.l.l.l.l.M.l.M.l.l.l.M.l.l.l.M.l.l.l.l.l.S.z.S.l.k.z.u.M.k.k.l.S.l.l.k.l.l.M.l.l.l.l.b.z.b.z.c.5.<.k.k.",
"$.h.h.g.h.>.g.,.>.>.,.;.:.;.<.5.<.:.5.5.5.1.:.:.<.<.<.,.<.<.,.,.h.h.h.c.x.<.<.h.,.x.,.x.2.<.2.,.j.h.<.h.h.c.c.h.x.l.z.l.x.l.k.x.%.m.U.t.t.U.U.t.4.t.%.4.%.4.:.2.3.2.4.,.:.,.4.,.3.,.2.,.x.,.x.r.h.h.h.,.,.x.,.h.h.3.h.h.x.l.x.h.h.x.x.b.c.b.x.x.v.x.x.2.4.m.v.m.x.2.2.,.x.,.3.,.<.x.<.<.x.c.c.c.3.c.3.c.c.B.c.c.c.v.N.c.b.c.c.c.c.c.c.3.3.c.3.3.3.c.x.c.v.x.v.x.v.v.v.v.m.v.U.U.m.v.m.v.U.m.m.v.v.v.v.v.v.v.B.v.c.v.c.N.B.V.G.H.n.H.b.b.n.b.c.c.c.c.v.N.5.B.3.B.v.Y.B.U.v.U.U.B.v.v.B.Y.n.U.R.I.R.U.U.R.U.R.U.R.R.R.R.B.5..X.XB.Z.Z.R.C.A.A.C.C.C.B.C.V.H.V.G.C.H.A.Z.C.Z.A.H.C.H.H.C.n.Q.Q.E.E.Q.Q.E.Q.Q.Q.I.Y.Y.Y.Y.C.C.Y.Y.H.B.I.B.Y.B.Q.Q.Y.C.Y.Q.~.Y.Y.Y.~.T.Y.Y.Y.U.R.R.R.R.C.Y.B.R.C.U.C.B.T.Z.Y.Z.T.Z.C.B.C.C.H.C.C.J.~.J.J.J.J.J.J.C.H.A.V.H.C.C.Z.J.~.J.C.C.J.J.Z.H.J.J.C.J.H.J.H.Z.H.H.Y.T.C.Y.H.Y.H.H.Y.C.C.C.C.C.Q.H.H.H.H.H.H.J.J.H.Z.J.C.J.C.J.H.A.H.G.H.G.H.Z.J.J.A.H.H.H.C.Z.A.A.A.A.A.A.A.A.A.V.A.V.A.A.A.Z.G.Z.Z.Z.C.C.A.B.A.C.V.V.A.G.A.P.J.Z.G.Z.G.A.G.A.G.V.V.V.V.V.b.V.b.N.B.V.N.V.B.V.b.G.b.V.V.V.V.G.V.G.G.V.M.k.V.N.N.M.5.N.M.V.M.V.l.b.G.G.F.V.b.V.b.V.G.b.N.b.b.V.b.C.b.C.b.V.b.V.V.l.V.l.V.S.b.l.l.l.b.b.V.b.V.l.V.l.N.M.M.M.M.M.M.M.P.l.V.M.M.M.l.l.M.M.k.k.k.l.k.l.l.M.l.b.l.l.l.l.l.l.l.l.l.l.b.M.l.l.l.l.l.z.l.k.j.z.j.z.k.l.l.l.z.l.l.l.l.M.M.b.l.l.l.l.z.l.l.k.k.k.x.k.",
"h.$.$.g.>.g.,.g.,.<.;.1.>.<.1.<.<.5.5.:.:.5.5.1.,.<.,.1.,.,.,.,.x.k.x.h.,.h.h.x.<.,.<.,.,.h.,.<.<.<.c.h.c.k.x.x.c.m.v.b.x.x.x.x.m.m.t.v.U.U.%.U.%.4.%.4.4.4.4.4.2.,.4.,.3.,.,.,.,.2.,.2.h.2.h.h.x.h.h.h.j.,.h.,.h.x.h.l.b.x.z.h.h.z.z.m.m.x.b.x.c.x.m.x.2.2.2.2.2.2.2.2.<.x.h.<.3.,.x.x.x.c.x.v.c.3.v.c.3.3.c.x.c.c.v.v.b.b.c.c.v.c.c.c.3.3.3.3.5.3.c.3.c.c.c.v.m.v.m.v.v.v.v.U.2.m.v.v.U.U.2.v.v.v.v.c.v.v.c.B.N.v.c.n.b.V.V.C.H.n.H.n.b.B.n.c.3.B.N.v.B.B.B.B.Y.B.U.v.Y.B.v.Y.U.Y.U.B.Y.U.B.Y.U.R.R.U.R.U.B.R.Z.R.5..X5.B.5.B.A.C.B.Z.B.C.C.A.C.A.V.C.V.G.H.A.A.G.A.A.C.G.C.C.C.H.E.H.E.H.Q.Q.Q.Q.Q.E.E.C.Q.C.Q.~.Q.C.B.C.C.Y.Y.n.Y.C.Y.Y.C.Y.Y.Y.Y.Y.Y.~.~.Y.T.Y.T.Y.C.C.C.C.T.C.R.C.C.R.C.B.C.C.C.Z.Y.Z.~.T.C.C.H.C.J.~.~.C.(.~.}.J.Z.H.H.A.V.C.C.C.J.~.J.~.J.J.~.J.H.J.C.J.Z.J.H.Z.C.J.J.J.Q.Z.H.T.C.C.T.C.Y.Z.Y.C.C.H.C.T.H.H.Q.J.Q.J.H.H.Z.H.C.J.C.J.C.J.H.G.C.A.J.G.G.C.C.J.J.A.Z.Z.J.Z..XA.A.A.M.M.A.A.V.V.V.V.A.A.Z.Z.Z.Z.Z.J.V.H.A.V.V.V.V.G.G.G.Z.A.A.Z.G.Z.G.A.G.Z.V.N.N.V.V.B.c.b.V.V.N.b.V.V.V.V.V.V.G.V.l.G.N.P.G.G.b.l.M.N.N.N.N.M.M.N.M.V.l.V.V.D.G.G.b.G.b.b.b.b.b.b.b.V.b.N.C.B.V.C.b.V.V.b.G.l.G.P.l.S.S.l.l.V.l.b.V.V.G.V.V.V.M.N.N.<.M.M.M.V.l.M.M.M.k.M.l.M.k.k.l.k.k.l.l.l.b.l.M.l.l.l.l.l.l.l.l.l.l.P.M.l.M.l.l.k.l.k.l.k.k.j.j.j.k.l.l.l.k.z.l.l.M.M.M.k.l.k.l.l.l.l.b.k.k.l.c.",
"g.$.h.g.,.j.h.h.<.<.>.<.1.<.<.<.:.:.5.1.5.:.<.:.c.3.c.<.<.<.<.<.x.h.h.h.h.h.h.,.,.<.,.<.4.,.,.,.x.x.2.x.'.%.%.U.U.U.t.%.x.x.h.x.m.m.x.z.x.x.x.x.,.,.2.4.,.4.3.4.,.x.<.2.2.<.2.3.3.,.,.2.,.h.x.h.r.h.h.h.c.h.k.h.<.h.,.k.k.k.x.l.z.c.x.b.b.c.z.x.c.c.x.x.h.x.x.h.2.,.,.,.,.2.<.x.h.3.c.3.v.x.m.x.v.x.v.3.c.v.v.B.c.c.n.c.v.c.b.m.c.x.v.c.3.3.3.3.3.3.3.3.3.3.U.U.v.v.v.v.U.U.U.m.v.v.v.x.v.v.v.v.m.v.x.v.R.3.R.R.5.R.B.N.V.C.H.H.H.H.H.b.b.m.c.b.v.B.v.B.B.B.B.B.B.Y.B.n.U.B.B.v.U.C.R.B.B.B.R.B.U.R.3.R.R.R.5.5.R..XA.5.A.5..XA.Z.Z.B.Z.Z.T.C.T.H.C.J.C.C.C.H.C.N.B.A.A.A.C.~.C.D.C.H.H.Q.Q./.Q.E.I.I.E.E.C.E.C.C.Q.Y.C.C.C.B.C.B.T.R.R.R.B.Y.R.Y.Y.Y.Y.Y.Y.Y.Y.R.T.C.T.C.T.C.R.C.A.C.B.C.C.C.B.C.B.Z.T.C.C.C.C.C.C.Y.C.C.~.J.~.J.~.~.J.~.Y.J.C.H.H.J.C.J.C.~.J.~.C.J.J.Z.H.H.Z.J.H.J.Z.C.J.J.C.C.C.T.H.Z.Y.H.Q.C.C.T.C.Z.Y.C.H.C.C.Z.C.H.C.C.J.L.H.J.Q.H.J.H.C.G.H.H.H.V.H.G.H.H.G.C.J.J.H.J.Z.A.].A.A.A.A.C.C.A.A.C.A.A.C.Z.C.T.Z.Z.C.Z.Z.C.C.V.V.A.A.G.Z.P.J.G.A.P.A.A.A.A.M.V.V.C.V.V.V.V.V.c.B.V.N.V.V.B.V.b.V.V.G.G.V.G.G.G.V.V.M.M.M.N.N.5.M.k.N.M.N.l.V.V.F.C.H.V.G.b.G.C.b.v.V.V.b.b.V.V.C.C.V.V.C.G.F.G.G.G.S.G.l.S.l.G.F.G.b.b.l.l.l.M.M.M.M.N.k.M.N.l.l.M.l.M.M.M.l.M.l.M.l.k.k.l.k.l.b.M.l.l.b.l.l.l.l.l.S.S.l.G.b.N.M.M.k.N.j.j.M.k.k.j.k.k.k.k.M.k.k.k.M.k.N.M.M.5.M.M.M.M.k.M.k.b.N.b.l.l.",
"h.h.,.h.j.<.,.h.<.,.<.1.<.1.1.<.5.5.:.1.5.5.<.<.N.3.<.<.<.<.x.h.l.x.x.h.x.,.,.,.3.x.,.x.,.<.,.,.2.2.x.2.%.%.'.%.U.%.%.'.m.x.m.z.x.c.h.x.x.h.x.h.,.,.,.,.<.,.,.3.x.h.x.2.,.3.4.<.,.4.4.h.h.x.h.x.h.h.h.h.h.h.<.h.h.<.h.h.k.c.l.x.x.k.b.b.b.m.c.x.c.c.x.x.x.x.3.x.x.,.x.,.,.,.3.3.c.c.c.c.v.x.v.v.3.3.3.c.3.v.c.v.c.v.c.v.b.m.c.c.c.c.x.3.3.v.3.3.3.3.R.3.3.'.U.3.v.v.v.U.m.2.U.2.U.x.v.m.v.2.2.m.v.c.v.v.3.R.3.R.R.3.B.B.b.G.b.G.n.n.b.n.V.C.B.n.c.B.B.V.B.A.C.B.R.U.U.Y.v.Y.U.n.B.U.B.C.U.B.B.B.U.3.5.R.5.A..X.X.X5.A..XA.A.A.A.Z.B.Z.Z.B.B.Z.C.Z.H.C.Z.H.C.H.C.N.A.A.A.C.Z.Z.H.C.H.Q.Q.Q.Q.Q.Q.Q.H.Q.H.H.E.C.n.Q.C.C.Y.Y.C.C.B.R.B.C.C.Y.Y.Y.T.Y.C.C.C.Q.C.Y.C.C.Z.Z.Z.Z.Z.Z.Z.B.C.A.A.B.A.B.Z.B.R.T.B.C.R.C.R.C.C.C.C.H.C.Q.~.~.~.~.~.J.J.~.C.H.C.C.J.H.J.J.J.J.H.J.C.J.C.C.J.C.J.C.H.J.C.J.~.Z.Y.Y.C.Y.C.Z.Y.Z.Y.Y.H.C.R.Z.Y.J.J.H.H.J.Z.H.C.J.H.H.H.H.H.A.H.H.V.V.G.G.C.A.H.A.C.J.C.Z.J.H.C.A.A.Z.A.C.A.A.G.V.C.C.V.C.Z.Z.J.~.Z.J.Z.Z.C.A.A.V.A.P.A.G.G.J.A.J.A.].A.].A.V.A.B.V.V.B.V.B.B.V.V.N.B.b.V.b.V.V.V.G.V.V.V.G.V.V.V.V.N.V.N.M.5.N.N.M.N.M.M.N.l.V.b.V.V.G.H.b.V.b.V.V.V.b.b.V.B.V.B.B.B.C.H.V.V.V.V.V.F.G.S.G.G.P.l.G.V.S.l.b.l.N.V.M.M.M.M.M.N.A.M.V.l.M.l.V.M.M.l.l.l.l.k.M.k.l.M.l.b.l.l.l.N.l.l.b.l.V.l.l.l.l.k.k.N.N.<.N.5.5.1.j.<.<.<.k.<.k.N.k.M.k.k.5.5.M.5.M.5.<.1.M.k.k.l.S.F.l.l.",
"h.r.r.h.h.h.h.h.,.j.<.<.<.,.<.:.5.:.:.5.:.<.<.3.<.5.k.c.k.<.h.k.x.h.c.h.h.3.h.h.,.h.,.,.,.x.,.2.2.2.2.v.%.'.%.U.W.U.'.%.m.x.m.b.x.l.h.h.j.,.<.j.<.,.,.,.,.,.<.h.<.x.<.,.,.4.<.,.<.,.<.h.x.x.z.x.h.z.z.k.h.k.h.h.,.<.<.x.h.k.c.k.k.x.l.x.x.b.m.k.x.x.c.x.x.c.x.h.x.3.,.x.,.3.h.k.3.c.c.v.c.v.v.v.x.3.3.x.3.c.v.c.c.b.v.b.n.c.b.c.c.x.c.x.3.v.3.3.5.5.3.3.3.3.'.R.m.3.U.v.2.U.U.3.v.3.v.v.v.v.v.v.v.v.v.3.R.3..X3.B.B.c.B.b.C.G.b.b.b.n.b.n.B.C.B.B.B.B.B.B.B.B.B.Y.n.B.Y.B.B.Y.B.C.B.B.B.B.B.5.R.5..X.X5.5..XA..X.X5.5..XB.A.A.A.A.R.Z.B.T.Z.C.Z.C.C.C.Y.Y.C.C.C.A.A.B.A.A.C.C.C.Y.H.Q.H.H.H.Q.Q.C.H.Y.D.H.n.C.H.C.H.C.C.R.C.Z.R.B.Z.R.B.C.R.C.Y.C.Y.C.Y.C.C.C.~.Z.A.A.Z.Z.Z.Z.Z.A.A.A.B.A.B.A.A.B.Z.B.C.Z.B.C.Z.Y.C.T.C.Y.Z.Q.Z.~.J.~.~.~.~.Y.J.Z.C.C.C.C.J.C.J.J.Z.H.J.J.H.Z.C.J.Z.C.J.J.C.J.C.J.T.Z.T.C.Z.R.Z.Z.C.Z.Z.Z.C.Z.T.Z.Z.H.Z.C.J.Z.Q.Q.H.H.Q.H.H.H.G.G.H.V.H.H.H.H.H.H.H.J.J.H.J.A.H.A.H.Z.G.G.C.C.C.C.V.C.A.Z.C.C.Z.Z.T.~.~.J.Z.C.A.A.G.A.P.G.J.P.J.P.J.A.A.Z.G.A.A.V.C.V.C.B.B.V.V.V.b.V.N.V.V.C.V.V.V.V.G.G.V.l.G.V.M.N.M.M.N.M.M.M.N.M.M.l.V.V.l.P.b.b.G.V.G.V.V.V.V.V.V.V.V.A.N.A.B.V.B.C.A.V.V.G.l.M.l.G.S.b.P.F.b.l.b.b.l.V.l.M.V.M.M.N.A.N.M.M.M.M.V.l.M.M.S.l.l.b.P.M.l.k.l.M.c.k.N.l.V.V.F.b.l.b.F.F.F.F.b.N.c.N.<.N.<.<.<.N.<.<.<.<.N.M.5.5.N.N.3.<.<.<.5.M.<.5.M.M.<.M.j.b.S.S.l.l.",
"x.h.,.h.h.h.h.,.h.<.<.,.<.<.:.<.1.5.5.5.<.3.<.3.<.c.c.k.c.c.h.c.l.x.h.h.<.h.h.3.3.,.<.<.x.<.3.<.2.4.U.%.U.%.U.t.U.U.t.U.m.m.z.z.j.h.h.j.,.<.,.<.,.1.<.<.<.j.h.h.h.h.h.<.,.<.:.3.3.,.3.x.h.h.z.z.z.k.x.h.h.<.<.<.<.<.<.k.c.h.k.c.k.l.b.x.c.l.c.z.c.k.h.c.x.x.x.x.x.x.2.,.x.,.<.h.3.k.c.x.v.x.v.3.3.3.c.3.c.x.c.c.v.v.c.v.v.b.c.m.c.c.c.x.v.3.3.3.5.5.'.3.3.3.4.3.x.U.3.U.U.3.v.v.v.v.3.3.v.3.3.v.c.c.v.B.3.3.3.3.N.3.B.b.B.b.D.b.D.n.b.C.n.V.C.B.B.C.B.B.B.B.B.B.B.n.Y.B.U.B.v.B.C.B.B.R.B.B.R.A..X5.R..XR..X5.5.Z.A.Z.A.A.A.A.A.A.Z.C.A.T.C.R.Z.Z.R.C.C.C.C.C.A.B.B.A.A.A.B.A.C.Z.Y.C.Y.C.Q.C.Y.B.Y.Y.C.Q.C.H.H.H.C.Y.C.C.Z.B.Z.B.R.A.R.Z.T.Y.Z.Z.C.T.H.Y.Z.Y.Z.Z.C.B.Z.Z.B.Z.A.A.C.C.C.A.C.Z.C.A.R.Z.R.T.T.R.C.Z.C.C.C.C.Q.C.~.H.~.J.Q.~.~.J.J.Q.J.~.C.A.C.C.C.J.H.Z.C.C.J.H.J.J.H.J.J.C.J.H.Z.~.C.T.Z.R.C.A.C.R.Z.C.R.C.R.Z.Z.Z.J.J.Z.J.J.Q.J.H.Q.~.H.H.H.H.H.C.F.H.G.V.H.G.H.H.G.C.H.Z.C.J.H.H.C.J.G.H.A.H.C.C.H.A.C.C.Z.Z.Z.T.C.C.Z.Z.C.H.V.A.G.A.A.A.G.A.A.A.A.J.A.J.A.A.C.A.B.C.B.A.V.V.B.N.N.V.B.V.V.V.V.V.G.b.V.G.V.G.V.A.V.N.N.N.M.V.M.M.N.V.V.V.V.l.V.b.b.V.V.b.V.V.H.V.V.V.c.V.V.N.V.N.V.V.A.V.C.V.A.l.b.V.l.l.V.F.G.l.V.V.b.b.V.b.V.V.V.M.A.A.M.M.A.V.N.V.M.V.V.V.l.G.l.l.l.P.l.M.M.k.l.b.N.V.V.b.V.G.b.b.P.V.S.G.l.b.M.k.N.N.<.N.5.<.<.N.<.<.<.k.N.k.N.<.N.N.<.<.5.5.5.M.5.<.M.k.j.l.S.z.l.S.",
"h.,.h.,.h.h.x.h.3.h.2.<.,.,.<.,.:.:.5.5.3.3.,.<.<.x.k.c.c.c.c.h.x.x.l.x.h.<.3.k.,.3.<.h.<.x.3.x.2.3.2.2.v.m.t.4.%.U.t.!.t.%.x.h.h.h.,.,.,.,.,.1.,.<.,.<.h.h.h.h.h.h.j.,.<.1.,.:.3.<.<.<.h.z.h.z.x.l.k.k.h.<.<.<.<.<.k.<.<.N.k.k.c.k.h.x.c.k.c.k.x.c.c.z.c.z.c.c.,.x.h.<.h.,.j.,.h.h.x.c.m.m.2.m.v.3.3.x.3.v.x.v.c.v.c.v.n.c.m.c.c.c.v.3.3.2.3.3.5.3.3.3.3.3.3.U.v.v.v.3.3.3.U.v.v.c.3.v.v.c.v.c.c.N.B.N.v.5..X5.4.3.B.v.n.C.D.H.n.C.n.F.C.n.B.n.C.B.B.B.B.B.v.N.C.n.B.n.B.B.B.B.B.B.B.Z..XB.R..XA.5..XA.A.5.Z.A.Z.A.C.Z.T.C.Z.C.B.Z.Z.Z.C.Z.R.C.C.Z.R.Z.T.C.R.Z.A.B.A.R.A.B.A.B.T.T.C.C.B.Z.T.C.C.Z.R.C.R.C.C.C.C.H.C.J.A.Z.B.Z.A.R.A.A.Z.T.Z.T.T.Z.~.C.Z.C.J.C.C.Z.C.C.C.C.Z.C.C.A.C.C.C.C.Z.B.R.C.Z.Z.T.T.C.T.R.T.C.C.Y.J.Y.T.Q.~.Q.~.~.~.Q.~.J.C.J.H.H.V.H.H.J.C.J.J.C.J.J.C.C.C.J.C.C.J.J.J.Z.Z.Z.Z.T.C.Z.C.Z.A.Z.Z.Z.C.Z.B.J.A.J.J.Z.~.~.~.~.Q.H.J.H.K.H.H.H.L.H.D.H.L.H.H.H.H.H.C.H.H.C.C.H.H.H.H.C.H.C.J.C.Z.C.C.Z.R.C.T.T.T.~.T.C.Z.C.C.A.J.P.A.A.A.].A.].A.A.A.A.A.C.A.A.C.B.C.C.V.V.B.B.V.V.B.V.V.V.V.G.b.G.V.G.V.G.V.V.N.N.N.N.V.M.V.V.V.l.V.G.l.V.V.V.P.N.V.V.G.G.V.V.V.V.V.A.V.M.V.V.N.A.N.V.A.A.V.N.V.b.V.b.b.b.b.l.V.V.b.V.V.l.l.M.V.V.M.V.V.M.A.A.N.A.M.P.V.V.M.S.V.l.l.l.l.M.M.N.N.N.b.l.V.b.V.l.F.F.l.F.G.F.G.l.b.k.c.N.k.c.<.<.N.c.k.k.k.c.M.k.c.M.k.<.M.1.1.M.<.M.5.M.k.M.M.l.l.z.l.z.",
",.r.r.h.,.h.h.,.<.3.<.2.,.4.,.,.:.5.:.1.:.,.,.3.<.h.x.c.k.c.l.x.h.h.h.h.x.x.h.h.x.h.h.3.x.<.<.3.4.m.x.2.2.2.U.2.t.U.t.U.U.U.z.j.k.<.<.,.,.<.<.,.3.,.h.h.h.h.h.h.h.h.h.,.,.,.<.1.:.,.<.,.k.x.z.z.l.h.k.k.h.<.<.<.<.3.5.<.k.<.c.k.k.c.k.b.c.c.c.x.c.z.x.l.k.c.c.m.x.<.,.x.,.h.,.,.<.x.x.x.x.x.v.2.x.3.x.3.c.3.c.v.v.c.v.b.n.b.c.m.v.c.x.3.3.v.3.3.3.3.3.3.U.3.B.3.v.v.v.v.v.v.3.m.3.c.v.c.N.v.N.B.c.B.B.5.B.3.3.3.3.3.3.v.b.D.D.D.b.b.b.C.C.H.C.C.B.C.B.B.B.N.B.B.B.B.B.B.Z.B.B.R.Z.B.B.Z.5..XA.5..X.X5.A.R..XZ.B.B.R.C.C.C.R.Y.C.T.Z.Z.Z.Z.R.C.Z.R.B.C.B.C.R.C.R.R.B.R.5.Z.B.R.Z.C.Z.B.T.T.B.C.T.R.B.B.B.Z.C.Z.C.J.C.Z.Z.Z.Z.B.Z..X5.R.A.T.Z.T.T.Y.Z.~.Z.C.Z.Y.C.R.C.R.T.C.R.R.C.R.R.C.C.R.C.C.R.C.Z.T.R.Z.B.T.C.C.C.R.C.Z.Y.C.~.C.Q.Q.~.~.J.J.Q.~.~.C.C.H.A.C.C.J.C.C.J.J.C.J.J.J.J.H.~.J.H.C.Z.J.T.T.Z.Z.Z.Z.Z.Z.C.B.Z.B.Z.Z.Z.A.J.A.J.J.J.Q.~.~.~./.~.~.H.H.L.H.H.H./.H.H.~.H.H.H.H.H.H.H.C.H.H.C.H.C.H.H.H.C.C.C.Z.C.C.Z.T.Z.C.Y.J.Z.J.Z.A.Z.A.P.A.J.P.P.A.P.A.A.P.A.V.A.C.V.C.C.C.C.V.A.B.V.B.V.V.V.V.B.C.V.V.V.V.V.V.G.G.V.M.V.N.N.M.V.A.V.V.V.G.V.V.G.V.G.A.G.G.V.l.V.V.G.V.V.V.V.M.A.A.V.A.N.A.N.A.V.V.V.V.V.V.b.b.N.b.b.G.V.b.V.V.b.l.G.V.V.A.V.V.V.A.M.M.M.M.V.V.M.l.P.V.S.G.l.l.M.l.M.b.N.b.N.M.b.l.b.l.b.b.G.F.S.F.V.b.l.l.M.k.c.N.k.c.h.k.k.k.b.l.b.b.b.c.k.M.<.<.M.M.1.M.M.l.l.k.M.l.l.l.l.l.",
"h.r.,.,.r.,.h.x.,.,.2.,.2.3.4.4.3.:.:.3.2.,.,.2.,.h.h.x.z.l.z.x.h.c.x.h.<.x.h.c.<.x.x.3.x.<.3.<.3.3.x.3.U.2.v.m.U.U.U.t.U.m.l.k.h.2.,.<.,.,.,.<.,.<.h.x.h.t.h.z.h.h.j.,.,.:.1.:.1.<.<.h.h.h.h.l.j.z.k.h.c.<.c.<.<.<.<.<.3.N.<.<.k.c.k.c.k.k.k.b.x.x.x.b.x.x.x.x.h.c.c.h.x.,.,.j.h.3.x.x.3.v.m.x.v.v.3.3.v.c.v.c.c.v.c.v.c.c.b.c.x.c.x.v.3.U.3.3.3.5.3.3.3.3.3.v.v.3.v.3.3.c.v.v.v.c.v.c.3.B.c.N.N.N.B.B.3.R.5.5.3.5.R.B.n.D.D.D.m.b.C.D.n.C.C.C.V.B.B.B.B.B.B.B.B.B.A.B.B.C.B.A.R.Z.A.A.5..XA..X5.A.R.R.R.A.R.T.T.R.C.Y.Y.Y.Y.Y.T.C.C.Z.C.Z.Z.C.C.B.Z.R.B.R.T.R..XZ.R.A.R.B.B.B.B.Z.Z.R.R.Z.T.B..X5.R.A.Z.B.Z.C.J.C.Z.Z.Z.A.A.Z.A.R.A.Z.B.Z.Z.Z.~.Z.Z.Z.~.C.Z.Z.Y.Y.R.C.Y.T.Y.Y.C.R.Y.Y.Y.C.R.Y.R.B.C.Y.R.T.C.T.T.C.C.T.Y.H.Q.Y.Q.Q.~.~.~.Q.Q.J.Z.H.~.C.J.C.H.J.C.J.C.J.H.~.H.J.C.J.Z.J.J.Z.Z.J.Z.Z.T.Z.Z.Z.Z..XZ.A.C.Z.Z.Z.B.A.A.J.J.Z.J.~.~.~./././.~./.~.J.J.K.K./.L.H.H.H.~.H.H.H.C.H.n.H.H.G.H.H.H.H.H.C.Z.J.J.C.C.Z.T.Z.T.~.T.Z.~.H.Z.H.A.A.A.A.].].A.A.A.P.A.A.A.N.V.A.B.C.C.B.B.B.C.B.A.V.V.V.B.V.V.V.V.H.b.G.V.G.V.G.V.N.A.A.M.M.V.V.A.V.V.V.G.G.V.G.G.J.P.G.A.G.A.V.A.A.V.V.V.M.M.A.M.A.V.A.A.V.M.V.V.b.b.V.V.C.B.C.V.V.b.b.N.b.V.V.M.V.V.A.P.M.P.M.M.M.N.M.N.l.V.G.l.V.l.l.S.V.M.M.k.b.c.N.M.b.b.l.l.l.b.S.S.b.F.S.S.b.S.b.l.b.l.N.k.k.k.k.x.l.l.F.l.F.l.b.k.N.<.<.1.5.5.M.M.l.M.l.M.b.l.l.l.l.",
"r.,.r.>.,.h.,.,.,.2.,.3.3.,.,.3.:.3.,.:.:.,.%.%.,.,.x.x.x.x.x.x.c.k.x.h.x.k.c.x.c.<.c.c.x.<.x.<.2.3.3.3.2.m.m.x.t.%.t.t.m.z.z.l.h.x.2.,.4.4.,.4.2.2.,.h.h.h.t.h.h.g.j.;.,.1.1.:.<.1.,.j.k.h.z.z.h.h.h.h.<.<.<.3.<.3.5.5.<.5.k.c.x.k.c.k.c.l.x.x.x.l.b.x.b.m.b.b.x.x.k.x.h.h.,.<.h.k.h.c.x.m.3.x.x.x.v.c.x.v.c.B.m.b.n.c.n.c.c.v.m.x.x.v.3.3.4.3.3.3.3.3.3.3.3.3.v.U.x.3.v.3.v.v.3.N.3.N.v.N.B.N.B.5.N.3.5.5.5.3.3.R.3.U.n.m.n.n.H.C.n.H.H.B.n.N.n.B.B.B.B.N.B.B.b.B.B.B.C.B.A.B.A.5.R.A.A.R.A.Z..XB.5..XZ.R.R.B.R.R.R.R.Y.Y.Y.Y.C.Z.C.Z.Z.C.R.Z.R.Z.R.C.T.Z.R.C.R.R.Z.R.R.A.Z.R.B.B.Z.B.Z.Z.Z.T.R..X5..XC.A.C.Z.Z.J.T.Z.Z.A.A.B.A.A.R.Z.Z.Z.Z.T.Z.Z.Z.J.Z.Z.H.C.Z.T.Y.Y.Y.Y.T.Y.C.R.R.C.R.R.R.C.T.B.T.Z.R.T.R.Z.R.C.R.C.C.Y.Z.Y.~.H.Q.~.~.Q.~.Q.H.~.H.Z.H.J.C.J.Q.Z.H.Z.Q.Z.T.J.J.H.J.C.C.J.Q.C.Z.J.J.Z.Z.T.Z.Z.Z.Z.Z.Z.Z.Z.Z.Z.A.A.J.Z.Z.~.J.~.(.~./.~.(.(./.J./.~./.~.K.Q.H.H.~.H.H.H.C.H.V.H.C.H.D.H.C.H.H.H.H.C.C.Z.Y.Z.J.Y.Y.T.Q.~.T.Z.J.C.].A.A.P.A.A.A.P.A.A.M.A.N.V.A.V.B.C.C.A.V.A.V.B.N.B.B.V.V.C.G.C.V.V.V.G.l.G.V.G.N.N.V.M.V.V.V.V.l.G.V.G.A.G.G.A.J.Z.G.G.A.P.V.A.P.M.A.N.M.V.A.A.V.N.A.M.A.A.A.V.N.V.V.V.V.G.G.C.V.V.V.V.V.V.l.N.V.V.V.V.A.M.M.M.N.N.M.V.l.N.P.l.P.l.l.M.M.l.k.M.k.k.k.c.k.N.V.b.b.l.b.b.S.b.b.F.S.l.b.S.l.l.b.l.c.M.l.z.b.l.b.S.V.F.l.l.k.j.j.1.M.u.M.M.M.l.M.l.l.l.b.l.l.",
"g.g.g.$.$.g.>.,.;.:.:.1.1.5.1.:.3.,.:.,.,.>.,.,.,.,.,.h.x.x.k.c.x.x.b.b.x.x.x.,.x.,.x.3.x.x.h.x.,.4.2.2.3.x.x.x.x.b.m.x.z.x.l.x.x.x.<.<.x.<.3.x.<.<.h.<.x.j.,.,.,.%.2.,.,.,.:.1.<.<.<.<.,.h.j.h.x.k.h.<.2.,.3.<.3.c.3.x.3.x.3.x.x.x.b.x.b.l.b.x.x.b.x.b.b.m.z.m.x.c.x.l.x.l.<.h.c.k.c.c.c.c.c.N.x.x.c.c.c.c.c.x.n.c.b.b.v.b.m.v.c.b.c.c.3.c.3.3.3.3.3.3.3.R.3.5.U.3.B.3.3.B.N.B.c.v.N.v.B.c.v.v.3.3.5.5.3.3.3.3.B.v.v.v.v.U.n.I.n.n.D.I.n.n.Y.B.B.B.B.B.B.B.B.N.N.A.B.A.C.Z.Z.B.C.B.T.Z.Z.R.B.B.Z.C.Z.R.R.I.R.I.U.Y.R.R.Y.R.R.Z.Z.Z.A.A.R..XT.Z.C.C.C.R.C.C.T.C.T.Y.Y.C.T.R.C.Z.C.Z.T.Z.T.B.Z.Z.R.Z.R.Z.T.C.C.Z.T.Z.C.Y.Z.C.C.Z.C.B.C.Z.T.Z.Y.Z.T.Z.Y.Z.T.Z.Z.C.Q.Q.Q.C.Y.Y.C.Z.5. X5..X3..X5.3. X5.R.R.R.B.B.Z.C.Z.Y.Z.R.C.C.H.Q.~.~./.~.~.L.Q././.J.~.H.J.Z.Q.~.T.Z.Q.T.Z.Y.J.C.Z.~.J.T.C.J.Z.J.C.J.Z.J.Z.Z.Z.T.Z.Z.B.R.A.Z.B..XJ.Z..XT.Z.~.Y.~.~.~././.(./.J.(.J.[.J.J.J.H.H.J.H.H.G.A.H.G.C.H.C.H.J.H.Z.J.C.V.C.C.G.Z.Z.J.Z.J.Y.Q.T.~.C.~.~.A.B.G.A.A.A.Z.Z.A.Z.V.A.V.V.A.V.V.V.B.V.V.B.V.V.C.G.C.C.V.A.V.V.A.G.G.V.A.G.A.G.A.A.M.M.V.P.V.V.M.P.V.P.A.V.V.A.A.G.J.Z.J.P.G.A.V.M.P.A.M.A.M.M.G.G.G.G.P.A.P.M.V.V.V.V.V.A.G.Z.A.A.b.l.b.l.l.l.N.M.5.M.M.M.N.M.M.M.M.M.M.M.V.l.l.l.l.l.k.k.M.j.k.N.k.c.k.b.l.l.l.F.F.F.z.S.l.S.F.l.l.S.l.l.k.M.l.k.l.l.k.l.l.P.P.b.l.l.l.l.j.j.k.j.l.k.l.M.M.P.M.M.l.l.M.",
"r.r.h.h.h.,.j.h.,.:.1.1.:.:.1.:.,.,.,.:.,.,.,.,.,.h.3.k.k.c.k.x.m.z.x.b.x.c.3.x.3.x.2.x.x.x.x.x.2.2.2.2.2.,.x.x.x.x.x.z.z.m.z.h.<.<.,.,.<.h.,.,.,.,.<.<.<.,.,.,.2.2.2.,.:.<.<.<.<.<.<.<.h.,.h.h.l.k.x.x.<.<.3.3.3.3.3.3.3.3.c.v.b.b.b.l.x.l.l.l.x.l.x.m.m.m.m.m.z.k.x.x.l.x.c.h.x.c.<.c.c.c.c.c.x.c.m.m.m.c.b.b.b.m.b.m.m.b.n.x.m.c.x.v.v.3.v.3.3.3.3.3.3.5.R.3.B.v.3.v.3.N.c.N.N.N.B.N.v.v.v.3.3.5.5.5.3.5.R.v.U.B.U.n.n.n.U.n.E.I.E.E.Y.I.B.Y.B.C.B.N.N.V.B.N.N.V.A.C.C.A.A.B.Z.C.R.Z.C.C.Z.C.B.A.C.C.R.R.E.R.Y.R.Y.Y.C.C.A.A.A.B.A.A.A.5.Z.B.A.R.C.Z.C.T.C.C.Y.T.T.C.Y.Z.T.Y.R.C.C.C.R.Z.Y.C.B.R.Z.Y.Y.T.Z.Y.C.T.T.C.C.R.C.R.Z.Z.C.Z.Z.T.~.T.Z.~.Z.T.T.C.R.J.C.J.~.C.C.C.C.R..X.X.X.X.X3.5. X5. X.X.XR..XZ.Z.Y.Z.Z.C.Z.C.Z.C.Q.L.K.(.L././.L.(.Q.~.~.~.Y.T.Y.Q.C.Q.T.C.Q.Z.Y.Q.Z.C.T.Z.~.T.~.H.J.H.C.Z.Y.Z.Z.Z.Z.T.Z.A.Z.Z.Z.A.A.Z.Z.J.C.Y.C.~.Q.~./.~.J.~.(.(.K.J.~.J./.J.J.~.H.J.H.H.H.H.H.C.C.C.C.Z.H.C.J.C.G.A.A.G.J.A.J.~.~.~.~.T.Q.C.C.A.C.A.A.V.H.G.Z.Z.G.V.V.A.V.V.A.B.A.V.C.V.A.C.A.V.C.V.V.H.V.H.A.V.A.A.A.V.A.G.V.V.V.V.P.M.M.V.V.V.A.V.V.V.P.V.P.P.J.J.P.Z.Z.G.A.A.M.V.V.M.A.A.V.A.G.A.A.V.V.V.V.P.V.V.P.V.P.G.V.V.G.G.G.V.S.l.V.M.N.N.N.M.M.N.M.M.M.M.V.V.l.l.M.P.l.M.l.l.l.k.N.<.5.k.k.c.k.V.M.b.b.l.z.F.b.S.S.l.S.l.b.l.l.l.k.M.M.M.j.l.l.M.M.l.b.l.l.l.l.k.j.j.k.k.j.j.l.M.M.P.l.l.l.l.",
"z.h.r.h.g.,.j.,.<.;.1.:.:.:.:.<.1.,.:.,.,.,.,.;.j.,.h.h.c.k.k.x.x.b.c.x.b.c.<.,.<.x.<.2.3.,.x.x.x.2.2.4.,.x.h.x.l.h.x.h.x.x.z.k.g.,.,.,.,.>.,.,.,.<.,.x.,.,.,.,.%.2.,.2.4.,.<.<.<.<.,.1.j.h.h.h.h.x.h.k.x.<.3.c.3.3.3.3.3.x.x.x.m.b.b.x.l.x.b.l.b.b.x.z.m.b.v.x.l.x.x.x.c.x.h.c.c.c.x.c.x.<.k.x.k.c.x.x.c.m.v.n.c.c.v.m.c.m.m.m.c.c.c.c.v.c.c.v.v.x.3.3.R.3.3.3.v.3.c.x.v.N.c.B.N.N.c.B.B.B.3.B.'.5.3.'..X3.B.B.U.B.U.B.U.U.I.I.E.I.I.Q.Y.Y.C.Y.B.v.B.B.V.B.A.N.B.A.C.A.A.A.C.Z.Z.C.C.Z.C.T.C.Z.Z.Z.C.Y.Y.Y.I.R.!.R.Y.Y.C.Z.Z.B.A.B.A.B.Z.B.B.B.C.Z.C.C.C.C.H.C.C.Y.T.R.Y.T.C.Y.Y.Z.C.T.Z.Y.Z.Z.Z.T.T.~.~.C.Y.T.Z.Y.C.T.Z.R.C.C.R.Y.J.Y.T.C.T.T.Z.Y.Z.Y.C.Y.Z.Y.Q.Y.J.Y.T.C.T.C. X5..X5..X5.5.3.5. X5.3.R.Z.R.Z.T.C.Z.C.Y.Y.Z.C.J.K.~././.~./.L.K.~./.~.H.~.C.Z.C.Q.Z.Y.Q.C.~.C.Z.Y.~.Z.J.Z.J.Z.J.J.J.~.J.T.T.J.Z.Z.A.Z.R..XA.Z.Z.C.Z.J.H.~.H.~.Q.H.~.Q.Q.H.J.~.K.~.(.J.J.J.~.J.~.J.J.H.J.L.J.J.H.C.C.J.G.H.J.C.J.H.A.J.G.J.J.J.~.~.C.~.T.C.Z.A.C.C.A.C.A.C.Z.Z.A.A.A.V.M.V.A.V.V.A.A.V.V.C.V.C.C.H.C.G.V.H.C.H.G.C.A.G.Z.G.A.V.G.V.V.V.V.V.V.V.V.V.V.A.A.P.V.A.P.A.A.G.J.A.P.G.V.A.A.V.V.M.A.M.V.P.A.P.A.P.V.V.V.V.V.V.V.l.M.P.V.V.V.G.P.b.S.V.N.N.M.N.N.N.V.V.M.M.P.M.V.V.l.P.V.P.V.l.l.M.k.M.N.<.k.N.M.M.M.M.P.l.S.b.l.S.S.l.l.S.l.l.l.M.M.k.l.l.k.l.l.l.S.M.l.l.l.S.l.l.z.z.j.j.j.j.j.l.k.l.M.M.k.l.k.",
"r.h.h.h.r.h.,.<.,.h.:.1.:.5.<.<.,.1.;.:.;.,.>.,.,.h.h.x.h.k.x.k.x.h.c.c.h.x.3.2.3.2.<.2.h.3.,.,.2.,.%.2.,.,.,.x.x.h.h.k.z.l.k.z.,.<.,.,.1.,.,.<.h.,.,.,.,.,.,.,.,.,.2.,.<.3.<.<.3.<.h.j.h.k.h.h.x.h.x.h.x.3.x.3.3.3.2.3.3.3.3.x.m.m.z.b.b.b.x.x.l.x.b.b.m.m.m.m.x.l.b.x.x.k.x.h.c.h.c.<.3.x.<.<.h.x.c.c.c.c.c.v.c.v.c.v.c.v.U.2.x.v.x.x.x.x.3.x.3.3.v.v.3.3.3.R.v.3.c.c.3.c.N.5.N.c.N.B.B.B.U.3.3.5.3.R.3..XR.B.B.R.n.Y.I.I.Y.I.E.Q.I.Q.Y.Y.Y.B.C.Y.B.B.B.V.C.B.N.A.V.A.A.C.Z.C.B.B.T.C.C.R.C.C.C.B.B.B.Y.Y.R.!.!.Y.Y.T.Y.R.C.B.C.B.B.Z.B.Z.B.Z.C.C.Y.T.Y.T.Y.~.T.C.C.T.C.Y.Z.T.C.Y.Z.C.T.Z.T.T.T.T.T.Z.T.T.T.Y.Y.C.T.C.Y.Z.Y.Z.T.T.T.T.~.T.~.~.T.Y.T.C.T.C.Y.Z.C.Z.Y.Z.C.T.T.T.5. X5. X3. X X5..X5..X.XZ.T.Z.T.Z.R.~.~.J.J.J.Q.Q.Q./.Q.K./././././.J.H.~.C.R.C.T.C.Y.J.C.T.Z.~.~.Z.Z.J.Z.~.Z.~.~.Z.C.J.J.H.J.C.Z.Z.Z.Z.A.B.C.Z.J.J.J.J.H.~.~.~.H.Q.Q.H.~.~.K./.~.J.J.(.(.J.J.K.J.J.J.J.H.~.J.J.C.J.H.Z.H.Z.C.J.J.J.J.Z.J.J.J.J.J.T.J.Z.J.Z.Z.Z.H.Z.J.A.H.Z.Z.G.G.A.A.A.A.V.A.V.C.B.V.C.V.A.C.V.G.A.C.H.V.A.V.G.A.V.G.A.G.A.G.V.P.A.V.P.V.V.P.A.P.V.V.P.V.V.V.G.J.G.G.G.P.A.G.A.V.A.P.V.A.M.A.A.V.A.G.V.V.V.P.M.P.V.M.V.V.P.V.V.Z.G.G.G.G.F.G.V.V.V.N.N.N.V.l.V.V.V.V.V.P.V.G.G.l.G.l.V.M.M.M.N.k.N.M.k.M.k.l.M.l.l.l.l.S.z.z.S.l.l.l.l.l.l.M.M.l.M.M.l.l.P.l.S.P.l.G.l.l.l.k.l.l.k.j.k.k.j.k.k.M.k.S.l.k.",
"h.r.x.h.h.x.,.h.x.,.,.2.<.4.,.,.,.,.>.;.<.>.,.,.h.h.k.c.k.h.x.l.c.k.z.h.3.,.3.<.3.<.3.<.<.,.4.,.:.%.4.2.x.%.2.,.h.h.k.h.z.k.z.k.j.<.,.<.,.>.<.,.2.,.2.,.2.,.,.2.,.2.,.,.<.<.<.<.<.5.k.<.h.<.x.h.l.l.x.k.x.3.3.3.,.2.x.3.3.x.v.x.m.b.m.c.x.b.b.l.b.l.x.x.c.c.x.x.c.z.c.x.c.x.c.h.<.,.x.,.x.3.c.3.c.c.c.3.v.3.x.v.v.x.v.v.U.4.U.U.c.x.v.x.c.x.x.c.c.x.c.v.v.c.c.m.v.x.c.c.c.c.N.c.B.v.B.N.v.B.3.R. X'.5.3.C.Y.B.U.Y.C.Y.C.Y.D.Q.Y.Y.Y.Y.Y.Y.R.Y.R.B.C.B.n.B.C.V.H.A.B.V.B.B.C.C.Z.C.Z.Z.C.T.C.R.C.B.B.C.Z.R.Y.Y.Y.R.!.R.R.Z.T.C.Z.B.C.B.C.R.Z.B.T.Z.R.C.C.Y.Y.Y.Y.C.R.T.C.T.Y.Z.T.Y.C.T.T.T.Z.~.Z.Y.~.T.T.C.~.T.T.T.C.Y.T.Y.C.Y.Z.T.T.T.T.T.~.T.~.T.Y.T.T.T.Y.T.C.C.T.T.Z.T.T.T.Z. X5. X5..X5..X5..X5.R..XR.R..XZ.Z.~.Q.Z.~.H.~.H.H.Q.H.~./.~.K./.H./.~.Q.Q.T.T.Y.Z.C.~.Z.~.J.T.J.J.Z.J..XJ.Z.J.Z.Z.J.J.~.J.J.J.J.C.C.H.C.H.H.H.J.J.H.L.H./.H./././.Q./.~./.~./.(.J.~.J.J.~.J.~.K.H./.~.J.J.(.J.~.~.C.H.Z.C.J.Z.C.J.J.Z.J.J.Z.J.A.Z.J.J.J.J.J.Z.J.C.J.J.C.J.C.Z.Z.G.Z.G.C.A.H.V.H.V.G.V.G.C.A.V.A.C.A.H.V.A.V.H.A.V.C.G.A.G.A.V.A.A.A.P.V.V.V.P.V.P.M.V.G.P.V.G.V.G.G.V.G.V.V.V.G.P.A.A.A.A.V.V.M.M.V.V.A.V.A.M.V.V.M.V.M.V.A.V.A.G.G.G.P.G.G.P.V.A.M.M.A.A.N.A.V.V.V.P.V.G.V.G.V.G.G.V.V.l.l.M.k.k.M.5.M.M.M.M.l.l.l.l.l.l.l.S.l.l.l.k.M.l.M.M.k.M.l.l.l.l.l.P.b.S.V.S.b.P.l.l.z.P.z.z.j.l.l.k.l.l.l.k.k.j.",
"x.h.h.x.h.x.x.x.h.3.h.x.x.h.,.2.<.;.,.>.,.,.j.<.h.h.j.k.l.k.k.k.c.k.x.x.,.3.<.3.3.3.<.3.,.4.:.,.2.2.2.2.,.,.h.,.h.h.j.k.k.z.k.k.j.j.,.j.<.j.<.h.,.h.,.,.,.2.,.x.2.,.3.3.3.c.5.N.5.k.h.<.h.h.k.h.x.x.x.c.x.3.3.,.3.3.3.3.3.x.v.x.m.c.v.m.b.x.x.b.b.l.b.c.b.b.b.b.x.l.c.c.c.c.x.x.,.x.,.3.3.x.3.x.c.3.c.3.v.3.3.3.x.x.3.3.U.3.2.U.3.v.x.v.c.c.c.c.c.m.m.z.v.v.m.b.b.m.v.m.b.c.v.c.B.N.B.c.v.B.R.B.5.3.5. XC.B.Y.n.Y.Y.Y.E.I.E.Q.E.Y.Y.Y.Y.Y.Y.B.R.B.B.C.C.C.H.H.C.C.V.A.B.A.A.Z.A.C.R.Y.Z.C.R.Z.C.Z.C.C.R.Y.Y.Y.R.!.R.Y.Y.Y.Y.Z.C.Z.B.T.B.B.B.C.B.Y.Y.Y.Q.Y.Q.Y.Y.Y.Y.Y.Y.Y.T.Y.Y.Z.Y.T.C.~.T.T.T.Z.T.C.T.T.C.Z.Y.C.T.Z.Y.T.T.T.C.~.~.~.~.~.T.^.T.T.Y.~.Y.~.T.Y.R.T.C.T.T.T.T.T.T.5. X5. X3. X3..X3.3..X5.Z.R.Z.T.T.Q.J.Q.H.Q.H.Q.H.H.~.Q.(.~./.H./.K.H.~.J.H.~.Z.~.~.Z.~.Z.~.J.T..XJ.J.Z.Z.J.Z.J.J.T.C.J.~.J.T.J.J.~.J.J./.L.K./.J.G.L.L.H././.Q./.~./.~.(.(.(.}.J.K./.J.K.K.J.~.J.J.K.J.(.J.K.~.~.J.~.C.G.C.H.J.J.J.J.Z.Z.J.J.J.Z.A.A.A.J.Z.J.J.J.Z.J.J.H.J.J.H.C.A.Z.J.H.V.C.V.A.C.A.C.C.G.C.G.H.C.C.H.H.A.A.H.H.V.G.A.A.G.G.V.G.G.A.V.V.P.A.G.V.A.V.V.V.A.P.V.G.G.G.A.V.P.V.V.V.A.P.V.A.M.A.M.A.V.A.P.G.V.V.V.M.V.M.A.V.V.P.A.G.G.G.G.G.P.G.V.M.A.5.5.M.A.V.A.V.V.A.V.V.V.P.G.P.G.V.P.V.l.l.M.M.M.M.M.M.M.k.M.l.l.M.S.S.M.S.l.l.l.k.M.M.k.M.k.l.M.l.V.G.S.S.S.b.P.l.P.l.l.l.l.l.l.l.l.l.l.l.l.k.k.j.l.k.",
"x.h.,.x.x.<.h.c.x.x.x.<.x.h.,.2.,.<.,.,.j.j.h.h.k.k.k.z.l.k.k.k.k.x.3.,.<.<.<.5.<.5.<.:.<.,.:.,.2.4.%.4.2.2.x.h.k.c.z.k.z.k.k.z.<.<.<.1.,.j.<.<.x.<.2.,.2.,.x.x.3.x.3.3.3.<.5.k.k.<.k.<.x.x.h.c.h.c.x.b.v.3.3.2.3.3.3.x.U.3.v.v.c.m.v.m.x.x.b.x.k.b.l.b.c.b.m.b.b.c.x.c.c.k.c.3.x.<.3.3.3.x.3.x.N.5.<.5.U.3.3.3.3.3.3.3.U.4.U.3.3.x.3.3.3.3.v.x.n.b.m.b.b.m.b.n.b.n.b.n.n.c.c.c.B.B.c.B.B.B.R.B..X3.3.'.C.n.B.n.C.Q.H.E.Y.H.H.Q.Y.Y.Y.R.R.B.C.B.C.n.B.C.C.D.D.H.C.A.C.C.B.C.J.Y.C.C.Z.C.Z.C.C.C.Z.C.C.C.Y.Q.Y.Y.Y.~.~.Q.T.~.Q.Z.C.R.C.C.Y.B.R.R.Y.Y.Y.Y.Q.Y.!.R.T.Y.Y.T.Y.Y.Z.Y.Y.T.~.Z.C.T.Y.~.T.Y.C.C.Y.C.T.Y.T.C.C.T.Z.Q.Y.T.R.^.^.Y.Y.~.Y.R.T.^.!.T.T.Y.^.~.T.T.T.R.R.T.T.R. X5.5. X X5..XR..X3.R.A.R.T.T.R.H.T.~.H.H.Q.Q.H.Q.J.~.~.~.(./.~.~.Q./.Q.~.~.~.~.~.~..XJ.J.~.~.Z..XJ.J.J..XJ.Z.J.~..X~.J.~.J.J.J.~.L.K.K.OXL.OX/.L.L.L.L.G.L./.Q.(.(./.).~.(.~.(.J.~.(.J.J.~.K.J.J.J.K./.~.(.J.J.~.~.H.C.C.J.J.J.J.Z.J.Z.G.Z.J.J.Z.A.J.J.A.J.J.].J.J.Z.Q.~.Z.H.J.C.J.Z.G.H.A.C.V.H.C.A.G.A.H.A.A.H.C.H.A.C.J.C.G.V.A.A.G.G.A.V.V.A.V.G.G.V.G.V.V.V.V.V.G.V.G.A.V.G.A.V.G.V.V.V.G.V.V.A.M.M.V.V.A.V.V.V.A.V.A.A.V.V.V.V.A.V.A.A.G.A.V.P.G.P.G.G.l.M.A.5.A.A.A.A.P.V.V.G.V.G.G.P.G.G.G.b.V.l.l.M.M.1.M.M.M.M.M.M.M.l.l.P.l.M.S.P.l.M.k.M.N.k.k.k.M.k.M.l.P.S.G.G.S.S.l.l.G.S.l.l.S.P.S.M.l.S.S.l.l.M.k.l.k.k.",
"h.,.h.h.h.<.k.h.k.h.k.k.h.h.h.j.j.,.>.<.<.j.<.h.k.h.c.k.k.l.x.h.c.h.<.<.<.,.<.3.:.3.5.1.<.:.1.,.,.%.2.4.,.2.h.h.c.z.c.l.l.j.z.k.j.,.1.g.<.,.,.h.x.<.,.x.,.x.2.x.c.x.x.3.<.N.<.<.5.k.c.<.<.h.x.h.h.x.z.c.x.3.x.3.v.3.3.x.3.x.m.U.m.m.m.x.b.m.b.l.k.b.c.l.b.b.b.m.x.x.c.c.c.c.x.3.x.c.3.x.<.3.3.3.<.<.3.3.3.3.3.U.3.U.4.3.3.3.4.3.x.3.x.3.x.x.x.c.b.n.b.m.F.b.D.F.b.n.n.b.n.v.v.c.v.B.B.v.3.B.B.R.R.R.'.3.B.C.n.n.Q.C.Q.C.D.Q.E.H.Y.Y.Y.Y.C.R.B.R.C.B.n.C.D.H.G.H.C.C.C.B.C.C.C.T.Z.C.T.C.C.T.C.Y.Y.Z.C.Y.B.Y.Y.Y.!.Y.Q.T.Q.Z.~.T.T.C.Y.Y.Y.R.Y.C.Y.Q.Y.R.!.Q.I.!.T.Y.Y.T.Y.R.C.T.~.T.T.T.Y.~.T.Z.T.C.R.Z.C.C.R.J.Y.C.T.Y.Z.T.~.T.^.T.T.^.R.^.R.~.^.T.^.T.^.~.R.~.~.T.T..XZ.T.T.B.5.5. X5. X5.5.A.3..XZ.T.B.T.Z.B.T.Y.H.J.Q.H.H.C.H.Q.J.~././.J./.K./.~.~.~.~.~.~.~.J.J.~..X.XJ.J.J.J..XJ.Z.J.Z.J.J.J.T.J.J.J.(./.L.L.(.L.L.OXK.OXK.K.K.L./.L././.(.).(.(.(./.~.(.J.(.J.J./.J.~.J.J.~.~.J.K.J.~.K.Z.J.~.H.C.J.C.C.J.J.J.C.J.A.J.J.G.J.J.P.J.A.P.A.J.J.J.J.H.J.Q.C.H.C.H.H.C.H.V.V.A.G.G.C.H.V.V.H.C.H.V.H.G.A.J.C.H.V.G.A.A.G.A.A.G.G.V.V.V.V.V.G.V.P.l.G.V.V.V.G.G.A.P.V.l.G.V.G.V.V.V.V.V.M.M.N.A.A.V.A.A.G.Z.A.A.A.A.V.V.A.V.G.A.P.V.P.G.S.P.V.M.5.A.5.M.M.A.M.V.V.l.V.G.l.G.F.G.G.G.l.V.l.M.k.M.M.M.M.M.M.u.j.P.l.P.l.P.l.P.P.M.l.M.j.M.k.<.M.k.l.l.b.V.P.b.S.b.P.S.S.b.P.S.l.l.z.S.l.l.l.M.P.M.M.k.l.k.",
"N.<.k.k.k.k.k.k.j.j.j.j.h.h.h.g.h.<.<.h.h.h.k.h.k.h.h.h.k.h.h.h.h.x.<.<.3.<.<.:.5.3.<.:.:.,.,.,.2.2.,.4.,.2.h.,.h.h.h.k.z.z.l.k.j.>.<.,.,.,.j.,.<.,.3.x.c.c.c.c.c.c.3.c.<.3.5.N.N.5.c.<.x.x.x.x.z.x.c.c.m.v.v.c.3.U.3.U.U.3.2.3.2.m.x.x.x.x.x.c.c.b.b.c.c.c.b.c.x.c.c.c.x.c.x.x.3.x.x.3.3.3.3.v.3.3.3.3.3.3.3.v.3.3.3.3.3.3.3.3.v.v.3.c.x.c.c.m.b.m.F.m.F.F.F.F.D.b.n.n.n.n.n.B.Y.v.B.U.B.B.B.Y.R.R.C.n.C.n.n.C.H.Y.H.H.Q.H.Q.~.R.C.R.R.R.B.B.B.B.Y.C.H.H.H.D.H.C.C.C.C.C.C.C.C.C.C.C.Y.~.Z.T.C.C.C.C.C.Q.C.Y.Y.Y.~.Y.Y.~.T.~.C.B.Y.Y.Y.Y.Q.Y.Y.Y.Y.I.Y.I.R.Y.!.Y.Y.T.Y.T.Y.Y.Y.Y.T.Y.T.T.T.C.~.C.Y.C.C.C.B.C.C.C.C.C.T.Y.Z.Y.C.Y.Y.R.^.T.^.T.^.Y.^.T.!.R.~.Y.Y.T.T.T.T.T.T.T.T.B.Z.R..XT.R..XR. X5.'.5.T.T.T.Q.T.Q.~.Q.~.Q.~.~.~.Z.Q.~./.~.Q.J.~.K.Q./.~.~.~.}.}.~.}.J.J.J.Z.J.J.Z..XJ..XJ.J..XJ.T.~.J.~.J.~.J.K./.K.K.OXOXOXoXOXK.OXK././.(./.(./._./.~.~.J.~.J.J.J.J.~.J.J.J.K.~.K.[.[.(.[.[.~.~.~.C.J.H.J.Z.J.Z.J.J.J.J.J.A.].A.P.J.G.Z.J.G.Z.H.Q.J.Q.H.Q.H.J.H.H.H.H.H.A.H.C.G.H.G.Z.G.G.Z.G.Z.H.A.V.G.Z.H.G.G.A.G.A.V.P.A.G.Z.G.G.G.V.G.V.A.G.G.G.V.G.V.G.G.V.G.G.V.G.G.A.V.A.G.A.V.N.N.N.G.A.A.G.Z.Z.G.A.A.A.V.A.A.G.A.Z.G.V.G.P.P.G.P.V.A.u.M.5.A.A.A.u.V.V.l.l.V.S.S.G.G.b.l.b.l.b.l.l.M.M.M.P.M.P.M.M.P.l.M.P.M.P.l.M.M.M.M.M.<.M.M.M.M.M.M.l.F.S.b.S.F.V.S.P.b.S.S.l.l.l.S.l.S.l.l.l.l.k.M.k.M.",
"<.j.k.k.k.1.k.1.k.j.j.j.g.g.j.j.h.k.h.h.h.h.h.h.<.h.h.h.h.j.k.h.k.h.k.<.<.<.<.<.5.5.:.1.<.<.1.2.2.2.2.3.x.,.h.x.h.h.z.h.k.k.z.h.h.<.,.,.<.,.<.<.<.x.h.3.x.c.c.c.x.c.<.c.N.<.<.<.k.<.c.<.x.x.z.x.x.x.z.c.x.c.v.3.2.3.U.3.v.v.m.U.v.x.m.x.c.x.k.c.b.k.k.c.b.c.b.c.x.v.c.c.c.x.3.x.x.3.3.x.2.3.3.2.3.4.3.3.3.3.3.3.3.3.U.3.R.3.3.3.3.3.x.3.x.c.c.b.m.b.m.z.m.F.F.m.D.b.b.n.m.b.n.n.B.B.Y.B.R.U.B.C.Y.C.C.n.n.C.C.n.H.D.n.H.H.n.Q.H.C.R.B.T.T.T.R.B.C.B.Y.C.H.D.D.H.C.C.C.~.C.Y.C.C.C.Y.Z.Z.C.Y.J.C.C.T.Y.Y.Y.Y.Y.Y.Y.~.~.~.~.Q.C.~.Y.Y.C.Q.Y.Y.^.Y.Y.Y.Y.U.I.R.!.Y.!.Y.Y.T.Y.T.Y.T.T.Y.T.C.C.T.T.Y.Y.Z.T.C.C.C.C.B.R.C.C.R.T.Z.~.T.T.~.~.^.^.R.^.T.^.T.R.T.Y.~.T.T.T.T.T.B.Z.T.T.T.R.R.R..XT.T.R.Z.3. X5. XT.R.T.T.~.T.T.~.Q.~.Q.Q.T.~.~.~.~.~./.(./.~./.~.~.~.~.~.~..XJ.}.}.~..X~.Z.J.Z.].Z.].].Z.J..X.XZ.J.J.~.K.K.K.L.(.oXOXOXOXK.OXK.K.[.(././././.~./.~./.J./.K.~.~.K.J./.(.J.~.K.~.(.~.K.~.(.~.~.J.~.C.J.H.~.J.J.J.Z.J.Z.J.Z.J.].J.J.J.Z.J.J.H.J.H.J.J.Q.Q.H.Q.H.H.Q.H.H.H.C.H.C.G.A.G.Z.G.G.C.H.C.G.H.C.H.A.Z.Z.Z.G.A.G.A.A.G.H.A.A.V.G.V.V.G.V.V.G.G.A.A.G.V.G.G.V.V.H.G.A.A.G.V.V.V.V.M.N.G.Z.A.A.A.Z.Z.A.A.V.Z.G.A.A.C.G.A.G.V.G.G.P.F.l.A.5.M.5.*.A..X5.G.l.G.l.l.V.G.G.F.S.G.P.V.l.N.M.5.u.M.M.M.M.M.P.M.V.P.M.M.P.P.l.M.M.<.M.M.<.<.<.M.l.l.M.l.P.b.P.P.V.l.l.P.l.G.l.S.S.l.l.l.l.S.P.l.M.k.M.k.",
"j.j.k.k.k.k.j.j.j.,.g.>.g.g.g.j.h.h.x.j.3.j.h.h.h.j.h.j.x.j.h.x.k.x.c.h.3.<.3.3.<.3.<.4.,.3.x.<.4.<.2.,.x.2.,.x.h.h.h.x.z.h.z.h.h.<.h.<.,.,.,.x.,.j.<.x.<.c.3.k.x.3.3.<.<.<.3.<.<.<.c.k.h.c.c.z.z.x.x.c.v.x.3.3.2.U.U.3.v.U.v.2.m.2.2.x.x.h.x.k.c.l.c.b.b.m.c.c.3.x.x.3.x.x.3.x.3.3.2.3.3.2.3.v.3.3.4.3.3.v.v.3.3.3.3.v.3.3.U.3.c.3.3.x.x.c.c.m.b.m.b.b.m.b.m.F.b.n.V.m.n.n.n.n.Y.Y.B.Y.C.C.Y.B.B.Y.B.H.n.C.n.n.C.H.H.C.C.C.H.C.B.C.C.R.R.B.R.B.Y.C.Y.H.E.H./.H.H.Y.C.Y.~.Y.C.C.~.C.Z.~.~.Z.H.Z.Q.C.Q.C.C.Q.C.Q.Q.Y.T.Q.Y.~.C.Y.C.Q.Q.J.Q.~.Q.~.!.Y.Y.Q.Y.!.R.!.Y.^.!.R.Y.Y.Y.Y.Y.Y.Y.Y.Z.Y.T.C.Z.C.C.C.C.T.C.C.T.C.T.T.T.Y.~.T.~.T.T.^.T.}.T.^.T.~.~.~.T.Y.T.T.T.T.T.T.T.T.T.T.T.T.Z.R.T.T.T.T.R..X X.XT.T.Y.T.Y.~.T.Q.~.Q.Q.~.~.T.~.~.}.~.(./.J./.~./.~.~.~.~.~.}.}.~..XJ.}.J.T.J.J..X.XJ.}.J.}..X~.J.~.J.J.K.H./.K.K./.OXK.K.K.K.OX(.(.(./.(./.Q./.~./.~.(.~.J.J.(.J.(.~.K.~.].~.~.J.J.J./.K.J.~.H.C.J.J.J.Z.J.Z.J.J.J.H.J.Z.J.J.J.J.J.J.J.L.J.H.Q.Q.Q.Q.Q.H.H.H.H.H.H.C.H.H.G.C.G.J.G.G.Z.G.J.J.C.A.Z.G.Z.J.Z.G.A.J.Z.A.G.G.J.G.G.G.G.V.G.C.A.V.H.A.G.H.G.H.G.V.G.H.G.C.Z.G.G.A.G.C.A.N.N.V.Z.G.J.J.H.J.G.J.A.H.Z.G.H.A.H.A.V.A.G.G.F.G.G.V.5.5.A.A.M.A.A.A.V.V.b.b.G.b.G.F.G.G.G.b.V.l.V.l.A.M.M.M.P.M.M.A.P.M.l.V.M.P.V.l.M.j.M.1.1.M.<.M.M.M.M.M.l.P.l.P.P.l.l.l.b.P.V.S.V.S.l.S.S.l.l.l.M.M.k.l.M.",
"j.k.j.k.k.j.j.j.j.j.g.h.g.g.j.h.,.<.,.,.,.,.,.h.,.,.r.2.h.x.z.h.k.x.h.x.x.<.2.<.<.:.<.,.3.,.<.3.2.2.2.2.,.,.x.,.x.x.x.x.x.h.x.h.h.3.,.2.<.h.<.2.<.,.h.<.<.h.<.<.<.h.,.<.1.<.<.<.<.<.k.<.c.x.m.x.m.c.m.c.3.x.3.4.2.3.3.U.3.3.2.m.2.x.x.x.3.k.<.c.k.c.c.c.c.x.c.c.c.x.c.v.x.x.3.3.3.3.4.3.3.x.3.3.3.3.2.3.3.3.3.3.3.c.3.3.U.3.U.3.c.v.3.v.c.x.c.c.m.b.m.b.F.m.F.m.D.n.n.n.n.n.n.n.Y.I.Y.R.C.C.B.B.Y.n.C.n.C.n.n.C.C.C.C.n.n.C.C.B.B.B.C.R.T.B.B.C.Y.C.Y.H.H.H./.D.Y.C.Q.C.Y.C.J.Y.C.T.C.~.H.T.T.Z.C.Y.C.T.T.C.Y.C.~.Z.Q.T.Y.Y.Y.H.Q.H.C.Y.Y.Q.Q.Q.Y.Y.Q.Y.Y.!.Y.Y.R.R.Y.Y.R.!.Y.Y.Y.T.Y.Z.Y.C.R.T.R.C.R.T.Y.T.T.~.~.T.~.T.T.~.C.Y.T.^.T.~.^.~.}.T.~.T.^.T.~.T.~.T.Z.T.T.C.C.T.C.T.Z.T.T..X~.T.T.T.'..X.X'.~.~.T.~.T.T.~.T.T.T.~.T.T.}.T.~.~.(.~./.(.~.(.~.~.~.~.~.}.(..X~.~.~.~..X.XJ.~.J.J.}.J.}.J.~.].~.J.~.K.~.J.K./.K./.K.L.OXK.K.(.(.[.(.).(.(.~./.(.~./.~.J.[.~.K.~.(.K.}.K.~.K.(.J.(.J.J.~.J.C.C.J.C.C.H.J.J.Z.J.J.Z.~.Z.J.J.J.J.J.K.G.H.J.Q.J.~.H.J.~.Q.Q.~.Q.Q.J.H.Q.H.H.G.H.G.Z.G.Z.G.G.J.C.J.C.J.H.A.J.J.Z.].A.G.Z.G.A.G.A.C.G.C.G.V.V.G.G.V.H.A.A.G.H.G.H.A.G.H.G.G.J.A.H.A.C.V.V.V.A.Z.Z.J.J.Z.J.A.H.H.A.H.Z.G.Z.A.G.G.V.V.V.G.G.G.V.A.A.M.5.M.M.M.M.b.V.G.b.F.G.F.G.G.F.G.F.G.b.b.l.A.M.P.M.M.M.M.P.l.l.G.P.P.l.P.b.M.M.j.M.M.1.M.<.N.j.M.l.N.l.l.b.l.l.l.l.l.l.l.G.P.V.l.l.P.F.F.P.l.l.M.l.l.",
"c.x.l.x.k.x.h.h.2.h.,.h.,.h.h.h.,.,.$.r.h.%.h.h.%.h.r.h.h.z.x.x.x.x.x.x.x.<.,.3.,.,.,.4.,.2.x.,.3.2.2.3.x.,.x.x.x.x.m.x.m.%.t.x.x.,.2.,.,.2.h.<.<.<.<.j.<.<.j.,.<.,.<.<.1.<.<.j.<.<.<.3.x.x.m.m.z.c.m.x.x.3.2.3.3.2.2.U.3.2.2.v.m.2.x.3.<.3.h.h.c.c.x.v.c.v.c.x.x.v.c.x.v.3.3.x.3.3.2.3.3.v.2.2.U.2.2.2.2.3.v.2.3.3.c.v.c.B.c.v.v.3.c.3.c.c.m.b.c.b.c.b.m.m.F.n.b.C.n.C.n.C.n.I.Y.Y.Y.Y.C.B.C.n.n.Q.n.C.n.n.B.b.B.C.C.V.V.C.B.n.B.B.C.Y.R.C.T.R.R.C.C.Q.Q.Q.E.Q.Y.Q.Q.Q.Q.Q.C.Q.H.~.J.C.C.~.J.Q.C.Q.H.Y.H.Q.C.Q.Q.C.~.Q.~.Q.J.Q.H.H.Q.H.Q.J.Q.Z.Y.Q.Y.~.Y.Y.R.Y.!.Y.Y.Y.Y.Y.Y.T.T.Y.Y.T.Y.C.C.Y.C.T.Y.T.~.Z.T.T.T.~.T.~.T.T.~.T.~.T.T.~.}.T.~.~.T.~.T.~.~.T.T.T.T.Y.Y.Z.T.Y.Z.T.T.T.~.Y.~.T.~.~.^..X^.T.Q.T.T.C.T.~.T.T.T.~.~.T.T.T.T.~.~.~.J.~./.~.(.~.~.~.~.~.~.~.~.~.~.~.~.~.~.J.Z.~..XJ.J.[.J.}.J..X~.J.~.K.J.K././.J.K.K./.OXK.J.J.~.~././._.~.(.~.~.~.L.~.K.~.K.[.~.].].(.K.~.J.K.J.J.J.H.J.C.Q.C.C.C.J.J.~.J.J.J.Z.J.J.J.J.P.].J.K.Q.K.~./.Q.Q.~./.~.Q./.~.Q.Q.Q.H.Q.H.H.J.G.H.G.G.J.Z.Z.H.J.H.H.C.Z.J.Z.J.J.J.J.J.A.A.G.H.H.V.G.V.H.V.G.G.H.V.G.H.H.J.Z.H.G.J.G.J.G.H.J.G.V.V.C.V.C.A.C.G.H.H.J.J.J.H.Z.J.J.G.C.H.G.G.C.A.A.C.G.H.G.b.G.V.N.N.N.M.M.G.G.b.V.F.G.F.G.G.F.F.P.G.F.G.l.b.l.V.l.l.V.A.M.M.P.l.V.l.l.G.l.l.l.k.l.k.k.k.M.k.M.N.M.M.M.l.M.l.l.l.l.M.M.l.V.M.P.l.l.P.N.l.S.V.l.l.M.l.M.M.",
"z.z.m.m.x.z.x.z.x.2.x.r.h.2.t.x.,.,.h.2.%.2.x.%.x.%.x.h.h.x.x.z.x.z.z.x.x.3.x.,.:.4.,.2.x.h.h.3.x.<.2.2.2.x.2.x.m.m.m.x.m.m.m.t.x.2.2.x.2.h.3.h.h.h.<.<.j.<.j.<.<.,.,.,.1.<.5.5.<.<.<.x.c.x.z.x.c.m.c.c.x.3.3.2.3.4.2.4.2.2.v.3.2.2.<.x.x.<.c.<.3.c.c.x.x.x.v.x.3.x.x.c.3.x.2.3.x.3.3.3.3.2.3.v.2.2.U.2.v.3.2.U.c.c.c.3.3.3.N.N.3.v.c.v.x.v.v.m.c.c.m.n.b.b.n.b.C.C.n.b.n.n.U.I.I.E.Y.n.E.C.C.H.Y.n.B.B.B.b.b.B.b.B.B.C.C.B.V.V.B.B.B.C.C.R.C.B.B.Y.C.C.H.H.E.H.H.Y.I.Q.H.C.Q.C.Q.C.H.C.J.H.C.~.Q.Z.Q.H.Q.C.T.H.~.Q.Y.H.C.C.Q.H.H.Q.H.H.Q.Q.Q.H.Q.T.Q.T.R.T.Y.Y.R.Y.R.Y.Y.!.T.Y.T.T.T.Y.T.T.T.C.R.C.C.T.Y.T.~.T.~.T.~.T.T.~.T.T.T.~.~.T.~.~.T.}.~.T.~.T.T.~.~.T.~.T.T.Z.T.~.Q.~.~.~.T.J.~.~.~.~.}.^.~.~.~.Y.T.Y.Y.R.R.T.T.R.T.R.T.T.T.R.~.T.~.~.~.(.~./.~.~.~.~.~.~.T.~.~.~.~.~..X~.~.J.J.}..X~.].~..X~.J.}.~.J.~.J.J.K.(.(.J.K./.J.~.Z.C.J.~.~.(.(.~./.K.Q./.L.~.K.(.J.(.(.~.~.~.K.~.J./.H.J.J.~.~.J.Z.J.J.Y.J.J.J.Z..XJ.J.J.J.J.J.K.J.H.~.Q./.~.~././.Q./._.~./.Q./.Q./.H.K.Q.H.H.A.J.G.G.G.G.J.H.A.H.A.H.Z.L.J.G.J.Z.Z.J.G.A.A.G.H.V.G.A.G.C.V.V.H.A.G.H.G.J.G.H.H.Z.H.Z.G.G.C.V.V.V.A.C.H.J.H.A.J.J.G.J.G.G.G.Z.J.G.G.A.H.G.N.N.V.A.F.G.H.V.n.V.B.b.A.M.G.G.G.V.H.G.G.G.F.G.G.F.G.F.b.V.b.G.V.V.G.l.M.M.l.M.l.l.l.F.l.G.l.l.M.M.l.M.k.k.M.<.k.M.k.k.M.l.M.V.M.l.l.l.V.l.l.V.b.l.l.l.b.P.P.b.l.l.P.l.l.",
"m.m.m.m.m.x.m.m.m.t.2.t.t.2.2.2.,.h.x.%.2.r.x.%.h.x.h.t.z.x.z.m.x.x.x.h.x.,.2.x.,.2.x.x.x.x.h.x.,.2.2.3.2.x.x.x.m.m.U.t.U.t.t.m.x.2.2.h.,.3.x.<.c.<.k.<.j.<.<.1.,.<.,.,.1.<.<.<.<.<.c.c.c.c.b.b.m.x.c.c.v.x.m.4.2.U.U.2.U.2.x.x.x.3.x.x.3.h.k.<.c.k.x.3.2.v.x.3.x.v.x.c.x.3.2.3.3.3.x.3.3.3.3.3.U.U.2.U.2.U.v.2.c.v.c.5.c.N.c.N.B.c.3.c.c.c.c.c.c.v.b.n.n.n.n.C.B.n.v.v.v.n.U.I.I.I.n.D.n.C.D.C.n.B.n.U.n.B.B.v.B.B.V.B.A.B.V.B.B.n.Y.C.C.C.Y.C.B.C.Y.Y.Q.I.C.E.Y.Q.C.Q.Y.Y.Q.C.Y.H.C.C.H.Z.Z.Q.Q.Y.Y.Q.H.Y.Q.H.Y.H.Y.H.H.Q.~.Q.~.~.~.~.J.~.J.~.Q.Q.Q.Q.Q.Y.Y.Y.R.R.Y.Y.Y.R.^.^.^.T.^.~.T.Y.Z.Y.C.T.C.Z.T.T.Y.C.C.T.~.~.~.T.~.~.T.T.~.~.~.~.~.~.T.T.~.}.}.T.~.~.~.T.~.Q.~.T.~.~.~.~.Q.~.H.~.~.~.^.~.~.~.Q.Q.Z.T.R.T.R.Z.R.T.T.T.T.T.^.^.~.~.~./.(.~.~.~.~.~.~.J.~.~.^.~.~.~.T.~.(.~.~.T.Z.T.~.~.~.Z.~.J.J.~.J.J.J.J.J.(.~.K.[.J.}.Z.Z.Z.C.T.Y.~.~.~./.~.~./.(.~.J.}.J.(.J.[.K.[.(.J.J.(.J.J.J.J.~.J.Z.H.J.C.J.J.Z.J.J.J.J.J.J.J.K.Q.~.H.~././.~./././.Q.!.Q.Q._./.~.Q.K.Q.J.J.H.H.H.L.H.Z.G.J.G.C.A.H.A.A.C.G.Z.Z.Z.Z.Z.G.Z.G.A.H.V.A.G.G.H.G.H.V.H.G.H.J.G.J.J.J.L.J.G.J.A.Z.G.Z.C.H.A.C.A.A.Z.A.G.H.G.H.H.H.A.H.H.H.H.C.G.V.A.N.B.B.n.b.H.V.D.C.B.B.V.V.D.D.G.G.b.G.F.G.F.F.S.b.F.b.F.V.F.b.b.G.b.b.l.x.l.l.k.l.x.l.b.l.l.l.l.P.l.M.l.M.k.<.M.N.<.M.N.l.M.l.M.M.k.k.M.M.M.V.V.l.M.P.b.M.l.l.V.l.l.M.M.l.",
"m.m.m.n.m.m.m.m.x.m.x.x.x.4.2.t.x.x.x.x.x.x.x.x.x.r.h.t.x.m.z.x.z.m.z.x.c.x.3.x.x.3.c.x.c.c.x.c.2.,.,.3.x.x.v.x.U.t.U.U.t.U.U.m.x.x.2.2.x.2.<.<.c.k.j.<.<.j.1.<.<.<.1.,.<.<.<.N.5.c.c.N.V.m.m.x.x.x.c.x.v.v.3.x.3.U.2.2.3.m.c.v.x.c.x.<.c.<.c.c.x.3.x.2.m.2.v.v.3.x.c.x.v.3.3.3.v.v.3.x.v.3.v.U.U.4.U.2.U.3.v.v.B.v.N.c.c.3.N.N.3.v.3.c.c.x.v.v.c.x.c.n.C.C.n.C.m.c.c.v.v.v.m.n.U.n.I.n.D.C.n.H.C.n.C.v.V.n.B.c.c.n.B.C.B.C.C.B.C.C.C.Y.R.C.C.B.B.R.C.C.n.C.C.C.n.Y.E.C.Y.H.C.C.H.H.C.C.C.C.C.H.Y.J.J.Y.Q.J.Q.Y.Q.H.C.Y.H.Y.~././.(./././.~.~.Q.Y.T.Z.T.T.R.R.Y.B.Y.Y.Y.R.^.~.R.^.Y.Y.R.Q.T.Y.T.T.C.T.Y.Y.J.T.~.T.Y.C.T.T.~.~.T.~.T.T.~.T..XT.T.T.~.~.T.T.~.~.T.~.~.~.T.H.~.~.~.~.~.~.Q.~.~.~./.~.Q.~.Q.~.Y.T.Y.C.C.C.R.Z.R.T.T..X}..X}.}.~.).~.(.(./.(.~./.~.~.~.~.~.~.^.~.^.~.~.~.~.Z.Z.~.C.~.J.~.T.J.~.J.J.~.~.J.~.J.~.(.~.}.J.~.~.T.C.~.Z.C.C.Q.H.~.(.(.(.[.(.J.(.J.(.J.~.(.J.(.J.J.J.~.J.J.~.~.~.Q.J.J.H.Z.J.J.~.Z.~.J.J.~.H.H.~././.Q.~././.~.Q.~./.~.(././.Q./.Q./.Q.H.J.H.J.G.H.H.J.G.J.G.H.C.C.G.G.A.H.Z.G.J.G.Z.G.G.A.V.G.H.V.V.C.H.V.H.V.V.H.A.H.J.H.H.J.J.J.H.H.H.H.J.L.H.G.V.V.H.H.H.G.G.C.G.G.H.G.J.G.J.G.H.H.H.C.N.N.n.V.C.F.C.V.H.C.H.b.H.D.L.G.G.G.H.G.G.G.G.b.S.F.S.l.b.S.G.V.G.l.F.b.l.c.l.k.l.l.b.l.l.x.l.l.M.M.M.M.M.M.M.M.M.M.M.l.N.l.M.l.l.M.M.l.l.M.l.V.l.l.l.l.S.l.l.l.l.P.l.P.M.",
"m.t.t.U.m.x.x.x.x.x.x.x.3.2.x.2.2.2.2.4.2.U.2.U.%.2.x.x.z.z.m.z.m.x.z.x.c.x.x.x.2.3.2.2.m.3.x.x.x.3.,.x.U.2.U.%.U.U.U.%.U.U.%.U.2.2.m.3.2.2.<.<.<.<.<.5.k.<.<.1.1.,.3.:.3.3.<.3.k.3.c.c.c.3.x.k.c.c.c.c.x.c.c.c.x.c.c.v.v.v.x.c.x.c.c.c.<.c.h.c.3.c.3.x.3.x.x.3.3.3.v.2.2.3.v.2.3.v.v.3.U.v.v.3.U.3.U.U.U.3.v.3.v.v.B.c.N.c.5.k.5.N.c.B.N.c.c.v.3.c.v.c.v.B.n.B.v.v.v.v.n.b.v.b.C.n.n.C.D.n.C.D.C.n.H.C.n.C.n.B.n.C.n.B.C.C.C.B.I.C.Y.B.Y.Y.Y.I.Y.C.C.C.n.C.C.T.H.C.C.H.H.C.~.Y.C.C.C.H.C.C.H.C.T.Q.T.Y.H.Q.Y.Q.Q.C.Q.Q.J.Q.~.Q.~./.(.~./.^.~.~.Q.T.T.T.T.Z.R.B.R.R.R..XR.T.^.T..XT.^.T.~.T.Y.T.T.Z.T.Y.Y.T.T.Y.T.T.T.T.T..XT.~.Q.T.Y.~.~.~.}.}..XJ.}.~.~.~.^.~.~..X~.~.~.T.Q.~._.Q.^.Q._.!.^.Q.Q.^.Q.~.~.!.T.T.C.T.T.T.~.T.~.T.^.}.T.~.~.~.~.~.~.~.~.J.~./.(.~.~.(.~.(.}.(.~.(.~./.~.~.~.~.~.H.~.~.Q.J.~.J.~.~.~.~.~.~.J.~.J.~.~.J.~.~.J.J.~.J.~.Q.~.K.(.(.K.~.(.(.K.(.J.J.K.J.[.~.K.~.}.J.J.(.J.J.J.J.~.J./.J.J.J.~.H.~.H.J.J.Q.H.J.Q.Q.~./.Q.K.Q.J./././.K.Q.(.L./.(.K.Q./.J.L.H.H.J.H.Z.G.H.J.G.H.J.J.H.Z.G.J.J.P.A.P.A.A.J.P.P.Z.Z.C.H.H.n.n.D.D.C.H.D.H.H.C.C.C.C.Z.H.~.J.H.H.H.H.H.D.H.G.H.G.H.H.H.H.H.H.Q.H.H.H.D.V.V.G.H.C.H.G.D.G.G.G.H.b.V.b.G.b.G.L.G.H.G.L.G.G.F.F.F.F.P.F.F.P.L.G.G.F.F.S.l.k.l.l.M.M.k.M.M.M.l.l.l.M.l.l.M.M.P.N.V.M.V.l.V.l.b.P.b.l.b.l.b.l.V.l.V.V.l.l.l.l.M.M.l.l.l.l.l.",
"t.I.t.t.m.m.m.x.x.x.x.h.3.3.x.2.2.2.4.U.2.%.U.%.U.t.t.x.x.l.l.k.z.b.m.c.x.c.x.c.3.3.m.4.2.2.x.2.3.3.,.2.4.%.%.U.U.t.%.'.U.t.U.%.m.2.%.2.2.2.h.<.<.<.<.k.<.<.:.5.:.4.,.<.3.<.3.c.3.3.N.3.c.c.x.<.k.3.c.k.c.c.c.c.c.c.v.c.x.m.c.m.<.c.<.c.c.x.c.3.x.c.x.x.x.3.x.c.v.2.v.2.v.2.2.v.2.v.2.v.m.3.v.U.U.3.U.4.U.U.2.v.v.x.v.3.v.5.c.N.N.c.3.B.c.B.N.3.v.c.N.v.v.v.B.U.U.v.v.v.B.v.B.B.C.C.C.n.C.H.H.n.H.D.n.n.C.n.n.V.B.n.C.C.C.Y.B.Y.I.I.n.Y.Y.C.Y.C.C.C.C.C.B.C.C.C.C.Q.H.Y.Y.J.C.H.C.H.C.C.Q.~.H.~.J.C.C.~.Q.Q.Q.Y.Q.Q.Q.Q./.Q.K.Q././.~.~.~.Q.~.^.T.T.T.T.R.R.B.R..XR.R.R.^.T.T.T.^.^.~.T.~.T.~.~.~.T.Z.Z.T.Y.~.T.!.~.T.~.~.~.J.~.~.Q.~.~.~.~.J.J.~.}.~.~.^.~.^.~.~.T.~.~.~.~.^.T.~.~.!.^.!.Q._._./.Q.Q.Q.Y.T.T.T.T.T.T.~.T.T.~.~.~.~.^.~.~.~.~.~.~.(.~.~./.~.~./.~.~.~.^.~.).~.}.~.~.K.Q.Q.H.~.~.~.~.~.~.Q.~.~.~.~.(.~.~.~.~.~.~.~.~.T.~.~.J.J.T.(.J.J.~.J.(.(.].K.(.(.J.K.(.(.J.~.K.(.K.J.~.~.J.J.J.K.J.J.J.J.J./.~.K.~.~././.H.J.~.Z.H.H.~.J.~.~./././.Q./.L./././././.H.K.H.~.J.H.J.C.J.Z.Z.J.Z.J.J.J.J.J.G.Z.J.J.A.J.P.J.A.P.Z.J.G.G.F.H.D.H.H.n.n.H.H.H.H.H.~.C.Z.J.C.~.C.H.H.H.G.H.L.L.L.D.H.H.J.H.Q.H.H.Q.H.Q.H.H.D.H.H.V.H.G.F.H.G.G.H.D.D.G.D.V.F.H.G.H.H.G.H.G.G.G.F.S.P.L.F.L.L.F.F.L.L.P.P.S.b.l.l.N.<.M.M.<.M.M.N.l.l.V.l.V.V.V.M.l.l.b.b.V.b.V.V.b.V.b.V.b.b.V.l.V.l.l.l.l.M.l.l.l.l.M.l.l.M.",
"t.t.W.t.m.m.m.m.c.x.c.c.3.3.3.2.3.2.2.3.2.2.U.U.x.x.x.x.x.z.l.h.z.x.z.z.c.x.3.3.x.3.2.3.x.v.m.x.x.2.x.2.2.U.U.2.%.4.U.%.t.U.U.%.m.4.m.2.2.2.3.<.<.<.<.5.3.<.<.<.3.<.<.:.<.3.5.N.3.c.3.N.c.c.<.x.k.c.3.c.k.c.c.c.c.m.c.b.v.x.m.c.c.c.k.c.c.c.c.x.c.c.c.c.x.v.v.x.v.3.2.v.3.v.v.2.v.2.U.v.v.v.v.U.U.v.U.v.3.3.v.v.3.v.N.v.c.N.c.N.c.c.N.N.v.c.v.v.B.c.B.v.v.B.v.B.U.v.U.B.B.n.B.n.H.C.C.H.C.H.n.Q.n.C.n.C.n.C.n.n.n.n.C.C.C.C.B.C.B.Y.U.I.Y.Y.C.Y.C.Y.C.C.Y.C.C.H.Y.H.C.Q.Q.C.C.H.Q.H.C.Q.Q.C.~.Q.T.~.~.C.Y.Q.Q.!.Q.Q.Q.H.~.L.K.~.~.(.)./.~.).~.~.~.T.T.^.T.T.R.T.R.R..XR.T.T.~.T.^..X^.}.^.~.T.T.T.J.Z.~.Y.T.T.!.T.!.~.T.T.~.T..XT.~.~.~.~..X}.~.[.}.~.}.~.^.^.).~.T.~.~.~.~.~.~.^.Q.!.!._.!.!.!.Q.Q.^.Q.~.R.~.T.R.T.T.T.}.T.~.}.}.T.~.T.~.~.~.~.~.(.~.~.~.(.(.~.~.(.(.}.(.^.^.~.(.~.~.~.~.J.~.~.~.T.H.H.~.J.~.~.~.~.).~.~.~.~.~.~.~.~.~.~.~.~.~.(.~.K.].K.~.].(.K.(.K.(.(.J.(.(.~.K.}.J.~.J.(.J.K.J.].J.~.J./.J.~.J.~.J.J.Q.H.~.C.~.~.C.H./.~./.L.~./.Q./.H./.H.L./.K.Q./.H./.H.J.H.J.H.Z.J.J.Z.H.G.J.J.J.J.G.J.P.Z.P.J.A.A.A.].G.G.H.G.H.n.n.D.E.Y.H.Q.H.~.~.H.~.J.Q.H.J.C.H.H.H.H.H.H.H.D.G.H.H.H.L.H.Q.H.Q.H.Q.D.Q.H.H.C.H.G.G.H.L.H.H.D.G.D.G.D.G.F.F.D.G.H.G.C.V.G.G.G.F.L.P.L.oXD.D.G.G.G.L.L.P.G.b.l.l.N.M.<.M.5.M.N.N.N.V.M.V.M.V.l.V.M.G.l.V.b.b.G.b.G.V.b.b.G.G.V.l.l.V.l.l.l.M.l.M.V.l.l.M.l.l.",
"W.U.t.U.m.m.v.t.c.x.c.c.x.x.3.x.U.2.2.3.4.U.%.U.m.x.x.h.h.h.h.k.m.x.x.h.h.,.x.3.2.3.2.2.x.3.2.2.<.,.x.,.%.U.%.2.U.t.t.U.U.t.U.U.2.m.4.x.2.3.3.<.<.<.<.N.<.3.<.<.<.3.3.3.3.<.c.3.c.c.3.3.<.x.c.<.3.3.x.k.c.c.x.c.c.x.m.c.m.v.m.c.x.3.c.c.3.x.c.c.x.c.x.3.c.c.x.3.3.2.v.3.v.3.v.v.3.v.v.3.v.3.v.v.v.v.v.v.U.U.v.v.v.N.v.c.c.v.v.5.c.c.v.v.B.B.c.B.v.v.v.v.v.U.U.v.U.Y.U.n.n.n.C.C.C.V.C.C.D.n.Q.n.H.b.H.D.C.n.C.n.B.C.n.C.Y.C.Y.B.Y.n.C.Y.n.Y.C.C.C.Y.C.C.C.C.C.C.C.C.H.C.H.C.~.Y.J.Y.~.J.~.~.J.~.Z.J.Y.~.~.~.^.Q.!.Q./.~.~./.~././.~.~./.~.~.^.~.~.^.T.^..XT.T.T.R..XR.T.T.T.^.R.T.^.~.^.}.T.^.~.~.T.T.T.~.C.Y.Y.^.T.T.~.T.~.T.}.Q.~.~.~.~.}.~..X~.].}.~.).}.}.~.~.}.~.T.~.~.Q.~.Q.^.^.!._.~.!./._.~.Q.Q.~.^.T.^.~.^.T.}.~.^.~.~.T.~.}.~.~.~.~.}.~.~./.~.~.~.~.).~.~.~.~.(.}.(.~.}.~.~.~.~.~.~.~.J.~.~.~.~.~.~.~.}.(.~.~.~.~./.~.~.~.~.~.(.}.~.}.~.].(.(.(.].(.K.(.(.(.K.}.K.(.J.[.(.~.K.J.}.J.~.~.J.J.~.K.K.J.~.K.~./.(./.~./.~.~.H.~.J.H.Q.H.H./.~.H./.L././.Q.Q.L.Q.K.~.J.J.H.H.J.H.J.Z.J.J.J.J.J.J.J.J.J.G.J.J.J.A.A.J.P.P.A.G.G.H.A.C.H.H.H.H.D.Q.D.H.H./.H.H.~.J./.Q.H.H.J.H.H.H.H.G.H.D.H.H.H.H.H.H./.H.Q.H.Q.H.H.H.H.L.H.L.G.G.H.G.H.G.G.G.G.D.G.G.H.G.H.b.C.G.H.G.D.G.L.D.F.L.F.L.G.G.G.L.P.D.F.V.l.N.M.M.N.M.M.N.k.M.l.M.M.M.V.V.l.V.V.V.G.G.V.G.V.F.G.F.V.G.b.V.F.V.G.l.l.M.V.l.M.l.l.M.l.k.M.l.",
"t.!.U.t.U.U.U.U.x.v.v.x.3.3.3.v.2.2.2.3.2.2.m.2.m.2.k.x.h.j.h.h.,.t.h.h.,.2.h.2.2.<.x.3.v.2.x.2.2.,.,.2.x.%.%.U.U.%.%.U.%.t.U.%.v.2.m.2.3.h.3.<.<.<.<.3.<.<.3.<.3.3.3.3.3.3.c.c.c.c.3.x.x.3.x.x.x.k.c.k.c.x.c.c.c.c.c.c.c.c.c.c.x.c.c.3.c.c.x.c.c.c.3.v.x.c.x.c.v.2.2.v.2.v.v.v.m.U.v.v.v.v.v.v.v.v.v.B.v.v.v.v.v.v.3.v.v.B.v.v.v.v.v.v.v.v.B.v.v.B.n.B.U.v.v.U.v.U.Y.n.v.B.C.b.C.C.C.C.C.C.E.C.C.D.C.n.n.C.n.C.C.Y.C.C.Y.C.C.Y.C.C.I.C.Y.Y.C.C.C.C.Y.C.C.Y.C.Q.J.Q.C.J.Y.~.~.H.~.C.H.~.J.Q.~.J.Y.~.~.C.^.Q.^.Q./.~./.~./.~.(.~.~./.~.(.~.~.~.~.T.T.^.~.^.T.T.T..XT.T.T.T.T.~.~.T.~.^.T.~.^.T.~.~.~.T.T.T.~.Y.T.T.^.T.~.T.}.T.T.~.~.~.~.~.}.~.~.}.~.}.~.^.(.^.^.T.T.^.~.~.^.~.^.~.!.~.!.~.!.!.!.Q./.Q.^.~.^.T.T.}.T.}..X~.T.^.~.}.~.~.~.}.~.^.~.(.~.(.~.~./.(.(.}.^.(.}.(.}.~.}.(.~.~.~.~.~.(.~.~.~.~.~.~./.~.~.}.~.(.}.).~.}.~.}.~.~.~.}.(.}.(.}.K.K.}.].[.K.(.(.K.(.(.].(.(.[.K.~.~.[.J.~.J.J.J.].J.~.~.J.~.K.~.(.J.~.~./.~.~.J.~.J.~.H.~.H.~./.Q.~.~.Q.~.Q.Q.~.J.Q.~.H.J.J.H.J.H.H.~.J.J.J.J.J.J.J.J.J.J.J.G.G.A.J.P.G.Z.G.G.G.H.b.H.H.b.H.D.n.D.H.H.H.H.H.H.L.L.L.G.L.H.L.H.H.G.H.H.L.H.C.H.L.H.H.J./.Q.Q.J.H.Q.H.H.H.H.H.H.H.H.G.H.V.H.G.C.b.G.G.V.V.H.V.G.G.V.G.G.G.L.P.L.L.oXL.F.P.D.G.F.G.G.A.P.l.l.N.M.A.M.5.M.M.A.M.M.M.M.A.M.A.M.V.M.V.G.G.F.G.G.G.D.V.G.V.V.G.b.P.b.G.l.M.l.M.l.l.l.M.l.l.l.l.",
"U.t.t.U.U.t.U.U.v.x.x.x.v.3.2.2.2.2.2.2.2.2.2.x.x.x.x.x.h.h.j.h.h.h.h.,.,.,.,.2.2.2.3.m.x.x.x.x.3.2.2.2.2.m.m.2.%.U.U.t.U.U.U.U.x.v.2.3.x.3.c.3.3.k.<.3.<.3.3.3.3.3.3.3.3.3.3.c.3.c.x.c.c.h.x.k.x.c.x.k.x.c.c.c.c.c.m.v.c.m.c.x.c.N.c.N.c.c.c.c.c.c.x.c.x.c.c.c.3.v.U.3.v.2.2.U.4.2.3.3.3.v.U.3.v.v.v.3.v.v.B.v.3.v.v.v.v.v.U.3.v.v.3.U.v.v.U.B.R.B.U.U.U.U.U.B.U.B.n.U.B.n.B.B.H.C.H.C.H.D.C.E.n.b.n.H.C.n.C.n.C.C.Y.C.C.Q.B.Y.Y.U.C.Y.C.Y.C.Y.Y.H.C.Y.C.C.Z.C.J.C.Q.C.H.C.C.H.Q.~.H.T.T.~.~.~.T.Q.Y.~.Q.~.Q.^.Q.!.Q.~.~./././.~.Q.~.~.Q.~.~.~.~.^.T.~.}.T.^.T.T.R.T.T.~.T.T.T.T.T.~.T.T.T.~.T.~..X~.~.T.T.R.^.R.~.T.^.~.~.~.^.^.^.~.^.~.~.~.}.~.}.}.~.^.}.}.^.~.}.}.~.~.~.!.~._.~.^.~._.!./.!._.~._.Q.^.T.^.~.T.^.}.^.}.^.~.~.T.^.~.}.~.~.~.~.~.}.~.~.(.~.(.~.(.~.~.).).}.).(.~.~.(.~.~.~.~.~.~.~.~.~.~.~.~.~./.~.~.(.~.~.(.~.^.}.}.).).}.(.}.K.(.~.(.(.J.(.J.K.(.(.=X}.[.(.J.J.[.(.].[.J.}.~.[.J.[.J.K.(.K.~.(.~.(.~.(.~././.~.~.~.J.~.H.~.Q.J.~./././././././.~./././.~.Q.Q.H.J.J.J.J.J.J.~.J.J.J.J.J.J.J.K.J.J.J.J.J.G.Z.A.A.H.H.G.D.H.b.H.G.H.n.n.D.H.H.D.L.F.L.L.L.H.K.K.H.H.H.G.H.C.G.H.H.J.H.Q.Q.J.~./.Q.H.C.H.H.A.H.H.G.H.H.G.V.G.G.H.G.H.V.H.G.b.F.V.b.V.b.G.G.G.L.L.D.F.L.G.L.G.G.G.G.G.V.V.V.V.V.N.M.M.M.N.M.5.M.M.M.M.N.M.M.M.V.M.V.l.b.G.F.G.G.G.F.H.H.G.H.G.N.V.l.V.P.M.l.l.M.l.l.l.M.M.l.",
"t.t.U.U.U.U.U.%.x.x.2.3.m.2.2.2.4.2.2.4.2.2.x.2.2.x.3.h.,.,.h.h.x.,.,.2.x.,.2.x.4.2.2.v.v.2.2.2.,.4.2.h.2.2.2.x.U.%.%.U.t.U.t.U.x.x.c.x.x.c.x.c.3.x.<.h.3.<.N.c.c.3.c.3.3.c.c.c.N.c.c.x.h.c.x.c.k.c.h.c.c.c.x.h.c.x.c.c.c.c.c.x.c.c.c.c.c.c.c.c.c.c.c.c.v.x.v.x.U.3.v.v.2.v.2.2.2.v.3.U.3.v.v.3.c.v.B.3.v.3.v.v.v.v.v.U.v.v.U.B.v.3.v.3.B.U.U.Y.U.U.R.U.U.B.U.U.v.v.v.B.n.B.n.B.C.C.H.C.Q.H.Q.n.n.H.n.C.n.C.n.C.Y.Y.C.C.C.C.B.C.n.Y.B.Y.n.Y.Y.C.Y.Y.C.Y.C.Y.C.Y.Y.Q.H.J.Q.Q.~.~.C.~.Q.~.H.~.Q.~.~.~.Q.~.~.~.~.Q././.~./././.~.Q.Q.Q.Q.Q.Q.~.~.Q.~.^.^.T.^.~.^.R.T.T.T.T.T.Y.T.T.Y.T.T.T.T.^.^.T.~.~.T.~.T.~.^.~.~.T.~.~.T.~.^.~.^.~.~.^.^.~.}.^.~.~.~.^.~.~.^.~.~.}.~.^.^.~.~.^.Q.^.Q.^./.^._.Q._.~._.~.T.^.T.^..XT.^.T.~..X~.~.~.~.^.}.}.).^.}.}.~.(.~./.).(.(.~.(.}.(.}.(.).(.(.~.~.~.(.~.}.~.(.~.(.(.(.~.(.~.~.~.(.~.~.}.^.(.}.(.^.}.}.}.(.(.~.(.~.K.(.J.K.J.K.(.(.[.(.[.[.(.[.(.J.~.~.~.J.J.J.(.(.].~.K.}.K.(.(.(.~./.~.(.~.~.~.J.~.Q.~.~.K.~./.~._.~./.(.(.~.(./.~.~.J.H.J.J.J.J.H.J.J.}.J.J.J.J.G.J.J.J.].J.J.J.J.K.G.G.G.G.C.G.V.V.H.n.C.C.D.C.H.H.F.C.D.L.L.F.L.L./.L.L.L.H.H.H.G.H.G.G.C.J.H.J.K.~.Q./.Q.H.H.D.C.V.C.G.V.H.V.V.G.H.V.V.V.V.G.b.G.b.V.V.V.V.G.G.G.G.G.G.P.F.P.L.F.F.G.G.l.l.V.V.V.M.M.V.A.5.A.5.5.M.M.5.5.M.M.N.M.M.M.M.l.G.F.G.L.P.L.F.G.V.H.V.V.G.V.l.V.l.V.M.l.V.M.P.l.M.l.l.M.",
"'.t.U.t.t.t.%.U.x.x.m.2.2.v.3.2.2.2.2.2.2.4.,.x.x.<.h.,.h.h.h.h.h.x.h.x.,.,.2.x.2.4.m.x.v.x.v.2.2.,.2.2.2.2.x.2.%.U.U.%.U.t.U.t.x.m.m.c.3.x.c.x.3.<.3.3.3.c.3.5.3.c.3.3.x.3.c.3.c.c.x.<.c.x.c.x.x.x.c.x.k.x.c.c.c.c.c.c.c.v.x.x.c.c.c.c.c.v.c.c.c.c.x.v.c.c.c.v.2.v.2.2.3.3.2.2.2.2.3.v.3.x.3.v.3.v.3.v.v.v.3.v.v.v.3.U.v.U.v.U.v.U.v.v.U.B.U.U.Y.R.U.U.U.U.v.v.U.v.v.v.v.n.N.n.C.H.C.C.n.H.n.Q.n.H.n.D.C.n.Q.C.C.C.I.Y.Y.C.Y.B.I.B.n.C.C.C.Q.C.C.Q.C.C.Y.C.Y.C.H.Y.Y.Q.~.C.H.Y.Y.H.H.Q.~.Q.~.Q.~.^.~.~.~.Q.Q.^.~.!.~.Q.Q.Q.Q.L.H.H.~.Q.~.C.Q.~.T.T.~.~.T.~.~.~.~.T.R.T.T.T.Q.T.Y.Y.T.~.}.T.~.~.T.T.~.T.~..XT.T.^.^.~.T.T.}.~.~.~.^.~.~.~.~.~.~.~.^.~.~.^.~.~.~.~.~.^.~.~.~.^.^.~.~._.Q._.Q.!.^.)./.).^.^.^.~.T.^.^.T.}.^.}.~.~.T.T.}.~.~.}.~.~.(.^.(.~.~.(.~.(.~.~.}.).^.(.}.}.^.~.(.~.~.~.~.(.}.}.}.).}.(.~.~.~.~.~.~.~.(.(.~.^.}.}.~.(.~.~.}.~.K.].~.K.(.J.K.(.(.[.(.=X[.[.(.(.[.[.(.~.].[.~.[.J.J.[.K.~.K.~.~.(.(.(.~.(.~.(.~.[.~.~./.(./.~.~.~.~.(.(.).).}.(.(.(.(./.~.J.H.J.H.J.J.~.J.J.J.K.J.J.J.J.J.J.J.].K.].].J.J.G.A.H.G.V.H.H.b.G.D.C.G.F.H.C.C.H.G.F.L.L.L.L.L.L.L.H.G.G.H.H.A.C.C.A.J.J.J.~.J./.~.H.H.H.H.C.G.G.V.G.V.V.H.V.b.V.V.b.H.V.V.V.V.N.b.G.b.G.G.G.G.G.L.G.L.G.F.P.G.S.N.M.M.M.V.M.M.V.M.M.A.M.M.M.A.A.M.M.5.5.M.M.N.A.M.l.l.G.F.F.F.L.F.F.V.G.G.H.b.M.b.l.G.l.V.V.l.M.M.l.l.M.l.l.",
"U.U.t.U.U.%.U.4.2.2.%.2.2.2.x.%.%.U.2.U.2.2.2.<.x.<.h.,.,.<.c.h.3.x.x.c.c.c.c.x.3.x.x.c.m.2.2.2.3.2.2.2.3.x.x.x.U.%.'.%.%.%.'.%.x.x.,.2.x.2.3.x.2.x.2.3.3.x.3.c.c.3.c.3.3.c.x.x.c.x.c.x.c.c.c.c.x.b.b.x.b.x.b.x.c.c.c.c.v.N.v.3.N.c.N.c.c.v.v.c.c.c.c.c.c.c.c.v.v.v.v.2.U.3.2.2.3.v.v.3.U.v.3.U.3.3.v.3.v.v.v.U.U.U.U.U.v.U.v.U.U.U.v.U.U.U.U.U.3.U.3.U.U.v.U.R.v.v.v.v.v.n.n.C.H.C.J.Y.H.Q.H.Y.H.C.E.H.n.Y.n.C.C.I.C.Y.C.C.B.Y.C.C.Y.C.C.Y.C.C.Y.C.Y.~.~.Y.Y.Y.C.Q.Q.Q.~.~./.Q.~.~./.^.(.).^.(.~.^.~.~.~.~.~.~.~.(.~././.~.~././.~.~.Q.~.~.~.~.^.~.~.Q.T.~.Q.T.^.~.~.~.^.^.~.T.T.~.T.T.T.~.T.T.^.}.T.~.~.^.T.~.~.T.~.T.~.T.T.Y.~.Y.~.Y.^.~.^.^.^.^.~.^.~.^.~.).}.^.^.}.{.{.^.^.^.~.^.~._.~.Q./.(.^.~.^.~.^.T.~.T.T.^.T.}.^.^.}.^.}.^.}.}.}.^.~.}.).}.}.).(.(.).}.).(.^.}.).}.).~.~.~.~.~./.(.^.).}.).).}.).~.}.~.~.~.(.~.(.}.}.(.~.^.}.}.(.}.(.].(.(.~.K.K.K.~.(.K.(.K.[.(.K.(.K.~.K.(.~.[.}.~.J.[.J.[.(.K.~.J.}.~.(.~.(.~.(.~.(.(.(.~.~.~.~.~./.~.~.~./.~.~./.~.~.~.J.~.~.~.[.J.].~.J.J.J.J.[.~.~.K.J.J.K.J.J.(.J.J.J.J.H.G.C.H.H.H.H.H.A.H.G.H.H.H.J.H.J.L.J.L.oXL.oX/./.L.L.G.H.H.G.J.J.J.Z.J.J.J.J.~.C.J.~.C.Q.Z.H.H.A.A.V.V.V.N.N.V.V.G.A.A.H.V.C.V.C.V.V.V.M.G.G.G.G.L.P.F.G.G.F.G.G.P.V.V.V.V.M.A.V.A.M.M.M.M.M.N.M.5.5.M.A.N.N.M.V.A.V.G.V.F.G.G.L.L.F.G.b.G.G.b.V.b.P.l.V.M.l.l.l.l.l.M.j.l.l.P.",
"t.2.U.U.%.!.%.t.2.2.U.%.U.4.2.v.4.2.4.2.2.4.2.<.c.x.<.,.,.<.<.<.2.3.3.c.c.c.3.v.2.x.3.v.v.2.3.2.2.2.3.m.x.x.v.x.%.U.%.%.'.%.U.%.2.x.x.r.x.x.2.x.x.h.3.,.<.3.3.3.3.c.3.v.c.x.v.3.x.v.c.c.m.x.m.c.x.x.x.m.x.x.c.x.b.c.c.v.c.c.c.c.c.c.c.B.v.N.c.b.c.x.v.x.c.v.c.b.3.2.v.v.2.3.3.2.3.2.2.v.2.v.v.2.v.3.c.v.v.v.v.v.U.3.U.3.U.U.U.U.U.U.U.3.U.U.U.U.U.U.U.U.U.Y.U.U.U.v.v.v.n.C.B.C.C.H.C.Q.Q.H.H.Q.H.n.C.H.C.C.C.Q.C.C.C.n.C.Y.C.C.C.Y.Y.C.C.C.Y.C.Q.~.~.Y.Y.Q.Y.C.H.Y.J.~.Q.~.~.~.Q.~.Q.~.~.~.^.~.Y.^.~.^.~.^./.~._.~.(.~.(./._.!.H.~.Q.H.Q.~.~./.~.~.Q.~.T.Q.~.~.~.~.~.~.T.T.T.}.^..X^.~.T.^.^.T.^.T.}.^.T.}.T.}.~.T.T.}.~.T.~.T.T.~.~.Y.~.^.^.^.^.^.^.~.}.~.^.}..X^.^.{.^.^.^.^._.~./.^.Q._._.Q._./._.~.^.~.^.T.T.^..X~.T.~.~.}.^.}.}.^.).~.~.}.(.}.).(.(.).).}.(.}.}.).(.}.(.}.~.~.~.~.~.~.(.}.{.(.(.}.(.).}.).~./.~.~.}.~.(.).}.~.}.~.(.}.~.}.[.~.J.[.J.(.K.].K.(.(.(.(.[.[.(.~.].~.~.J.~.K.[.[.J.].(.J.[.(.J.(.(.K././.~.~./.~.~.(.(.(./.~.~.~.~.~.~.~.~.~.~.~.~.~.Q.~.J.~.~.~.~.J.~.(.[.J.J.K.J.[.J.J.J.J.J.J.J.J.J.J.H.J.J.H.H.H.J.L.L.H.J.H.G.H.H.J.H.H.L.L.K.L.L.L.L.J.L.J.G.Z.J.Z.Z.J.Z.J.J.~.H.J.~.Q.C.H.C.H.Z.C.G.G.C.V.A.V.V.b.C.V.H.H.V.V.G.V.V.V.V.M.V.V.G.G.G.G.L.P.G.P.G.P.G.V.V.V.A.A.A.M.A.V.A.M.M.M.A.M.M.M.M.5.5.N.M.M.M.V.V.G.V.G.G.F.G.L.L.G.b.V.b.G.b.V.V.G.l.P.M.j.l.l.k.M.M.M.l.M.",
"3.v.U.4.U.4.%.U.x.%.U.U.x.2.2.2.2.2.4.2.2.,.3.2.<.<.,.<.<.<.<.3.3.3.3.3.x.3.x.x.x.v.x.x.3.v.3.3.v.3.3.v.v.v.c.v.U.%.U.'.U.%.U.%.x.h.x.2.2.%.x.x.3.2.2.x.3.3.3.x.3.c.x.3.x.x.c.x.c.c.c.c.c.c.c.c.b.b.z.m.b.x.c.c.c.c.x.3.3.c.5.v.c.c.c.N.c.N.c.c.c.c.c.v.v.c.c.v.v.v.v.2.2.v.2.2.v.3.v.2.2.v.2.v.v.v.3.v.3.B.v.v.3.U.U.U.U.U.U.U.U.U.U.U.3.U.3.v.U.v.U.U.U.v.B.U.U.U.n.Y.B.C.C.C.C.C.H.C.C.Q.I.Q.H.Q.H.C.D.C.n.C.Y.n.Y.C.I.C.Y.B.n.C.C.C.C.Y.Y.C.~.Y.Y.~.Y.T.Y.Y.Y.Q.~.Q.^.Q.~.^.~.!.~.^.Q.^.~.Q.Q.~.T.^.Q./.~.~.(.~.~.)._.~.~././.~.~.~.~.~.~./.~.(.~.~.~.~.~.~.^.^.~.~.~.^.^.~.^.T.^.T.~.~.T.^.^.~.}.T.~.T.~.}.T.}.}.~.T.T.^.^.Q.T.Q.~.~.^.^.^.).^.).^.^.~.).^.^.^.}.{.{.^.~.^.Q._.~.^._./.~.^.)./.).).^.^.~.T.^.T.T..X}.}.~.~.^.}.^.}.}.(.~.}.(.^.(.}.(.).(.(.).(.).(.}.).}.).~.(.~.~.~.~.}.).).}.}.).~.}.(.}.}.~.}.~.~.).}.~.^.~.}.).}.(.(.~.[.[.J.J.K.K.(.J.(.K.K.(.(.[.(.J.K.(.}.K.[.~.[.~.}.K.[.~.(.~.~.K.~.(.~.[.^.(.(.(.(.~.(.J.~.~.~.~.J.~.Q.Y.Y.~.~.Q.~.~.~.T.J.~.~.~.J.J.~.J.J.J.J.K.J.].J.J.J.J.J.J.J.H.J.J.J.K.J.~./.~.J.Q.H.J.J.J.H.G.L.G.H.J.J.J.L.L.K.G.L.H.L.H.G.H.J.C.J.Z.J.J.Z.Z.J.Z.Z.H.Z.J.~.H.~.C.H.A.Z.V.V.A.N.V.N.A.A.V.A.A.V.A.V.N.V.N.V.V.V.G.A.G.L.G.G.G.G.G.V.G.V.V.M.A.V.M.P.M.V.A.M.V.M.M.A.M.M.M.M.M.M.M.A.M.V.G.V.G.V.b.L.F.F.P.V.G.V.V.b.V.l.P.V.l.M.l.M.l.l.l.l.M.l.M.M.",
"v.2.U.%.U.U.U.4.%.3.%.4.2.2.x.2.%.4.2.2.2.2.,.<.3.<.<.<.,.<.1.3.,.<.3.3.3.<.x.3.x.x.x.3.2.U.2.2.2.U.x.v.x.v.c.c.t.t.t.%.t.t.U.t.h.x.h.h.x.x.x.m.x.x.2.x.3.x.c.3.v.3.c.v.v.c.c.v.m.m.c.v.c.b.m.b.b.m.b.b.x.b.x.k.c.v.c.c.N.c.3.N.c.c.c.c.b.v.v.c.c.c.c.x.v.c.v.c.v.3.2.U.3.2.v.2.v.3.2.v.v.2.v.2.3.v.v.v.v.v.v.v.U.U.U.U.U.3.U.U.U.U.U.U.U.U.U.v.3.U.U.3.B.U.n.B.U.Y.I.C.I.B.C.C.H.J.Y.J.Q.H.Q.H.C.E.H.Q.Y.C.H.n.C.B.C.C.n.B.B.C.B.C.C.C.Q.C.~.Y.Q.~.~.Y.~.Q.Y.Q.Y.Q.Q.Q.!.~._.~._.~.~.Q.~.Q.~.Q.T.^.Q.~.~.~.~.~.~./.(.(._.)._././.~.Q.~.~.~.).~.^./.~.~.~.Q.~./.~.~.~.^.~.~.~.^.~.~.T.~.T.^.}.T.T.^.T.^.^.}.~.T.}.~.T.~.^.~.T.R.~.~.~.~.~.~.^.^.}.^.^.^.).}.}.).^.}.'.^.^.}.^.^.^.~._.~./.^.).~.(.^.^.~.~.^.~.^..X~.^.^.^.~.^.}.}.~.}.~.^.}.^.~.~.~.~.~.(.(.~.).~.}.~.}.(.(.}.).~.(.~.~.~.(.(.}.}.).}.(.(.}.).).(.).~.(.~.(.~.).~.}.~.).}.}.}.(.K.~.(.(.(.~.K.[.K.(.(.[.].(.(.[.K.}.K.(.J.}.J.}.].[.[.[.[.K.[.~.(.(.~.(.(.(.~.^.~.(./.~.~.J.~.~.~.~.~.~.~.~.Y.~.T.~.~.~.T.~.J.~.J.~.J.~.J.].J.K.K.J.K.J.J.J.H.J.H.J.H.J.H.J.~./.H.H.H.L.H.H.G.J.G.Z.L.J.L.H.J.L.K.L.L.J.L.G.L.H.G.A.J.C.Z.Z..XZ.Z.J.Z.H.J.H.Y.Q.Z.J.Z.H.J.G.Z.G.A.V.V.V.V.V.V.A.V.A.A.V.A.V.A.V.M.A.G.A.G.A.P.G.G.G.G.P.G.V.P.V.A.M.P.A.V.A.P.V.M.M.A.M.M.<.M.M.M.M.M.A.M.M.l.V.G.l.G.G.G.G.G.F.F.G.b.F.G.b.V.b.l.V.M.l.M.l.l.l.l.l.l.l.l.",
"m.v.2.v.U.4.t.U.U.4.%.2.2.2.2.x.3.4.2.2.3.3.x.<.<.<.<.<.<.<.3.3.4.5.3.3.3.3.2.x.c.c.x.x.3.v.2.U.2.U.2.v.m.x.v.B.c.x.x.x.U.U.t.4.h.h.x.h.x.2.2.2.x.x.3.x.3.x.c.c.x.v.x.c.c.v.c.c.c.m.c.c.m.b.b.m.m.m.n.b.b.m.x.c.c.c.c.c.3.3.N.3.c.c.c.N.c.b.c.c.c.c.c.x.c.v.c.v.v.x.v.3.2.v.2.2.v.3.3.v.3.2.v.3.3.U.v.v.3.B.U.U.U.3.U.U.U.U.U.B.U.U.v.U.v.3.v.U.U.v.v.B.v.B.n.U.U.Y.B.n.Y.B.C.B.H.Z.J.C.Q.H.Q.Q.H.n.Q.D.H.C.C.n.C.Y.n.B.C.n.Y.B.C.C.C.Q.Z.~.Q.~.T.~.Y.^.Y.Y.Y.Y.Q.Q.Y.Q.~.!.~.^.^.Q.~.!.Q.Q.Q.Q.^.Y.~.^.~.~.(.~.(.}./.(.).~._.~./.~.~.~.Q.~._.).(.^./.~.~.(./.^.~.^.~.(.^.~.~.^.~.~.T.T.^.T.T.~.^.^.~.^.T.}.T..X.X~.~.~.T.~.^.T.^.T.~.~.^.~.^.^.^.^.).^.^.).).}.^.}.^.{.^.^.).^.!./.^.^.^.(._.)._.~.(.^.^.T.}.T.^..X}..X~.~.^.~.~.}.}.~.~.(.~.~.~.~.(.^.(./.(.(.(.}.~.(.(.(.}.}.(.).~.(.^.(.(.).).}.).).}.(.~.}.}.).(.~.~.(.~.(.}.}.^.}.}.(.}.).[.[.(.~.J.K.(.K.(.K.[.(.(.[.(.[.~.(.~.].].~.~.~.(.[.[.[.(.[.~.].(.~.(.(.~.(.(.(.(.(.J.(.~.~.~.~.T.Q.~.Q.T.Y.T.~.~.T.~.~.~.J.J.T.J.~.J.~.J.J.J.J.J.J.J.J.J.G.J.J./.J.J.J.~.H.H.J.Q.H.Q.J.L.H.Z.G.J.J.G.G.J.L.H.J.L.J.J.H.G.H.G.C.A.A.C.A.J.A.Z.Z.Z.G.Z.Z.Z.Z.C.Z.~.C.Z.C.A.A.Z.Z.V.A.A.V.V.N.A.A.A.B.A.V.V.N.A.N.M.A.A.P.Z.G.G.G.G.G.G.G.A.P.V.V.A.M.A.V.P.A.P.A.P.V.M.l.V.M.M.M.M.M.M.A.M.V.P.V.G.b.G.b.F.V.G.F.V.b.G.V.V.b.G.l.V.P.N.l.M.M.l.M.M.u.k.l.j.",
"3.3.v.3.4.U.U.%.%.%.U.%.2.x.2.2.%.2.%.U.<.c.<.N.<.<.c.<.<.3.3.<.4.5.5.4.3.,.x.3.v.c.x.x.3.3.2.3.U.2.x.v.v.c.c.c.c.c.c.x.U.%.t.U.x.h.x.t.t.2.m.m.x.x.3.x.x.v.c.c.c.c.v.c.c.x.b.c.m.c.v.c.b.m.m.c.b.m.m.b.x.b.b.c.c.c.3.3.3.N.3.3.<.c.k.c.v.c.v.c.c.v.c.v.x.c.v.c.3.U.v.v.U.3.v.v.v.v.v.3.v.v.v.v.v.B.U.v.U.B.U.U.B.U.U.U.B.U.U.U.U.U.U.U.U.U.v.B.v.v.v.v.U.v.B.n.B.U.U.B.n.n.C.n.~.C.Q.Q.H.Q.H.Q.Q.H.H.C.I.C.n.C.n.C.n.C.C.n.B.B.C.C.C.C.Y.~.T.~.T.Q.~.~.Q.Y.Y.!.Y.Q.Q.~.Q.^._.~./.^.Q.~.Q.~.Q.Y.Y.^.Q.Y.~.~.~.~.(.~.(.(.(.)._.~.^._.~.~.~.(.).(.}.).(.)./.^.(.(.(.(.).^.(.^.}.~.^.~.}.^.T.^.}.T.T.^.~.T.}.T.}.~.~.}..X~.}.T.^.^.~.~.~.~.^.^.).^.'.^.^.^.^.~.}.).^.^.{.^.^.}.^.}.~.^.~._._.^.(.~.).).).).^.^.}.^.^..X^.^.}.}.~.}.^.~.).^.}.^.}.~.}.~.~.(.(.~.~.(.~.~.~.).}.^.}.).}.).}.~.~.~.}.}.{.(.}.(.}.).).}.}.~.}.^.}.).}.(.^.(.}.).}.(.(.}.(.J.[.].[.(.K.}.(.K.(.[.[.(.[.(.[.K.~.(.(.~.].J.~.].].[.[.(.[.(.(.}.(.(.(.).~.(.(.~.[.~.~.~.~.(.~.~.T.T.T.~.~.T.T.~.~.T.~.~.T.~.J.Z.J.C.J.J.J.J.J.J.J.J.J.J.G.J.J.(./.Q.J.~.~.H./.H.Q.K.J.J.G.L.G.G.J.J.J.K./.J.J.J.G.J.J.A.H.V.V.B.H.V.A.A.Z.Z.Z.J.J.A.Z.J.H.T.Z.~.J.C.A.H.A.C.C.A.A.A.A.V.A.B.A.A.V.A.A.A.A.A.A.A.G.A.G.A.P.G.P.G.F.G.P.V.V.V.P.A.M.P.P.V.A.G.V.P.G.l.M.M.V.M.M.M.M.M.V.V.V.V.l.G.V.G.G.F.F.V.V.F.l.b.b.V.l.V.l.l.V.V.V.l.M.l.k.<.l.j.l.",
"3.x.3.v.%.4.U.%.4.t.2.U.2.2.x.%.:.4.2.2.3.x.<.5.<.5.<.<.<.<.<.3.4.5.5.4.3.2.x.x.c.m.c.x.3.v.2.U.2.U.m.3.v.c.c.c.c.c.x.x.x.2.U.t.h.x.x.2.2.x.2.m.v.m.m.2.3.x.x.3.v.v.x.c.v.v.c.m.b.v.b.b.b.b.v.b.m.b.m.m.x.x.c.c.c.c.3.c.<.N.N.3.x.x.c.c.c.c.b.v.c.c.c.x.c.v.v.x.v.v.3.U.3.v.v.v.3.v.v.v.v.v.v.U.B.U.U.B.U.U.U.3.v.U.R.B.R.U.U.U.R.U.U.U.U.U.v.U.U.3.v.v.B.B.n.B.v.U.n.B.B.C.C.C.C.J.Z.~.Q.H.Q.Q.H.Q.C.H.C.C.C.n.C.Y.C.B.C.C.C.B.Y.C.Y.T.Z.~.Q.Q.~.Q.Y.Y.Y.Y.Y.Y.Q.Y.Q.Q.Q.~.~.!.^.~.~.Q.Q.^.~.!.Q.Y.Q.T.Q.~.(.}.}.~.).~.)./.)._./.~./.~.^.(.(.}.).(.).(.(.^.(.(.).(.).(.}.~.^.(.^.~.T.^.}.T.T.^.^.^.T.}.}.~.~..XT..X}.~.^.T.^.T.^.~.^.~.^.^.'._.^._.^.^.^.}.}.^.}.'.).^.{.^.^.)._.~._.~.(.(.(.).).(.).~.~.^.^.T.^.^.^.}.^.~.~.~.}.T.~.}.~.}.~.~.).(.}.).^.(./.~.~.~.~.}.~.).).{.}.).).(.}.(.}.).(.).).}.(.).(.(.(.^.(.(.~.).}.).~.).^.}.}.{.}.(.[.(.(.(.K.[.K.(.(.(.(.K.(.[.[.(.J.[.[.K.}.J.~.J.K.K.[.~.~.(.[.(.(.(.(.}.(.(.).).}.~.(.(.~.(.~.~.~.~.T.~.~.T.T.T.T..X~.T.T.T.T.H.C.~.J.J.J.J.J.J.Z.G.J.J.G.J.J.J.~.~.J.~.Q.Q.H.H.H.Q.H.H.J.J.G.J.J.J.G.J.J.J.J.J.J.Z.J.G.A.A.V.A.A.A.A.A.A.A.J.A.J.A..XJ.J.T.Z.Z.T.T.C.C.V.C.A.G.A.A.A.A.A.A.A.V.A.V.A.V.V.A.A.V.A.P.A.P.G.G.G.G.G.P.P.G.G.V.V.V.M.M.A.A.A.V.P.P.P.P.V.M.M.M.V.l.V.M.A.V.G.V.G.V.V.G.b.V.V.V.N.b.b.V.F.b.G.l.V.l.l.l.l.P.l.V.V.l.M.k.k.k.j.",
"v.v.x.2.!.4.4.!.%.4.%.2.x.2.2.m.%.2.2.,.3.<.j.<.<.<.k.5.c.<.3.<.5.5.3.3.,.3.3.x.v.x.v.x.U.2.v.3.2.2.2.v.c.c.c.c.c.h.x.x.m.m.U.U.x.h.h.x.x.x.m.2.2.2.v.2.x.v.x.m.c.c.v.c.c.c.n.c.c.b.b.m.m.n.m.n.n.n.m.n.m.c.x.x.3.c.c.3.c.3.c.3.<.k.c.c.N.c.c.v.c.c.c.v.v.x.v.v.v.v.3.v.v.v.3.v.3.v.v.v.v.B.v.v.U.U.B.U.U.U.v.U.U.B.U.U.U.U.U.U.B.v.R.B.R.B.U.B.v.B.B.B.B.B.B.B.B.n.C.U.B.C.Y.C.H.Y.H.Q.Q.Y.Q.E.Q.H.Q.Q.H.n.C.n.n.n.C.n.n.B.C.B.H.Z.J.Y.Q.T.~.T.Q.T.Y.Y.Y.Y.!.Y.Y.Q.Y.~.!.~._.~._.^.^.Q.^.Q.~.Q.Y.~.Y.Q.H.~.~.}./.(.(.).)._.~./.^.~.~.~.^.~.).).).(.).~.).(.).).(.^.(.~.).).~.^.~.~.^.}.T.^.^.}.^..X~.~.~.~..X~.}.~.T..X~.^.}.~.^.~.T.!.^.^.!.^.^.^.^.^.~.~.^.}.|.^.^.^.^.^.^.}.~.^.~.^.~.).).(.)._.^.^.^.^.^.}.}..X~.}.^..X}.^.}.~.~.}.^.^.~.~.{.}.(.~.(.~.~./.~.~.~.~.(.(.}.(.}.(.}.}.~.).(.(.}.}.}.(.~.}.}.).~.(.~.}.(.}.).}.}.}.).}.{.(.}.}.~.[.[.~.(.J.(.[.(.(.[.[.[.(.[.(.[.(.[.~.(.J.}.(.J.}.K.[.[.[.(.[.(.}.(.(.).~.(.(.(.(.(.}.}.^.(.~.~.~.~.^.T.^.T.^.~.T.~.~.~.~.~.Z.J.H.J.Z.K.G.J.J.G.Z.G.J.J.J.J.J.J.K.(.J./.J./.~.H.Q.H.H.G.G.G.A.P.J.J.L.J.J.K.J.Z.J.Z.A.G.A.A.A.G.A.C.Z.J..XA.J.J.J.J.J.Z.J.J.T.H.Z.C.A.V.A.A.A.A.A.A.C.A.A.N.A.N.A.A.V.A.A.G.A.A.G.Z.J.A.G.G.G.V.G.G.V.V.P.V.G.A.A.P.A.P.G.G.G.P.V.P.M.S.M.P.M.V.P.V.A.V.G.V.G.V.V.V.V.G.l.F.V.V.V.l.V.b.b.l.V.l.M.V.V.G.l.l.l.j.M.k.k.l.",
"x.x.x.x.v.x.x.v.2.m.2.m.2.m.x.2.%.4.2.,.2.3.<.<.<.<.M.M.5.N.3.5.<.5.3.3.2.2.2.3.U.4.U.2.m.2.v.x.U.m.3.v.c.c.c.c.c.c.b.x.b.z.m.c.x.h.x.x.h.c.x.2.3.3.3.v.v.3.v.v.v.c.c.v.v.b.b.c.v.b.n.m.m.b.n.m.m.n.m.n.v.m.m.c.m.c.b.c.c.x.x.k.k.c.k.c.c.c.c.N.x.x.3.3.x.v.v.v.v.3.v.3.v.v.c.v.c.v.c.B.n.v.B.n.R.U.U.U.B.U.B.Y.Y.I.I.I.U.U.U.U.U.B.n.B.B.v.v.B.c.c.c.c.N.B.B.B.B.n.n.B.C.C.Y.C.Q.C.Y.Y.Q.T.Q.Q.Q.Q.~.Q.Q.Q.H.C.H.C.H.H.Q.Z.H.C.~.C.~.H.Q.C.Y.Y.I.I.U.R.R.R.R.R.Y.Y.Y.!.!._._.)._._.^.!.^.Q.~.Y.^.Q.^.Q.^.~.^.Q._.^.~.).~.^._.^.^.~.!.^.^.^.).).).).)._._.)._.(._.~.).}.{.^.^.(.}.~.}.~.}.~.}.T.T.~.~.^.T.}.~.}.T.^.~.~.}.}.^.T..X^.^..X^.^.^.^.'.^.^.^.^.{.^.^.^.'.).)._.).^.).^.^.~.).^.}.).).).).).).).).).^.}.^.(.}.T.~.}.}.~.~._.).^.(.~.~.{.).}.).(.).~.~.).~.(.~.}.(.(.}.}.(.(.~.~.).}.{.}.}.}.}.}.~.}.(.~.~.(.).[.).).).(.(.{.).-X(.{.{.(.(.).~.(.K.~.~.(.(.).{.[.[.[.[.[.J.~.J./.~.~.~.K.J.K.K.].(.(.[.OX{.(.[.).(.OX).{.(.}.(.).^.~.}.}.~.^.T.^.~.~.T.~.~.T.Q.J.Z.~.~.~.J.J.J.Z.J.Z.J.J.Z.Z.J.J.J.J.~.K.~./.Q.Q.J./.Q././.~.H.~.L.J.J.J.J.L.J.L.J.].K.J.A.J.A.A.A.A.A.A.A.A.A.Z.Z.Z.J.Z.J.J.Z.Z.J.J.J.Z.C.C.A.A.B.Z.A.J.Z.Z.Z.A.A.A.A.A.V.V.A.V.G.A.G.G.Z.G.J.G.G.A.P.G.G.V.G.V.V.V.l.l.l.V.S.G.V.G.G.G.b.G.P.l.G.V.P.V.M.A.V.G.V.G.A.G.G.V.V.V.V.l.G.G.l.l.l.l.V.l.G.l.G.l.G.b.l.S.l.k.M.k.M.l.",
"x.v.m.v.v.m.2.m.x.m.m.2.2.2.x.x.2.4.4.<.<.<.<.3.k.5.<.5.5.<.<.3.N.5.N.5.x.2.U.3.%.U.%.%.2.v.v.x.3.v.v.3.v.c.B.c.c.c.x.x.x.b.x.z.h.c.z.x.h.x.3.2.2.x.2.3.3.v.v.2.c.c.c.V.c.c.v.n.m.n.m.n.n.m.m.m.m.n.m.v.v.c.m.c.x.c.c.c.c.c.l.c.k.k.k.c.k.c.c.c.c.c.x.3.3.3.v.v.v.v.B.3.B.3.3.N.v.B.B.n.B.B.B.n.R.U.U.B.v.U.B.n.n.C.U.U.U.U.R.U.n.U.B.v.B.B.B.B.v.v.N.V.B.N.V.B.C.B.n.C.B.C.Q.Y.Y.Y.Y.Q.Y.Q.!.!.Y.Q.Q.!.Q.Q.H.H.n.Q.C.H.H.H.H.~.H.J.C.Y.C.C.Y.Y.Y.I.R.U.!.R.E.I.I.!.Q.!.!.!._.^._./.~./.Q.~.Q.~.!.^.!.~./.^.^._.~.^._.^.^._.^.~.~.^.^.^.^.^.).).).)._._.(._._.).Q.^.^.~.(.^.^.~.^.~.^.~.~.~.~.~.}.T.~..X^.~.T.~..X~.^..X^.T.^.}.^.T.'.R.'.^.^.'..X'.^.'.).^.^.^.^.^.).'.'.^._.^._.^.)._._.).).{.).{.).{.).).).{.).}.^.~.^.T.^.T.^.^.^.).).).).}.{.{.).}.).~.(.~.}.(.}.).}.}.}.(.).}.(.}.(.}.{.{.~.(.}.}.}.}.(.}.}.(.).(.).).(.).).).[.).).{.).(.(.).(.(.(.~.~.(.(.).}.(.).[.[.[.(.].K.(.~.~./.(.J.K.(.[.K.OX(.[.+XOX+X(.(.(.+X(.).}.}.).~.}.^.~.~.~.~.}.}.T.~.T.~.!.~.Q.~.Q.J.~.J.~.].J.J.J.Z.Z.Z.J.Z.Z.J.J.~.J.Q.J.~.H./.Q.J.L.Q.H.K.H.H.H.H.H.J.L.J.J.J.K.K.J.].]..X].J.A.A.P.A.P.A.A.A.A.G.Z.J.Z.H.J.H.J.Z.J.Z.Z.Z.C.Z.Z.Z.C.Z.A.A.A.A.A.A.N.V.V.A.V.A.G.G.G.G.G.J.G.G.G.Z.V.G.A.G.A.V.P.G.V.V.G.V.G.P.G.P.G.P.P.G.G.G.G.P.A.G.V.A.G.V.H.G.C.V.G.P.V.P.V.G.l.V.V.V.l.V.l.G.l.G.l.V.S.P.l.V.l.k.j.M.k.k.",
"x.v.x.v.v.v.x.x.x.x.x.x.m.x.x.2.2.4.2.2.<.<.k.<.5.j.k.<.N.<.c.<.k.5.3.c.v.3.x.v.U.%.2.U.U.t.m.x.c.c.x.c.x.c.c.c.c.c.c.b.c.z.c.x.x.h.x.h.x.x.3.3.3.2.U.3.x.v.v.c.c.v.c.c.b.v.m.b.b.n.c.m.n.m.b.m.m.n.c.m.v.c.x.x.h.c.c.m.c.x.c.c.x.k.c.k.c.c.c.c.v.c.c.3.U.3.U.v.3.v.v.v.v.v.U.B.n.n.n.n.D.n.Q.Y.U.B.Y.v.n.n.C.D.D.n.n.n.U.U.U.U.U.B.B.n.n.N.B.c.c.B.c.B.B.B.B.A.C.B.C.B.C.Y.Y.T.Y.Q.Y.Y.Y.Y.R.R.Q.~.Q.Q.Q.H.C.Y.C.Q.Q.C.Q.Z.~.C.Z.Y.C.J.Y.C.Y.Y.I.Y.I.!.I.!.Y.!.!.!.Y.Q._.Q./.~./.~.~./.~.Q.~.Y.~.~.!.^.^.~.^.~.^.).^.^.).~.^.).^.^.^.).^.{.^.).).).^.^._.).).).~.^.^.^.^.^.~.^.^.~.~.~.^.~.}.~.^.T.^.T.}.T.~.T.^.T.^.~.~.}.~.}..X'.'.R.R..X'..X'..X}.'.'.^.^.^.).).^.'.).^.^.).~./.^.Q.^._.).^.).).).).).).}.}.}.~.~.~.~.}.~.}.^.).}.).}.).}.).{.{.).).).}.~.~.}.).~.).).{.{.{.}.).}.(.(.).[.{.}.}.}.(.(.}.).).).{.[.).).+X+X).(.).).{.{.(.).).{.(.).).(.(.(.(.).(.).}.{.[.[.[.}.].(.}.~.(.~.(.(.K.K.J.(.[.(.[.[.(.).(.{.(.(.-X).}.(.(.^.}.}.(.~.}.~.}.T.~.T.~.~.~.Q.~.~.J.~.~.~.J.J.~..XJ.J.J.~.Z.J.Z.J.~.J.}./.J.~.H.H.H.H.Q.L.H.H.H.H.J.H.H.G.J.H.L.J.J.].J.J..X.XJ.J.A.A.A.G.A.G.A.A.G.A.A.Z.G.H.H.C.J.J.C.C.J.Z.Z.Z.C.Z.Z.Z.A.A.A.A.A.A.A.A.V.V.A.V.G.A.G.G.G.G.G.Z.G.G.V.G.G.G.G.G.G.V.V.G.G.P.G.A.G.P.G.b.V.G.l.G.G.P.G.G.V.V.H.A.G.G.G.G.A.G.V.P.V.G.P.G.l.l.l.l.l.l.V.l.G.G.l.b.F.b.l.M.l.k.l.l.",
"x.x.x.x.m.x.x.x.c.c.x.x.2.x.2.x.%.2.2.2.<.3.k.<.<.<.k.c.k.c.c.c.c.c.v.3.x.x.2.m.U.U.U.%.U.3.v.v.x.c.c.v.m.c.c.c.m.c.c.x.c.k.x.x.x.h.x.x.x.3.3.<.U.3.2.v.v.x.m.v.n.c.n.b.m.b.b.m.m.b.n.b.b.m.m.b.n.c.v.c.c.x.x.x.x.c.x.x.x.k.x.c.c.h.c.k.c.c.c.c.v.c.v.c.3.v.2.v.v.v.3.U.v.n.U.B.U.C.I.C.C.n.Y.n.B.C.n.B.V.C.n.V.V.n.B.V.B.U.B.B.Y.B.B.B.B.v.v.N.B.B.B.B.V.C.Z.B.C.C.C.Q.Y.C.Q.Q.Y.Y.Y.Y.Y.Q.Y.Y.Q.Y.Y.Q.Q.Y.Q.C.Q.C.Q.C.H.C.C.Z.Z.Y.R.J.Y.Q.T.Y.Y.Y.R.I.!.R.!.!.^.~.^.~.~.~./.Q.Q.Q.H.H.~.~.~.~.Q.^.^./.^.^._._.~.)._.).^.)._.^.^.).^.^.`.).).{.).).)._.)./._.^.^.^.^.^.~.^.~.T.~.~.^.~.~.~.~.~.~.}.~.}.T.^.}.^.~.}.}.~.^.^..X^.^.'..X'.^.^.'.^.'.'.}.^.^.{.).|.'.'.).).).'.).^.^.^.~.^.~.~.^.).)./.^._.(._./.~.^.^.~.}.~.T.^.~.}.).^.(.(.).).).).{.{.).).~.).).~.(.}.}.(.}.{.{.{.{.{.}.}.).{.{.{.}.}.).}.).}.}.(.).).{.).).).).{.(.).(.).{.(.}.(.{.(.(.}.~.[.(.(.).(.(.(.(.(.J.K.(.[.(.(.(.).).(.(.(.K.(.K.(.[.{.(.(.[.(.+X).}.[.).).}.}.~.^.}.~.^.T.T.~.T.T.T.Q.~.~.Q.~.~.~.~.J.}.J.].].]..X].J.~.Z.J.~.].~.[.(.~.K.Q.J.Q.Q.L.H.Q.H.H.H.H.H.L.H.G.H.Z.G.J.K.J.J.J.J.Z.J.A.Z.A.A.G.Z.A.H.A.A.G.H.H.A.J.C.C.C.H.Z.C.C.Z.Z.Z.Z.Z.A.Z.A.Z.V.A.A.N.V.A.V.N.A.V.A.G.A.Z.Z.G.G.Z.G.G.A.G.G.G.A.G.G.G.G.G.G.G.G.G.G.G.V.P.V.P.G.G.G.G.C.C.G.A.H.G.A.G.G.G.G.G.A.G.V.V.l.V.G.V.l.V.b.S.G.l.G.F.P.b.S.V.M.l.l.M.l.",
"x.x.c.x.x.c.x.c.c.x.x.x.x.h.h.h.,.,.,.h.h.<.h.k.k.h.c.c.c.c.c.c.c.c.c.x.c.x.x.v.U.4.U.m.x.x.c.x.v.c.c.c.n.c.v.c.m.x.v.x.m.3.m.3.h.3.x.<.2.3.3.3.2.2.3.v.x.v.m.b.n.b.m.b.b.m.n.b.b.m.n.b.b.b.m.x.c.m.c.b.c.c.x.x.x.x.x.x.x.x.x.x.c.h.x.c.x.c.x.c.B.c.v.v.c.c.3.v.v.n.U.m.U.n.U.Y.I.E.I.n.E.n.I.E.H.B.n.H.V.F.V.V.V.V.b.N.N.B.N.B.B.B.B.v.v.B.v.v.B.B.B.B.B.Z.B.C.C.C.C.C.Y.Q.Q.Y.Q.C.Y.Y.Y.Q.Y.Y.Y.Y.Y.Y.Y.C.T.Y.C.Y.Y.C.C.R.R.C.Y.C.T.C.T.Y.Y.Y.Y.Y.Y.!.W.!.!.!.~.~.~.~.Q.H./.J.H.H.~.~.~.J.~.T.^._.~.^./.^.^.(._.^.).^.)._.).^.).^.).^.}.).).^.).).).)._._.)._.^._.^.^.^.Y.^.Y.~.^.!.~.^.~.~.~.}.T.^.T.}.~.}.~.^..X}.^.}.^.}.^..X'..X^.^.^.}.^.^.}.'.^.'.^.^.^.).'.).`.^.'.^.).(.^._.~.^.).^./.~._.(.~.~.~.~.~.~.~.~.(.^.}.~.(.(.).~.).~.).).}.).{.{.).}.).).(.~.~.}.(.~.).).{.{.).).{.}.{.{.{.).}.).).}.).).^.).).).(.)._.).(.).(.).{.).(.(.(.(.}.(.).(.}.(.(.(.).(.(.(.(.(.J.[.}.(.{.(.(.(.~.~.].(.~.[.(.[.[.(.(.{.(.(.).}.).).(.}.(.(.~.}.}.~.~.~.~.T.~.T.T.H.~.~.~.~.~.~.[.~.J.J.J.J.}.].]..X].~.J.~.J.~.J.~.K.Q.H.Q.J.H.H.Q.H.H.H.H.J.H.H.Z.H.H.L.J.J.K.J.J.J.~.J.J.Z.J.C.J.J.H.Z.C.J.C.C.G.C.H.H.H.H.C.Z.J.Q.C.Z.C.Z.Y.C.A.G.G.Z.A.A.V.V.A.V.A.A.A.A.A.A.A.G.A.A.Z.G.A.G.Z.G.G.G.G.G.G.G.L.L.P.L.G.G.G.G.G.G.V.G.G.A.G.G.C.G.C.A.G.H.G.A.G.G.A.G.G.V.P.V.V.V.l.l.l.l.P.M.P.b.V.F.P.b.l.S.l.l.l.M.l.",
"h.c.h.c.x.x.x.<.x.x.k.<.,.x.,.,.h.,.h.,.,.h.<.k.k.h.h.c.c.c.m.c.b.b.n.m.n.m.m.m.U.t.v.x.c.x.x.c.m.v.m.c.m.c.m.x.x.v.2.v.2.x.x.2.x.3.3.3.3.3.3.3.3.2.v.v.v.v.n.n.n.b.D.m.b.m.b.D.b.b.b.c.b.x.b.c.c.c.c.c.c.x.m.c.c.c.c.x.x.x.x.x.x.c.x.c.3.c.c.c.c.v.B.c.B.v.v.x.v.m.U.U.C.I.n.I.I.E.I.E.I.Y.E.n.n.F.H.D.H.V.G.V.l.M.l.N.c.N.N.B.v.B.v.B.B.B.B.B.B.B.A.B.B.C.B.Z.C.Y.Q.C.Y.C.Y.Y.Y.Y.Y.Q.Y.I.Y.Y.C.R.R.B.Y.R.Y.Y.C.T.T.C.Y.Z.C.Z.T.R.R.T.R.Y.!.Y.!.!.Q.!./.!.!.!.Q.J.Q.~.~./.Q.J.Q.K.L.J.~.J.~.~.Q.~.^._.^._.^.^.^.^.^.).^.^.^.).).^.^.).).).).).).)._./.~.)./.).'.^.!.^.!.^.Q.^.^.~.~.~.~.^.^.~.}.^.}.T.}.^.^..X}.~.^..XT.}.^.}.'..X'..X^.^.^.^.^.'.}.'.^.{.{.^.'.).).'.).).).).^._.^.^._.~.).^.).(.).).).^.).~.~.^.}.^.}.~.}.^.^.(.).~.(.~.).{.{.{.{.{.).}.{.}.(.~.(.^.).).}.^.).{.{.).{.).).}.(.}.).^.(.).^.(.).)._.).).).).).).).(.{.(.).).(.).(.^.(.(.(.(.(.(.{.{.).}.}.(.[.(.(.[.).{.).).(.[.~.K.[.(.}.(.[.(.}.(.}.).}.(.(.}.}.^.).^.}.}.).T.}.^.T.~.~.T.~.~.~.~.~./.~.~.J.J.J.}.J.].~.J.].}.J.}..XK.}.J.~.J.~.Q.J.J.J./.~.H.J.J.Q.H.K.J.J.J.L.J.J.K.G.K.J.J.J.J.~.~.J.J.J.Z.J.C.J.J.C.Z.H.H.H.H.H.C.H.H.C.H.Z.C.T.H.T.J.Z.Z.Z.A.G.C.A.G.A.A.A.A.M.M.N.A.A.A.G.A.G.G.Z.G.J.G.G.G.Z.G.G.G.G.P.L.L.P.G.G.G.G.G.l.P.V.G.V.G.A.H.A.G.C.G.A.G.V.A.G.G.G.G.V.G.l.l.V.G.V.V.G.V.V.G.V.P.F.P.F.V.S.l.l.S.l.l.",
"k.c.3.x.c.c.h.c.x.h.h.2.,.h.,.h.,.j.j.j.j.k.c.k.h.c.c.z.m.b.m.b.D.m.b.m.b.m.m.m.m.m.x.m.x.c.c.c.m.m.m.m.m.m.m.v.v.3.U.2.3.2.2.3.2.x.2.3.3.3.3.3.3.3.v.x.m.n.m.m.n.F.D.m.F.m.b.n.b.b.m.b.b.c.c.l.b.c.c.b.c.b.b.c.c.c.v.v.v.x.x.x.3.h.x.x.3.x.x.c.v.c.c.v.B.c.v.B.U.I.I.m.I.D.I.I.I.I.I.E.E.I.I.E.D.D.H.H.G.F.F.G.l.V.N.M.N.N.B.N.B.B.B.B.B.B.v.B.B.B.B.B.B.B.B.B.B.C.Y.Y.Y.Q.Y.Y.Y.Y.Y.Y.C.Y.Y.U.R.B.U.B.C.R.R.R.Y.R.T.R.T.C.T.B.R.R.R.T.T.Y.Y.Y.!.^.!.!._.!.!.!.Y.~.Q.Y.J.Q.Q./.~.Q.~.J.~.~.~.~._.~.~.^._.~._.).).).).).).).).^.^.).^._.^.).^.).).)._.^.^./.^.).^.^.^.^.^.!.!.^.~.^.^.^.^.^.^.^.^.T.}.^.^.}.^.~.^.^.^.^.^.}.}.^..X'.'.^.^.^.^.|.|.|.^.|.|.).`.'.).).'.).'.).).^.).).).~.~.^.^.).).^.^.).).).).).~.~.}.).}.}.).}.}.(.}.(.^.).}.).{.{.|.).{.).).).).(.).~.).^.).{.{.).|.{.).).{.}.(.).^.(.).^.)._._.).).).).`.).).).}.(.(.).)./.~.(.(.(.(.~.(.}.(.(.).{.(.(.{.).(.(.(.}.[.(.(.).(.}.~.~.}.~.~.(.}.(.}.{.}.(.~.~.~.(.~.(.}.^.}.).}.~.~.~.}.~.T.T.T.~.~.~.(.~.~.~.J.J.}.J.~.J.J..X~.}..X~.}.~.J.J.J.H.~.J.Q.Q./.J.~./.J.K.J.K.J.(.J.L.K.J.J.J.J.J.J.J.~.~.~.~.~.~.J.~.J.~.H.J.C.~.C.H.Q.H.H.H.H.C.~.Z.Q.~.H.~.C.Y.Z.G.J.Z.Z.Z.A.Z.A.M.A.A.A.A.N.A.A.A.A.A.J.G.A.Z.J.G.G.Z.P.G.L.G.L.P.L.L.P.G.F.V.G.V.G.A.V.G.V.V.A.A.H.V.V.G.G.V.G.V.P.V.G.G.V.l.P.M.P.V.P.G.G.G.G.l.V.G.V.V.S.V.l.l.b.P.l.V.",
"x.<.k.c.h.h.c.h.,.x.h.h.,.,.,.,.,.h.,.h.h.k.h.h.j.x.x.c.c.b.b.m.m.D.m.m.m.b.m.c.n.c.v.x.c.x.h.c.c.m.m.m.v.x.v.x.v.v.2.U.2.v.3.2.3.<.3.3.3.3.5.3.v.3.x.v.n.b.b.b.D.F.F.m.m.b.F.n.m.b.b.b.N.b.c.c.k.c.c.c.V.c.n.b.b.m.v.v.x.x.m.x.x.x.x.x.x.c.x.3.c.x.N.c.B.B.N.B.I.I.U.I.I.I.I.I.n.E.I.I.E.I.I.I.n.D.D.D.G.G.G.b.G.V.b.N.c.N.N.5.3.3.B.v.B.B.U.B.B.B.B.v.R.B.B.B.I.Y.Y.Y.Y.C.C.B.Q.Y.Y.Y.Y.Y.C.Y.B.R.B.R.B.R.T.R.R.R.T.T.R.B.R.R.B.R.C.R.R.Y.^.Y.^.!.!.!.!.!.Q.!.Y.Y.Q.Q.Q.Q./.~./.Q./.~.Q.~.~.~.^.^.).^.^.).^.^.).}.^.^.).^.).^.).^.).^.^._.^.^.)._.)._.).)._.^.'.'.!._.^.R.^.^.!.R.^.^.^.^.).{.}.^.^.}..X^.}.^.^.}.}.^.}..X^.}.'.'..X^.^.^.^.^.^.}.}.}.^.{.).{.`.`.).`.).'.).).).^.^.).).).~.)._.^.(.^.).^.(.~.).).}.}.{.).}.^.{.{.).}.}.).{.{.).{.).{.`.{.`.{.}.).}.).).}.`.).`.).).{.).}.(.).^.^.).^.^.^./.)._.).).).+X).+X+X(.).).).}.(.(.(./.~.~.).(.(.~.(.-X(.).).{.(.(.(.(.).).).).(.(.~.(.}.}.~.}.~.}.).}.}.{.}.}.}.~.~.^.(.).}.~.(.}.^.~.}.^.~.^.~.~.~.~./.~.~.[.~.~.~.~.K.~.J.~..XJ.].J.J.}.J.~.J.~.J./.H.H.J.J.J././.K.~.~.K./.(.K.[.~.K./.H.K.J.J.K.~.H.J.J.~.H.Q.J.J.Q.J.T.J.~.J.~.H.H.C.Q.Q.H.H.C.Q.Z.Q.H.C.T.H.H.K.G.K.G.G.J.G.Z.A.A.A.A.5.A.5..XA.A.A.A.A.A.J.A.Z.G.G.L.G.G.G.P.L.L.G.G.G.G.P.G.G.V.G.V.V.V.V.N.V.A.V.H.V.C.V.V.V.V.G.V.G.V.P.N.V.V.V.A.G.G.G.G.G.P.S.G.G.l.S.V.P.P.l.S.S.",
"j.x.k.c.c.j.<.<.j.h.h.,.,.j.,.$.g.g.g.g.h.j.h.h.h.z.x.x.x.z.c.z.m.m.x.m.m.x.z.m.x.z.c.c.c.c.c.c.m.n.n.m.m.m.x.v.2.v.U.%.2.U.4.2.3.3.,.3.3.3.3.3.3.3.3.c.b.x.m.b.t.m.F.m.F.b.D.b.H.b.n.b.b.b.c.k.b.k.N.b.b.V.v.n.c.c.c.c.x.x.2.%.x.x.v.m.B.v.v.c.c.c.v.c.v.c.B.B.I.U.I.I.I.E.I.I.I.I.E.E.E.I.E.E.E.I.D.D.D.D.D.G.b.b.b.N.c.N.B.c.B.3.v.B.B.B.B.B.B.Y.Y.B.R.B.B.U.Y.C.U.Y.Y.C.Y.C.C.Y.C.Y.Y.Y.Y.B.Y.B.U.R.B.R.R.T.R.T.T.R.R.R.R.R.R.B.R.R.Y.R.R.^.!.R.^._.^._.Q.W.!.I.!.!.!.W.'.!.W._.'._.!.^.^.^._.^.^._.).^.).^.(.^.).^.^.).^.).^.).)._.)._._.).^.).).^.).^._.^.^.!.'.^.^.^.^.!.^.~.~.^.^.^.}.^.^.}.}..X^.}.}..X}.^..X}.}.}.^.}.}.^.'.^.}.'.^.|.^.{.).^.).).).).`.).).'.).^.).`.).^.^.).^.).^.~.^.~.}.^.^.}.}.).~.(.(.{.{.}.}.(.).}.(.{.{.}.{.).{.{.).|.{.{.|.1X).).).).).).`.).|.`.|.).{.).).}.).{.+X).)._.).)./._._.).+X).).).(.{.).(.^.(.(.).(.).(.(.).(.~.}.(.).(.).{.(.).-X(.).[.).).[.(.(.~.}.~.~.}.(.}.^.{.{.}.}.}.~.}.~.~.(.}.}.}.).~.~.~.~.~.}.T.~.T.T.~.~.~.[.}.(.}.}.J.(.J.~.~.J.~.~.~.~.~.~.J.~.~.J.~.].J.~.K.J.K.J.(.J.K.J.K.(.J.K.K.(.[.K.J.J./.J.~./.H.L.~.Q.~.H.Q.~.Q.~.Q.J.J.Q.Q.~.Q.L.Q.H.Q.H.Q.J.Q.J.~.H.Z.~.J.J.G.J.J.A.J.A.A.A.A.A.A.5..X5.A.A.A.A.A.J.Z.J.P.G.G.Z.K.G.G.L.L.P.G.F.G.P.G.G.G.b.V.l.V.V.V.V.A.C.B.V.V.V.V.V.G.G.G.G.V.V.V.P.M.l.V.V.V.G.G.G.P.V.G.G.G.G.G.l.b.S.P.b.S.",
"<.h.k.h.c.h.h.,.h.,.h.h.h.,.,.,.>.h.j.g.j.k.x.h.x.h.x.h.x.z.m.x.m.m.m.m.m.x.z.m.l.x.c.c.x.c.c.b.b.m.m.c.m.v.m.x.2.m.3.2.2.2.U.2.2.3.x.3.3.3.3.3.3.3.3.c.c.b.x.c.F.m.m.b.b.m.b.m.b.n.b.V.N.c.b.c.c.b.c.b.c.b.b.c.b.c.c.x.x.x.x.x.v.v.v.n.v.n.n.v.v.c.c.v.3.B.v.v.n.U.n.U.I.I.I.n.E.I.I.I.I.E.E.I.E.E.E.E.n.D.D.F.b.n.b.b.B.B.v.B.3.B.B.v.v.B.B.B.B.B.U.R.B.R.Y.n.Y.Y.C.C.B.Y.n.U.Y.Y.Y.Y.Y.C.Q.Y.Y.B.R.B.B.R.T.R.^.T.T.R.R.R.!.R.R.R.U.R.T.!.!.^.!.R.!.!.!.!.!.!.!.!.E.!.!.!.W.'._._._._.'.^.!.!.^.(.^.).^.^.^.).^._.^.).).^.).^._._.).(.).)._._.^.^.^.).^.~.~._.^.!.'.^._.'.!.^.Q.^.^.^.^.).^.^..X^.'.'.^..X|.^.^.}.^.'.}.'.^.^.^.'.}.'.'.}.{.^.^.^.).).^.^.).).`.`.'.).^.`.^.).{.).).^.).^.).).^.^.^.^.^.^.^.(.)._.}.{.{.{.).}.(.(.{.).).[.).}.).{.).|.).1X`.).{.{.}.).).|.`.`.`.`.|.|.).}.).).^.).).).).).)._._.).).{.+X+X+X).).(.).(.}.).(.(.~.(.(.^.}.(.(.(.{.(.{.(.).{.).{.).{.+X).{.).).}.}.^.}.~.^.~.~.}.{.{.}.^.}.).~.~.}.(.).{.}.).}.~.^.~.~.T.^.~.}.T.~.[.}.~.(.}.(.~.~.J.J.J.J.J.J.~.J.~..XT.~.~.J.}.K.~.(.J.J.(.~.J.J.K.J.~.J.J.(.~.K.~.J.(.~.K.K.~.J.Q.~.Q.~./.~.J./.J./.J./.Q./.~.Q.H.H.Q.H.~.H.~.Q.H.J.Q.~.Q.Q.H.J.G.K.G.J.L.J.P.A.A.A.A.A.A.A.A.A.A.A.A.A.A.Z.J.A.Z.G.G.G.J.G.L.L.P.G.G.G.G.G.L.V.G.V.V.V.A.V.A.H.G.V.V.V.V.P.V.G.V.A.G.P.V.G.l.P.M.P.V.A.P.G.A.V.G.P.l.P.V.S.V.b.P.S.l.V.",
"<.k.c.c.c.h.h.h.h.3.<.x.h.,.h.,.j.g.h.j.h.h.h.h.h.x.h.x.h.c.k.c.z.m.x.x.x.x.x.c.c.c.x.k.c.b.c.c.n.v.m.n.n.v.v.x.v.x.2.x.2.2.2.2.3.3.3.3.3.3.5.3.<.3.c.3.c.k.c.c.m.m.x.x.b.b.m.b.B.b.b.N.b.c.c.c.b.N.b.N.b.B.b.b.b.v.m.c.c.x.c.c.v.n.m.n.v.m.v.v.v.v.v.x.x.v.B.U.n.U.m.U.U.n.I.U.I.E.I.E.E.I.E.I.I.E.I.n.E.n.D.b.n.n.n.n.B.U.v.B.U.B.B.B.B.B.B.U.B.Y.Y.Y.R.U.B.B.n.U.n.Y.I.I.Y.C.Y.C.T.~.Y.C.Q.T.R.B.B.Y.R.R.R.Y.R.^.^.R.R.R.R.R.U.R.R.Y.R.!.R.!.!.!.!.!.Q.Q.!.W.!.!.!.!.'.W._._._.!.!._._.!._.^._.^.^._.^.).).^._.~.).^.^._.^.).).)._.)._.)._.).).^.)._._.^.^.^.!.^.^.).^.!.^.~.^.~.^.^.^.(.^.}.}.'.^..X^.}..X^.}.'.'.^.^.^.'..X'.}.{.^.'.|.^.|.`.^.).^.`.).).).).`.`.^.`.).^.{.).^.).).}.^.^.).^.^.}.^.^.^.~.^.~.~.^.}.(.).(.).}.}.{.}.{.{.{.).1X`.{.{.).|.).{.{.{.{.|.`.`.`.`.`.`.`.).{.).).}.).).).).).).).).).).).OX+X+X).{.).{.(.{.).(.).(.}.(.(.(.(.(.(.(.[.).).{.).[.).`.{.).{.{.[.).(.).(.(.^.^.(.^.}.).}.}.}.(.}.~.}.~.(.}.).}.}.).}.~.}.~.^.}.^.T.~.~.~.~.(.~.}.~.[.~.~.J.~.J.J.~.~.J.~.T.~.~.(.~.~.~.(.K.~.K.(.K.J.K.K.~.J.K.(.].(.K.K.J.(.J./.J.J.H.~.J.K.~.K.~.(.(.J.~.J./.J.~./.J.K.~.H.J./.H./.~.J.~.H.J.Z.Z.Q.J.G.J.G.J.J.A.J.A.A.Z.A.A.A.A.A.A.A.A.V.A.Z.G.Z.Z.G.J.G.G.G.G.G.Z.G.L.F.F.H.G.G.H.V.C.V.V.V.V.V.V.V.V.V.V.V.V.V.G.V.A.G.A.P.V.V.P.M.V.A.P.V.V.P.P.G.l.G.G.G.l.l.P.P.P.l.G.S.",
"x.x.k.x.k.x.x.h.h.h.h.,.,.h.,.,.h.,.h.h.k.c.x.h.h.h.x.z.x.h.k.c.x.m.x.x.x.h.c.x.c.k.c.c.c.c.c.c.m.c.v.n.m.c.v.c.2.2.x.2.2.m.2.2.x.3.3.3.3.3.5.4.<.3.<.3.3.x.k.c.c.x.b.b.c.c.b.b.c.b.c.b.b.V.b.c.b.c.b.c.c.N.b.B.c.b.c.b.b.c.m.c.c.c.m.c.v.v.c.v.v.v.3.v.v.3.v.3.m.v.U.m.U.n.n.n.m.n.I.n.I.I.Y.E.I.I.I.E.I.D.m.n.H.n.I.B.U.U.U.U.U.B.B.B.n.B.Y.B.Y.B.Y.B.C.Y.Y.U.n.Y.Y.U.C.Y.B.Y.Q.Y.Q.C.~.~.Y.~.Y.Y.Y.B.C.R.C.T.R.R.R.R.R.!.!.R.R.U.R.R.R.R.!.R.!.!.R.!.!.!.!.!.'.!.'.'.'.!._._.!.!.!._.'.^.!.^.^.).~.^.)./.^.^.^.).^.).).^.).^.)._.^.)._.).).).^.).^.~.~.^.^.~.^.^.^.^.^.^.^.^.^.^.~.^.~.^.^.(.^.^.^.^.|.}. X'.}.}.}.}.}.}.'.}.'.}.^.'.}.'.^.^.{.).`.^.{.).).).`.^.).`.^.`.`.).|.).{.).).).).).|.^.^.^.^.~.~.~.~.~.(.(.{.(.).(.}.(.[.}.{.(.).{.|.-X|.).).{.)._.}.).).^.'.`.^.`.`.'.`.`.).).).}.{.).`.).).).).).).(.+X).).+X+X+X+X).).{.).{.(.{.(.).).(.).(.}.(.).(.-X(.-X).-X).).-X).-X).-X{.).).^.}.~.^.^.~.}.~.).}.}.(.}.~.}.^.(.).}.}.}.^.~.~.^.}.~.}.T.}.T.(.}.~.[.(.}.~.[.].~.~.J.~.J.J.~.~.~.J.~.J.~.J.~.J.}.K.~.J.(.(.J.K.K.(.K.(.J.J.K.~.K.J./.~.Q.K.Q./.J.~.~.~./.(.~.(./.~./.~.J.H.~./.J./.J.J.~.H.K.Q.J.~.~.H.~.J.C.J.J.G.J.J.J.A.J.A.A.A.Z.A.A.A..XA.A.A.A.A.G.A.A.A.Z.G.Z.G.Z.G.G.G.G.H.G.G.b.G.V.G.C.V.V.V.A.C.A.G.C.G.C.V.H.G.A.G.G.G.P.A.V.G.V.V.P.V.M.V.P.V.G.P.G.P.G.G.P.P.G.V.F.G.S.G.",
"x.x.x.x.c.<.h.c.x.3.2.h.,.h.,.h.,.h.<.h.c.x.x.c.x.x.<.x.h.k.k.k.2.x.x.3.x.x.<.h.3.k.c.c.c.m.c.c.b.v.c.c.c.c.c.c.x.x.x.x.x.x.,.x.x.x.3.3.v.3.3.5.5.5.3.<.<.N.<.k.c.c.c.c.c.c.B.c.c.c.B.v.B.c.n.c.c.b.b.c.n.c.c.b.b.c.b.N.c.b.b.c.c.c.c.c.c.x.v.c.v.v.v.v.v.v.U.v.v.v.v.v.v.B.n.B.U.n.n.n.Y.n.Q.n.I.I.Y.B.n.n.C.n.n.H.C.n.U.Y.U.Y.Y.n.n.C.C.n.Q.n.C.Y.Q.Y.I.R.I.!.Y.U.Y.Y.Y.Y.Y.C.Q.Y.Y.~.Q.Q.~.T.Y.C.Y.R.C.Y.R.!.T.T.!.R.R.!.R.!.R.R.!.R.!.R.^.!.!.!.R.'.R.R.!.^.'.!.'._.'._.'._._._._.)._._.^.^.^._._.).^.).^.).).).^.).).^.^.).).).).)._.).)._.^.).).^.^.^.^.^.^.^.^.^.}.^.^.^.^.^.~.~.^.~.}.^.^.^.^.}.^.'.}.}.^.|.'.^.'.R.}.^.|.^.{.{.{.^.).).^.).).^.).).`.`.).).`.`.`.`.).{.).|.).{.).).|.).^.}.^.^.^.^.^.~./.~.).(.).(.).{.).(.[.}.}.).{.).|.|.|.|.`.`.).^.).).).).'.'.'.'.'.'.#X_.).^.).).).).+X).+X).+X{.(.-X).-X+X=X+X).).).{.).).).[.(.(.).[.).}.(.(.{.{.(.).{.{.+X).`.`.|.).-X{.).=X[.).}.).).}.^.}.).(.).}.}.}.{.(.}.(.}.}.).}.^.}.^.}.^.}.}.^.T.}.^.~.[.~.}.J.[.~.~.~.~.~.~.J.~.J.~.~.T.~.T.~.J.~.~.J.[.J.J.K.[.K.~.J.K.K.J.(.K.[.(.K.J./.J.K.J.J./.[.J.(.K.J.[.(.(.J.(.J.(.~.K.J.J.L.K./.L.J.K.~.K.J.(.J.J.J.H.H.J.J.G.P.Z.Z.J.J.A.Z.A.A.A.A.Z.A.A.A.V.A.A.A.J.A.G.A.J.Z.G.A.G.G.G.G.H.G.V.b.V.H.V.G.V.V.V.V.G.G.A.A.A.H.V.G.Z.G.G.G.G.P.A.G.G.V.P.P.V.V.V.V.V.V.P.V.G.P.G.V.P.V.l.P.G.S.G.l.",
"x.k.k.x.c.x.c.c.c.x.h.,.,.2.x.,.,.h.x.k.c.c.c.x.x.h.c.k.k.k.k.<.x.3.3.x.x.<.k.c.k.N.3.c.c.c.m.v.c.c.c.c.c.c.x.c.c.x.h.x.x.x.x.x.c.x.x.c.3.3.3.5.3.5.5.5.N.5.3.N.3.c.N.B.v.N.v.V.N.n.n.V.n.n.N.b.b.c.c.b.c.n.V.b.c.b.c.l.N.c.b.N.c.x.c.c.c.c.v.n.n.n.v.v.v.U.U.3.v.v.v.v.n.v.v.v.v.n.n.n.I.C.n.Y.Y.B.B.C.Y.C.C.C.C.n.n.C.Y.U.U.R.n.C.C.C.C.C.n.Y.Y.n.n.I.I.I.I.I.U.Y.I.Y.Y.Y.Y.Q.T.T.Q.C.T.~.J.~.T.C.Y.T.R.R.R.Y.!.R.!.^.'.R.!.R.E.!.R.!.!.!.!.!.!.!.^.R.^.^.!.!.'.'._.'.'._.)._._._.).).^.^.^.^.).~.~.^.).^.).^.).^.).).^.).).).).).).).).).).`.`.).^.^.).^.^.^.^.{.^.^.).^.}.~.^.~.^.}.T.^.}.^..X|.|.}.|.}.|.^. X}.'.^.}.|.'.'.^.{.`.^.^.^.`.).`.{.{.`.).).+X).^.`.^.`.).`.{.`.{.).`.).{.).).^.|.^.^.}.}.}.^.^.}.).(.).(.).[.(.}.}.[.{.{.(.).}.).{.).`.`.^.`.{.).{.).).$X'.'.'.`.'.`.`.`.{.{.).-X|.).{.-X).+X{.+X).-XOX+X+X=X+X=X(.[.).{.(.(.).}.(.).(.(.}.(.(.(.}.[.).).).).+X).+X{.).{.+X(.).).).).).(.).}.).{.(.[.{.{.}.{.[.(.).(.^.}.~.(.^.}.~.^.~.^.}.~.T.~.].[.~.[.~.].~.}.~.~.J.J.~.~.~.~.~.~.~.~.}.~.J.~.K.(.(.J.J.(.].[.K.].].J.[.(.].(.(.(.~./.~./.J.J.(.K.~.(.(.J./.K.J.J.J.J.K.(.J./.~.K.K./.J./.J.J.~.J.~.J.J.J.H.J.J.J.J.J.A.A.A.A.J.J.A.A..XZ.A.A.C.A.J.J.A.A.A.J.A.Z.A.G.A.A.V.C.V.H.H.G.V.V.G.V.H.H.V.H.A.H.J.V.C.A.H.Z.J.G.G.A.G.Z.G.G.V.G.V.V.A.P.V.V.P.V.V.G.l.V.P.P.P.P.l.l.l.N.l.l.",
"x.x.h.c.x.x.c.c.x.x.x.x.%.2.x.h.x.3.c.x.x.x.3.x.2.h.c.3.N.<.k.k.3.3.3.3.3.3.5.c.c.<.x.k.c.m.c.c.3.c.c.x.3.x.h.x.c.c.z.c.z.l.k.x.m.c.v.3.3.3.5.N.4.3.5.N.5.A.M.N.5.N.N.5.N.N.N.B.C.V.B.n.C.b.n.c.v.c.m.v.b.b.b.B.V.c.b.b.b.c.M.k.c.k.c.c.c.v.B.n.Y.Y.v.v.U.U.v.U.U.B.B.B.B.v.v.B.v.v.B.B.n.B.C.B.B.B.Z.B.C.C.Z.C.n.n.C.n.v.U.U.B.C.H.C.D.H.C.Q.C.E.Q.Q.n.I.E.Q.I.Y.I.Y.Y.Y.Y.Y.Q.Q.T.Q.~.H.T.T.Q.T.Y.Y.Y.Y.Y.Y.Y.!.R.R.^.'.!.!.R.!.!.!.!.^.!.!.!.^.'.!.^.^.'.^.^.!.!.^.)._.).).).`.).).).).(.~.~.^.^.~.).^./.^.).).).).^.).).).^.).).).+X).).).).).{.^.{.^.^._.).^.^.^.{.{.^.^.^.{.}.}.(.}.}.}.}.^.^.}. X.X|.|.}..X|.}.|.'.}.}.'.{.'.^.{.'.).).^.|.).).`.).#X).).^.`.`.`.`.|.).`.).`.{.^.).).{.^.^.}.{.^.).{.{.).).).}.).(.[.(.}.}.(.}.(.{.{.{.).).{.{.).`.).`.).`.{.`.`.`.`.$X$X'.`.`.`.`.).).}.).{.+X).).-X-X).+X=X+X-X=X=X=XOX{.(.).(.).^.(.(.(.).(.).{.(.}.(.).(.(.}.).).).).`.).).#X{.(.}.(.{.).).).).).).{.{.{.).{.=X).{.(.}.).(.}.).~.}.}.^.~.}.}.}.}.T.}.}.~.[.[.~.~.~.J.~.}.J.~.~.~.~.J.~.~.~.~.(.~.~.~.(.J.~.].(.(.K.(.K.K.(.].K.(.K.(.[.~.(.(.(.J./.~.~.K.K.K.K.J.K.J.J.K.K.~.J.(.(.K.K.K.K.J.K.J.K.J.J.].(.J.J.J.J.J.Z.J.A.A.A.P.A.J.J.J.A.Z.A.J.A.Z.Z.J.J.J.J.J.A.A.G.A.A.A.A.V.A.V.H.A.V.V.V.V.V.V.V.b.G.H.G.G.H.H.V.C.H.G.Z.G.G.Z.G.G.G.G.G.G.P.V.M.P.V.V.P.A.V.P.V.P.G.P.G.V.l.S.b.l.P.V.G.",
"c.x.c.x.x.c.c.c.x.k.<.,.x.h.,.x.<.h.k.3.c.c.x.c.x.x.c.k.c.N.M.N.B.3.4.3.N.<.c.N.<.<.c.c.c.b.v.c.c.c.x.3.<.x.c.c.c.c.x.c.x.x.x.x.x.c.c.x.3.B.3.B.5.N.5.5.5.5.5.5.B.5.5.N.B.N.B.B.B.B.C.C.C.n.n.b.c.n.c.b.c.B.b.c.n.N.c.N.k.b.k.c.x.b.b.b.n.n.C.Y.U.B.U.U.U.U.U.U.R.B.B.U.v.B.B.c.c.v.b.v.B.n.C.n.C.B.B.T.C.Z.Z.Q.V.B.n.B.Y.v.B.Y.C.Q.Q.C.E.D.Y.E.Q.Q.I.E.Y.I.E.I.Y.!.I.Q.!.Y.~.T.Q.T.Y.~.T.~.Y.Z.T.Y.T.C.R.Y.Y.T.Y.R.R.!.R.!.!.!.R.!.!.^.R.'.R.!.R.!.^.!.^.^.^.^.R.!.^.^.).).).).`.).+X).).^.^.~.~._.).^.).^.).^.).^.^.{.).^.^.{.).)._.).).).).).).`.`.{.).|.^.{.{.^.{.).{.}.{.).{.}.}.^.^.^.|.}.}.|.}.'. X|.^.^.^.^.^.|.}.}.|.}.|.^.|.'.{.^.).^.`.).`.).).).#X).^.).).`.`.{.|.{.{.^.).^.{.).^.).|.{.^.}.|.).).}.{.{.{.(.).(.).(.(.}.{.[.{.}.).}.).).).^.|.`.`.|.|.#X`.`.`.`.`.$X'.`.`.`.`.{.|.|.{.).{.).-X+X{.-X-X(.-X=X-X+X-XOX).).).).(.).(.).[.(.}.(.(.(.{.(.(.(.(.)._.).).`.).).).).).{.(.(.).).).(.).{.).(.-X{.-X-X{.-X{.}.}.).}.(.}.~.}.).~.}.~.^.T.^.~.~.~.[.~.[.(.].J.}.(.~.~.J.J.J.J.~.~.Z.~.J.~.~.~.J.J.~.K.J.(.].(.K.}.K.[.].[.(.[.[.K.[.(.~.(.(.(.~.(.K.(.~.K.J.K.H.J.J.J.K.K.~.].(.J.(.(.K.J.(.J.(.(.(.J.J.~.J.H.J.J.Z.J.J.J.J.J.A.A.A.Z.A.A.A.A.Z.Z.Z.J.J.].A.J.P.A.J.J.P.A.A.V.A.A.A.A.B.V.V.F.C.V.G.b.V.V.H.L.J.V.V.A.J.J.G.J.G.G.Z.G.A.G.V.G.G.V.V.P.V.P.M.G.V.P.V.G.G.G.P.G.V.P.l.l.l.l.",
"c.c.c.x.c.x.x.3.x.<.x.,.2.h.3.x.j.<.<.N.c.c.x.2.c.x.x.<.3.k.k.N.3.v.c.3.3.<.3.k.k.h.c.c.c.c.c.x.b.c.c.k.x.h.c.c.h.x.3.x.x.3.2.x.c.c.c.v.x.x.3.v.3.3.3.N.5.3.5.5.'.5.5.'.5.'.5.3.B.n.C.B.n.n.n.n.m.n.m.b.b.n.b.N.V.b.k.c.c.k.M.k.b.c.c.v.v.n.n.n.n.Y.I.U.U.U.U.U.U.U.U.B.v.v.B.v.v.v.n.n.H.n.I.C.C.A.A.C.C.H.C.H.C.n.n.C.n.C.I.C.Y.n.H.I.Q.E.n.E.Q.E.I.E.I.E.I.I.!.W.!.I.Y.Y.Y.T.~.T.~.C.T.Y.Z.T.C.Y.Z.Y.Y.Z.C.Y.~.~.T.~.!.!.R.~.Y.T.Y.~.!.Y.!.~.^.^.^.^.~.~.^.T.'.R.^.'.^.^.^.^.).).).).).^.(.(.~.~.~.~.~.^.(._.).).).).}.).}.}.).).^.(.).).+X+X+X+X).+X).).^.^.|.{.{.{.}.).}.^.}.{.}.'.^.}.}.|..X'.}.|.}.}.}.}.|.|.'.}.{.).|.{.).|.|.).^.).'.).`.).'.).).'.).1X|.`.).{.`.).{.{.).{.).|.).`.).).).}.{.).}.).).).|.).}.{.}.[.}.(.(.}.).}.{.{.{.|.).).).|.`.|.`.`.|.`.`.|.|.'.|.|.`.|.^.^.{.{.}.^.).}.(.-X{.-X).{.+X{.+X-X-X+X-X1X`.#X).#X).).-X(.[.[.[.+X[.).=X(.[.).(.).).).).).+X).).+X).).[.(.(.}.).^.(.}.(.{.{.-X{.}.).{.(.).}.~.^.~.~.~.~.^.}.~.(.^.~.^.~.~.}.(.(.}.~.[.}.~.~.J.J.}.}.J.J.~.Z.~.~.J.~.J.~.}.K.~.[.(.].~.[.K.(.[.K.(.(.[.(.(.~.(.(.~./.(.~.}.(.J.J.~.J.K.].J.~.J.].~.(.].[.[.J.(.~.K.~.J.(.~.(.J.~.J.J.H.H.J.H.J.H.J.J.C.J.Z.A.J..XJ.].A.Z.J.J.A.A.].J.J.J.Z.G.J.G.Z.A.A.N.N.A.N.N.A.V.V.V.G.G.G.P.V.V.G.V.G.Z.A.G.G.A.J.G.G.A.G.G.G.G.V.G.P.N.l.V.V.V.V.P.V.G.G.G.l.l.G.l.P.l.G.l.V.l.",
"c.3.c.c.<.3.k.c.x.x.<.<.,.,.<.<.<.<.k.3.3.x.2.2.3.3.x.x.x.c.<.<.v.3.3.3.3.N.N.5.<.<.<.c.k.3.c.c.m.b.x.c.c.h.c.c.x.x.x.x.x.c.3.x.c.x.x.c.c.x.3.B.3.3.3.5.3.3.5.5.5.5.5.5.3.3.5. XB.B.I.n.n.n.m.n.n.n.n.b.m.b.v.n.c.c.N.M.N.k.M.c.c.B.c.b.B.n.B.B.U.n.I.U.U.U.n.U.U.U.U.U.U.v.v.v.v.B.B.C.Y.Y.Q.Q.H.C.H.C.C.C.C.C.C.C.C.n.Y.I.C.I.I.Y.I.Y.n.Q.E.Q.I.E.Q.I.E.R.I.I.!.I.I.!.!.Y.T.Y.T.T.T.Z.T.~.Y.~.T.Y.R.C.Y.R.Q.Y.~.~.~.~.R.!.^.~.~.!.R.!.Y.^.!.!.^.R.R.^.^.~.}.T.^.'.^.^.^.^.'.^.^.).).).).).(.~.}.[.}.~./.(.).).(.).(.(.(.}.(.~.}.~.).(.(.).OX@X@X+X+X).`.{.|.}.{.{.{.{.{.}.{.{.}.^.^.}.'.^.'..X X}. X.X}.|.|..X}.}.{.'.^.`.).`.).).).).`.'.'.'.`.`.).`.`.).|.{.1X|.|.).).{.{.{.{.{.{.).`.).`.`.{.}.}.{.{.).|.).`.).^.).).{.}.).}.(.}.[.).{.{.{.{.|.).|.`.`.`.`.`.|.^.|.`.|.|.|.|.^.|.{.{.'.{.'.{.).).}.+X{.{.-X-X+X1X+X{.-X-X@X#X#X1X).).-X(.(.(.[.[.[.{.(.{.-X-X[.(.-X(.+X).).).).+X).).OX(.[.).~.(.~.~.).{.{.{.{.{.{.}.(.(.}.~.~.~.~.~.~.}.~.^.^.}.}.}.~.}.}.).}.^.(.~.~.~.(.K.~.~.J.J.}.J.J.~.J.J..XJ..X~.J.~.[.K.(.].(.(.J.K.(.K.[.(.].[.K.~.(.}.~.~.~.~.J.J.~.].J.J.J.(.J.J.[.~.].].[.~.[.(.~.(.~.J./.J.(.~./.K.~.H.~.H.J.J.G.H.J.J.J.J.J.J.A.A..XA.A..XZ.A..XA.].J.J.J.G.J.J.J.Z.A.N.A.V.A.V.A.N.V.V.G.G.G.G.G.G.b.G.A.G.G.A.Z.J.J.G.J.G.G.J.A.G.G.G.G.V.l.V.V.V.M.V.V.V.P.A.V.P.l.l.l.V.G.l.G.S.G.",
"c.c.c.c.c.c.c.3.c.<.h.2.2.h.3.h.h.<.x.x.x.3.2.m.x.3.x.3.c.c.k.3.3.3.c.3.k.<.k.<.j.N.k.c.c.c.c.c.l.b.l.x.x.c.c.c.c.c.c.c.x.c.c.x.c.x.x.v.x.c.3.3.3.3.3.3.3.3.5.5.5.R.5.5.3.5.3.'.B.U.Y.n.n.n.n.m.n.C.n.n.b.v.c.b.V.b.c.c.c.N.N.N.B.B.V.B.B.n.Y.I.B.I.U.n.I.U.U.U.U.U.U.B.U.B.n.v.B.n.C.C.I.Q.Q.n.H.C.C.H.C.n.C.n.n.n.n.Y.I.C.I.C.Y.C.Y.n.E.Y.I.E.E.E.Q.I.R.!.R.I.I.!.!.E.Y.Y.Y.T.T.T.~.T.Q.T.~.~.C.Y.R.R.Y.Y.Y.Y.^.R.!.^.!.!.!.!.!.R.!.!.!.!.!.R.'.!.'.R.^..X^.^.^.^.^.^.^.^.}.~.^.~.~.}.~.}.}.}.[.}.(.~.(.).).).).).(.).}.).}.}.}.}.^.)./.+X+XOXOX@X+X).).).}.{.{.{.{.{.{.[.}.{.{.^.}.}.'.}. X}.'.}.'.|. X}.|.|.^.|.^.`.{.).|.).{.).|.).).'.`.`.'.'.`.).).).{.`.`.1X`.|.).|.{.).{.).).{.`.).`.).{.{.{.).{.`.|.).`.).).|.{.).).}.}.}.(.[.{.{.{.-X).|.1X{.`.|.1X`.).'.`.`.|.|.{.`.).|.).{.{.{.}.{.).{.).|.).1X`.-X{.+X1X-X1X@X1X1X#X`.1X).-X-X).{.(.[.-X[.(.-X-X[.-X[.-X{.).).).).).).).).).(.(.[.(.}.~.~.}.~.}.).{.{.{.{.}.{.(.}.~.~.T.~.~.~.}.~.}.(.}.~.^.~.~.^.}.(.}.~.[.~.~.J.J.}.J.}.].J.J.J..X~.J.~.J.~.J.}.(.K.~.K.(.[.~.[.OXK.K.OX[.(.K.[.[.(.~.J.~.~.~.~.J.].~.J.}.J.J.].J.K.].(.[.(.[.[.(.(.~.K.~.K.~.(.~.J./.~./.J.Q.Q.H.G.L.H.H.J.J.J.A.A.A.A.A.A.J.A.A.A.A.J.].A.J.G.J.J.Z.G.A.A.N.V.A.B.A.N.V.A.G.A.G.G.G.V.V.G.G.V.A.G.Z.A.P.Z.G.Z.Z.P.G.G.G.V.G.l.P.V.M.P.V.P.V.P.G.P.V.l.l.G.b.P.V.G.V.P.P.",
"c.c.c.c.c.c.c.v.c.x.3.x.,.3.3.x.x.x.x.3.x.x.2.2.2.x.x.3.x.3.5.M.c.N.c.N.N.N.<.N.<.k.<.3.h.c.k.c.c.x.x.l.x.k.x.x.c.c.3.x.v.c.3.c.c.x.c.x.v.3.N.3.3.3.3.3.5.5.5.3.5.5.5.'.3.'.3.5.v.Y.B.n.U.B.n.n.D.n.n.n.n.B.n.b.V.B.N.N.N.k.c.N.B.b.n.B.n.C.B.B.n.n.U.n.U.I.U.U.U.U.U.U.U.v.B.v.v.V.n.B.n.n.Y.n.n.C.n.H.C.C.C.Y.n.C.C.n.E.I.I.Y.U.Y.I.Q.n.E.Y.E.I.!.E.Q.I.E.I.!.!.!.E.!.!.T.Y.Y.T.T.T.T.T.T.~.Y.R.Y.Y.R.Y.Q.!.Y.!.!.^.!.'.R.'.U.!.!.!.R.'.!.!.!.!.!.^.'.^.T.^.}.R..X.XT.T.^.~..XT.}..X}.~.}.].}.~.}.}.(.{.).).+X).).{.).(.}.}.).^.}.).).)._.OX+X+X+XOX).{.}.).{.[.{.}.[.{.{.{.{.}.}.^.{.}..X X}.}.}.^.}..X|.^.^.{.{.{.^.`.).).{.`.{.).|.`.`.`.`.'.).`.`.`.|.1X{.|.`.|.).{.).{.1X{.{.`.).).|.'.`.).).{.`.).`.`.`.`.`.|.).).}.).).(.).}.{.{.-X{.{.1X-X`.|.1X`.`.`.|.|.|.|.'.'.{.|.|.{.|.|.|.^.'.{.{.).`.|.1X`.1X`.#X1X#X1X$X5X1X$X1X#X#X#X-X).-X{.-X-X[.-X-X{.-X-X=X-X).-X-X).+X-X).).(.OX{.[.(.).).(.}.~.(.).{.}.-X{.{.{.{.).{.).}.~.}.~.~.~.~.~.^.}.^.}.(.}.}.~.}.).(.~.[.~.}.~.~.J.~.~.].~.~.].J..X}.J.}.J.(.J.~.[.K.}.(.K.K.(.K.(.K.[.~.(.[.(.~.(.}.~.(.~.(.~.(.J.K.K.J.K.(.J.[.~.].[.(.[.[.[.(.~.(.~./.~.~.(.(.(.~.J.J.~.J.H.J.J.J.H.J.H.J.A.J.A.A.A.A.A.A.A.A.A.J.A.J.A.G.G.P.J.Z.J.G.A.A.N.A.A.A.A.A.A.G.G.V.G.G.G.G.V.G.V.V.V.G.V.Z.G.G.J.G.J.G.J.G.V.G.V.M.M.V.V.M.V.V.V.A.V.P.N.S.l.l.V.P.V.G.G.V.",
"c.c.x.v.c.x.v.x.x.3.x.2.2.x.x.3.c.x.3.m.2.m.2.m.x.x.m.2.M.<.M.M.N.c.N.c.N.3.N.j.<.j.k.k.k.x.k.c.h.z.c.z.c.c.h.c.h.x.3.x.3.x.3.2.v.3.v.3.B.3.3.B.R.5.5.3.3.5.5.5.4.B.3.B.'.3.R.R.C.Y.n.Y.I.C.n.n.C.I.C.n.n.B.n.b.B.b.N.V.N.5.N.N.b.v.b.B.U.B.n.n.U.v.U.Y.U.n.U.U.U.U.U.B.n.U.B.n.n.n.C.n.U.n.Y.n.n.n.n.C.I.n.Y.n.n.U.C.I.R.I.I.I.n.Y.D.Y.Q.E.I.E.!.I.E.I.I.!.R.!.!.W.!.R.!.I.T.T.T.T.T.T.T.Q.~.Y.Y.!.Y.!.!.R.!.R.!.^.!.!.'.!.!.'.'.'.'.U.!.R.'.!.!.'.!.!.^.~.~.~..XR..X'..X.X.X~..X~..X.X}.]..X.X}.}.(.}.).{.).{.).).).{.}.).}.}.}.).}.).(.OX+X(.+XOX+XOX(.}.}.}.}.}.}.[.[.}.}.}.}.}.}.}.}.}. X.X|.'.}.|.}.|.{.^.{.'.'.{.).).{.`.).{.).|.`.`.`.|.`.`.`.).).|.{.|.).|.`.|.1X|.).1X|.{.`.1X).`.).`.{.`.|.).`.`.`.`.`.`.`.`.|.`.).).}.[.).}.).{.1X{.|.1X|.{.1X`.`.|.`.|.`.|.|.`.{.|.|.#X{.).{.).1X).`.`.`.1X#X|.#X1X2X#X1X#X#X#X1X#X1X1X`.-X`.-X-X{.{.{.=X[.-X{.{.{.{.{.-X{.(.{.{.).(.(.(.{.(.(.{.(.}.(.~.(.(.(.}.{.{.{.{.{.).{.).[.^.(.~.~.~.}.(.(.}.).[.).(.).(.(.~.~.}.(.}.~.(.(.~.J.[.J.].J.J.J..X~.~.J.~.J.(.}.~.K.[.(.].~.[.~.(.].[.K.(.[.[.(.(.(.[.~.~.~.(.}.J.~.K.J.J.~.~.K.(.}.(.[.(.}.[.[.(.(.[.(.~.K.(.~.~.~.(.~./.H.J.H.H.H.J.H.J.H.J.J.A.A.G.A.A.A.C.A.Z.A.J.A.G.G.G.Z.J.J.A.J.A.A.A.A.A.A.Z.A.A.G.G.G.G.l.G.V.V.G.V.G.V.M.P.V.A.G.G.Z.G.J.Z.G.G.P.G.V.V.V.V.V.M.P.G.V.G.V.l.G.V.l.G.P.V.S.V.l.F.",
"x.c.x.c.v.x.c.c.c.c.x.x.2.3.x.x.c.3.2.2.x.2.2.2.2.2.2.3.5.A.M.5.c.c.N.N.N.N.j.N.N.<.k.k.h.k.h.x.x.c.l.b.c.x.c.x.3.3.x.3.x.3.x.3.3.B.3.v.3.3.B.3.5.3.5.5.5.5.5.5.5.5.B.3.5..XR.R.n.C.Y.B.C.n.Y.n.n.D.n.Y.D.C.b.B.b.B.B.c.c.N.B.N.b.v.n.c.v.B.v.v.B.n.n.U.U.U.Y.U.U.U.U.U.U.B.B.C.B.C.Q.Y.Y.n.n.Y.Y.C.Y.I.n.n.n.n.n.n.n.I.I.I.I.!.Y.I.Y.Y.E.C.I.Q.R.E.E.!.!.U.!.R.!.!.E.!.!.R.Y.T.T.~.T.~.~.~.~.^.Y.Y.Q.!.!.!.!.!.!.!.'.!.'.!.!.'.U.U.'.'.'.!.'.'.'.!.!.'.^.^.^.}..X.X}.5..X.X.X.X.X.X]..X.X.X.X].J.}.).}.-X(.+X).-X).{.+X).}.(.}.^.}.(.(.+X(.(.OX+X=X[.{.{.{.}.}.[.[.[.}.[.[.[.}.|.}.|.}.}.|.}.|.}.}.}.}.}.}.}.|.{.{.{.^.^.|.).|.|.).|.).`.#X#X`.).`.`.`.|.).|.^.`.`.1X`.|.{.1X{.).{.{.).|.{.`.|.`.{.).{.{.|.`.`.`.`.{.{.).{.).{.).).{.{.{.{.{.|.|.1X1X|.`.|.1X`.1X`.1X`.|.`.|.).{.|.{.|.|.|.).{.`.1X`.|.#X1X1X#X#X1X#X1X1X#X#X`.#X1X#X{.-X{.{.-X{.=X{.[.{.-X-X-X{.-X).-X).-X).{.).).).(.-X).[.{.).(.}.).}.{.{.{.[.{.{.[.{.[.{.[.}.{.).}.).(.}.).).}.).}.}.).}.).(.).).~.(.}.}.~.].~.~.~.(.J.~..X}.].[.}.].~.~.J.K.}.~.K.(.(.K.(.K.(.(.J.[.(.(.K.~.(.~.(.~.~.~.~.(.J.J.~.K.J.K.~.K.J.J.[.(.[.(.}.}.(.~.~.(.~.~.(.(.K.~.K.J.~./.~.J.J.H.J.H.J.A.H.G.A.A.A.A.A.A.A.A.Z.A.J.Z.Z.Z.G.J.J.A.J.J.A.J.A.A.A.A.H.J.A.G.V.V.G.V.G.G.l.V.l.V.V.V.A.V.G.V.P.G.G.G.G.G.A.G.G.V.P.V.G.V.V.l.G.l.P.G.l.l.G.P.b.G.V.G.G.G.",
"3.v.3.x.x.v.v.x.v.3.c.3.3.m.3.v.v.x.v.2.2.x.3.x.,.3.x.k.A.5.A.*.5.N.N.N.N.N.N.5.k.k.k.k.h.k.h.k.h.h.c.x.c.x.k.c.c.c.c.x.x.c.x.3.3.3.U.3.3.B.3.3.R.R.5.5.5.5.5.5.N.v.N.B.B.B.B.B.B.C.n.C.E.C.Y.n.n.Y.C.Q.C.n.B.b.B.c.c.c.c.N.N.c.c.B.v.v.v.3.v.v.v.v.U.U.U.Y.B.R.U.R.R.B.Y.v.H.n.n.Q.n.Y.Y.Y.R.U.I.I.n.n.n.U.n.n.n.I.I.I.I.E.I.Y.Y.U.H.I.Q.I.E.E.E.!.E.!.!.I.!.!.W.!.!.!.!.!.R.T.~.T.^.T.~.^.^.Q.Q.Q.T.Q.R.!.!.!.'.!.'.R.R.'.R.R.'.'.'.'.'.U.!.'._.!.^.^.^.~.~.~..X.X.X.X.X.X~..X.XZ..X}.~.}.}.}.~.~.).{.).{.+X{.).-X).[.{.(.}.).}.~.}.{.+X(.(.(.(.(.[.(.[.[.}.[.{.[.[.[.{.[.}.}.}.{.}.{.}.{.}. X'.}.}.'.|.'.^.{.^.|.^.^.`.'.|.^.).|.`.1X`.`.|.|.`.|.|.`.1X).).|.`.|.`.1X|.-X`.{.).|.).|.{.).{.).{.{.{.).).{.`.{.{.).{.).).{.}.).).}.}.).1X|.1X1X1X1X X|.1X|.`.|.`.|.).1X#X|.).|.|.).|.-X{.).).|.|.).1X).#X1X|.1X|.#X1X).`.1X`.1X`.).#X{.{.-X-X{.[.=X).-X{.{.{.{.-X-X{.{.{.).-X).(.}.(.{.).[.{.[.{.{.}.(.).}.{.|.{.{.{.{.{.{.{.{.{.).{.(.).}.}.{.[.{.}.(.).}.).}.~.).}.~.(.~.~.(.}.~.J.J.J..XJ.J.(.}.J.(.[.~.[.J.K.(.~.(.~.].[.K.(.K.(.[.(.(.}.}.(.(.(.~.(.~.(.~.~.K.(.J.~.J.(.J.~.(.~.[.(.[.~.[.(.(.~.K.(.~.(.(.(.~.(.~.~./.~.H.H.K.K.H.H.H.G.Z.A.C.G.A.Z.Z.Z.Z.J.G.J.J.Z.Z.G.J.J.J.].J.Z.J.J.Z.A.A.A.G.A.G.A.G.l.V.G.V.G.V.G.V.V.V.V.V.V.G.V.V.A.G.G.A.G.G.G.G.V.V.l.l.l.l.P.l.b.G.V.G.V.P.b.G.G.P.S.G.S.",
"x.x.3.x.3.v.x.v.x.v.x.x.x.3.x.x.v.x.x.2.2.<.x.<.h.j.<.<.*.A.*.A.N.M.N.N.N.M.M.M.k.N.k.k.h.k.k.k.h.x.h.x.x.c.x.h.c.c.v.c.v.c.v.c.B.3.3.3.3.3.3.4.5.5.5.5.5.5.5.3.N.5.c.B.N.B.B.B.n.C.Y.C.Y.I.n.C.n.n.n.C.C.H.C.B.n.B.N.c.N.3.v.B.B.c.v.v.v.v.x.v.U.v.U.B.B.U.U.U.3.3.U.B.n.Y.n.C.C.C.C.n.n.B.n.U.I.n.U.I.I.I.U.I.U.n.U.I.I.Y.E.Q.Y.C.I.Y.n.Q.I.E.E.E.E.I.!.!.!.!.U.!.U.!.R.Y.T.Y.^.T.T.~.Y.~.!.~.C.~.Q.Y.^.T.~.Q.^.^.!.'.!.!.R.!.'.U.U.'.'.'.!.!.!.^.^.^.~.~.}.~..X X.X.X~.~..X.XJ.}..X}.}.}..X}.~.~.).}.-X{.).).+X).-X).).}.^.}.~.}.}.{.(.(.).(.(.(.(.[.[.{.{.;X;X{.;X{.{.[.{.}.}.{.{.}.{.}.{.}.|.}.}.}.|.|.{.|.|.^.^.|.^.`.^.|.`.{.|.`.|.1X`.1X`.`.|.1X`.|.`.).).`.|.`.1X|.1X|.1X{.|.).{.|.|.{.{.{.{.{.{.-X{.{.{.{.{.{.{.{.{.{.).{.).{.#X{.).|.1X1X1X1X1X`.1X`.`.1X|.`.|.`.`.{.1X|.).|.).1X|.).{.|.|.1X1X1X1X1X1X1X1X`.-X).-X).-X).{.#X{.).{.-X).{.{.[.[.-X-X[.[.{.[.{.(.{.(.(.(.).).{.-X+X{.-X{.{.).{.{.{.{.;X{.{.{.{.{.{.{.{.{.{.{.}.[.).{.{.).).{.}.}.(.}.(.}.~.~.(.}.(.}.}.J.[.J.~.J.J.}.}.}.K.}.[.~.K.~.}.~.[.K.].~.(.~.K.].(.].(.(.].K.(.(.~.(.~./.(.~././.~.J.J.(.J.J.K.K.J.(.J.(.[.[.K.~.(.(.(.~.(.~.(.(.(.~.(.~.J.H.~.J.J.J.H.J.H.J.J.H.G.H.A.C.Z.H.C.J.Z.J.J.J.J.J.G.J.J.Z.J.J.J.H.H.A.A.A.A.G.A.G.V.V.V.l.G.V.G.V.l.V.V.V.V.V.l.V.G.G.V.G.G.G.A.G.G.V.G.G.V.G.V.V.V.b.P.S.G.F.F.V.S.F.l.G.b.G.",
"v.v.v.3.m.2.m.3.x.v.3.v.3.x.v.c.3.x.c.c.<.k.<.<.M.1.M.M.*.A.*.A.N.N.k.N.k.N.c.l.k.k.k.k.k.h.k.h.h.h.h.x.h.<.3.h.c.x.c.x.c.v.3.3.3.3.3.3.3.4.3.3.5.R.3.3.3.3.5.5.3.c.c.B.C.B.C.C.V.n.c.v.c.n.C.n.C.n.n.C.n.v.v.B.B.c.c.c.3.3.N.3.c.x.v.3.U.3.U.3.v.U.U.B.R.Y.R.U.U.3.3.U.U.U.R.U.Q.C.I.Q.n.U.U.U.I.I.I.I.I.U.I.I.I.I.I.U.I.I.I.I.Y.Y.Q.n.Q.n.E.E.Q.E.Y.I.I.I.I.U.R.E.I.R.Y.Y.T.R.T.T.!.R.Y.Q.!.~.~.~.H.T.Q.~.T.~.^.T.~.^.^.^.R.^.'.'.'.U.^.^.T.R.^.^.~.~.~.~.].}..X^./.(.~.~.(.~._.(.^.(.^.(.^.~.{.{.).).}.).{.).(.).{.).).).^.^.}.).}.).(.).[.{.[.[.[.{.[.[.}.}.[.}.}.(.{.[.}.{.}.{.{.{.{.[.{.).{.{.^.{.^.|.{.^.|.|.|.|.|.|.|.'.1X`.|.1X|.1X|.1X|.{.|.#X|.|.#X$X1X`.|.#X1X`.|.1X|.|.1X|.|.|.{.{.;X}.;X;X}.;X}.;X-X{.}.;X}.<X}.}.).{.{.`.|.|.1X1X1X|.#X|.1X`.`.|.#X+X`.1X1X`.1X1X+X1X-X1X1X).|.{.{.}.{.{.{.{. X{.{.{.{.{.{.{.{.{.{.{.{.{.{.}.}.).{.{.{.{.{. X{.{.;X{.{.3X;X;X}.}.{.{.[.{.{.{.{.;X{.{.).{.{.{.{.{.|.{.{.{.{.{.{.{.{.(.-X(.{.).{.OX{.).=X-X(.).(.).(.~.~.}.(.~.}.(.~.J.~.J.~.].J.J.J.(.(.J.~.K.~.~.].}.J.~.}.J.~.[.K.}.K.}.(.[.[.K.J.~.(.J./.~.(./.(.~.(.~.K.~./.~.Q.J.(.~.~.(.(.~.(.}.(.(.~.(.J.(.[.(.(.~.J.J.H.H.H.K.J.H.J.H.J.L.~.J.H.J.C.J.J.Z.Z.J.Z.G.J.A.A.G.Z.Z.G.H.J.J.J.J.A.P.A.G.G.A.J.A.V.V.V.V.V.l.V.l.V.V.V.A.P.Z.G.G.J.G.Z.V.G.V.P.G.V.G.G.V.G.G.F.G.G.G.F.G.G.F.P.L.F.P.G.S.V.",
"v.x.x.3.2.3.3.m.x.x.x.x.3.x.x.x.3.k.3.k.k.<.j.1.M.1.*.M.5.u.A.*.j.N.k.c.N.c.k.c.c.c.x.k.h.l.h.k.,.h.h.h.x.x.h.x.c.c.x.3.c.x.3.c.v.3.3.3.3.3.3.3.B.5.3.3.3.3.N.3.3.c.c.N.V.C.n.C.n.B.v.b.v.V.n.C.n.C.C.n.n.V.b.n.B.B.v.c.c.3.3.v.3.v.3.U.3.v.v.U.v.B.U.R.Y.U.U.U.R.3.R.3.U.U.D.C.H.n.H.I.I.Y.U.U.I.I.I.I.I.I.I.I.I.I.I.I.I.I.I.I.Y.I.Q.Y.Q.I.Q.E.I.E.Q.E.!.I.R.I.I.I.I.I.Y.Y.R.!.T.T.T.Q.Q.^.!.!.~.J.J.J.J.J.~.T.T.}.T.~..XT.^.^.'.U.'.'.^.^.^.^.}.R.~.~.J.}.].(.~.^.).(._.).).).).).).).).)._.).^.^.).).).(.OX).-X).).-X).}.{.).).}.{.}.{.).).[.).=X=X[.[.[.}.}.}.}.[.[.[.{.[.{.}.{.{.{.{.{.{.}.).|.{.^.{.^.'.{.^.^.|.|. X X'.|.`.|.`.`.1X{.1X|.`.1X|.|.#X|.|.|.`.|.`.|.`. X1X`.`.1X-X|.;X|.;X{.}.}.;X}.;X<X}.<X<X[.<X<X}.}.[.[.{.|.`.-X`.-X|.1X|.1X|.|.`.|.`.`.`.|.#X`.#X`.1X1X1X`.-X1X-X1X-X).[.;X[.[.{.{.;X;X-X{.;X{.;X{.;X{.{.|.{.{.{.{.).{.[.}.{.[.}.}.;X{. X X;X}.}.}.;X;X{.{.{.{.{.[.{.}.}.[.{.{.{.{.{.{.{.{.-X{.{.[.{.{.{.-X).{.(.{.(.{.(.{.).{.{.(.{.(.(.}.).~.}.(.~.}.].~.].~.J.J.~.].(.J.J.(.K.~.(.K.~.J.J.[.(.J.[.~.[.K.[.[.[.[.~.(.~.(./.J.(.(.(.~.~.(.~.(.~.(.J.~.J.~.J.J.~.K.~.(.(.~.(.~.(.~./.~.(.~.(.~./.Q.~.L./.J.J.J.~.H.H.J.J.K.J.H.Z.H.H.J.J.G.H.J.G.H.A.C.C.G.J.J.Z.J.J.J.J.J.J.A.J.A.G.Z.V.V.P.M.l.V.l.V.V.V.V.V.G.Z.Z.Z.G.G.G.G.V.V.G.G.G.V.G.G.G.G.G.G.F.G.G.P.G.G.P.G.G.S.F.G.G.",
"x.x.x.x.3.x.2.x.c.3.3.c.x.x.3.x.<.h.<.j.M.1.j.k.*.M.1.M.5.u.5.M.N.c.c.N.c.k.c.h.x.b.x.l.k.h.h.l.c.h.h.h.2.x.x.h.x.x.c.c.x.c.v.c.v.3.3.3.3.2.3.3.B.5.5.B.B.3.N.3.<.c.c.N.B.B.B.B.B.v.V.c.v.n.n.n.C.n.B.n.B.n.B.v.N.v.v.3.3.3.v.3.v.U.3.3.3.v.2.U.U.U.B.U.U.B.R.v.R.R.R.3.B.U.C.n.C.H.Y.E.Y.I.U.U.U.I.I.I.R.I.I.I.I.I.I.I.I.I.Q.Y.I.Y.Y.Y.E.Q.!.E.Q.E.I.!.I.I.R.E.!.R.Y.!.R.T.T.Y.Y.T.Y.Y.!.Q._.Q.~.K./.J.~.J.T.J.~.T..X~.T..XT..X^..XR.R.^.T.^..X~.~.~.~.K.J.J.(.(._._._.)._.).).#X_.'.).).`._.`.).).^.^.(.).).(.).+X).{.{.|.).{.{.}.).{.).{.{.}.{.}.}.[.[.{.[.[.}.}.}.{.{.{.).{.-X{.+X).{.).).{.).).|.).^.{.'.^.|.|.|. X'.|.'.'.`.|.1X`.|.1X{.1X).1X1X`.1X`.`.|.|.`.|.`.$X`.`.1X|.|.|.1X{.;X{.|.;X}.}.<X}.<X<X}.[.;X}.}.}.<X[.{.{.).#X|.|.|.|.|.1X`.1X`.|.`.1X`.1X`.|.#X|.1X1X#X1X`.|.1X1X).|.+X{.=X{.;X[.;X;X[.{.[.{.}.}.}.}.{.{.;X}. X{.{.).).}.).{.{.{.{.}.;X{.{.3X;X}. X;X}.;X{.[.{.{.{.{.}.).{.{.{.-X{.-X{.;X{.{.{.-X{.{.{.{.-X(.).).-X{.).).-X).{.{.[.).(.^.}.(.}.}.(.(.}.J.~.J.~.}.J.J.J.[.J.[.(.(.].~.K.}.~.~.[.J.}.}.}.~.].~.[.(.[.(.[.(.~.(.(./.~.(./.(.~.~.(.(.~.J././.~.~./.K.~.(.~.(.~.(.~.~.(.~.(./.~.J.(.~.J.J.J.J.J.J.J.J.~.J.~.~.H.Q.J.H.H.Q.J.J.J.G.L.H.A.H.G.A.H.H.J.L.L.J.J.J.J.J.Z.A.J.G.A.A.V.V.V.V.l.V.l.l.V.M.V.G.V.Z.G.G.G.G.V.G.V.G.G.G.F.G.G.G.G.G.G.G.G.F.L.L.P.D.L.F.L.G.F.G.",
"3.2.3.x.x.3.x.x.c.x.x.x.x.3.2.2.,.,.h.<.1.k.k.1.M.1.M.k.A.5.5.A.k.N.k.c.c.k.x.x.b.x.b.x.x.k.l.l.k.x.c.h.x.h.x.h.c.3.x.c.c.x.v.3.3.c.3.3.3.v.3.v.3.B.B.3.N.3.c.c.N.c.c.c.c.b.V.b.V.v.V.n.b.n.b.B.n.B.n.B.n.B.c.B.v.B.v.3.c.3.3.v.v.3.U.3.U.3.U.3.3.v.B.v.B.U.B.B.R.3.3.'.Y.n.H.H.D.Q.D.C.I.I.U.U.I.I.I.I.I.E.I.E.Y.I.n.I.n.Y.n.Q.Y.C.Y.E.Y.E.I.E.E.E.Y.E.!.E.I.R.E.!.Q.R.R.!.Y.R.Y.R.Y.Q.Q.!.Q.^.~./.J.~.~.J.~.~.T.Z.T.Z.T.T..X.X.X.X^.R..X^.^.^.~.Q.~.~.~.J.(.(.(.).+X_.+X)._.)._.`.).).'.)._.`.^.^.).^.(./.(.).(.-X).).`.{.|.|.`.|.).|.{.|.{.{.(.(.{.{.[.}.}.}.(.{.}.{.).}.{.{.{.{.{.-X1X-X{.+X|.{.).).|.^.{.|.}.|.^. X'. X X'.|.`.`.1X1X|.1X1X1X{.|.1X|.`.2X#X`.|.`.1X`.#X X`.#X|.1X{.|.;X{.;X}.;X}.;X<X}.}.;X[.;X<X}.;X}.;X{.1X|.{.|.{.1X1X1X|.1X1X|.`.1X`.|.#X1X#X|.#X#X1X1X1X1X1X+X-X1X).{.-X[.[.[.;X{.{.{.;X{.{.;X;X;X}.;X[.{.|.}.).{.{.).).{.|.{.{.{.3X{. X;X}.;X}.;X}.;X[.[.{.[.[.}.[.{.{.{.}.{.{.{.{.;X|.{.;X{.{.{.{.{.+X{.{.-X-X{.(.-X(.{.-X(.(.).(.).(.~.^.(.~.(.}.~.[.~.[.J.J.}.}.J.(.(.K.}.~.].(.}.J.[.J.~.(.}.J.J.].}.].}.[.(.[.(.K.(.(.~.(.(.(.~.(.).(.(.J.(.~.H.J./.J.~.(./.~.(.(.(.~.(.(.J.(.~.~.K.~.~.J./.~.J.J.J.(.J.(.J.K.(.J.Q.K.H.~.H.J.H.J.J.L.J.G.J.J.C.J.Z.J.J.J.J.L.J.J.J.P.J.J.J.Z.A.G.A.A.V.V.V.l.V.V.M.V.V.l.G.G.G.G.V.l.G.V.G.G.G.V.H.G.H.G.H.L.F.G.G.G.F.F.F.L.F.L.F.L.D.G.",
"3.<.3.c.x.3.x.c.x.c.c.3.x.3.,.3.2.<.x.<.k.<.j.<.N.<.j.j.c.k.c.N.N.c.c.c.c.x.x.x.m.b.x.b.b.k.x.x.c.b.l.x.c.x.h.c.x.3.3.x.x.c.v.c.v.c.3.x.x.3.c.c.c.c.c.c.c.N.c.c.c.c.k.N.b.V.V.B.b.B.b.n.V.v.n.c.B.n.n.n.B.B.c.B.B.c.v.v.v.3.3.3.U.U.B.3.3.3.U.B.v.v.U.B.B.B.U.B.R.R.R.R.Y.C.H.D.D.Q.n.Y.R.U.U.U.I.I.I.I.I.E.R.E.n.I.C.n.Y.n.n.Y.Y.Y.I.Q.Q.Q.E.Q.!.I.!.Y.I.!.I.R.R.R.!.R.T.Y.R.Y.Y.R.Y.Y.!.!.!./.!.!.!.Q.Q.~.Q.~.T.Z.T.~..X.X.XT..XT..X^..X^.'..X~.~.^.Y.~.~.(._.)./.).)._._.).).'.'.).`.'.^.'.'.^.).^./.).(.(.).).).{.-X).{.|.|.|.|.{.|.`.{.{.{.}.}.}.{.}.{.{.}.}.}.{.{.-X{.{.{.|.-X|.+X#X+X|.).|.`.{.).|.^.|.'.'.'.|.'.'. X'.|.`.`.`.2X|.1X1X|.{.|.|.-X`.|.2X`.1X`.`.`.2X`. X`.|.{.1X{.-X{.{.{.;X{.{.{.[.;X{.[.[.[.{.{.}.{.{.{.1X`.`.`.|.`.|.2X1X X`.1X|.|.`.).1X#X1X#X#X1X-X1X-X#X-X#X{.#X+X{.{.-X{.[.{.{.;X;X}.;X;X{.}.}.}.3X}.}.;X}.{.{.|.{.{.^.{.{.{.|.{.;X{.;X}. X}.;X}.}.}.;X}.}.{.}.{.}.}.{.{.{.{.{.|.{.;X{.;X{.|.{.{.{.).-X-X{.{.+X{.-X{.OX-X-X{.OX{.(.(.}.}.).}.(.}.(.~.[.~.}.~..X].~.(.K.J.[.(.J.J.(.~.[.J.[.~.}.}.}.}.}.[.[.}.(.[.(.(.(.(.(.(.(.(.~.(.).(.~.(.~.~.~.(.~.(.~.~.(.~.(.~.K.~.(.~.(.(.(.(.J.~.~./.J.J.~.J.J.J.[.K.~.(.J.~.K.H.Q.J.H.Q.H./.H.H.K.J.J.H.J.J.J.J.H.K.H.H.K.L.J.L.J.J.Z.G.G.N.A.V.V.G.V.P.N.l.M.V.M.V.G.G.V.V.V.G.V.G.A.G.G.G.G.H.G.L.F.G.G.G.L.D.P.L.L.L.F.D.L.L.oXG.",
"h.x.x.x.c.c.c.c.c.3.c.x.x.c.x.3.x.<.x.3.N.<.N.j.<.k.c.N.c.c.c.x.c.N.c.b.m.c.x.c.m.m.m.c.b.x.z.l.x.x.x.l.h.c.x.b.x.c.x.c.v.3.v.3.x.c.v.3.c.c.v.c.c.v.c.c.c.c.B.b.b.N.b.b.c.b.b.n.n.V.n.V.V.v.V.n.n.C.B.B.B.n.n.B.v.B.v.B.U.v.R.U.B.3.v.R.U.U.3.v.B.B.B.U.U.B.R.B.3.R.B.C.H.C.H.E.E.H.Q.I.I.U.R.U.I.I.I.I.I.E.I.I.I.C.n.Q.H.Y.Q.Q.Q.Y.Q.Y.Q.I.Q.E.E.Q.E.Y.!.I.!.I.!.!.R.!.Y.^.Y.T.T.T.^.!.!.!.!.W.!.W.!.Q.!.Q.T.~.~.T.T.T..X.X.X.X.X^..X.XT.^.R.'.^.!.!.!.!._._.).).).(.).).).^.).}.}.'.^.^.'.^.'.^.^.^.^.^.(.(.(.(.-X(.{.|.|.`.`.1X`.`.1X{.|.|.{.).{.{.}.{.{.[.(.{.).{.).).{.`.{.).).#X-X+X|.-X#X+X|.).|.{.{.'.'.|.'. X'.'.'. X.X|.$X`.#X#X|.{.1X{.1X|.|.2X`.`.`.`.|.1X`.1X`.$X`.`.1X|.|.|.;X{.;X X{.{.{.{.|.{.<X;X{.;X-X{.{.|.3X X#X1X|.1X1X`.1X1X1X2X#X#X|.1X|.#X1X#X1X#X#X1X1X1X1X1X|.).-X`.-X-X{.-X-X;X|.|.{. X{. X{. X}.}.}.;X}.}.3X{.{.|.{.{.|.|.{.{.{.{.{.{.{.{.{.;X.X}.;X;X}.;X}.{.}.{.{.-X{.{.-X{.{.;X;X{.|.{.|.{.;X{.;X1X-X{.-X-X{.-X).).-X).{.).).(.).).^.(.(.(.}.(.}.K.}.].~.[.].~.].(.[.(.[.(.[.[.(.[.J.}.~.J.}.J.}.~.].K.}.[.(.(.}.(.(.(.(.(./.(./.(.(.~.(.(.(././.~./.~./.(././.~.(.~.K.~.~.(.~.(.(.(.(.(.~.(./.J.(.(.J.J.~.K.J.[./.H.Q.H.Q.Q.L.Q.H.K.L.H.J.H.H.J.H.Z.H.~.H.J.L.H.L.J.J.J.G.Z.A.A.A.V.V.V.V.l.G.V.V.V.V.V.V.V.V.V.P.A.G.G.G.Z.G.G.G.H.G.G.G.L.L.G.G.F.L.L.L.F.D.P.P.L.L.F.L.",
"c.x.N.c.c.c.c.3.N.c.c.c.k.c.c.c.x.x.x.c.3.k.<.k.3.c.3.x.c.x.x.v.c.V.c.c.c.m.m.m.c.m.m.b.b.b.b.b.b.b.x.b.c.x.c.c.3.x.x.c.x.v.c.v.c.c.c.v.v.v.B.b.c.b.B.c.B.b.V.b.N.b.b.b.V.V.B.V.V.b.C.n.B.n.B.B.C.n.B.n.B.n.v.N.B.v.B.B.R.3.3.U.U.3.U.3.U.3.U.U.U.B.B.B.B.U.B.U.R.3.U.R.Y.C.H.n.H.E.E.Y.R.U.U.U.I.I.I.I.n.I.U.Y.n.I.I.C.n.Q.Y.Q.Y.I.Q.Q.Q.H.E.!.!.!.Q.!.I.I.!.R.!.R.!.R.Y.R.T.Y.R.^._.!.!.!.!.W.!.W.!.E.Q.!.R.Y.R.T.~..XR.'..X.X.XT..X^.^.^.'.^.^.!.!._._._.'.).~.(.).~.^.^.^.^.}.'.^.'.}.'.^.}.^.'.).~.).(.).(.(.(.}.).).).`.|.`.#X`.`.`.).|.|.).}.{.^.[.{.[.}.^.{.|.{.`.{.{.|.1X).#X`.|.#X#X`.#X).|.).`.{.}. X X'.'.'.|.'.|.'.`.`.`. X|.1X|.1X|.|.1X-X`.`.2X2X#X|.#X`.`.`.2X2X1X1X|.-X|.{.;X{.|.|. X X|.-X{.{.|.{.{.`.1X|.3X|. X#X2X`.`.1X1X`.`.2X|.|.1X`.1X{.1X1X#X#X1X#X1X#X1X1X-X+X1X`.-X1X|.+X|.1X1X{.;X|.{. X X}. X X X}.}. X{.{.|.{.|.|.|.|.|.{.{.{.{.{. X}.;X}.}.wX}.;X;X}.{.;X{.{.{.{.{.{.;X{.{.{.{.{.{.;X;X{.|.{.|.{.-X-X{.-X).-X-X{.{.(.-X{.=X).).(.(.}.).}.}.~.}.(.[.(.[.~.].~.].~.[.].(.(.[.[.~.K.~.~.}.].}.}.].}.[.J.}.[.[.}.[.[.}.(.).(.(.(.(./.(.~.(.(.).(.(.~./.(.(.~.(.~.(.~.~.~.(.(.(.(.(.(.}.(.(.(.(.~.(.}.}.J.[.J.J.(.(.J.L.~./.Q.H./.Q.K./.L.L.J.J.J.J.T.J.~.~.J.J./.L.K.].J.P.J.G.A.A.V.N.V.N.V.V.G.V.V.l.V.V.N.G.V.V.G.G.G.G.Z.J.P.G.Z.G.G.G.H.L.G.L.F.L.L.L.F.D.oXL.L.L.L.L.G.L.",
"c.c.c.c.c.N.c.c.c.c.c.c.N.3.c.c.c.c.c.c.x.c.x.3.c.x.c.c.x.v.v.c.c.c.c.c.c.m.v.v.c.m.n.m.b.x.b.b.b.x.b.b.c.c.c.c.h.3.x.3.v.x.3.N.v.c.v.c.v.N.b.n.n.n.b.B.b.V.n.n.G.V.C.b.v.b.b.B.B.C.C.B.C.B.C.b.C.B.n.B.v.B.B.v.R.B.U.U.B.R.B.B.R.U.U.3.B.R.3.U.B.U.U.B.U.B.Y.R.3.R.Y.Y.C.Q.H.Q.I.Q.E.I.R.U.U.U.R.I.I.I.I.U.U.n.Y.n.n.C.n.Y.Q.Y.Y.Y.Q.Y.E.Q.Q.I.W.Q.Q.E.!.!.I.!.R.!.R.!.T.^.R.R.^.^.^._.!.!.!.!.!.W.!.!.!.Y.!.^.^.^.^.~.R..X.X.XT.T.R.^.^..X^.'.'.^.'._.^.).).).^.}.~.}.~.}.(.^.^.^.^.^.}.^.'.^.^.).^.).^.).(.).).).).).{.`.`.`.`.{.|.|.|.|.{.{.}.).{.}.{.}.).{.{.{.|.^.{.).1X#X).1X#X1X#X#X#X#X{.`.{.|.).`.|.|.}.}.^. X'.'.'.'.|.`. X`.1X|.1X|.|.+X|.`.#X|.`.`.`.`.`.|.2X`.`.`.`.|.-X|.;X|.{.{.-X|.|.;X|.{.;X|.;X{.1X{.|.|.1X|.1X2X`.1X|.|.|.1X2X|.1X1X1X{.|.|.1X1X1X#X#X1X1X1X1X#X1X+X).-X|.+X-X1X|.-X{.{.|.|.|. X{. X{.}. X X;X}.;X{.|.{.|.{.|.{.|.{.{.{.{.{.}. X}.;X;X}.;X}.}.;X;X;X{.|.3X|.3X{.|.{.{.;X{.{.|.|.|.;X{.{.;X-X-X{.-X-X-X{.-X-X+X{.(.).-X(.}.(.(.).(.}.(.}.(.}.~.}.].}.].}.}.~.~.(.(.[.(.(.(.}.}.(.~.}.}.~.~.}.}.}.}.[.}.(.[.(.[.).(.(.(.(.(.~./.~.~.(.}.~.(.}.(.~.(.(.~./.~.(.J./.(.~.J.(.~.}.(.{.(.}.(.(.(.~.(.K.J.K.~.J.(.J.J.~.J.H.J.H.H.Q.H.K.H.~.J.~.J.J.J.H.K.H.J.K.L.K.K.J.J.P.G.A.V.A.A.N.V.G.V.V.G.G.V.V.V.A.P.V.G.V.G.Z.G.G.J.G.L.P.G.L.H.G.G.L.G.L.D.P.L.G.F.L.D.P.L.G.F.L.P.",
"N.c.v.c.c.c.c.c.3.v.c.N.c.N.3.3.<.M.1.5.<.<.<.h.x.x.c.c.c.c.c.c.3.c.c.c.c.c.c.v.c.c.c.c.x.l.c.c.x.x.l.x.z.c.c.c.b.m.c.m.x.x.x.3.x.c.v.N.v.n.n.U.m.v.b.m.b.b.b.b.b.b.x.b.c.c.B.c.v.N.B.B.b.C.C.B.n.v.v.B.v.B.U.U.n.B.U.B.v.U.B.n.v.v.v.v.v.B.v.v.U.v.v.U.U.B.Y.B.R.R.B.Z.C.Q.Q.Q.E.C.E.n.I.U.U.n.U.I.U.!.I.U.I.Y.Y.Y.Y.n.I.Q.Q.Q.!.Y.!.I.!.Q.!.Q.!.Y.!.I.Q.Y.Q.Y.!.T.T.T.~.Y.T.~.R.^.^.Q.Y.Q.!.Q.'.'.!.!.!.!.!.'.!.^..X^..X.X.X'..X.X.X^.T.^.}.^.^.^.~.^.^.^.^.~.~.~.).~.).}.).{.'.{.`.^.^.'.^.^.).).).).(.).).).).}.).).1X).+X{.{.(.).^.(.^.).~.).}.).).).{.{.).{.^.{.{.-X|.-X1X#X-X|.+X1X1X{.1X1X#X1X1X|.{.).|.{.^.|.^.^.|.|. X`.{.|.`.`.2X|.`.|.|.|.`.`.|.|.|.`.`.`.1X1X`.1X|.|.1X|.-X|.;X|.-X|.1X).-X|.;X|.{.{.{.{.;X{.-X|.3X|.1X|.1X|.1X1X1X1X|.1X1X1X{.1X1X{.|.{.1X1X1X1X`.1X`.).-X{.{.{.|.{.{.|.{.;X|.{.|.1X1X|.{.1X|.|.{.{.-X{.|.1X|.3X{.|.;X{.{.{.{.).-X|.{.-X{.{.{.{.|.[.;X|.{.{.{.;X}. X{.{.{.|.{.{.{.;X|.;X|.{.{.|.{.1X|.{.{.{.{.(.(.{.{.+X{.).).(.(.~.(.(.(.[.[.[.K.].J.].}.}.J.~.].(.[.).(.{.).}.}.{.^.~.}.~.^.^.}.~.}.}.(.{.(.(.(.OX(.OX/./.(.(.}.[.(.K.(.(.[.[.[.(.}./.J.J.(.~./.~.~./.~.(.(.(.[.).(.(.(.J.~./.Q.J.J.~.~.}.].J..XJ.J.J.J.J.C.H.H.K./.J.K.J.J.J.J.].K.J.[.~.K.~.~.Z.G.L.H.H.H.G.G.J.J.J.J.P.G.G.G.G.A.V.V.A.A.Z.J.G.Z.J.J.J.P.G.J.H.L.L.G.L.G.L.L.P.G.G.G.G.G.G.L.P.Z.G.G.F.",
"v.c.v.c.x.c.c.3.c.3.3.N.3.3.3.<.<.k.<.M.<.<.3.x.x.3.c.c.c.v.b.N.c.v.5.c.B.v.c.c.b.b.x.b.x.x.x.m.b.l.l.b.l.x.m.m.v.n.v.v.x.v.v.v.x.h.x.c.v.x.v.m.v.m.n.b.b.b.b.C.F.b.b.x.c.c.c.v.B.n.C.C.B.C.n.n.n.v.v.U.U.B.Y.B.v.U.n.U.U.B.v.U.v.v.v.v.B.v.U.v.B.Y.Y.U.U.R.U.U.R.R.B.R.Y.Y.Q.Q.Q.E.Q.I.I.U.U.U.R.U.U.U.U.I.U.Y.Y.D.I.Q.Q.E.!.Q.Q.!.Q.!.Y.!.Y.!.!.!.Q.Q.!.Y.!.Y.R.C.C.T.R.R.Y.Y.!.~.Y.!.!.!.!.!.!.!.!.!.!.'.!.R.^.^.'.R..X'.R.R.^..XT..X}..X^.T..XT.}.~.~.~.~.~.~.).^.).^.).^.).|.).{.^.{.).).{.).).).).).).).).)._.).#X).).`.).).}.}.(.(.}.(.).{.).{.{.{.{.).{.|.}.{.|.).-X`.-X-X|.#X1X|.|.`.|.`.1X`.-X`.{.-X{.).{.{.{.|.|.}.|.|.|.{.|.|.`. X X`.`.|.|.|.|.{.|.`.`.`.`.`.|.`.{.1X|.1X|.{.|.-X{.{.|.|.|.{.|.{.;X{.[.{.{.|.{.|.{.1X1X1X{.{.|.1X1X1X3X3X|.1X-X|.{.|.|.-X{.-X{.-X-X-X-X1X).|.|.|.{.{.{.|.{.{.;X|.-X3X|.3X|.1X1X|.1X1X|.;X{.{.;X{.1X1X|.{.{.{.{.|.{.{.{.{.{.|.-X{.;X|.|.{.;X;X;X{.;X3X{.;X|.{.;X-X|. X;X|.;X|.1X{.{.{.;X;X{.{.{.{.{.{.{.{.).{.(.}.)./.(.}.[.(.[.[.[.}.].].~.].}.}.~.).).[.{.}.[.).~.}.}.^.~.~.^.}.}.}.}.}.{.(.{.{.OX+X(.(.(.(.(.(.(.J.K.].[.(.K.(.[.(.K.(.(./.~.K.~./.K.~.(.(./.).(.(.(.(./././.J.J.J.J.J.J.J.J.J.~.J.J.J.J.Z.J.J.Z.~.~.J.~.J.J.L.J.J.J.K.J.K.~.K.J.J.K.J.J.J.G.G.Z.P.J.P.L.L.G.G.Z.G.P.G.V.G.G.Z.Z.Z.A.A.J.J.J.J.J.G.G.G.G.P.L.G.L.L.G.G.G.L.G.L.G.G.G.G.G.G.",
"c.b.c.c.c.x.x.x.x.3.c.c.3.x.c.<.5.k.3.3.c.3.3.3.2.m.x.x.3.x.x.m.3.c.v.c.c.c.v.c.n.c.m.x.b.x.b.b.x.b.z.m.x.b.x.m.c.m.c.c.v.x.m.3.c.c.c.c.v.v.m.v.n.m.c.m.b.m.b.b.F.m.b.m.m.n.m.n.n.B.C.n.n.H.C.n.B.n.B.v.B.U.n.B.B.B.n.B.v.n.B.B.v.B.v.B.U.B.U.v.B.Y.U.R.I.U.R.U.U.Y.B.Y.n.Q.Q.Q.Q.I.E.I.E.I.U.I.I.U.U.Y.R.I.I.U.C.Q.Q.Y.I.Q.Q.!.!.Y.!.Q.!.Y.!.Y.Q.I.!.Y.Y.!.Q.!.Q.Y.Y.Y.R.E.!.!.Y.!.Y.!.R.!.^.!.!.!.'.^.!.'.!.!..X'..X}..XR..X.XT.T.T.T.T.T.T.~.^.~.^.^.^.^._.^.^.).).^.^.).).^.^.).).|.|.).).|.).+X[.).).).).)._.).).).).).).).}.{.).}.}.).).{.).{.).|.`.{.`.{.|.{.{.`.-X|.#X-X#X+X|.|.|.`.|.`.1X+X1X`.{.{.|.{.}.^.{.^.'.|.|.|.{.{.|.1X1X|.#X`.|.`.`.1X{.|.-X`.`.|.`.`.`.|.{.1X1X|.3X|.1X{.{.|.|.{.{.-X{.;X;X|.;X{.;X{.{.1X1X|.-X1X|.-X1X{.1X|.5X3X1X1X1X1X1X1X3X|.1X1X|.+X1X-X1X+X{.1X|.{. X{.1X;X|.;X-X{.3X{.-X1X|.1X1X1X|.|.1X3X{.1X|.-X1X{.|.;X|.{.).{.|.{.|.{.{.{.{.;X;X|.|.;X{.;X{.{.{.{.{. X;X|.;X|.{.3X3X{.{. X;X;X}.-X{.-X{.-X-X).-X{.(.{.{.{.{.(.).)._.).).).{.(.[.[.].}.}.}.}.~.}.~.(.{.{.OX(.{.}.).~.~.~.~.^.~.^.}.{.}.{.[.[.(.OX(.(.OX(.(.(.(.(.(.K.[.(.K.].[.(.(.[.(.J.(.J.K.(.J.K.~.~./.~.(.~.(.(.(.(.~.~.K.J.~.J.J.J.J.J.J.J.Z.J.~.J.J.J.J.J.J.J./.K.~.J.J.J.Z.G.J.J.}.~.K./.~.J.K.L.H.J.J.L.G.J.L.J.K.P.L.P.P.G.Z.G.V.Z.A.A.J.Z.G.G.Z.A.A.G.G.G.G.L.G.P.J.L.L.G.G.J.G.G.L.P.G.G.G.A.G.G.",
"m.m.c.x.x.x.k.x.3.x.<.3.<.3.3.<.3.h.3.3.3.x.x.3.2.2.3.x.m.v.v.v.c.v.c.c.v.c.b.c.n.c.b.b.b.b.m.b.b.x.m.c.c.m.b.c.c.c.m.v.v.v.v.x.B.c.n.B.B.n.n.n.n.m.b.n.b.n.m.D.D.D.D.F.D.b.D.n.n.n.n.C.n.D.D.n.U.B.v.B.v.n.B.B.U.B.B.v.Y.B.B.U.n.B.B.U.Y.B.Y.Y.Y.B.U.Y.I.R.R.I.R.Y.B.Y.I.Q.Q.Q.Q.Q.Q.Q.Y.Y.I.Y.U.U.I.U.I.I.I.R.Y.n.Q.Y.Q.!.E.Q.I.!.Y.!.I.!.I.!.Y.!.I.!.Q.!.!.^.'.^.^.'.!.'.!.!.!.^.!.R.!.!.!.!.!.!.!.^.'._.!.'.'..X'.'.^.R.'.T.T.T.^..X~.T.^.T.T.^.~._.^.~._._.^.^.)._.).^.).).).^.).).).).{.).{.{.+X).).).).(.).(.).{.{.(.).).{.).}.{.).{.{.}.{.).{.|.).1X{.`.{.|.{.|.{.#X1X1X1X`.#X#X).|.`.|.`.1X-X{.-X{.{.{.{.{.{.{.}.|.}.|.).|.|.1X`.2X X#X#X X1X`.|.1X|.|.1X1X|.1X|.1X|.1X|.-X|.-X1X{.-X{.1X1X|.|.;X|.{.-X;X X3X|.1X|.1X{.1X`.-X1X-X1X#X-X1X1X1X3X1X1X1X1X1X3X1X|.1X1X1X+X1X1X1X1X1X{.{.3X-X|.;X|.|.3X-X3X3X3X1X3X3X|.1X3X;X|.1X{.-X{.3X{.-X1X{.{.{.{.-X{.{.;X{.3X1X|.3X3X3X;X3X|.;X X;X{.3X;X|.;X|.|.-X{.{.3X{.;X{.|.{.{.-X{.;X{.{.-X{.).-X).+X{.{.{.{.).#X).+X+X).-X{.(.}.[.(.[.~.}.~.}.(.).).).}.(.).}.}.(.^.~.~.}.}.^.{.{.{.{.-X{.(.OX(.(.(.(.(.~.(.J.(.~.].(.~.K.(.].K.[.J.(.(.~.K.(.J./.(.(.~.(.K./.(.~.(.J./.Q.(.~.J.J.J.}.}.J.~.].~.J.J.~.~.~.~.~.~./.H.J.J.J.G.J.J.J.J.J.K.J.~.K.K.J.J.J.J.G.K.K.J.K.P.P.J.G.G.G.G.V.G.G.G.P.J.A.Z.Z.J.Z.G.G.G.G.L.G.G.J.J.L.G.L.G.J.P.L.L.L.G.K.G.P.G.G.G.",
"m.b.c.c.z.x.l.x.x.c.x.3.x.3.h.3.<.3.4.3.4.U.3.x.3.3.2.U.4.U.m.3.v.c.v.x.x.m.b.b.n.b.m.m.m.b.m.b.b.m.m.v.m.m.c.m.c.b.c.c.c.c.v.c.V.B.H.C.C.C.n.C.n.m.m.m.n.n.m.D.D.D.D.D.D.n.n.n.n.C.E.n.n.E.D.n.C.n.B.c.B.B.B.b.B.n.v.V.v.v.B.B.B.n.U.B.Y.B.U.Y.Y.U.R.I.R.Y.I.R.Y.R.U.Y.I.Q.Q.!.Q.Q.Q.Q.Q.C.I.Y.B.Y.Y.Y.Y.C.C.Y.H.Y.Y.Q.Q.Q.E.!.Q.E.!.Y.E.!.R.Q.!.!.I.!.!.^.!.^.^.'.'.'.'._.'.!.'. X X3.!.R.'.R.'.!.'.'.'.R.^.^.'..X^.^.R.^.'..XR..X^.T.^.^.~.~.^.^.~._.'._._.`.).)._.).^.'.^._.).^.).).).).{.{.{.{.).{.}.(.}.^.(.}.).}.).(.(.^.(.).}.).).|.).|.|.1X).|.`.|.1X1X|.|.`.|.1X1X$X$X1X`.$X`.|.`.`.|.1X).1X-X{.{.{.[.}.{.}.{.).{.|.}.|.).1X1X1X1X$X`.#X$X|.`.1X).1X|.1X1X{.1X|.-X|.1X1X|.1X|.`.-X|.|.|.|.|.1X|.1X1X{.1X3X1X1X1X|.|.|.#X-X1X#X1X+X1X#X1X7X1X5X1X1X5X1X1X1X1X X#X1X#X{.1X1X-X-X{.3X{.{.-X3X{.3X3X3X|.;X;X|.1X1X3X1X3X1X3X|.|.;X|.-X|.;X1X{.{.{.{.{.{.{.|.{.|.-X3X1X3X1X X;X3X;X;X|.{.{.;X3X3X}.;X;X{.;X{.;X{.{.{.|.{.[.{.[.-X{.-X).-X-X+X{.-X).+X-X).-X+X`.`.`.).{.).[.}.(.}.}.(.}.~.~.(.(.{.(.).}.(.(.^.~.^.}.^.}.~.}.{.[.[.{.=X[.OX(.(.K.(.(.~.].J.(.(.(.].].K.(.[.(.~.K.(.J.[.K.K.J.(.J.[.J.K.(.~.}.(.J.(.J.J.~.(.J.~.].].J.[.J.J.(.(.J.(.~.~.(./.(.K.Q.J.J.G.Z.A.G.G.J.J.J.K.J./.J.J.J.J.L.L.J.K.L.G.L.L.J.P.L.G.G.G.G.G.G.A.G.A.A.J.A.G.G.G.G.G.A.G.G.J.J.J.P.J.G.J.P.J.J.G.J.G.J.G.G.V.G.P.",
"n.m.m.c.c.x.b.x.c.x.h.h.k.<.,.3.2.4.2.3.3.3.2.2.U.2.2.U.U.2.U.3.v.c.m.m.x.m.m.n.c.m.m.b.b.n.n.n.m.b.c.b.m.c.b.m.c.c.m.v.v.b.v.V.c.N.b.V.n.C.n.n.n.n.n.n.m.n.m.D.D.D.D.D.D.n.m.I.D.n.D.I.E.n.n.H.B.B.B.v.v.b.B.n.N.B.B.B.B.B.B.b.v.B.B.Y.B.Y.Y.Y.Y.Y.I.R.I.!.!.R.R.U.R.U.I.Y.E.Q.E.Q.H.E.Y.Q.Y.Y.U.Y.n.B.C.C.C.C.H.n.H.Y.Q.Q.!.Q.!.Y.Y.!.Q.Q.I.!.I.Q.Y.Y.Q.!.!.!.!.!.!.W.!.W.!.!.'.3.'.'.!.R.R.'.R.'.R.R.R.'.'.^.^.'.'..X^.^.R.!.^.R.R.^.^.R.!.^.^.^._._._.W.+X_.'.).`._.)._.'.^.).).^.).}.{.).{.{.{.{.).).{.).).}.).).}.).}.}.).{.{.).).).{.{.`.).|.-X|.1X`.`.|.|.|.1X|.#X1X1X1X2X$X2X X`.1X`.`.1X{.-X{.{.[.).}.}.}.{.{.{.|.{.|.{.1X#X1X#X1X`.2X$X|.1X1X#X|.-X-X{.{.{.{.{.-X{.{.|.-X{.1X1X|.|.1X1X#X1X|.|.1X1X|.3X1X1X|.|.-X|.1X1X-X1X-X1X1X-X-X1X1X5X1X1X5X1X1X1X X|.1X1X1X1X#X1X1X-X1X{.3X{.3X{.{.3X-X3X-X3X|.3X|.3X|.|.1X1X3X-X-X3X1X3X{.1X|.|.-X-X{.{.).1X{.-X1X{.3X{.3X|.;X;X;X|.{.{.;X{.;X X{.;X;X|.{.{.{.{.{.{.;X;X;X{.{.{.-X{.-X-X-X{.-X{.-X`.-X-X).).#X#X`.#X).).(.).(.~.[.~.[.}.~.}.~.).{.(.-X{.}.{.(.~.}.}.~.).}.}.^.}.}.}.[.[.(.[.OX(.(.=X(.[.(.[.~.K.[.~.(.~.(.J.K.K.(.K.[.(.(.(.].(.(.~.(.(.(.[.K.[.~.~.[.K.~.(.].J.J.J.].J.(.(.J.~.K.~.J.~.Q.~.J.~.J.J.H.J.K.G.G.Z.J.J.J.J.J.~.J.L.J.K.J.J.L.J.K.J.K.P.L.J.P.J.G.J.G.Z.J.Z.J.J.A.A.G.A.V.V.V.G.G.A.J.P.A.J.J.Z.G.G.J.Z.G.J.A.G.Z.V.G.G.G.V.",
"n.m.m.m.m.x.x.x.c.k.h.x.x.<.x.x.2.2.4.4.4.3.4.2.2.2.U.4.%.U.3.m.m.m.c.x.x.m.c.m.m.m.c.m.m.m.m.m.m.n.m.m.m.b.m.c.m.n.c.b.c.b.c.b.c.M.c.b.b.n.n.b.n.n.n.n.n.n.I.I.E.D.D.E.I.n.U.n.U.U.I.I.n.E.E.B.H.C.n.n.V.b.B.B.n.B.B.n.n.V.B.b.v.n.n.B.Y.Y.Y.Y.Y.Y.U.Y.R.R.E.R.Y.U.R.R.Y.Q.Q.Q.Q.Y.H.Q.C.Q.C.C.C.B.C.C.C.C.C.C.C.H.Q.Q.Q.Q.!.Q.E.Y.I.Y.Q.Y.Q.Y.Q.Y.Q.Y.Y.Q.Q.!.!.W.!.'.'.!.!.!.'.3.3. X X3.R.'.^..X.X^.^.^.^.^.'.^.'.^.^.^.'.^..X^.^.^.^.^.^.^._._.)._._.#X#X'.`.`.'.'.'._.^._.^.|.).{.}.).{.{.}.).).{.{.{.}.{.{.[.{.(.}.(.}.(.{.).|.).|.).).{.`.|.`.`.`.|.#X|.|.|.1X1X1X2X#X$X$X2X$X$X X$X X`.#X-X-X+X{.{.}.}.}.}.{.}.}.{.{.|.-X1X-X1X#X1X2X#X`.2X#X#X#X-X1X1X{.{.{.{.{.{.{.).1X{.1X|.|.2X2X`.|.1X`.1X1X1X1X1X|.1X1X2X1X|.`.1X1X#X1X1X1X1X#X1X1X1X5X1X1X1X5X1X X X2X`.#X|.1X).-X1X{.-X{.{.{.3X|.;X{.3X{.3X{.1X1X-X{.3X-X3X1X|.|.1X-X|.|.1X3X|.-X|.1X).).|.`.{.|.|.|.{.|.1X-X|.|.|.|.;X{.;X{.|.{.;X{.;X;X[.;X{.{.;X;X[.[.{.{.;X-X-X-X-X-X-X-X-X-X+X-X+X-X@X-X+X#X#X`.).).(.(.}.~.}.J.}.}.}.}.}.(.).).{.).).).}.^.).).}.^.}.}.~.}.}.}.}.{.(.(.(.OX(.[.OX(.[.(.K.(.~.(.~.].(.J.(.J.J.[.K.].K.J.J.(.[.[.[.[.[.[.[.[.].].[.J.[.[.K.[.].K.J.[.J.~.J.(.~.~.(.~./.~./.K.Q.J.J.J.J.J.J.G.G.J.J.J.J.Q.J.J.H.J.J.J.K.K.G.].G.L.G.G.L.G.G.P.Z.P.Z.J.Z.A.G.A.A.A.V.V.G.Z.G.G.Z.J.J.J.J.J.G.J.G.G.J.G.G.G.G.G.G.G.G.G.",
"m.b.b.c.m.m.x.b.m.x.c.x.h.x.c.h.2.4.4.2.4.4.2.3.2.2.2.2.3.2.3.2.m.m.m.x.x.x.m.m.m.m.x.m.m.m.n.m.m.m.m.m.c.m.b.n.c.c.b.v.b.c.V.c.c.b.V.V.V.C.b.H.n.m.m.n.n.n.I.D.t.E.n.D.n.U.v.v.B.v.Y.U.Y.U.U.U.n.B.B.V.v.B.n.N.n.B.b.B.B.n.C.B.v.n.Y.n.I.B.Y.R.v.Y.Y.I.I.I.R.I.Y.U.R.I.I.Q.Q.Q.Q.Q.Q.Q.Y.H.C.Y.B.C.C.C.C.C.Z.C.C.H.Y.~.Q.Q.Q.!.Y.Q.Y.Q.Y.Q.I.Q.Y.Q.Y.E.Q.Y.Q.!._.#X_._.'.W.'.!.'.'.'. X3.'.R..X.X^.R.R.^..XT.^..X'.'.^.^.^.!.!.^.^.R.^.!.^.^.'.!._._._.#XW.@X_._.'.'._._.'._.^.).).).).).{.).}.{.{.[.{.{.{.{.}.{.}.[.{.}.{.}.(.}.|.).).^.).).).`.`.).`.`.`.`.|.`.|.2X|.2X#X2X2X$X2XgX`.$X`.`. X|.-X{.{.{.[.[.[.}.}.}.{.{.{.}.|.`.).1X#X2X#X#X1X#X#X#X1X1X`.-X-X;X[.{.;X{.{.{.{.{.|.{.1X|.1X1X1X`.1X2X|.1X|.|.2X1X|.`.2X|.#X|.`.#X1X1X5X1X1X1X1X1X1X#X1X1X1X1X1X`.`.$X|.#X1X#X1X1X1X-X|.{.{.;X{.{.|.3X{.1X;X|.1X{.{.1X{.1X{.1X3X1X|.1X|.3X1X3X1X1X|.|.1X).{.-X|.{.1X1X|.-X|.;X|.;X{.{.{.|.|.-X{.;X}.;X{.{.;X{.{.[.{.}.{.;X{.{.[.-X-X{.=X-X+X{.+X-X-X+X1X-X1X-X1X1X`.-X(.).(.(.[.J.].].J.J.[.].}.).[.).).}.).}.(.}.).}.}.}.{.}.}.[.[.[.[.[.[.=X(.(.=XOX=X[.[.~.[.(.(.(.(.(.J.(.J.(.K.(.[.[.].[.K.J.J.[.].[.[.[.[.}.[.(.[.[.].~.[.[.].[.[.[.[.[.K.(.K././.~.~.Q.J.Q.~.J.J.K.J.J.G.J.K.J.J.J.J.H.H.H.K.L.J.J.G.J.K.P.J.L.K.G.P.G.P.G.Z.J.L.A.G.A.A.A.V.V.A.P.A.G.G.G.G.P.J.L.J.Z.G.G.J.A.G.A.G.G.G.G.G.G.G.G.",
"m.n.m.n.n.m.x.x.x.b.b.c.c.c.c.c.3.3.3.3.3.<.<.3.<.3.c.<.<.3.h.x.m.m.m.c.m.m.c.m.m.n.m.m.n.n.n.n.n.m.m.v.v.c.m.m.n.b.m.b.b.n.b.b.b.c.b.N.b.C.C.n.n.D.m.n.m.E.E.I.E.I.U.v.v.v.U.U.3.R.U.R.U.R.U.U.n.n.b.B.v.V.V.n.C.C.n.C.B.B.C.n.v.v.v.n.B.v.n.n.Y.U.R.E.E.Y.Y.Y.I.!.R.E.Y.Q.Q.Q.Q.H.Q.H.n.Y.C.C.C.C.C.Z.C.Z.Z.C.C.C.C.Y.Q.Q.!._.!.Q.Q.Q.^.Q.Q.Q.Y.Q.Y.Q.Q.Q.~.!.!.)._.)._._.^.~.'.3.^.T..XR.^..X.X.X.X.XR.^.^.^.^.^.^.^.^._._.!.'.^.^.^.'.^.!.!._._._._._.'._._.#X'._.'.`.'.'.).^.^.^.).^.).{.{.{.{.{.^.{.{.{.|.{.{.}.}.}.}.}.{.).|.).).|.{.`.^.|.`.`.1X`.`.`.`.`.|.|.1X$X2X2X6X$X2X$X2X2X`.`. X#X{.-X-X}.}.~.(.}.}.{.{.}.{.}.|.).1X#X{.1X#X1X#X`. X#X2X#X1X#X{.|.[.;X[.{.{.;X|.|.1X|.|.1X2X|.2X2X`.2X#X2X1X2X2X2X1X2X`.2X`.|.1X1X1X2X1X5X2X1X1X1X`.+X1X$X1X5X1X2X`.`.`.2X2X#X1X-X1X{.1X{.-X{.{.3X|.{.-X{.{.1X|.;X;X|.-X|.|.;X1X3X3X1X|.1X1X|.{.3X1X|.1X-X|.{.).1X1X{.1X{.1X1X1X{.|.-X|.3X{.{.{.}.{.{.[.{.{.{.{.{.{.{.{.-X|.{.;X-X-X-X-X-X-X-X{.).-X+X+X1X+X).-X).OX).-X[.[.[.].].].}.].].}.].}.(.).).).(.{.).{.}.).}.}.).}.}.}.[.}.}.}.[.[.[.=XOX].].OX[.[.[.(.(.(.J.J.(.(.}.K.K.[.(.(.[.(.[.K.[.}.~.}.[.}.[.[.}.[.[.J.~.].J.[.(.[.(.[.(.[.(.[.J.~./.~.(.(.J.Q.J.~.K.~.J.J.J.J.G.Z.J.H.J.H.Q.J.H.L.H.J.J.J.L.G.K.G.G.L.L.P.J.G.L.G.J.K.J.J.J.A.A.A.A.P.A.G.G.G.A.G.Z.J.J.J.P.G.J.K.J.G.J.G.J.G.G.G.G.G.Z.",
"n.m.n.n.m.m.m.c.m.b.b.m.c.m.c.h.c.5.3.<.N.5.3.<.N.c.<.3.<.k.c.c.m.b.m.m.m.m.m.m.b.m.m.n.n.m.n.n.n.v.n.v.c.n.v.v.b.m.c.b.b.b.b.b.b.N.b.b.b.b.n.D.n.n.D.n.E.n.E.E.E.U.v.U.v.U.U.3.3.R.3.R.U.U.R.U.B.B.B.n.B.B.n.C.C.C.C.C.C.b.B.V.n.n.n.v.n.B.v.Y.n.I.I.I.R.Y.I.U.R.R.R.R.!.!.Q.Q.Q.Q.Q.C.Q.C.C.Y.R.C.Y.Z.C.J.C.Z.C.H.C.H.Q.Q.!.Q.^.Q.~.Q.Y.Q.!.Y.Q.Y.Q.n.Y.Q.Q.Q./././././.~.Q.~.'.'..X^..X.X.X.X^.R.R.^.R..XR.T.^.^._.^.'._.).!.'.^.^.^.'.!.^.'.^.^.!.'._._.'._._.'.'.`.'.).`.`.).).).^.).}.).{.^.{.^.}.}.{.}.{.{.{.{.).~.}.}.}.{.).|.).).).).{.`.).`.{.#X`.`.`.|.|.`.1X1X1X$X1X2X$X2X$X`.2X`.`.).).{.).{.{.}.[.}.}.;X{.|.|.|.}.|.-X1X).#X1X2X`.|.`.1X`.1X`.-X1X|.;X{.{.{.{.{.{.).|.1X1X X$X2X$X|.1X|.2X$X2X`.2X X2X2X#X`.1X X`.1X1X1X5X1X1X1X1X-X#X1X#X1X1X1X2X2X2X2X`.$X`.#X#X#X|.1X-X{.3X|.|.|.-X|.{.|.-X|.;X|.1X3X|.;X|.{.{.|.1X3X1X{.1X1X1X1X1X1X{.|.1X|.1X|.|.-X|.1X1X|.1X{.-X{.3X;X{.3X{. X{.{.;X|.{.;X{.;X{.;X{.{.{.{.;X-X-X-X-X+X-X-X-X-X+X-X+X+X-X+X-X).).-X[.[.[.[.].].].].].].].}.[.(.).).).}.).}.).}.).}.}.}.}.}.}.}.}.K.[.(.[.=X=XK.(.(.=XK.(.(.].[.K.[.(.~.].(.(.(.(.[.=X[.[.(.(.[.J.].[.].}.K.}.].}.J.}.].~.}.[.K.(.[.[.[.[.J.(.K.Q.~./.~./.L.~./.Q.J.J.K.J.J.J.J.L.J.J.~.J.J.J.H.J.L.J.J.L.L.K.G.K.P.L.G.P.G.G.P.Z.G.Z.G.Z.A.A.J.G.A.A.G.A.G.V.K.G.J.G.J.G.Z.J.G.A.G.G.G.Z.G.A.G.G.G.G.G.",
"m.n.n.m.n.m.m.n.c.v.c.c.c.x.x.2.x.3.3.x.<.h.<.j.<.<.j.h.h.c.c.l.m.m.n.n.n.m.m.b.n.m.n.n.n.n.n.n.n.v.v.b.m.m.c.b.b.c.m.b.b.b.n.c.m.b.b.b.b.V.H.V.D.m.D.n.D.I.E.I.I.U.n.v.U.3.3.R.3.3.U.v.R.3.R.R.C.B.C.V.B.C.n.B.B.C.n.C.B.n.n.B.B.Y.Y.n.B.n.n.U.U.Y.U.I.I.I.I.Y.R.I.!.R.I.Q.Q.E.Q.Q.Q.Q.Q.Y.Y.Q.C.C.Y.C.T.Z.C.C.H.C.C.Y.Q.Q.Q.Q.Q.Q.Q.Y.Q.Q.Y.Q.Q.Y.Y.Q.Q.Q.Q.Q.Q./.L./.~.~.~.Z..X.X^..X.X.X.X3.T..X.X^.^.^.T.^.^.!.^.^.!.^.!.^.^.^.}.^.'.^.^.^.'.!.!.^.!._.'._.'.'.`.'._.`.).'.`.).).).).{.{.{.{.^.^.^.^.{.{.{.}.}.{.}.}.}.{.}.{.{.).{.).{.`.{.).|.{.|.|.|.`.#X`.|.|.{.#X1X1X1X#X1X$X2X$X X`. X|.-X1X{.-X{.{.{.{.;X X{.{.|.}.|.{.|.|.|.|.`.`.`.|.|.|.|.{.1X{.{.{.|.{.|.{.{.|.{.`.1X`.2X$X$X X X1X|.2X`. X$X2X2X$X2X$X X1X`.#X|.1X#X1X#X$X#X1X#X1X#X$X1X1X1X2X1X2X2X2X2X#X`.#X1X#X-X1X1X1X-X|.;X|.1X1X{.{.1X3X{.{.3X{.1X|.;X;X|.|.1X|.1X3X X1X X1X1X1X|.|.).`.1X`.|.|.|.|.{.1X{.-X|.{.1X{.1X-X{.|.;X{.;X{.;X|.|.{.|.{.{.{.{.{.-X{.-X-X{.|.-X-X-X-X-X-X-X-X1X1X).{.=X{.=X-X=X[.[.}.].}.].}.].}.}.{.).).).).}.).).).}.}.~.}.}.}.~.[.}.[.[.[.[.=XOXOXK.(.K.K.}.].~.(.].K.(.K.(.].K.(.[.[.[.[.[.(.[.[.[.~.[.}.(.}.(.[.}.[.J.~.].~.].[.(.}.(.(.(.(.K.~.K.~.J.~.K.~.H.~.J.~.J.J.H.J.J.G.J.J.J.H.J.Q.J.H.H.J.H.J.J.G.K.K.L.K.J.J.L.P.J.G.G.G.G.G.A.V.A.Z.Z.Z.Z.G.G.Z.P.J.P.J.J.J.J.J.J.Z.P.A.G.G.G.Z.G.G.G.G.G.P.",
"n.m.m.c.m.n.m.v.c.m.m.c.c.x.2.h.,.2.,.2.<.<.<.<.1.>.1.<.h.k.l.x.b.b.b.m.b.b.m.b.m.c.n.c.n.v.n.c.v.c.m.m.v.v.v.b.n.b.n.b.b.m.b.m.b.c.b.m.n.b.b.D.D.H.D.m.D.D.E.I.I.n.v.n.U.U.R.3.v.B.B.B.U.R.U.U.C.b.n.B.C.n.C.B.C.C.C.B.C.C.C.C.B.Y.Y.n.Y.Y.Y.n.U.B.R.I.I.R.U.R.R.R.R.Y.Y.Q.Q.Q.E.Q.Q.Q.Q.Q.Y.C.R.Z.Y.Q.C.Y.J.C.H.H.H.C.Q.H.Q.Q.Y.Q.Y.Q.Y.Y.Q.Y.Q.n.Q.C.Y.Q.Q.~.H././.~./.J.Q.~..XR..X.X'..X.X'..XT.T.T..X^.^.T.^.^.^.^.^._.^.^.'..X'.'.^.^.^.'.^.^.R.'.'._._.'.#X'._.'.`.`.`.'.`.^.|.^.`.).).`.|.{.|.|.|.{.|.{.{.}.}.}.}.[.}.}.{.).{.).|.).|.).`.{.`.).`.`.|.{.`.|.`.|.1X#X#X#X#X#X1X`.`.`.`.`.+X`.{.-X{.{.-X{.;X}.;X{.{.|. X|.|.{.1X).`.|.`.`.|.|.|.|.|.`.1X{.{.;X{.;X1X1X{.3X2X|.2X`.2X X$X2X1X1X|.1X1X X`.2X2X|. X#X1X1X|.1X|.`.1X1X1X1X#X|.2X1X1X1X2X1X2X1X2X2X2X`.2X2X#X1X1X+X1X1X|.|.|.|.1X1X|.1X|.|.-X1X1X{.;X|.;X|.|.;X1X1X{.1X1X1X1X1X3X3X|.1X|.-X|.|.1X|.-X|.1X|.1X|.|.{.|.-X|.-X|.1X|.{.}. X{.{.;X-X;X3X{.;X1X{.{.{.{.[.).-X{.-X{.-X{.-X-X|.-X-X-X1X).-X-X{.[.[.[.[.].}.].}.}.}.}.^.).).).).).^.).(.}.).}.}.(.}.}.}.[.}.[.(.[.}.].OXK.[.K.OXK.K.(.].[.].K.].].(.(.[.[.(.[.(.-X(.).}.}.(.[.~.(.[.J.}.(.[.~.~.J.~.~.~./.(.~.(./.(.~././.(./.(./.~./.L.J./.H.J.J.J.J.G.J.K.J.J.J.H.H.J.J.G.L.J.J.J.K.G.J.J.K.P.P.J.K.J.G.G.A.G.Z.G.Z.A.Z.G.Z.G.J.G.G.J.J.J.J.L.J.J.P.J.J.J.K.J.J.L.G.L.J.G.L.G.J.",
"m.v.v.m.v.m.v.v.x.v.v.3.3.3.3.2.2.2.x.4.3.h.,.j.>.j.h.h.h.x.x.b.n.c.m.b.c.m.b.b.c.v.b.v.v.c.n.c.v.c.c.v.n.c.m.c.c.n.b.n.m.m.m.m.m.m.b.b.b.n.b.H.F.n.F.D.D.D.D.D.n.n.n.F.B.B.n.B.n.B.B.B.B.n.n.C.n.C.I.H.C.n.Y.n.C.n.Y.n.n.D.Y.Y.Q.Y.Q.Q.Q.C.Y.n.Q.n.Y.Q.I.I.I.I.I.I.R.R.Q.C.Q.Q.Y.Q.I.E.Y.Q.Y.Y.R.R.I.Y.Y.C.H.C.Q.Q.C.J.Q.Q.Q.Q.Q.Y.Y.Q.Q.C.Q.Q.C.Q.I.Q.Q.Q.Q.~.Q.~./.~.~.~.Q.~.^.R.R.R..X.XR.'.T.T.}.T.T.T.^.T.^.^.T.^.^.^.^.^.^.^.^.^.^.^.^.^.R.'.'.'..X'.R.'._._.#X'.`.).`.`.`.`.`.`.`.`.`.).|.^.|.{.|.{.}.|.).).}.}.}.}.|.{.(.{.[.).{.{.{.{.|.{.).`.).|.|.1X|.|.{.`.`.1X+X1X1X#X#X|. X$X|.|.).-X`.-X;X|.{.|. X X{.;X X}.|.}. X}.|.'.|.'.|.'. X|.|.|.}.|.|.{.{.|.1X`.1X X1X X2X`.2X2X2X$X2X2X1X X1X1X|.2X#X2X|.2X1X1X1X1X|.|.1X X1X|.2X|.$X X|.|.2X|.|. X X X2X2X1X1X1X2X#X1X$X1X1X#X`.1X|.1X1X|.|.1X1X|.;X|.{.1X;X|.;X|.;X X{.1X1X|.1X1X1X3X1X1X|.1X{.|.1X{.{.`.1X{.|.1X|.1X{.|.{.1X{.{.{.{.{.;X|.-X|.{.{.{.|.3X{.-X|.{.{.{.+X{.{.=X{.-X{.{.1X{.|.-X1X-X-X|.+X-X{.-X-X[.[.-X;X;X}.}.|.|.^.{.).).+X).).^.).~.^.}.~.}.}.[.}..X].}.[.[.[.[.(.(.K.=XK.(.(.(.].J.[.].].K.K.].].(.(.[.(.(.).(.).(.}.}.}.~.}.}.~.}.~.~.}.~.~.~.}.~.~.(.).~./.(.~.~.}.(.(.J.J.K.~.J.~.J.J.J.J.J.J.J.J.J.J.J.J.J.J.H.J.H.J.L.J.H.G.L.L.L.L.P.].P.L.P.G.A.G.G.V.V.A.G.A.J.A.Z.G.G.G.J.L.].L.L.J.].L.G.K.J.K.L.L.J.G.G.G.K.G.K.G.",
"n.c.x.c.m.v.2.v.x.3.c.x.x.3.2.2.2.2.m.v.c.x.x.x.k.k.h.x.x.m.b.b.b.b.b.b.n.c.c.c.c.c.c.c.c.B.c.B.V.v.c.c.c.b.c.n.b.b.m.m.b.v.m.b.v.n.v.m.b.b.b.b.b.H.F.C.D.m.n.D.D.F.D.D.n.n.C.n.B.n.n.C.D.H.n.b.Q.n.Y.n.I.C.n.Q.I.Q.n.C.Q.C.Q.n.n.Y.C.Q.Y.Q.I.I.Y.Q.E.Y.!.Y.Y.I.I.R.U.Y.Y.Q.E.Q.E.E.Q.E.I.Q.E.Y.I.R.Q.Y.Y.~.Y.T.Z.H.C.Y.H.Q.Q.H.Q.Q.~.Y.Y.Q.Q.Y.Q.Y.Q.Y.Y.Q.Q.Q.~./.~./.~.Q.^.~.R..X'..X'..XR..X^.~.^.T.^.^.T.^.R.^.T.^.T.^.~.!.~.^.^.^.^.^.^.^.'.R..X^.'.^.'.'.'.'.#X'.`.`.`.`.`.`.|.`.`.`.`.`.'.'.'.^.!.^.'.}.^.}.).{.|.}.}.^.}.{.{.{.).{.{.{.).|.).{.).).{.{.{.{.|.{.-X|.1X`.+X+X|.#X`.`.`.|.1X|.1X).|.{.;X;X}.{.{. X X|.|.|.}.|.'.|.`.|.'.|.'.|.'.|. X|.}.|.|.1X|.1X1X1X1X1X`.2X2X2X2X X$X`.1X1X1X1X1X1X X#X2X1X X|.|.1X-X1X1X|.2X X|.2X X X2X|. X|.|. X|.2X2X|.2X|.1X#X1X#X2X1X#X1X|.|.`. X{.3X3X1X1X1X|.-X{.{.|.{.|.;X|.3X1X1X1X|.|.3X1X3X1X X1X1X{.1X|.|.1X{.`.|.1X).-X|.|.{.|.-X|.-X{.{.|.|.{.1X|.1X1X|.;X|.1X|.1X|.1X{.{.-X-X{.-X{.-X-X{.-X-X1X{.1X{.-X1X{.+X{.).{.-X).}.}.{.|.'.`.|.'.#X1X`.).{.).}.).}.~.}.~.~..X].~..X[.[.}.[.[.=XK.(.K.(.K.~.].(.].].].].].].].(.[.[.(.(.(.(.(.(.).(.}.~.}.~.}.}.~.}.}.~.}.}.~.~.~.(./.(._._././.(.(.(.(.K.K.J.K.K.J.J./.J.J.J.J.P.J.J.J.G.J.G.H.J.J.J.K.J.J.J.J.G.L.J.L.L.L.J.L.G.A.P.V.b.V.V.V.A.A.P.G.A.Z.G.J.J.J.P.L.J.J.P.G.L.G.P.G.G.G.G.G.G.G.G.G.J.G.",
"U.3.v.x.m.2.2.U.3.v.m.4.x.3.3.2.U.m.v.m.x.m.z.c.x.b.x.x.m.z.b.m.c.m.c.b.c.c.b.c.c.3.c.v.c.c.5.v.N.b.c.N.v.c.m.c.m.n.b.m.m.m.c.m.n.m.m.m.m.D.b.H.b.n.n.G.D.F.F.F.F.F.F.D.F.D.D.D.C.D.D.D.D.H.D.D.Q.n.Y.n.Y.D.I.Y.C.I.I.Y.n.Y.Y.I.C.Q.I.Q.Q.Y.I.H.Y.Q.!.Y.Y.E.E.Y.Y.Y.C.C.Q.I.Q.Q.n.Q.I.!.!.I.R.E.R.!.Y.!.Q.Y.Y.C.H.T.Q.C.C.Q.Q.~.~.Q.Q.Q.Q.Y.Q.Y.Y.Q.Y.Q.Q.~.Q.Q.Q.Q.Q.~.Q.^.^.R.'.R.'.'.'.R.'.'.^.R.T.^.~.R.T.^.R.T.T.T.^.T.T.~.~.~.~.~.^.^.^.^.R.'.'..X^.'.^.|.'.).`._.`.).`.`.#X`.1X`.`.`.'.).'.'.'.R.^.^.^.^.^.}.{.}.}.}.}.}.{.{.}.{.{.{.{.1X{.{.{.{.{.{.{.1X|.{.{.{.{.-X1X1X1X{.-X`.|.1X|. X#X#X+X1X{.{.;X|. X{. X{.|.|. X}.'. X X.X'.'.}.'. X'. X'.'.|.|.|.|.1X`.2X$X1X2X2X2X2X2X$X X$X2X|.3X-X1X|.1X|.|.2X`.#X1X1X{.1X|.-X1X X X X X X X|.|.|.`.|.|.|.|.|.|.|.|.1X1X1X2X$X1X$X1X#X`.1X X`.1X1X1X1X3X3X|.|.1X{.3X;X;X|.3X;X3X1X|.3X1X1X1X|.3X1X X|.|.{.|.+X`.|.).{.|.|.|.|.-X|.|.|.{.{.{.|.-X|.1X|.1X|.1X|.|.|.1X|.1X1X1X{.|.;X{.-X|.;X|.;X{.-X{.-X|.{.|.-X+X1X`.-X).{.1X{.|.{.|. X`. X`.`.1X#X).|.{.).).}.~.~.~.}.}.J..X]..X].].}.(.].].].].K.K.=X[.J.].].].].].].[.].[.(.(.(.(.).).).).).).~.}.).~.}.}.(.~.^.}.^.~.~.~.(.)._._.).).(.(././.K./.K.K.K.K.(.~.(.~.J.].J.J.J.J.J.J.J.G.K.J.J.J.K.H.J.J.K.J.L.J.J.P.G.P.G.G.G.G.A.V.V.V.A.V.A.A.A.G.V.G.Z.G.G.J.L.P.L.G.G.G.G.G.G.G.P.P.G.F.G.G.G.G.G.G.",
"n.m.m.x.4.m.2.3.2.3.3.3.3.2.3.2.2.m.m.m.x.x.x.l.x.x.m.z.z.x.x.c.m.b.b.m.c.v.c.c.x.3.3.c.5.3.c.c.n.B.c.c.c.c.c.c.n.n.n.b.m.m.x.m.m.m.n.m.b.b.n.V.F.F.b.D.D.D.m.F.F.D.D.G.D.D.F.C.D.D.G.G.D.D.D.D.H.Y.I.Q.Y.n.Q.I.H.I.n.Q.Y.Q.E.H.n.n.Q.Y.Q.H.Y.Y.!.Y.Q.!.!.Q.Y.Y.B.B.R.Y.C.Q.Y.Q.n.I.E.I.U.R.E.R.I.R.!.Y.^.Y.Q.C.Y.H.C.H.H.Q.Q.Q.Q.Q.Q.Q.~.Q.~.Q.H.Y.Q.C.Q.Y.Q.~.Q.Q.Q.Q.~.Q.^.R.^.^.R.'.R.'.'.R.^.^.R.~.^.^.^.^.Q.Y.T.T.T.~.T.~.~.~.~.~.~.T.^.^..X'..X.X'.'.}.'.`.`.'.`.`.`.`.`.`. X`.1X`.`.'.'. X'.'.^.'.^.^.^.'.'.}.{.|.}.}.'.}.).{.{.|.-X{.{.{.{.).).).{.{.|.-X|.{.1X1X-X).+X1X1X`.1X).`. X1X1X1X|.`.{.|. X{.{.{.{. X}.|.|.'.|..X}.|.'.'.|.|.'. X'.'.|.|.|.|.|.#X X$X X2X1X2X`.2X2X2X2X X2X1X|.3X1X3X X1X#X`.2X|.|.1X1X|.3X|.|. X2X|. X2X|. X X|.|.|.|.|.|.|.{.|.1X`.|.#X1X1X2X2X1X1X`.`.1X1X|.1X X1X1X1X-X|.{.-X{.|.|.;X;X|.|.3X1X1X1X|.|.1X1X1X1X|.1X|.|.|.|.`.1X|.|.-X|.+X`.{.-X{.-X|.{.-X|.1X{.1X{.1X|.-X|.1X|.-X|.{.|.1X{.|.;X|.|.-X{.{.{.{.|.-X{.-X{.|.1X`.+X).#X).).+X`.`.|. X`.2X$X2X1X1X#X1X{.).{.).}.~.].(..X}.}.}.J..X].].[.[.=XOX(.=X[.(.].].[.[.].].].K.].].].[.(.[.~./././.^.(.).~.~.^.}.).}.}.}.(.}.}.~.}.~./._.(.).).).(./.(.(.(.(.J.J.K.J.(.J.(.(.K.J.].].J.J.J.G.J.J.J.J.J.K.J./.K.K.H.L.J.P.].J.G.J.P.J.G.G.G.G.G.A.G.G.A.A.V.A.G.G.G.G.J.G.J.K.G.L.P.G.G.G.G.G.G.G.G.G.G.G.G.G.G.G.",
"m.m.m.b.m.x.3.3.3.3.3.v.c.3.3.3.x.v.v.x.c.x.x.h.h.x.x.x.x.m.x.z.b.b.m.m.b.b.c.3.c.3.c.3.c.c.3.c.N.c.b.v.c.v.b.c.c.b.m.m.c.m.c.c.m.m.m.n.b.b.V.n.F.l.z.b.b.F.m.F.b.D.n.D.D.D.n.n.n.D.D.H.E.H.E.D.C.E.n.Q.Y.B.C.I.Y.n.Q.Q.Q.Q.Q.H.D.H.H.Q.Q.Q.J.Q.Q.Y.Q.Y.Y.Y.Y.Y.Y.Y.R.Y.I.Y.I.Y.Y.I.I.I.I.!.!.I.I.Y.!.Q.Q.Q.Q.Y.Q.~.H.T.Q.Q.T.Q.Q.T.Q.~.!.Y.Y.Y.Q.^.Q.Q.Q.Q.Y.!.Q.~.Q.Q.^.~.~.!.T.^.!.R.'.!.'.R.'.R.'..XR.R.^.R.3.'.'..XR.'..X}..X.X^.^.R.R.^.^.R.'.^.^.^.^.'.^.'.'.'.'.'.|.|.'.|.1X|.`.#X`.).'.).'._.'.).).`.|.^.^.}.}.^.}.}.}.{.).|.{.|.|.{.{.|.).{.).{.{.-X1X1X{.1X{.1X|.1X|.-X|.`.|.`.|.1X2X#X1X#X1X`.|.1X).|.{.|.|.|.|.|.}.|.|.|.'.^. X'. X^.'.|.'. X|.'.|. X`.`.`. X X2X2X2X1X X1X$X1X$X#X1X1X1X3X1X1X1X1X|.1X1X|.1X X1X3X|.2X X2X2X1X X|.|.1X|.3X|.|.3X X X{. X{.{.|.{.;X|.{.|.1X|.1X).).1X|.1X|.-X|.1X{.|.{.|.{.{.|.|.;X;X{.1X{.{.|.|.|. X|. X|.'.|.}.|.|.|.|.|.{.|.|.{.|.{.{.{.-X{.{.{.;X|.|.;X1X{.|.1X|.{.|.{.|.{.|.}.;X-X1X3X-X1X{.{.-X1X1X{.-X-X|.-X+X|.-X`.1X).-X).1X+X1X|.1X`.#X#X`.1X`.).{.).}.{..X[.}.}.}.]..X}.].].}.].[.[.OX=X(.(.[.(.(.K.[.].K.K.].].].].[.[.J.K.~.(./.(.~.~.~.~.~.}.[.}.(.[.}.[.~.[.~.}.[.).).).).(.).(.).(.(.(.(.(.(.K.(.~.~.(.(.~.K.J.].J.J.].].J.A.].].J.].J.K.K.J.~.J.H.J.J.J.G.G.G.G.G.G.A.V.A.G.G.G.J.G.Z.P.J.P.J.P.J.J.Z.L.G.J.J.L.G.].P.L.G.L.G.L.G.L.G.L.G.L.",
"F.D.m.m.b.x.x.3.3.3.x.3.v.c.x.3.x.v.m.m.m.c.m.x.x.t.z.x.x.z.m.m.F.F.b.z.b.v.x.x.3.3.3.N.3.c.c.v.c.v.c.c.c.c.c.n.v.b.n.v.m.m.m.m.m.m.n.m.m.b.b.b.l.b.m.F.F.b.F.b.m.m.n.n.C.D.D.n.n.n.D.D.n.D.D.n.n.D.Y.C.Y.Y.Y.B.B.Y.E.H.D.Q./.Q.D.D.H.Q.~./.~.Q.~.Q.Q.Q.Y.!.Y.Y.Y.Y.I.!.Y.U.I.I.I.E.E.!.!.I.E.Q.Y.Q.Y.Q.Y.Q.Y.Q.Q.Y.Y.Q.Q.J.Q.Q.!.Q.!.Q.~.Q.Q.Y.Q.Q.Q.Y.Q.Y.^.Q.!.~.~.!.~.Q.~.T.Q.^.!.T.!.!.'.R.R.!.R.R.^.^.^.^.'. X3. X'..X^.'.^.^.^.R.'..X^.R.^.^.^.'.'.'.'.'.'.'.'.'.|.^.^.|.|.{.1X|.`.`.`.)._.'.'.'.'.'.`.`.{.^.}.'.'.}.}.}.^.|.|.'.).|.|.|.|.{.).{.{.-X-X-X{.-X{.1X|.-X|.-X|.{.|.`.`.`.`.2X`.#X`.1X|.`.|.|.3X{.|.|.{.{.}. X|.|.|.|. X|. X^.'. X'. X'. X'. X X|.|. X`.2X|.2X1X2X1X2X1X1X|.1X#X1X1X6X7X1X1X1X1X1X|.3X1X|.|.|. X X X2X|.2X1X X|.|.3X|.|.3X|.3X3X{.|.{.{.|.|.|.|.1X1X{.-X|.1X1X|.1X{.1X|.|.1X|.-X{.-X{.;X{.;X{.|.;X|.{.{.|.3X3X X|. X|. X|. X|.'.'.|.|.|. X{. X{.{.|.{.|.|.;X{.|.-X{.|.{.|.;X{.-X{.-X{.{.{.-X;X{.-X|.-X1X-X{.-X-X{.-X{.|.-X1X{.|.-X{.-X#X{.`.-X`.1X1X#X|.#X`.1X`.#X1X).).{.(.{.].}.}.}.}.}.~.}..X].].}.[.{.+X-X+X(.(.+X[.(.].(.J.K.(.(.(.].].].].K.[.K.(.(./.(.Q.~.~.(.(.}.[.[.].[.[.~.(.[.[.).).+X(.).(.).(.(.(.{.}.~.J.}.J.}.(.(.~.(.J.].J.J.A.].P.].].].].J.J.].J.}.(.J.H.H.H.H.H.J.Z.A.G.A.V.A.P.A.A.G.Z.G.J.G.Z.G.Z.J.J.L.J.P.J.J.G.P.J.J.G.J.L.L.L.P.L.G.L.L.P.L.G.",
"m.b.m.z.c.x.x.3.3.3.3.c.3.c.c.c.x.m.x.v.n.m.m.c.z.z.c.x.z.b.x.b.D.b.z.b.m.c.c.3.3.3.3.c.3.v.c.c.c.c.n.c.N.v.n.c.n.c.n.c.b.c.m.c.n.m.n.b.n.b.b.n.b.b.b.F.m.b.D.D.n.n.n.H.n.n.D.n.D.H.D.D.I.D.E.n.n.I.n.Y.n.Y.C.Y.n.Y.Y.H.H.Q.Q.Q.H.Q.H.Q.H./.Q.Q.Y.Q.Q.!.~.Y.Q.R.R.R.I.I.Y.U.Y.I.I.I.E.I.E.E.Q.E.Y.Q.Q.Q.~.Q.Y.Q.C.Q.Q.Q.Q.Q.~.Q.~.!.Q.!.!.Q.!.!.Y.!.!.Y.!.!.!.!.^.^.).!.~.^.^.~.~.~.!.^.R.!.!.R.^.'.'.'.R.!.R.^. X3.'.R..X'..X.X'.^.^.^.'..X^..X^.^.^.'.'.'.'.'.'.'.'.'.`.).|.{.-X|.|.{.$X`.`.'.'._.`._.'.|.|.|.'.|.}.'.}.^.}.^.'.}.`.'.|.|.|.|.|.|.).).+X{.1X1X1X|.-X|.|.{.1X|.|.|.).|.`.`.|.1X1X|.1X#X#X|.{.#X|.|.{.|.{.|.{.}.|.^.'. X X^. X'.'. X^.'.'.|.'. X|.|.|.|. X2X X2X1X2X2X1X$X1X1X1X1X1X1X5X6X1X1X1X1X|.1X1X{.|.{.|. X#X`.2X1X X|.3X1X X1X|.|.;X;X|. X X|.|. X|.{.|.1X|.1X|.1X-X-X1X1X1X1X|.1X1X|.3X|.1X{.-X|.;X1X|.3X{.{.3X3X{.3X|.{.3X|.|.}. X|.|.|.'.|.|.|. X X{.|.{.{.|.;X|.-X|.{.1X-X|.1X{.-X|.|.{.{.1X1X-X|.|.-X1X-X1X1X{.{.{.{.+X{.-X-X1X{.-X-X{.-X{.-X-X`.).-X`.`.1X+X1X).1X#X1X).#X).[.{.{.}.}.}.}.}.}.(.}.}.].].[.[.[.(.-X).[.(.(.(.[.(.[.(.}.(.K.].(.].].[.].(.[.(.).(.).(.(.(.{.[.[.}.J.}.J.}.[.}.}.).).).(.+X).).(.).(.(.(.(.(.[.~.J.~.(.~.~.].J.J.J.Z.].P.].P.].A.J.J.J.].J.K.J.J.J.H.H.H.G.J.Z.G.V.G.A.G.A.G.G.J.Z.J.J.G.J.G.G.G.G.J.G.J.J.G.J.J.P.J.J.G.L.L.G.L.P.K.G.L.G.L.L.",
"F.b.b.b.x.c.x.3.c.3.3.3.3.c.x.c.x.m.v.v.m.b.m.m.m.m.m.z.m.x.b.b.F.b.m.x.b.c.c.3.c.c.3.3.c.3.c.c.B.c.c.B.v.c.b.n.b.v.n.m.n.n.m.n.m.n.n.b.n.b.n.G.G.b.D.b.D.b.F.m.n.n.m.n.D.n.C.D.n.n.n.E.D.D.H.D.D.C.n.n.Y.n.Y.n.Y.C.Y.E.Q.H.W./.C.D.D.Q.Q.H.Q.Q.^.Q.~.Q.Y.Y.Y.!.R.I.I.Y.I.!.Y.I.I.C.Y.Y.Y.Q.Q.Y.Q.Y.Q.Y.Y.Q.Q.Y.Q.Q.Y.~.Y.Q.~.Y.Y.!.!.!.!.!.Y.!.!.Q.Y.!.!.!.'.!.).^.).^.^.^.~.^.^.~.T.^.^.^.R.'.^.R.!.R.'.'..X^.3.'.R.'.R.^.R.'.R..X'..X.X'.'.'.'.'.}.'.^.'.'.}.'.'.'.'.'.|.{.'.`.|.|.#X`.$X`.'.`.'.'.`.`.`.|.|.|.|.|.}.'.}.}.'.'.{.`.|.'.|.|.|.{.`.|.|.|.|.1X1X{.1X X|.1X1X|.1X).{.#X{.).|.|.3X1X#X#X|.{.`.{.|.|.|.|.|.3X|.{.|. X X|.'.^. X^. X|.'. X^.|.'. X'.|.|.2X|.`.2X1X X2X1X2X X2X1X2X1X-X1X1X1X1X6X1X5X1X1X|.|.|.|.|.|.`. X X1X X3X|.|. X1X|.1X X X|.3X{. X3X3X3X X3X3X3X1X1X3X1X1X1X1X1X1X1X X1X1X1X1X{.|.1X|.3X|.1X1X1X3X3X3X|.wX|.3X3X X|.|.|.'.|.}. X}.|.}.|.}.{.|.|.|.3X{.|.3X|.-X3X{.|.-X{.3X{.3X-X3X|.;X1X|.-X1X3X{.3X-X-X|.-X-X-X|.-X|.{.).-X{.|.+X{.-X{.{.).1X`.-X|.+X1X`.1X#X`.`.).).{.{.{.{.[.}.[.{.}.}.}.}.}.].[.}.[.(.-X+XOX+X+XOX[.(.].[.(.[.K.K.J.].K.].[.(.[.[.[.).+X{.).}.}.}.}.~.[.[.].}.(.~.(.}.}.).+X+X+X).OX).[.).(.~.~.(.J.~.J.[./.~.(.~.(.].].].].A.].].].P.J.].].J.K.J.J.J.H.H.H.H.G.Z.G.G.G.A.Z.A.G.J.G.A.P.J.J.J.G.J.G.Z.J.P.J.P.G.J.Z.P.J.L.J.L.L.G.P.L.L.G.P.L.L.L.G.",
"b.b.b.m.b.b.c.x.3.c.3.c.3.c.c.c.v.v.m.n.c.v.b.n.b.x.b.x.m.b.b.b.D.b.x.b.b.c.x.3.3.3.3.c.x.3.x.c.v.c.v.c.c.c.n.c.b.n.n.n.n.v.n.m.n.m.n.n.n.b.H.b.b.G.b.F.b.D.b.D.b.m.n.n.n.n.H.n.n.n.n.D.D.D.D.n.n.n.C.n.U.B.Y.B.B.Y.H.E.Q.Q./.E.Q.H.n.Q.H.Q.Q.Q.Q.Q.^.Q.Q.Y.Y.!.I.R.I.Y.Y.I.Y.Y.I.H.Y.C.H.Y.Q.H.C.Q.Y.Q.H.Q.Q.Q.Q.Q.Q.Q.~.Q.!.Q.!.!.!.!.^.!.!.!.Y.!.!.E.!.!.!._.'.'.^.^.^.^.~.^.~.~.^.R.T.^.R.!.'.^.R.'.R.R.^.'.'.R.'.3.'.R.'.'.'.^.^.'.'..X'.'.{.'.).^.^.^.'.|.'.^.|.|.'.{.{.|.|.1X|.|.$X`.$X$X`.'.`.`.|.|.|.|.|.|.'.}.'.}.'.}.|.}.'.|.|.|.|.`. X`.`.`.1X#X1X1X`.1X1X1X1X1X|.1X1X{.`.{.).|.1X1X1X).`.1X{.1X|.{.{.|.|.1X|.|.|.|.}.|. X.X|.|. X^. X'.'.'.'. X'.|. X X#X2X1X X2X|.1X2X X1X2X1X2X1X1X1X1X1X1X5X2X1X|.1X).1X{.|.|.|.2X|.|.2X|.|.|.|.|.;X|.|.3X3X|.{. X X3X|.1X X|.3X1X|.|.3X1X1X-X1X X1X X1X1X1X1X1X3X|.1X1X2X`.2X2X|.1X1X1X X1X|.|. X X|.{. X}. X X|.}. X}. X}. X{.|.|.|. X1X1X X1X{.1X{.-X|.;X|.{.|.3X{.3X-X|.3X{.-X|.|.{.{.-X{.{.-X|.{.{.{.|.{.-X{.-X{.|.{.{.{.{.{.).).1X|.).`.{.1X`.+X).).{.{.{.{.[.}.[.}.{.}.}.].}.}.].}.[.=X(.-X(.-X(.[.(.[.[.[.(.(.[.(.K.K.].[.=X(.{.=X{.-X{.).{.[.}.~.[.~.[.}.J.[.[.(.}.}.(.{.OX-X).(.{.).=X(.(.~.(.~.].~.J./.~.(.(.J.].J.J.A.].J.J.A.].].A.Z.J.J.J.J.J.H.J.C.G.H.A.Z.G.V.P.G.Z.G.G.G.G.J.J.J.J.G.G.J.G.L.J.Z.G.J.J.J.J.P.J.P.J.G.L.G.L.L.L.G.G.L.L.G.",
"b.b.b.b.b.x.c.c.c.3.x.3.3.c.c.c.v.m.v.m.n.m.c.n.b.m.b.b.b.x.b.b.b.F.x.b.b.b.c.x.c.x.3.c.3.c.3.c.N.c.B.N.B.b.n.v.B.n.n.v.c.n.m.m.m.n.m.b.F.C.C.H.C.V.D.b.F.m.F.b.n.n.m.n.b.n.n.n.n.n.D.D.D.n.D.I.n.n.n.n.B.v.n.Y.C.Y.Y.E.Q.H.Q.L.D.D.H.H.H.H.Q.C.Q.Q.Y.Y.Y.Y.Y.I.R.I.Y.I.Y.Y.Y.Y.I.C.n.H.H.H.H.H.Q.H.J.C.C.T.~.Y.Y.Y.~.^.!.!.!.!.!.!.!.!.'.!.!.!.!.!.!.!.!.!.!.!.)._.^.!.^.~.~.~.^.~.T.^.^.^.R.^..X.X'.R.^.^.^.R.'.R.R.'.'.R.'.3.R.'.'.'.R.'.^.^.'.^.^.^.^.{.{.^.|.'.'.'.{.|.'.|.1X|.1X`.$X$X'.$X`. X`.`.'.|.|.`.|.|.}.'.}.'.}.}.}.'.|.'.|.`.|.`.`.`.2X`.#X2X$X2X2X`.2X2X1X1X1X1X|.`.{.1X{.).|.1X1X1X-X1X|.).1X`.|.|.|.|. X X|.|.|.|. X|.|.'.|.'.'.`. X X X|. X X`. X X`.`.|.|.2X1X2X2X1X1X2X5X2X1X5X1X1X1X1X1X1X|.{.1X|. X3X|.3X1X X|.|.|.|.|.3X3X X3X3X|.|. X3X|. X3X3X3X3X3X3X;X1X1X1X3X1X1X1X1X1X|.1X|.1X|.1X|.1X|.|. X$X1X`.1X|.1X3X3X3X3X|.;X|.{.{.|.}.}.}.}. X}. X{.{.{. X{.|.|.|.2X1X1X|.1X{.;X|.-X{.{.1X-X|.|.-X1X{.{.3X|.;X-X1X|.{.{.{.{.{.).-X).{.{.{.|.{.{.{.{.{.{.{.{.|.|.|.|.|.{.`.).).`.{.{.{.{.-X{.}.}.}.}.}.^.}.}.].[.[.[.[.).OX+X-XOXOX[.[.[.(.(.[.[.(.[.[.[.(.[.[.-X[.{.(.(.).-X}.(.~.[.J.~.].].}.[.~.}.(.{.).(.+X(.).).(.[.(.~.~.(.J.J.~.J.~.~.(.~.K.(.J.].].A.].].A.].P.J.P.J.J.P.J.J.Z.L.H.H.C.H.G.G.G.Z.G.G.A.A.A.Z.G.J.J.P.J.G.A.G.A.G.L.G.J.J.P.G.J.J.G.G.G.G.P.P.L.G.L.L.L.L.P.G.",
"b.b.m.b.b.m.c.c.x.c.x.3.x.c.c.c.n.m.c.v.c.c.c.m.m.b.m.x.l.b.z.F.n.b.c.b.m.c.c.h.3.x.3.<.3.3.c.3.v.N.v.v.v.c.c.B.c.v.n.v.v.m.v.c.n.n.m.C.H.n.H.b.V.F.b.C.b.b.b.m.b.m.b.m.b.n.n.n.n.n.n.D.D.n.D.n.n.n.v.n.n.n.Y.n.I.Y.E.H.Q.H.Q.W.H.n.I.D.n.H.H.Q.Y.Q.Q.Y.!.I.E.R.R.U.I.Y.I.Y.Y.Y.C.H.H.C.H.H.H.H.Z.J.C.Q.H.C.Q.Q.~.!.!.Y.!.!.!.!.!.!.!.'._.!.!.!.!.!.!.!.!.!.!.!._.!.!.!.~.Q.Y.Q.~.T.T.T.R.^.^.T.'.R.^.^.^.'.^.'.R.'.'.R.'.R.'.'.'.'.R.R.'.R.'.'.^.^.^.~.^.^.^.|.^.}.`.^.|.{.|.).{.|.|.2X2X$X2X2X$X`.`.`.'.`.'.|.'.'.}.'.^.'.|.^.'.'.|.|.'.|.`.|.`.gX$X2X$X`.$X2X|.2X2X1X2X X1X{.-X|.{.).{.{.1X3X-X{.-X{.|.).{.).|.1X|.|.`.2X|. X X|. X^.'. X^.|. X X X`. X X'. X X X|.|.2X|.2X|.2X1X2X2X2X2X1X1X6X$X1X#X+X1X1X1X X1X3X|.|.|.|. X1X|.|.1X|.1X|.|. X3X|. X|.3X|.;X|.|.3X1X3X X3X X1X1X|.-X1X1X1X1X{.1X1X|.|.1X2X#X2X`.#X|.$X X`.2X`.|. X1X X|.{. X{. X{.;X}.{.{.}. X{.}. X{.{.|.{.|.{.|.{.1X|.1X|.1X{.|.{.{.1X-X{.1X{.{.-X{.3X;X|.1X{.|.{.{.{.|.{.{.).`.{.{.).).{.{.{.{.{.|.{.{.{.).{.`.+X-X).|.|.`.+X`.).}.{.{.{.{.[.}.}.^.}.^.}..X}.].[.[.(.[.OX-X(.-X).(.{.{.).[.(.[.(.[.[.(.-X=X[.[.=X(.[.(.}.).}.}.(.[.~.~.}.[.(.[.(.).}.).[.{.=X(.[.[.(.(.(.(.~.~.(.J.~.~.J.(.J.(.~.].~.J.[.].J.A.].P.A.J.J.G.J.J.J.H.J.J.J.Z.C.G.Z.Z.G.G.G.A.A.G.A.G.Z.J.J.G.J.J.G.Z.G.G.J.J.L.G.J.J.G.K.G.G.G.G.L.G.L.L.L.L.L.L.G.L.",
"b.m.b.b.b.b.b.c.c.c.c.c.x.c.c.c.n.n.n.c.c.x.c.x.c.c.c.c.z.x.b.m.F.b.x.m.b.b.c.c.x.c.3.x.x.c.3.c.v.v.N.v.N.B.c.n.n.c.v.n.m.c.m.v.c.v.n.n.b.n.H.H.b.G.b.b.F.m.D.b.m.m.v.x.m.m.m.D.D.n.D.n.D.D.D.n.n.n.n.n.v.n.n.Y.Y.C.C.Q.E.Q.Q.Q.H.Q.H.D.I.Y.D.I.Q.Q.Y.I.R.I.U.U.U.R.Y.I.Y.Y.C.Y.C.C.C.C.C.H.J.C.~.C.J.C.Q.J.~.Q.Q.Q.Q.!.!.Y.!.!.!.!.!.!.'.!._.'._.!.!.!.R.!.!.R.!.!.!.!.Y.Y.Y.Y.~.T.^.T.^.^.^.R..X^..X'.R.R.'.R.'.'.R.'.R.'.'.'.'.^.'.'.^.'.'..X^.^.^.~.^.^.}.{.|.^.|.|.{.'.{.|.1X1X1X#X`.$X$X'.$X X|.`.{.`.'.'.}.'.'.^.^.}.^.'.}.|.}.'.|.|.|.|.`.`.`.2XgX$XgX$X#X X1X2X2X1X|.1X`.{.`.{.).{.-X1X|.-X-X1X{.|.-X|.`.|. X`.2X X X|.'.}.'. X'. X X^. X`. X`. X'. X X X|.2X2X`. X`. X1X2X2X1X2X5X8X2X6X1X1X#X1X|.#X+X3X1X1X1X|.;X;X X|. X|.{.|.{.|.3X3X|.3X3X{. X|.|.{.|. X X3X3X|.3X|.1X3X|.-X1X-X|.1X|.|.-X1X|.|.|.`.`.2X`.`. X$X`.#X|.1X1X;X X X{. X X}. X X}.}. X{.}. X}.{.|.}.|.{.|.|. X1X1X|.1X|.3X{.1X3X{.|.3X{.|.;X|.1X{.|.-X|.;X{.{.{.-X-X|.{.{.{.{.{.{.{.{.-X{.{.{.-X{.{.{.`.{.{.|.).|.{.).-X`.+X{.{.[.{.{.{.}.}.}.^.^.{..X]..X]..X(.[.OX[.OX-XOX-X-XOX{.[.(.(.=X[.{.=X[.=X(.-X[.(.(.(.(./.[.(.}.~.J.J.[.J.~.}.(.}.(.}.[.(.(.(.).(.(.(.(.{.J.(.(.(.~.J.J.}.~.K.J.J.[.J.J.].A.].].P.A.J.J.A.J.J.J.Z.J.G.J.J.G.H.G.J.J.J.G.Z.V.P.A.V.A.G.P.G.A.G.J.G.P.J.L.].G.A.G.J.G.J.G.L.G.G.G.G.L.G.P.G.L.P.L.L.L.",
"b.b.b.b.b.b.b.x.b.c.b.c.b.k.c.c.m.m.x.c.v.x.c.3.c.x.c.b.b.b.b.F.b.l.z.m.c.k.x.l.c.x.3.3.c.3.3.5.3.5.c.B.c.B.B.v.v.c.v.c.m.x.x.x.v.v.c.m.b.b.n.b.V.b.D.b.b.b.n.m.n.m.m.n.n.m.n.m.m.m.m.m.D.D.D.n.n.E.n.n.v.v.v.B.n.Y.Q.H.Q.Q.E.H.n.E.C.Q.Y.E.Y.Q.Q.Y.Q.Y.R.!.I.!.E.U.R.E.Y.Y.Y.Y.Y.H.C.Q.H.H.H.J.C.J.C.C.C.C.Q.C.^.^.^.Q.!.Y.!.!.!.!.!.!.!.!.^.!.'.!.'.^.^.!.!.'.'.'.!.!.!.^.~.^.~.~.T.^..X^.^.^.'.^..X'.'.R.'.R.'.'.R.'.'.'.'.'.'.'.'.'.'.}.'.'.}.'.^.^.{.^.}.^.'.'.|.{.}.|.|.|.#X X`.2X$XgX$X2X`.`.`.`.`.`.`.`. X|.|. X X X'.|.|.|.{.|.|.'.|.'.`.$X`.`.$X$X'.$X$X X$X|.2X1X1X|.1X|.1X1X;X|.1X-X-X1X-X|.1X1X{.1X{.{.|.|. X|.2X X X|.|. X X|.|. X`. X X'. XgX'.'. X`. X X$X X X1X#X X1X|.2X1X1X1X$X$X1X2X1X2X5X6X1X1X1X1X3X X{.{.{. X{. X|.|.{.{.|.|.|.3X|.3X3X|. X X;X3X3X|.1X X3X2X1X3X5X1X3X5X|.-X X1X1X1X|.1X1X`.1X`.2X$X$X X|.2X2X|.|.|.|.1X X{.{.{.{.}.}.}.}.}.}. X}.}.|.{.}.{.|.|.1X1X1X|.{.1X1X;X|.{.3X-X|.3X{.|.;X|.|.{.{.{.}.3X{.{.{.{.{.{.{.}.|.{. X{.}. X}.3X{.3X{. X{.{.3X{.|.{.{.{.`.+X|.{.{.{.{.;X}.}.}.}.^.{.{.}.~.[.}.(.(.}.(.=X-X).=X(.).).(.-X[.+X[.-X(.-X-X{.).{.}.(.(.[.[.(.[.(.}.(.(.~.}.~.[.~.(.}.(.}.J.[.[.[.=X[.[.(.[.(.[.[.[.K.}.[.~.~.~.(.].~.K.~.~.K.~.J.J.J.K.J.J.J.G.Z.J.J.H.G.G.G.V.G.A.H.A.G.H.Z.Z.G.J.G.G.G.G.A.A.G.G.J.J.G.J.P.J.P.G.J.G.G.L.L.K.G.K.P.L.L.L.L.P.G.G.L.P.",
"b.b.b.m.x.b.b.k.b.b.b.c.c.c.c.b.b.m.c.c.x.c.3.c.3.c.c.c.c.x.F.b.x.c.m.c.c.z.x.b.c.c.c.c.3.3.B.B.3.c.N.c.v.c.v.N.c.v.v.v.x.c.v.x.m.n.n.n.n.n.V.C.b.V.n.V.D.m.b.b.n.b.n.m.b.b.n.m.m.m.F.m.m.D.D.n.C.D.n.n.n.B.n.B.Y.C.I.I.H.E.L.W.E.H.D.Q.Q.Q.Q.E.Y.Q.Y.E.I.!.R.I.R.!.!.R.Y.Y.Y.Q.Q.C.C.J.H.H.H.H.J.C.H.H.Q.C.H.Q.Q.^.!.!.!.!.!.!.!.!.!.!.'.!.!.'.!._.!.!._.!.'._.'._._.!.Y.^.^.~.~.^.~.^.^.^.^.^.'.R..X'.^.^.R.'.'.'.'.'.'.'.3. XR..X'.'.'.'.'.|.}.^.|.'.^.{.^.{.}.'.'.|.|.'.|.^.1X2X X`.'.2X'.$X`.`.`.2X X`. X'.`.|. X'.'. X X'.|.|.|.|.|.|.`.`.`.`.`.$X2X$X'.$X|.#X`.2X2X|.1X|.|.-X|.|.{.1X{.{.1X-X-X-X{.|.1X|.|.|.|.|. X X|. X'.|.'.|.|.'. X X`. X X`.'.2X X X|. X`. X`. X|.2X2X1X2X1X1X1X2X2X1X1X6X1X2X1X1X1X1X1X1X X{. X;X X3X{.{.{.|.;X X X|.3X3X|.3X X3X3X3X X3X X3X3X3X X2X1X3X1X3X1X1X1X|.1X1X1X1X|.1X X`.|.`.2X`. X`.2X|.`.1X|.1X X|.|.3X{.3X{. X3X X}.{.}.{.}.}. X|.|.|.}.|.3X X2X|.1X|.-X|.;X3X1X3X|.-X|.3X-X;X|.-X{.;X{. X{.{. X{.}.{.{.{.{.{.{.{.{.;X}.3X}.3X}.{. X{.|.|. X X|.|.|.1X).-X).}.{.[.{.}.{.}.[.}.}.}.|.}.}.[.[.[.[.OXOX+X=X+X(.).[.).(.{.-X).[.(.{.[.-X=X[.(.[.[.(.(.[.(.}.~.[.}.~.(.~.~.}.}.(.}.[.[.}.(.OX(.(.(.=XK.[.(.(.(.~.~.~.}.(.[.J.~.K.J.[.K.(.K.(.J.J.J.J.K.J.Z.G.G.J.J.A.H.A.G.A.G.G.A.J.G.Z.G.Z.A.G.A.G.G.G.G.G.Z.G.J.J.L.J.J.Z.J.G.J.J.P.].G.J.L.L.L.J.G.K.L.L.L.L.L.",
"c.b.b.b.b.b.b.m.b.b.b.x.b.b.c.b.c.x.c.c.c.3.c.3.N.N.c.b.b.b.l.b.n.m.b.m.m.m.x.x.c.m.c.3.B.3.3.3.3.3.3.B.c.B.N.v.v.c.v.c.c.v.v.v.v.n.n.n.B.V.C.C.b.V.b.V.b.b.b.m.m.n.n.b.m.D.n.b.n.m.n.m.b.D.n.D.n.n.n.n.v.n.B.v.B.Y.H.Q.E.Q.E.H.E.Q.Q.Q.Q.E.Q.Q.!.I.!.I.R.U.R.!.R.R.E.R.Y.~.Y.R.Q.C.Y.H.Q.H.Y.H.C.H.C.C.C.Q.Y.Q.Q.Q.Y.~.!.!.Q.!.!.!.!._.!.!._.!._.!.!.!.!.!._.'.^._.!.!.^.Q.^.~.~.~.^..X'.^.^.T.^..X'.^.'..X'.R.'.R.'..X'..X'..X'.'..X'. X.X X.X'.}.'.}.{.^.|.^.^.}.'.|.^.|.|.|.|.1X`.2X$X$X$X`.`.'.`.`. X`.`.`.`. X'.|. X`. X X|.|.|.`.`.|.`.|. X`.`.`.2X$X2X$X|.|.|.1X|.1X|.1X1X|.|.-X1X|.`.1X-X1X|.1X{.1X|.|.1X|.|. X|.|. X X|.|.|.|.|. X X|. X X X X X2X X'.|.|.|.|.2X|.2X|.1X2X1X2X2X1X1X5X$X6X$X1X1X1X1X1X|.3X1X|.{. X{.{.{.{. X{.{. X{.{.|. X;X3X3X X X3X3X X X3X X3X3X3X3X1X3X1X1X1X1X1X3X X1X1X1X X1X1X1X|.1X|.2X$X X2X1X|.1X1X|. X;X|.{. X}.3X}.}. X{. X{.}.}.{.{.{.|.|.|.|.|.1X1X|.|.1X|.3X|.3X|.-X3X1X;X-X3X1X{.-X3X X}.{.{.{.;X}. X{.{.{.{.;X{.;X}.3X}. X}.}.3X{.}.{. X{.{.}.{.|.{.{.1X).-X{.{.;X{.{.}.{.}.^.|.|.}.).}.).}.[.(.=X(.=XOX-X+XOX).{.).{.OX+X{.(.(.{.)./.(.(.(.K.(.(.].[.J.[.}.}.(.(.~.~.(.~.}.[.~.J.}.[.=X(.[.[.(.[.(.}.[.~.[.~.[.J.~.(.].~.].(.~.(.~.~.J.J.J.J.K.J.G.G.J.J.J.J.J.Z.G.P.A.G.G.H.H.J.G.J.Z.G.A.G.G.G.A.G.G.Z.P.G.P.K.L.G.J.J.Z.Z.J.J.J.P.K.L.G.P.L.L.P.G.P.G.G.G.",
"b.N.b.m.m.b.b.z.x.x.b.l.b.x.c.k.m.b.c.v.c.3.3.B.c.5.B.c.b.b.F.F.b.b.b.c.n.b.b.b.b.c.c.c.c.B.B.3.B.N.3.v.B.c.B.B.N.v.v.v.n.v.v.v.n.B.n.c.n.n.V.C.G.H.b.n.b.C.m.F.n.b.n.n.m.n.n.n.b.n.b.D.m.n.D.n.I.C.v.n.B.n.Y.n.I.C.E.Q.H.Q.Q.D.Q.Q.Q.Q.Q.Q.Q.Q.!.!.Y.Q.I.I.!.U.!.!.R.!.Y.!.Y.!.Y.Q.Y.Q.H.Q.H.H.Q.Y.~.C.Q.C.Q.Q.Q.Q.Q.Y.Y.Q.Y.!.^._.'._.'.!.!.!.!.!.!.'.!.!._.)._.^.!.^.~.^.~.~.^.^.^.^.}.R.^.'.'.'.^.^.'.'.R.'.'.'..X'.'..X'.'.'.R.'.'.'.'.'.|.}.'.'.^.^.^.'.|.'.'.|.'.|.|.{.|.|.|.`.2X`.$X`.$X`.2X`.`.`.`. X X X`. X|.'. X`.'.|.}.|.|.|.`.|.`.`.`.`. X`.`.`.`.`.-X|.|.1X|.1X|.{.1X1X{.1X|.1X|.1X1X1X1X1X1X1X1X|. X1X|.|.{. X|.}.'.|.|.|.'.|.'. X`.`. X'.'. X2X|.|.2X2X X2X|.2X1X|.2X#X6X1X2X1X1X1X2X$X1X#X1X1X-X|.1X-X3X{.3X3X X;X;X{.|.;X X{.3X|.|. X|.3X3X|.|. X3X3X3X X|.3X1X3X2X3X5X1X-X3X1X1X1X3X1X3X1X1X|.1X|.1X|.1X1X`.1X|.1X1X3X3X|.|. X X X{. X}. X}. X}. X X X X{. X|.|.3X|.1X|.{.1X;X|.-X3X1X3X;X|.{.3X|.1X|.3X|.{.{.{.}. X}.}.;X}.{.{.|.{.}.{.{. X}.3X}.wX X{.;X X{.{. X{.{.|.{.{.#X#X{.{.{.{.{.{.[.{.|.}.|.}.^.}.}.}.[.{.[.{.(.OX[.-X).=X-X{.+X{.{.-X(.(.).(.).(.).(.(.(.(.[.[.(.[.[.[.~.).}.}.(.}.(.}.(.~.[.[.[.[.(.[.[.K.[.(.[.K.(.].(.[.~.~.[.[.J.].(.J.[.~.K.~./.J.J.].J.J.J.G.J.H.J.J.G.J.G.G.A.G.J.G.H.H.J.J.Z.Z.J.Z.Z.G.G.G.J.G.J.J.J.J.G.J.G.P.J.J.P.L.J.J.L.K.K.K.G.L.L.L.L.L.L.L.",
"c.N.k.b.b.l.l.l.l.l.l.x.l.x.b.c.b.b.b.c.c.5.N.3.B.N.c.N.V.b.F.V.b.b.n.n.n.b.m.b.b.b.c.v.B.B.3.B.v.3.c.B.5.B.B.v.v.B.v.v.v.B.B.n.v.v.v.n.b.n.B.b.b.V.C.b.b.n.b.m.v.m.n.b.n.n.b.m.n.n.m.D.D.D.m.H.D.n.n.n.n.n.n.B.Y.Y.Q.Q.Q.E.L.Q.Q./._.Q.Q.Q.!.E.Q.Y.E.!.I.R.!.I.R.R.I.!.I.Y.Y.E.Q.Y.Y.Y.Q.E.E.Q.C.C.Q.Q.Y.Q.Q.Y.Q.C.Y.Q.Q.Q.Q.~._.^._.^.^._.!.!.!.!.^.!.^.!.^.^.^._.^.!.^.~.~._.~.~.^.^.^.^.'.!.R.'..X'.'.'..X^..X'.'..X'.^..X'.'..X'.'.^. X.X^.{.^.'.^.'.`.|.'.'.'.'.|.`.`.|.{.1X1X{.1X1X`.#X#X$X`.`. X`. X`.`.`.`.2X X'. X'. X X X'.|.|.|.|.{.{.`.|.|.`.1X`.1X|.-X|.|.|.1X|.|.1X|.1X|.#X|.#X1X1X1X2X#X1X1X|.1X1X X;X|.|.|. X{.|.|. X'. X'.|. X X2X2X X2X X X'. X X#X|. X2X X1X2X1X X2X1X2X1X2X2X$X2X$X1X1X1X1X|.1X{.3X{.{.{.{.{.}.3X{.{.;X X3X;X|.|.|.3X3X X3X|.3X3X|.1X X|.3X2X1X3X1X3X1X1X1X3X2X3X2X2X3X1X1X3X{.1X|.1X1X|.1X|.3X3X|.|.3X|.|.{.3X|.{.|. X{. X|. X{. X X X{.3X|.;X X;X1X{.1X{.|.;X-X1X1X|.3X1X-X3X|.|.-X3X3X{.{.;X}. X}.3X}.}.}.3X3X}.3X}.3X}. X}.;X}.;X3X{.{.{.{.{.3X X{.{. X-X{.-X).{.{.[.{.}.|.}.{.}.}.'.}.).}.}.{.{.[.OX=XOX-X-X+X{.).-X).OX-X(.).).(.).).).(.(.(.(.].=X[.[.~.~.[.[.~.).{.).}.[.(.}.(.[.].].].[.].(.].(.(.(.K.[.K.~.(.~.}.].K.[.J.(.J.(.~.(.~.J.K.J.K.J.J.H.J.J.J.J.J.P.Z.G.G.G.G.J.H.J.J.J.A.J.P.J.A.G.G.P.Z.J.J.J.G.K.G.G.J.P.J.J.J.J.L.P.K.L.P.L.L.K.G.L.L.L.P.L.",
"c.k.b.c.b.k.b.b.l.F.b.l.b.l.x.k.b.x.m.c.v.3.3.3.3.c.N.b.b.V.F.F.n.b.b.b.b.b.b.b.n.c.c.c.B.3.3.3.N.B.c.B.v.B.c.B.N.v.v.v.n.v.v.n.v.v.m.v.n.c.b.c.V.b.b.b.b.b.b.b.n.n.n.n.m.n.D.n.n.n.D.m.D.m.n.D.Y.n.n.n.Y.B.Y.I.Y.C.H.Q.Q.Q.E./.Q.Q.Q./._.Q.Q.!.Y.!.I.!.R.E.R.I.R.U.R.I.!.I.I.R.Q.Y.Q.I.Q.Q.!.I.Y.Q.Q.Y.~.Y.Y.Q.Q.Y.Q.Y.Y.Q.!.Q.^.^.^.).^.!.^.!.^.!.!.!.Q.!.!._.!.^._.~.~.^.~.^.~.^.T.^.^.^.'.'.'.'.'.'.'..X^.'.'.R..X'.^.^.'.'..X'.}.}.'.'.'.'.'.'.).`.^.`.'.`.'.'.`.`.|.`.|.|.|.`.`.|.#X1X`.1X`. X`.$X X`. X$X X2X'. X2X'.'.gX|.|. X|.|.|.|.|.|.1X{.|.2X1X1X1X|.{.1X1X1X1X1X X1X|.1X3X X1X1X X1X1X1X1X1X|.1X1X|.1X|.|. X|.{.{. X^. X|.`. X|. X X'. X2XgX'.2X X X`. X2X1X|.2X X2X1X2X1X1X6X6X1X2X6X5X$X2X2X1X1X1X3X3X|.|.3X3X{.;X3X{.3X3X3X{.3X|.|.3X3X|.3X X1X X3X X3X3X3X3X X3X3X2X1X2X1X5X1X1X1X1X3X2X3X1X3X|.1X1X1X{.{.3X;X{.{.-X3X3X{.|.3X|. X|. X|.|. X{. X{. X|.{. X{. X3X X|.|.1X3X{.|.1X|.3X3X3X;X-X3X|.3X3X;X3X1X{.|.3X}.;X}.}.3X}.3X;X}.}. X}.3X{. X;X}. X;X X{.;X X{.{.{.{.{. X{.{.|.-X{.-X{.{.|.;X{.}.{.{.{.{.}.^.}.).}.(.[.[.=X[.[.(.-X-X-X#X#X{.{.).{.(.).).+X).).(.(.{.(.[.[.].].[.}.(.}.}.}.(.}.).).}.}.}.~.[.=XOX].(.[.(.[.[.}.}.(.~.}.~.(.J.J.].J.[.K.(.~.(.~.J.H.Q.~.K.J.J.J.J.J.J.J.J.J.J.Z.G.J.A.H.L.J.J..XJ.J.J.J.G.J.J.J.G.J.G.J.J.G.J.J.Z.J.G.P.J.P.J.J.L.L.J.L.G.L.L.P.G.L.L.G.",
"N.k.c.k.x.b.k.x.l.z.b.b.l.c.k.c.b.m.b.c.N.3.3.3.3.N.c.N.b.b.b.b.n.c.b.n.b.b.b.b.n.c.c.c.B.3.3.3.3.5.B.c.N.c.B.v.v.v.v.v.v.n.v.B.v.v.v.c.c.v.N.V.b.N.b.n.n.b.n.n.n.n.n.n.D.n.n.D.D.b.D.n.D.n.D.n.D.n.n.n.n.B.Y.C.C.Y.Q.Q.Q.Q.Q.Q./._.Q.!.Q.Q.!.Q.!.!.I.I.R.R.!.!.I.I.I.R.I.R.I.I.I.!.I.!.E.!.E.R.Y.Q.Q.Q.Q.Q.Y.Q.Q.Y.Y.J.Y.Q.~.Q.!._._.^.!.~.Q.~.^.Q.~.Q.Q.^.!._.!.~.^.^.^.~.~.~.^.^.^.^.^.R.'.R.'.'..X'.'..X'..X'.}.'..X}.}.}.}. XR.'..X}.'.^.^.^.'.'.^.^.'.|.'.'.'.`.'.`.|.|.|.|.1X1X{.1X`. X$X`.`.`.`.`. X`.`.2X2X'.'.'.'. X'.|.|.'.|.|.|.{.|.1X1X|.;X-X3X-X1X|.3X1X-X1X3X1X3X1X1X1X X2X|. X$X2X2X$X1X2X2X1X1X|.|.|.|.{.|.{. X|. X'.|.`. X X`. X'. X'.'.gXgX'. X X X1X2X X2X2X2X1X1X2X2X1X2X2X$X2X$X2X2X2X1X2X1X1X1X-X;X|.;X X}.;X XwX3X{.3X{.{.3X|.3X|.3X3X1X|. X|.3X X3X3X3X2X1X3X1X1X1X1X5X X1X3X1X3X1X1X1X3X1X|.3X;X|.{.|.;X|.|.;X|.3X3X|.;X|. X{. X X X|.}. X X|. X|.3X X3X|.|.|.|.;X|.;X3X{.|.3X3X1X3X|.;X1X|.3X1X|.{.;X;X X X}.}.}.}.3X}. X;X}.3X}.;X}.}.wX3X}.}.}. X}.}.}. X{. X}.{.|.{.-X{.{.-X{.[.[.{.{.{.{.{.|.}.}.).}.{.{.=X(.=X=X=X+X{.-X1X-X|.).[.-X(.{.).+X).+X).(.).[.(.[.[.[.[.[.}.}.[.[.).).).(.{.}.(.[.}.].[.K.=X].].[.].(.K.(.(.[.~.~.}.J.~.].[.J.~.(./.~.~./.~.K.~.J.J.J.H.J.J.J.].J.J.P.Z.G.J.G.J.J.J.J.J.J.J.A.J.G.J.P.J.J.J.L.K.G.G.G.P.J.G.J.Z.J.K.J.J.J.L.L.P.K.P.L.G.L.L.G.L.",
"k.c.k.c.l.l.l.z.z.b.z.x.l.k.x.k.b.b.N.c.B.3.B.3.3.N.c.N.b.b.b.V.b.b.n.b.b.m.m.b.c.c.c.c.3.B.3.B.B.B.B.B.B.B.v.B.B.v.B.c.c.v.v.n.v.n.v.v.c.c.c.c.c.c.b.V.b.n.C.n.n.m.n.n.n.n.n.m.n.n.m.D.m.n.D.n.n.C.U.n.n.Y.n.Y.Y.Y.D.Q.Q.Q.Q.E.Q.Q./.Q.Q.Q.Q.E.Q.E.!.R.I.E.R.I.I.R.!.I.R.I.I.!.Q.Y.!.I.Q.E.E.!.Y.Y.Q.Y.Q.Q.Q.Y.Q.Q.Q.Q.J.~.Q.~.~.Q.~.~._.Q.^.Q.!.~.!.!.!.^.!._.Q.^.!.~.^.~.^.~.^.~.^.^.^.'.^.'..X'.'.}..X'..X'..X'..X X^.}.'.}..X^..X'..X^.^.^.^.^.^.'.`.'.|.`.`.'.'.|.'.`.`.|.{.|.`.1X`.`.`.`.$X X$X X`.2X`. X`. X2X X2XgX'.gX X|.|.|.|.|.1X|.1X|.1X1X1X-X3X1X;X|.|.3X1X1X1X1X3X2X1X1X2X$X2X2X2X1X1X2X1X|. X|.3X{.|.3X;X|. X{.|.}.|. X X X`. X X2X X X X X X'. X1X2X X1X2X1X X2X2X1X2X1X6X1X1X2X6X6X2X6X5X6X5X3X3X3X3X X3X X;XwX X;X;X X3X{.3X{. X|.3X X3X X2X3X X3X X3X1X1X3X3X3X1X3X7X1X1X1X1X1X|.1X1X1X3X|.|.3X;X;X|.;X3X{.-X3X3X3X;X|.3X|. X{.|.|. X|.|. X|.|.|.|.|.{. X{. X;X{.|.;X|.;X|.-X3X;X1X3X3X3X;X|.3X;X1X3X;X3X1X;X}. X;X3X}.3X X}.}.}.3X}. X}.3X X;X;X3X3X X}. X}. X}.;X}.;X{. X{.1X-X{.|.{.;X|.}.{.{.{.{.}.'.^.}.).{.{.{.{.[.[.OX{.-X-X-X#X1X-X-X).-X+X).{.{.+X1X-X).-X[.OX[.[.[.J.(.[.(.{.{.}.{.{.[.(.[.(.K.[.[.=X].[.[.K.[.[.~.[.[.K.[.}.(.(.].].J.].K.~.~.(./.~.J.Q.J.K.J.J.H.J.].J.J.J.J.J.A.J.G.J.J.H.J.J.J.J.J.J.J.J.J.Z.J.P.J.J.J.J.J.G.G.J.J.G.J.P.L.J.K.P.J.G.K.G.L.K.G.L.J.P.L.",
"k.k.x.j.k.g.z.g.l.k.l.k.l.l.k.c.n.b.v.c.b.N.B.N.c.N.v.c.b.c.b.c.b.v.b.c.c.m.v.x.3.3.3.x.3.3.3.3.N.N.v.N.n.N.b.B.v.v.v.v.m.v.v.m.m.v.v.x.c.c.c.c.N.B.B.V.n.B.n.n.b.n.m.b.n.m.I.m.I.n.I.n.n.n.n.n.n.n.n.n.H.I.D.Y.E.E.Q.Q.!.Y.Q.Q.!.!.!.W.'.W.'.U.I.I.Y.Q.Y.Q.Q.Y.Y.Y.Q.Y.I.Y.Y.Y.Q.Y.!.Y.E.Y.I.E.!.R.!.!.!.Q.Y.Q.Q.Q.Q./.~.Q.Q.Q./.~.Q.~.~.Q.!./.~.!._.!.!.!.!._./.^.!.^.(.^.).}.^.~.^.^.^.'.^.^.^.^.^.^.}.^..X^.'..X'.'..X X}.'..X'..X'.'.'..X'..X'.'.|.'.'.'.|.^.'.^.`.^.|.`.|.|. X X`. X`.`.`.2X2X X2X|.`.2X`.#X2X2X|.$X X2X|. X`.{.|.|.`.|.|.`.|.|.|.1X|.1X|. X|.3X|.3X1X1X1X1X2X1X1X2X2X2X X1X1X1X3X X X X{.|.|.|.|.1X1X|. X X X X X X X X X X X X X`.2X2X2X3X1X4X2X2X4X8X1X2X2X1X2X1X2X1X X`.|.1X1X1X3X4X1X4X3X3X7X4X3X X XwX3X X X3X X X}.|.|.|.|.{. X3X3X3X3X3X X3X;X X3X3X1X1X3X1X1X1X1X|.;X|.1X3X{.1X{.3X;X;X|.;X|.3X{.-X-X1X3X-X3X3X1X3X|.3X X|.|.|.|.|.|.|.|.'.|.|.|.|.}.}.|.{.3X{.{.|.{.3X3X3X;XwX}.wX;X3X}.3X1X1X-X}. X X{.{. X;X{.;X{.{.{.;X;X;X;X3X;X3X X{.;X{. X X.X X}. X X{.{. X{. X;X X}.{.{.{.|.|.}.{.).~.^.-X{.-X{.{.[.{.[.).+X+X{.{.-X{.1X-X-X).-X).).(.).).(.{.OX[.(.[.(.-X[.{.-X(.{.{.-X{.-X{.-X{.[.[.-X(.].(.[.(.[.(.].(.K.(.K.K.~.(.J.].].].[.K.(.[.(.J.(.J.J.K.~.(.J.H.L.J.(.K.J.H.J.L.H.G.H.J.J.J.K.H.J.H.J.L.H.H.J.J.J.J.H.J.G.J.J.G.G.J.J.L.J.J.J.H.J.J.H.J.L.G.G.L.G.L.G.G.",
"l.z.l.k.k.k.k.k.k.k.k.z.k.k.M.b.c.v.v.c.c.N.c.N.N.c.V.c.v.c.x.v.c.b.c.v.c.c.c.x.3.x.3.3.c.3.3.B.v.c.N.V.N.B.n.B.n.n.U.m.v.m.U.U.n.v.c.v.v.B.5.B.N.N.b.B.V.V.n.b.b.b.b.n.m.n.I.n.E.m.m.n.n.F.D.m.n.n.E.n.n.H.Y.E.Y.Q.E.Q.E.Q.Q.E.E.U.!.W.t.'.t.W.!.!.Y.Y.Y.C.Y.Y.Y.R.Y.Y.Y.Y.Y.Y.Q.Q.Y.Y.Q.E.Q.Y.E.I.U.!.!.Q.!.!.Q.Q.^.~._.~.Q./.J./././././.~./._.Q.Q._.!.!.W._.!.!._./.^._.~.^.~.^.^.^.^.'.'.^.^.^.{.{.'.'.}..X}. X.X.X'..X'..X^.^.'..X.X X X'. X'.'.|.|.'.'.|.`.`.).^.).'.`.|.|.|.`.|. X`.`. X`.`.#X`.$X2X`.2X2X|.2X2X2X2X`.1X X X|.|.{.|.|.|.|.`.1X X|.2X`. X|. X X|.3X2X1X2X2X2X6X$X2X$X`.1X X1X X|.{.{. X X X|. X X2X3X1X3X X X X X|. X|.|.2X`. X2X2X X X X2X2X2X1X2X1X2X1X2X2X2X2X1X2X2X1X2X1X X2X2X2X2X2X2X3X7XwXwX XgX X3X X;X X;X X XwX X|.|. X X3X{. X;X X;XwX;X X;X X3X3X3X1X5X1X1X1X3X{.-X3X1X1X{.3X3X|.1X|.1X3X1X3X3X-X3X-X;X3X1X3X X3X1X|.|.3X|. X|.|.|.|.|. X|.|.|. X X}. X{.{.3X;X X{.wX3X3X;XwX;X;X{.wX-X3X5X1X X{.;X{.;X{.{.{.{.{.{.;X{. X{. X{.;X;X;X3X{. X}.}.}.}. X X}. X|.}.{.}.{.{.;X{.{.{.|.{.{.{.}.}.).{.-X-X).+X{.+X{.[.{.{.-X+X{.{.-X).-X-X).-X).).(.-X(.(.{.{.[.=X{.[.-X(.[.-X=X).[.[.).=X{.-X+X{.[.(.=X[.[.[.(.(.[.[.K.K.}.(.].(.J.[.K.J.[.(.J.K.J./.J.J.(.K.J.J.K.J.J.J.K.~.K.K.H.L.J.J.H.J.L.J.J.K.H.K.L.J.J.L.J.J.G.J.Z.Z.C.J.J.Z.G.H.G.G.J.L.J.J.L.L.J.G.H.G.H.L.G.G.L.G.",
"k.l.k.l.k.j.k.j.k.k.k.k.k.k.l.k.c.v.b.c.c.b.b.b.c.c.b.N.m.c.v.x.m.c.b.x.c.x.c.x.3.3.c.3.c.3.c.c.c.c.N.v.v.b.v.n.B.U.v.v.U.v.U.n.v.n.c.c.3.c.v.N.c.N.N.B.B.n.n.B.b.n.n.B.n.n.n.I.I.n.n.n.n.n.n.V.n.n.n.H.I.C.E.Q.Q.E.Y.Q.Q.!.I.Q.!.E.'.W.'.!.U.W.!.Y.Q.Q.Y.Q.R.Y.Y.Y.Y.n.Y.Y.Y.Y.Q.Y.Y.Q.Q.Q.Q.Q.Q.Y.!.!.!.!.Q.^.!.Q._._./.~././.~.~./.~.~.~.~.~./.~._._.!._._.!.!._._.^.^.~.~.(.}.^.^.}.^.'.'.^.}.'.{.'.|.}.}.'.'.'..X X.X X}.'.'..X}.'.'..X'..X.X'.'.|.'.|.'.|.).{.`.).{.|.{.|.`.1X X`.|.|.|.|.`.1X1X`.|.|.1X|.|.2X2X2X1X X1X X2X|.1X|.|.|.|.|.`. X`. X|.|.|.|.|.|.3X X3X2X1X1X2X1X6X1X2X1X2X X1X1X;X X X|.3X X X X X3X2X X1X1X1X X X3X2X|.|.|. X X`.`.2X`.`.2X2X2X1X4X2X2X2X2X4X2X2X3X1X2X2X1X2X2X1X2X2X3X4X4X4X3X4X3X3X3X X X3X3X3X;X X3X X X1X X3X|.{.3X3X3X X3X3X X X3X3X3X2X2X7X1X1X1X1X1X1X1X3X X1X3X1X X1X1X1X1X1X1X1X1X1X3X3X>X3X3X3X3X3X3X3X|. X|.|.|. X$X|. X'. X X'.|. X X X X3XwX|. X{. X3X3X3X;X}.;X;X{.3X5X3X7X1X{.{.3X{.;X{.;X{.;X{.{.;X{.;X{.;X X;X;X|.3X X;X}.}. X X}.}. X|.{.{.{.{.{.{.{.{. X{.;X|.{.{.}.}.}.{.-X-X{.+X{.).-X-X-X{.).).{.).-X+X).).+X+X).-X).{.{.-X[.[.-X[.[.{.{.=X).(.{.{.-X).=X{.OX(.{.(.=X=X[.[.[.(.[.[.(.[.(.K.[.K.~.K.(.K.K.K.K.(.J.K.~.J.K.J.K.~.~.H.J.J.J.J./.K.J.K.J.J.L.H.L.J.J.K.J.K.K.H.J.L.L.H.H.L.J.G.H.C.J.Z.C.H.J.G.H.H.H.G.H.H.G.H.J.G.Z.C.G.H.G.G.G.G.",
"b.k.k.l.h.l.k.k.l.j.k.k.z.k.z.x.x.m.c.c.b.c.c.b.c.l.c.b.b.m.v.c.c.c.b.c.c.c.c.c.x.3.x.c.3.c.3.c.c.k.c.c.c.c.b.v.B.n.v.v.v.U.v.U.n.v.v.v.c.v.N.B.3.N.c.B.b.B.n.C.H.b.H.n.n.m.I.n.m.I.n.n.n.b.H.n.H.n.I.n.n.E.n.n.I.Y.E.Q.E.!.Q.!.W.!.'.t.!.!.'.U.!.!.!.Q.Y.T.!.R.U.Y.Y.Y.I.Q.Y.Y.!.Q.Q.Q.Q.Q.Q.Q.Q.R.!.R.).~.^.^._.~./.~./.(./.~.(./.~./././././._._._._._.'._._._._.^._./.^.~.).^.~.^.{.^.^.^.'.'.^.^.^.|.'.'.}. X.X'.'..X'.'..X'.'. X.X}.'.}.'.R.'..X^.^.^.'.'.).|.{.).`.^.).).`.`.`.`.#X|.`.`.|.`.{.`.|.1X1X|.1X|.1X1X1X1X1X1X1X X X1X X2X|.2X|.2X|.|.|.2X X|.|. X X3X2X2X1X2X5X2X1X4X|.2X X2X1X1X X X{. X{. X X3X X3X X3X3X1X|.3X|.|.`.2X|. X`.2X2X X X2X X2X2X2X2X1X1X4X1X4X2X7X2X4X2X8X2X4X2X2X2X4X4X4X4X4X4X4X4X4X4X4XgXgX3X3X XwX3X X3X X3X X3X3X3X3X{.wX X3X;X X3X3X3X X7X4X4X4X5X2X1X1X2X2X1X1X1X2X1X2X1X X1X2X2X1X X1X,X1X1X3X3X1X1X;X X|.3X|.{.|. X X$X2X X|. X X'.gX X|. X X1X X3X3X|. X;X;X;X3X X3X3X{.3X{.1X3X1X1X3X;X{.3X|. X;X{.|.[.{.{.{.}.;X{.;X{.|.;X}.}.;X X}. X}. X X}.{.{. X{. X}.;X{.{.{.{.{.{.{.{.{.{.}.+X{.-X{.{.-X{.{.-X{.-X{.-X-X{.).{.).-X{.{.-X{.=X-X=X-X-X[.-X-X;X-XOX).[.).=X=X).).(.[.(.-X(.{.[.-X=X-X[.=X[.OX].K.[.(.K.(.].[.K.J.].].J.K.K.K.J.(.J.(.~.K.K./.(.(.K.J.K.~.K.J.J.J.J.J.J.H.J.K./.H.K.K.H.J.J.J.J.J.G.Z.Z.G.A.G.Z.A.G.H.G.G.C.G.G.G.C.H.G.L.H.G.H.G.H.L.H.H.",
"k.M.b.k.k.l.k.c.h.k.c.k.k.k.k.k.m.m.x.b.b.x.b.x.b.b.b.m.b.c.m.b.x.b.b.b.b.b.b.b.c.c.l.c.c.c.k.c.c.c.k.c.b.c.b.m.m.n.v.n.v.v.n.v.v.v.v.n.v.c.5.5.c.N.B.c.c.B.C.n.n.H.C.D.n.n.I.n.I.n.n.n.n.n.n.H.C.I.D.n.n.C.n.n.E.Y.Q.Q.Q.!.Q.I.Q.!.!.W.W.!.W.!.!.I.!.!.!.U.!.U.B.U.Y.Y.Y.Y.Y.!.Q.Q.~.Y.~.Q./.^.Q.Y.Q.^.^.~.^.)._.~.(./.(.(.~.(.~./.(.~./.~.^./._._._._._.)._.)._._.^.!.^.~./.~.~.^.^.}.^.|.^.^.^.'.^.^.'.'.^.'.'.'.'..X}.'.'.'. X.X'.'.'..X'.'.'.^.^.'.|.|.`.{.|.-X).-X).1X).-X{.).`.1X+X|.#X{.).{.).-X1X{.1X-X|.|.1X1X1X1X1X1X X2X2X X2X2X|.2X|.|.2X|.|.|.|.|. X3X3X;X3X3X1X1X1X5X1X1X1X1X1X X1X1X X1X{. X X X X X X{. X1X1X3X3X1X2X1X1X|.1X|.2X`.$X X$X$X X$X2X2X2X7X2X2X2X2X4X2X8X2X4X2X6X2X X2X X2X X X4X4X8X4X4X4XgXgXgX'.4X4X2X2X3X2X X2X3X2X X X{. X3X3X X3X3X3XwX3X3X4X8X4X4X1X8X1X1X2X2X2X2X2X6X2X2X2X1X2X1X2X X1X2X1X5X3X;X3X|.;X1X3X3X|.|.|.3X|. X|.2X2X$X2XgX'. X2X X X X2X2X4X2X X X|.3X|.{.3X3X X;X X{.3X;X3X2X;X3X;X3X;X{.{.{.{.{.;X}.|.{.{.{.{.;X;X}.;X X3X}.;X;X}. X}.}. X{.}.{.3X{.{.;X|.{.;X{.{.;X X{.-X{.{.|.-X-X{.-X{.-X{.-X-X-X{.{.(.-X{.[.{.-X-X-X[.{.-X=X{.[.-X[.;X=X{.{.{.[.).[.+X[.[.[.(.{.(.).[.-X[.{.=X=X[.[.(.[.(.[.(.].(.[.(.(.K.[.J.K.K.~.K.~.K.(.J.(.K.J.(.(.J.J.K./.K.J.J.K.J.K.J.J.K.K.J./.K.K.J.J.K.J.J.K.H.J.J.H.G.C.A.C.G.G.H.A.G.G.C.V.C.G.A.G.G.H.G.J.A.G.J.G.G.H.",
"b.k.c.l.b.k.b.k.b.l.k.l.k.k.x.l.b.m.x.m.b.b.m.b.c.b.m.b.n.n.m.b.b.b.b.b.b.x.b.x.c.c.x.c.k.c.c.b.c.c.c.c.c.v.v.c.v.m.b.v.n.n.v.n.n.n.n.v.B.c.N.c.N.5.c.B.B.n.n.b.n.b.n.n.n.m.n.I.n.I.D.I.D.C.n.b.n.E.n.Q.E.D.I.n.Y.D.I.Q.E.I.E.!.!.E.E.!.W.'.!.!.!.!.!.E.!.U.R.!.Y.R.Y.Q.Y.Y.Q.Y.Q.!.~.!.Q._.!.Q.~.Y.T.^._.^.~.).(./.~.~.~./.~././.~.~./.^._./.~./.^.^._._.).)._._.!._.^.^.~.^./.}.).^.).'.^.'.'.^.^.^.^.^.'.^.'.}.'.'. X'.}.'.'.'.'.'.R.'. X'.'.^.{.^.^.^.).'.{.{.).-X{.-X{.).).).1X+X#X1X).1X).|.{.`.{.).{.{.1X).-X|.-X|.1X X1X|.|.|.2X2X|.2X|.2X|.|.|.|.|.|. X X X}. X-X-X3X2X3X3X5X2X2X2X3X1X X1X3X|.|. X{. X{. X X3X1X|.|.|.1X|.1X2X1X2X1X2X2X#X X$X X2X X2X1X3X2X2X2X2X2X1X4X5X2X4X1X8X4X4X1X X X X XgX X4X4XgX XgX'.gXgXgX2X4X4X4X2X2X2X3X3X X3X3X3X;XwXwX3X3X3X3X XwX4X4X4X4X8X4X1X6X4X6X4X2X2X6XgX2X2X6X2X2X2X2X2X2X2X2X1X3X1X-X;X3X{.|.|.3X3X X3X{. X|.$X X X2XgX X X X2X4X X X4X2X6X2X3X3X|.3X3X X;X;X;X{.3X{.3X3X1X-X X3X}.{.3X;X;X3X|.|.;X}.{.{.3X{.|.{. XwX3X}.}. X X}.}. X}.{.{. X{.{.{.;X{.{.{.{.{.{.{.{.{.{.{.{.-X{.).-X-X1X{.-X1X1X{.-X-X{.-X).{.[.-X[.;X-X;X[.{.=X;X-X-X[.-X[.=X-X{.-X{.(.{.+X).=X(.-X[.{.(.-X=X-X[.=X[.=X[.[.K.[.[.(.K.K.[.[.(.(.[.~.K.J.J.J.J.K.(.~./.(.~.K./.J.J.K.K.(.J.(.(.J./.J.J.K.K.J.K.J.K.H.J.K.H.J.J.J.J.G.Z.G.G.A.Z.H.H.G.G.A.G.A.A.G.C.H.Z.J.J.H.Z.C.H.Z.A.",
"b.k.b.l.k.b.b.l.l.b.x.b.k.b.l.x.c.b.b.b.b.b.b.b.b.x.b.D.D.b.n.n.b.b.V.b.l.b.b.b.l.c.l.b.b.l.c.x.c.c.c.c.c.b.c.c.c.m.v.m.n.n.n.m.n.n.v.B.v.c.N.5.N.c.N.B.n.N.n.b.b.b.n.H.n.I.n.n.I.n.n.C.n.n.H.n.D.C.C.D.C.n.I.E.n.I.Q.E.Q.I.Y.I.!.W.!.E.'.U.!.W.U.!.U.!.!.!.!.U.Y.R.Y.Q.Y.Q.Y.Y.Q.Q.Q.Q.!.Q./.Q.!.Q.T.~.~.~.~.(.~.(.(.~.~./.(.(.(././._./.)./._.)._._._._._._._.!._.!._.(.^.~.(.}.^.}.).'.'.'.'.^.'.'.^.'.R.^.'.'.'.'.'.^.'.'.|.R.R.'.'..X'..XR.^.^.^.^.^.^.^.}.{.-X{.-X{.+X+X).-X).1X-X1X+X+X1X`.{.{.).{.|.|.{.).|.|.{.gX`.gX'.|.`.2X|.2X|.|.2X3X X|.|.|.|.|.{.}.3X{.{.{.1X-X3X5X3X1X4X3X3X3X X1X1X X|.{. X X{. X X X3X1X X1X|.1X1X1X1X2X2X1X5X2X#X2X2X$XgX$X$X2X2X2X1X2X3X2X4X2X2X2X2X2X6X4X2X3X X3X X X X XgXgXgXgX XgXgXgX'.4X4X4X2X4X2X2X X X3X{. X3X;X;X;X3X X3X4X4X4X4X4X4X6X6X4X8X8X6X8X2X6X2X6X4X6X6X2X2X6X8X1X2X4X2X2X3X;X;X1X3X|.-X-X;X;X|.3X X{.3XwX2X2X2X2X'.2X X X X X X2X X2X2X X3X X X3X{.3X|.3X3X{.{. X;X;X1X3X{.;X X;X3X;X{.;X|.;X3X{.;X{.;X{.;X;X;X}. X;X X}.}. X}.}.|.}. X}.;X{.{.{.;X|.;X{.{.{.{.{.-X{.-X[.).{.-X{.{.{.-X|.-X{.-X|.-X{.{.[.-X;X{.;X{.;X[.;X=X=X-X[.=X{.=X;X-X-X-X=X[.-X[.{.=X(.{.=X(.-X-X[.[.{.[.(.=X[.(.=X[.(.[.(.(.[.K.(.[.[.K.K.(.J./.K.(.~.(.(.(.~.(.~.J.K.J.J.J.(.K.J.J.K.K.J.J.K.~.K.K.K.K.J.L.J.J.J.J.J.Z.J.J.J.Z.C.G.J.G.A.H.A.H.G.H.V.J.A.L.J.J.J.G.J.J.G.J.",
"k.b.l.c.b.l.c.c.b.l.b.b.b.b.l.x.b.x.b.m.m.b.m.b.b.F.b.n.n.n.n.V.b.V.F.b.N.b.V.b.b.l.x.l.l.c.l.x.x.c.c.b.b.c.n.n.b.v.n.C.n.n.B.n.n.n.B.n.B.v.N.3.c.N.B.c.v.N.b.m.b.n.n.b.D.n.I.I.I.I.n.D.n.H.b.H.n.I.n.n.Y.D.n.D.E.Q.E.Y.E.!.E.Q.I.I.!.W.W.!.U.!.!.W.U.!.U.R.!.R.T.!.Q.Y.Y.Y.^.Y.Q.Y.!.Y.Q.Q.!.^.~.Y.Q.~.(.~.Q.~./.~./.H.~.~./.~./.~.).~.)./._./.~._.!._.!.!._.!.!.Q.^._.^.^.).).^.^.^.{.'.}.'.}.'.).'.^.^.^.'.}.'.'..X'.|.'.^.'.'.'.'.'.'.'.'.'.'.{.{.{.{.{.^.{.).-X{.-X).1X{.).1X-X1X1X@X1X1X).1X`.|.`.`.).`.`.`.).|.|.'.$X'.'.|.1X|. X1X2X X|.1X X3X{.|.|. X X3X}.|.|.{.-X-X1X2X1X7X1X3X1X3X X1X3X|.1X X|. X X3X X3X X3X|.1X1X2X3X1X6X2X1X6X2X2X2X2X2X$X`.gXgX2X2X2X3X2X2X1X2X1X2X1X4X4X2X1X4X3X3X X2X XgX X X X XgXgX'.gXgXgX4X2X4X4X4X2X4X2X X X3X X;X3X3X3X3X3X4X4X4X8X4XjX4X6XgX6X8X8X8X8X2X4X8X4X4X4X2X4X4X2X4X3X2X7X2X2X3X5X2X3X3X;X3X;X|.|.|.{.;X|. X{.2X|. X`. X X X'.|. X2X X2X2X2X2X3X X3X3X{. X3X3X3X3X3X;X3X1X1X-X X;X;X3X{.{.3X;X-X3X{.;X{.{.{.{.1X3X3X X;X X}.wX3X}. X X}.|.}.3X|.{.|.;X{.{.|.{.;X3X{.3X{.{.{.{.{.-X{.-X-X-X1X-X{.-X-X-X).{.-X-X[.-X=X[.-X=X-X[.=X{.[.;X[.;X=X[.;X-X-X{.).-X-X-X).{.(.{.-X{.-X-X[.=X=X[.(.[.[.(.(.[.K.[.[.J.[.(.[.K.[.(.[.(.K.~.K.(.J.~.(.(./.(.J.J.~.K.(.K.(.[.K.(./.J.K.J.~.K./.K.J./.H.K.K.J.J.H.J.G.H.Z.J.J.Z.G.H.J.G.H.G.H.G.H.G.H.J.J.J.J.Z.H.Z.Z.C.",
"b.b.c.b.b.b.c.x.n.b.b.n.b.x.b.c.b.b.b.m.m.m.m.x.n.n.n.n.n.b.m.n.V.n.b.b.b.b.b.b.b.b.F.m.m.b.l.b.b.b.n.b.D.b.n.D.b.n.n.m.n.n.n.b.n.v.B.c.v.c.N.c.N.3.B.N.B.n.B.C.H.b.D.C.n.I.I.m.n.m.n.E.n.n.H.n.n.E.C.Y.n.D.n.I.I.I.E.E.!.W.W.!.!.W.W.U.'.'.W.'.t.'.'.U.!.U.!.!.Y.Y.Y.Q.Y.Y.Y.Y.Q.Y.Q.Q.~.!.~.Q.Y.~.~.~.~.H.~.C.~.~.~.H././.~././.).~._.).).).).)._.)._._._._.^.).).).^.^._.(.^.^.}.^.{.'.'.'.'.'.).^.'.^.^._.^.^.'.`.|.'.^.'.^._.'.'.'.^.'.^.^.{.^.{.^.{.{.^.{.).{.{.{.1X-X-X+X{.-X1X-X1X+X#X).`.`.'.$X'.'.'.$X'.$X'.$X$X'.gX$X X$X X2X2X X X X1X|.2X1X3X X X3X}. X}. X3X1X3X1X5X-X1X7X1X1X3X3X|.1X1X|. X X|. X{. X X{.3X|.1X|.1X1X1X1X2X5X2X4X2X6X2X6X2X2X$X6X1X1X2X2X2X4X7X3X2X6X4X6X1X2X2X3X2X X X3X X4X X2X$XgXgXgXgX2XgXgXgXgX4X4XgX2X4X2X2X2X2X3X3X;X7X3X3XwX XwXgXgXgXgXgX4XgXgX8X8X8X8X4X4X4X3X4X4X3X4X8X8X7X3X4X3X3X3X7X7X4X3X3X7X3X3X X;X3X X X;XwX}.;X3X;X X X X XwX X4XwXwXwX4X3X X3X X4X3X3X4X3X4X2X3X2X1X5X3X5X3X;X;X{.3X3X;X3X;X X X{.;X|.;X|.1X-X3X-X1X{.;X X;X}. X}.}.}.}. X3X{.;X{.-X{.{.-X1X;X1X{.-X{.-X).).{.).-X{.-X1X3X-X3X-X-X|.;X-X-X|.;X[.;X-X[.;X-X;X[.;X;X-X;X-X-X[.{.-X[.-X{.{.=X{.(.-X[.[.-X{.-X[.[.[.=X[.-X(.[.[./.(.[.(.[.(.[.(.(.(.[.J.J.(.J./.[.(.(.(./.~./.J.(.J.K.J.J.(.(.K.(.J.J.L./.K.[.(.(.K.(.~.K.J.K.J.J.J.J.G.H.Z.J.J.J.J.J.J.J.Z.Z.J.C.J.J.J.Z.Z.H.A.J.G.J.C.J.",
"b.b.b.b.b.c.b.b.b.V.b.V.b.b.b.m.m.m.b.m.b.n.m.m.n.n.n.n.D.b.b.D.b.n.b.b.b.b.F.m.b.x.b.b.F.z.b.b.b.x.b.b.n.C.n.C.n.n.H.n.n.n.n.n.n.n.v.n.c.B.v.N.c.N.B.B.b.B.n.B.n.C.b.n.n.n.n.I.I.I.n.n.D.C.C.D.C.I.n.D.I.C.E.C.I.I.E.I.U.U.!.!.!.U.W.U.t.'.'.W.'.!.U.!.t.'.U.!.Y.R.Y.Q.!.Y.Y.Y.Q.Y.Y.!.Q.Q.!.Q.Q.T.~.~.~.~.~.~.Q.~.~.Q./.~././.^.(._.(._.(.).)./._.~._._.)._.)._.'.)._._.^.(.}.^.{.{.^.'.{.'.}.).'.'.^.^.'.^.'.`.'.^.'.^.`.^.`.'.^.'.).'.'.).^.|.^.).^.^.|.{.{.{.|.{.-X-X{.1X-X-X1X@X#X+X1X@X+X#X`.'.'.'.$X$X'.'.'.'.'.$X2X'.gX`. X X2X2X X$X|. X1X|. X{. X{.{. X}.}.;X{.3X-X3X3X3X1X1X3X1X X1X3X|.|. X|.3X X|. X|. X X3X3X1X X7X1X6X7X2X2X6X5X1X2X6X2X$X2X2X2X1X2X2X3X2X2X2X2X4X4X2X4X4X4X2X4X3X X3X3X2X4X XgXgXgXgX2XgXgXgX'.4X8X6XgX2X6X6X2X2X4X1X3X3X3X3X3XwXwX3X4X2XgXgXgXgXgXgX4X6X8X4X8X4X7X2X7X7X3X7X7X4X4XwX3X7X3X7X3X3X7X7X7XwX3X3X3X;X X;X}.;X}. X}. X3X X;X;X;X3X3X4X X XwX X3X3X3X4X2X4X4X4X3X4X3X3X3X3X;X3X;X3X;X;X3X;X;X}.;X}.3X{.;X{. X-X1X3X3X1X-X;X1XwX}.}. X X}.}. X X}.}.}.3X;X-X1X3X-X3X-X{.1X1X-X-X{.{.[.(.{.{.-X-X{.-X{.1X-X-X|.-X|.-X;X=X;X-X;X-X;X-X;X-X-X[.{.[.[.-X=X-X{.-X{.-X[.=X).{.OX{.+X(.-X{.=X-X[.-X[.[.[.[.=X[.[.[.=X[.[.(.=X(.K.(.[.(.K.(.~.(.~.(.J.~.K.J./.J.J.(.(.[.K.J.[.].(.K.J.J.(.J.[.K.K.K.K.K.[.~.K.J.J.J.J.Z.J.Z.J.J.J.Z.J.J.G.J.Z.G.A.C.J.J.J.H.J.Z.Z.J.J.Z.",
"n.b.m.n.n.b.x.b.b.n.n.b.b.b.b.c.b.m.c.b.c.m.m.n.n.n.D.n.n.n.C.n.n.b.b.n.n.n.b.b.z.b.b.b.b.z.b.x.b.x.b.n.b.n.b.H.D.C.n.C.H.C.n.n.v.v.v.m.N.v.5.N.N.N.v.N.B.n.n.n.b.n.D.n.n.m.I.n.n.I.m.n.n.D.n.H.C.D.C.E.D.n.n.I.E.Y.!.I.!.W.W.U.W.W.W.!.W.U.W.U.!.W.U.!.'.U.'.U.Y.Y.Y.Y.Y.Y.Q.Y.Y.Q.Q.Y.Q.Q./.~.~.J.~.~./.~.Q.Q./.Q.~.Q./.~.~././._._._.).).).).)._._._.).)./.)._._._.!.^.).).~.{.^.^.{.^.{.'.'.^.^.'.^.'.^.!.'.`.).^.).^.).`.`._.'.).`.`.).).'.'.{.^.|.|.'.}.'.{.}.{.}.|.{.1X{.#X1X@X1X1X1X#X#X`.'.'.'.'.'.$X'.2X$X$X`.'.'.gX'.`. X X2X2X2X`. X3X|.1X|. X{.{.3X}.}. X}.3X{.1X1X1X7X1X2X1X1X1X X1X1X|.1X{. X X X|. X X X X3X1X3X1X2X2X2X4X1X4X2X2X2X2X1X2X2X1X2X1X2X2X2X2X2X3X2X1X8X4X1X2X8X2X7X4X3X2X3X2X4X6X4XgXgXgXgXgX$XgXgXgX4X4X6X6X2X2X2X4X7X4X2X3X3X3X3X4XwX4X4XgXgXgXgXgXgXgX4X6X8X6X6X7X8X2X2X2X3X7X3XwXwX7X9X9X3X;X9X7X3X7X7X3X7X3X3X}.wX;X X X}.wX;X3X;X;X X XwXwX3X X3X3X3X3X3X3X3X3X4X4X4X4X4X4X4X2X3X1X3X;X3X;X3X3X}.}.wXwX;X3X X|.;X;X X3X{.1X1X1X-X1X|.3X X3X X X}.}.wX}.;X3X}.{.1X-X-X1X;X-X-X1X-X3X-X{.{.{.).-X{.-X|.-X|.-X1X{.-X-X-X-X1X{.3X;X{.;X{.;X=X;X;X;X[.-X;X-X;X-X{.{.[.-X-X-X+X{.-X[.{.[.{.-X{.=X{.=X[.[.=X=X(.[.[.[.[.[.=X[.=X[.(.(.[.[.(.(.(.(.~./.(.~././.~.~.~.(.J.K.J.K.~.J.(.J.J.J.J.K.~.(.K.K.(.K.(.(.K.[.K.J.J.J.J.J.J.J.J.~.Z.J.Z.C.J.J.C.C.H.J.J.J.Z.J.A.Z.J.H.A.J.",
"b.n.b.b.b.b.b.b.n.b.b.b.b.m.b.b.c.b.m.b.n.n.n.m.m.n.n.m.b.n.b.b.b.b.n.b.b.b.b.b.b.m.m.b.b.m.x.b.m.b.b.n.n.H.n.n.b.n.b.b.m.b.m.b.v.n.v.v.v.c.5.v.N.5.c.B.b.B.V.n.n.b.m.m.n.I.m.n.I.n.E.E.H.C.H.n.n.E.n.n.n.Q.E.n.Y.E.I.I.!.U.'.'.!.I.U.W.U.'.W.'.!.!.!.!.U.'.U.!.R.Y.Y.I.Y.Y.Y.Y.Q.Q.Y.Q.!.Q.!.Q.Q.T.~.~.~.~.~.~.~.Q./.Q.Q.Q._.~.^./.).).)._.)._.).).).)._._.)._.).'.)._.^._.).}.^.}.{.^.`.'.^.'.'.^.^.'._.^.^.^.`.`.`.).`.`.).`.`.).'.`.).'.).`.|.^.|.^.^.}.|.|.{.|.}. X|.{.{.#X).1X1X#X-X#X$X1X#X`.$X$XgX'.$X$X'.$X'.`.gX'.$X$X$X`. X$X X2X2X X|.3X|.|.{. X3X{.3X X}. X-X1X1X1X1X2X1X5X2X1X X1X1X X3X|.3X X X{. X3X X3X3X2X2X3X2X3X2X2X2X2X2X2X2X2X2X6X2X2X2X$X1X2X2X2X2X2X1X2X1X2X2X2X2X1X2X2X2X2X3X2X2X2XgX2XgXgXgXgXgXgXgXgX6X6X4X6X6X2X2X2X2X2X2X2X3X5XwX2XwXwX4X4XgX'.gX2X6X2XgXgX6X4X6X6X2X4X4X8X3X3X2X3X7X3X3X3X;X3X3X3X2X7X3X3X3X3X3X3X X}.;X3X}.wX}.wX3X;X}.wXwX}. X;XwX X3X3X3X3X3X3X2X3X4X1X2X2X2X4X1X1X1X3X-X3X3X7XwX;X;X;X}.;X;X}.;X3X|.;X|.;X|.3X1X3X-X3X}.3X}.}.}.}. X}.3X}.}. X3X-X3X-X1X-X3X|.;X1X-X-X-X{.-X).).-X{.-X{.;X-X1X-X1X|.;X-X-X{.-X-X;X-X;X{.;X-X{.;X-X-X;X-X{.{.-X-X-X-X{.{.{.=X{.-X{.-X=X{.-X{.=X{.-X[.[.[.=X[.=X[.-X[.=X-X[.=X=X(.(.[.[.[.}.(.(.J.J./.~.~.(././.(.K.(.J.K.K.K.[.J.(.J.K.J.J.K.J.(.K.J.(.J.(.K.~.J.J.J.J.H.Z.C.Z.J.J.J.J.J.Z.J.G.J.A.Z.J.J.J.J.H.C.J.J.J.G.",
"n.b.n.b.n.b.m.n.n.n.b.n.b.n.n.b.c.c.n.c.v.n.m.n.n.v.v.n.b.n.b.c.m.c.n.n.n.b.n.b.m.m.b.m.m.b.c.m.m.b.b.b.D.H.n.D.n.b.b.n.m.b.b.b.n.v.v.v.v.c.N.5.c.N.v.c.v.V.n.n.b.n.n.b.n.n.I.I.I.I.I.H.H.H.n.H.C.I.D.C.D.n.Q.n.D.Q.I.Q.W.U.'.t.W.W.'.W.'.'.W.U.!.!.!.!.!.!.Q.Y.Y.R.Y.Y.I.Y.Q.Y.Q.Q.!.Q.Q.^.Q.Q.~.~.Q.~.~.^.Q.~./.!.Q.!._.^._./.)._._._.).+X).).).)._.).)./.).)._._._.^.~.^.(.).{.{.^.{.|.^.'.'.^.^.^.^.^.^.^.).).|.).).`.`.#X).).).`.).).#X`.).'.|.`.'.|.}.'. X^.|.}.}.|.{.|.`.1X1X#X|.#X#X#X#X`.`.`.`.'.'.gX'.`.`.$X$X`.$X`. X2X2X2X2X2X2X2X X|.3X|.3X{.|. X{. X X}.3X X X1X2X1X4X5X2X2X1X X1X1X X|.3X|. X{. X X X3X X3X2X4X7X3X3X2X2X2X4X X2X2X XgX2X2X$X X2X1X2X2X1X1X2X2X2X2X2X2X1X2X1X2X2X7X6X1X2X4X6X2X6X6XfX6XgXkXgXgXfX4X4X4X6X2X6X2X6X8X2X4X6X2X7X2X7X4XwX4X4X4XgXgXgXgXgXgXgX$XgX6X6X8X2X8X1X2X4X4X2X2X3X4X7XwX3X3X0X7X2X7X7X3X3X;X3XwX X}.wX;X}.wX}.3X;X X3X X;X X3X3X|.3X2X|.3X3X X1X3X X2X2X2X X1X1X3X1X;X3X3X,X;X;XwX;X3X;X3X;X;X3X3X3X{.1X1X1X|.3X1X1X1X{.|.{. X}.}.}.wX}.}.;X}.3X-X3X;X;X-X1X;X;X1X-X1X-X{.-X-X-X{.-X{.-X-X|.{.{.-X-X1X|.-X;X|.;X-X;X-X-X;X-X-X{.-X1X-X-X-X-X-X{.-X;X[.-X-X-X{.-X[.-X{.-X{.-X{.=X[.[.=X[.[.{.[.=X[.(.=X[.(.[.[.[.[.{.(.(.(.(.(.~././.~./.~.(.~.K.(.J.[.~.K.J.J.K.J.K.J.J.J.K.H.K.K./.J.K.(.(.K.J.J.~.J.Z.J.Z.J.Z.J.J.Z.Z.J.Z.Z.C.Z.Z.Z.Z.Z.Z.H.H.G.J.J.J.",
"b.m.c.n.b.n.n.b.b.n.n.b.n.b.n.b.b.b.c.n.n.v.U.U.U.n.n.n.n.n.n.B.v.v.v.B.v.m.v.m.m.n.m.b.b.m.m.m.m.n.m.n.b.n.n.b.b.D.D.m.n.D.m.n.m.n.v.c.c.B.B.B.N.N.B.N.B.n.C.C.H.b.n.n.n.I.E.n.n.n.E.I.I.H.n.H.E.C.Y.D.Y.Q.n.E.Q.I.Y.E.U.W.t.'.U.U.W.U.W.W.W.'.R.!.!.U.!.T.Y.Y.Y.!.Y.Y.Q.Y.Y.!.~.Q.~.!./.Q._.Q.Q.~.~.T.~.^._.).~.Q._._._._._.!._.)._.).)._.).).).).).).)._.~._.^.^._.).).).).}.^.{.|.^.^.|..X^.T.^.^.^.^.^.^.^.`.).|.1X-X-X).).).+X).`.).`.`.|.|.`.|.'.'.|.'. X|.|. X X|.|.|.|.|.`.#X).#X`.#X#X$X`.2X`.$X$X$X$X2X`. X`. X`.2X$X'. X'. X X X2X`.1X X3X|.;X|.{.3X3X X X X3X3X5X1X2X5X2X1X2X2X2X X1X3X3X|. X|.{. X X|.|.3X3X2X2X4X2X2X4X2X4X2X2X X X X X2X2X X$X X2X2X2X4X2X2X1X1X1X1X X2X2X4X2X2X2X1X8X7X2X8X2X8XfX8XfX6XgXfXgX8X6X8X6X8X6X8X6X6X6X6X6X2X2X8X8X4XqX4X4X8X2XgXgX'.$XgX$XgX$XgX6XgX2X4X6X2X2X2X2X7X7X3X4X3X3X4XwXwX7X7X7X4XwX3XwX{.;X;XwX}.wX}.;XwX3X;X3X X3X X X X X X X X3X2X4X2X1X X2X X X X2X2X4X2X3X2X;X3X3X,XwX;X;XwXwX;XwX;X3X3X3X|.3X1X1X1X5X1X3X1X{.|. X}.}. X}. X}. X}.wX-X1X-X5X3X1X1X-X1X-X-X{.-X-X-X1X-X{.{.-X{.-X-X-X1X-X{.{.;X1X1X;X-X{.{.;X;X{.;X1X-X-X1X;X1X-X1X).-X{.-X-X=X{.-X-X{.-X{.-X[.-X[.=X[.-X-X[.[.-X=X[.[.-X=X[.(.[.K.[.(.[.(.=X).[.(.(./.~.~.~./././.(.~.K.J.K.K.J.K.(.(.K.~.J.K.J.K./.H.K.J.K.J.K.J.L.J.J.K.J.J.Z.J.C.~.Z.~.Z.Z.H.C.Z.Z.C.J.J.Z.J.J.Z.J.J.J.J.A.",
"c.m.b.b.b.b.b.n.n.b.n.n.b.n.n.n.n.b.n.v.v.m.m.U.n.U.n.v.v.n.B.b.v.v.v.v.n.v.m.v.m.v.b.v.n.m.m.b.n.n.D.n.D.n.n.b.n.n.n.n.F.n.b.b.n.n.n.n.B.n.B.N.c.N.V.B.B.C.C.n.V.n.H.n.n.n.I.I.I.E.I.H.E.Y.Q.H.I.D.Y.n.n.Q.Q.n.Q.I.E.Q.W.U.U.W.'.W.U.W.W.U.'.U.E.!.!.!.!.R.Y.Q.^.Y.Q.Y.Y.Y.Q.^.~.!.!.~.!._.Q.^.Q.^.Y.^.Q._.^.)._.^.'._.`._.)._._._.)._._.).+X`.).).).)._.).(._._._.^._.).^.).}.^.{.^.|.'.'.'.^.^.^.^.^.^.{.).).^.).{.).).).).+X1X).+X).{.-X|.|.`.|.`. X'. X'. X X X X|.|.|.`.|.|.|.`.`.`.#X`.#X`.|.`.2X`.gX'. X|.2X1X|.$X X1X2X2X'.gX$X$X2X2X X3X3X X1X|.;X|.{. X X3X3X3X2X2X2X2X2X2X2X2X2X X$X2X1X X|. X X X X3X X X|.3X1X3X4X3X X X X4X X2X X XgX X X X2X X X1X2X2X4X2X1X2X1X2X|.1X1X2X1X2X2X1X8X1X6X6X2X6X6X6X6XfX6X6X6XfX8X8X8X8X8X8X6X6XgX6X6X6X8X8X8X8X8X4X4X4X4X2XgXgXgXgXgX$XgXgX$XgX6XgXgX2XgXgX2X2X4X4X8X4X8X8X8X4XqX7X4XwX7X3XwXwXwXwX}.;X}.;XwX;X;X;X X XwX X3X X X X X X`. X2X2X4X X X2X2X2X2X3X2X4X4X2X3X7X;X;X3X;XwX;X;X;X3X3X3X3X3X3X-X1X1X1X3X3X5X3X1X3X X{.3X}.}.}.}.}.}.wX}.-X-X-X1X3X-X-X-X1X-X-X1X1X-X-X-X-X{.-X).-X{.{.1X{.-X1X;X{.1X-X3X-X;X3X-X{.1X-X;X-X1X1X-X1X1X{.-X{.-X-X{.-X{.-X-X{.-X{.-X-X{.-X[.-X-X[.-X=X=X[.[.[.[.[.[.[.(.[.=X[.(.(.).(.[.(.~.(.~./.(.(._.(.(.(.K.(.K.K.(.K.J.J.(.(.K.(.K.J.K.K.K.H.K.J.J.J.J.J.J.J.J.J.J.Z.J.Z.~.Z.J.Z.Z.J.C.C.A.Z.Z.Z.Z.C.J.J.J.J.G.K.",
"c.b.m.c.n.m.b.b.b.n.b.b.n.b.b.n.V.B.B.c.v.v.U.v.U.m.v.v.n.v.b.v.v.v.v.v.n.v.m.c.v.c.m.m.m.m.m.m.m.n.m.n.n.m.D.b.b.F.x.b.b.b.b.x.n.n.B.c.n.B.B.B.B.V.B.B.b.C.C.C.D.b.n.H.E.n.Q.I.E.I.D.Y.H.H.H.H.H.C.D.E.H.n.I.n.E.Q.Q.I.'.U.W.U.U.W.W.U.'.W.'.W.!.!.!.!.~.Y.Y.H.^.~.Y.Y.Q.Y.T.!.^._.~.^.^./.^.!.~.T.Q.~.~.^.^._.!._._.`._._.'._.)._._._.#X).).).+X).+X).).(.).)._.^._._.^.).).).}.|.{.}.^.'.'.'.T.^.^.^.^.^.^.{.{.}._.)._.).).{.).).-X).).).1X|.`.|.|.|.`.'.'. X|. X X X|. X X|.|.`.#X).`.).#X`.`.`.1X|.2X`.`.`.1X|.1X1X`.2X|.1X2X2X X X X'.2X2X2X X3X X3X X3X X3X X X X X1X3X2X2X1X6X1X$X2X2X X2X3X;X X|.{. X{. X|.|. X3X X4X4X4X2X4X4X2X X2X X2X`.2X2X2X2X`.2X2X8X2X2X2X2X2X1X|.#X X1X1X1X6X1X8X1X8X2X5X6X6X8X6X6X6X6X6XfXgX8X8X8X8X8X4X8X6X4X8X6X4X2X2X7X6X4X4X7X4X4X2X4X2X2XgXgXgXgXgXgX6X6X$X2XgX2X2XgX2X6X6X4X4X8X8X8XqX8XqX7X4X7XwX0X9XwX;XwX;XwX}.3X X;X X X3X3X3X3X X X3X X X X1X2X2X4X3X3X X1X X2X2X2X8X4X3X5X3X3X3X9X;X;X;XwX3X;X;X3X3X;X3X3X{.3X1X|.1X1X1X1X|.}.{.{. X}. X}.wX}.}.wX{.-X1X;X1X1X-X-X-X-X{.-X{.-X3X1X1X-X-X{.{.{.-X-X-X{.{.-X-X-X1X;X;X{.-X-X-X;X|.-X-X-X;X1X-X1X-X-X{.-X-X{.-X-X;X|.-X-X-X-X{.=X{.-X-X[.=X[.-X[.{.=X-X=X[.(.(.[.[.(.(.[.[.(.(.(./.(.(.(.(.(.(.(.~.).[.[.J.(.J.(.J.J.(.K.K.~.].J./.J.H.K.K.J.J.J.H.J.H.H.J.J.J.J.J.Z.J.Z.J.Z.J.Z.Z.A.C.J.J.Z.J.J.H.A.J.G.J.J.G.",
"H.H.n.m.m.b.c.b.b.m.b.b.b.b.m.b.c.b.n.c.n.n.U.m.I.m.m.m.v.c.m.b.n.n.n.n.n.n.m.b.c.c.c.m.v.v.m.m.v.m.m.m.n.m.b.m.V.b.C.b.V.l.b.b.b.b.n.b.c.N.v.c.B.B.C.B.Z.B.B.n.H.n.D.D.n.E.I.I.E.E.I.D.H.G.G.H.C.C.D.C.H.n.n.n.n.Q.I.E.E.I.I.E.!.E.!.W.!.!.W.'.'.W.'.U.!.R.!.Y.Y.Q.Y.~.Q.Q.~.~.Q.~./.^.^.^.~.!.!.^.^.^.!.^._.^._._._.'._._.#X'._.W.#X_.`.).#X+X).).).(.).~.(.~.).)._.).).).).^.|.{.^.^.!.^.^.R.'.^.'.}.'.'..X^.^.R.^.R.}.}.}.^.|.}.{.{.{.|.|.|.{.|.`.|. X'.2XgX'. X X X2X|. X|.`.`.).1X).+X).#X1X|.|.|. X`.2X|.2X1X2X1X1X1X2X2X|.|.|. X X X2X X X}. X X}. X;X X}. X X X X X3X3X2X X2X2X2X2X2X`.|.|.|.1X1X X1X X|. X1X X1X2X4X4X2X4X2X4X6X2X4X4X2X2X2X X2X X2X2XgX6X6X2X$X6X X2X1X`.2X#X1X1X5X1X2X2X2X4X2X6X6XgXgXgXgX6XkXgX4XfXfXjXfXfX8X4X8X4X8X5X4X8X4X4X2X7X3X2X4X3X7X8X8X4X8XgXgX4X6X4X6XgXgXgX2X2X2X2X6X4X4X4X7X4XwXwXwXqX7XqX7X0X3X9X3X3X;X3X;X;X;X3X;X X X3X1X3X3X2X3X X3X2X X2X2X X1X X|.3X3X1X2X3X4X4X4X7X8X7X3X3X3X9XwX;X9X3X;XwX9X;X;X3X3X3X3X|.1X-X1X;X3X|. X}.}.}.|.}.}.}.{.{.{.;X1X-X1X3X-X1X{.3X-X1X-X1X1X-X-X-X|.|.;X{.|.;X{.{.{.{.{.;X|.;X|.;X;X{.;X{.;X;X;X{.;X[.;X-X;X-X=X-X-X{.-X-X{.+X-X-X-X[.-X[.=X{.=X[.;X[.[.[.[.[.;X[.[.[.[.[.].[.[.[.].(.(.(.(.).).).).(.(.~.).(.(.(.J.(.K.K.(.].J.~.~.].J.(.K.J./.J.K.K.~.K.J.J.J.~.J.J.J.J.J.T..XJ.A.J.A.A.A.Z.C.C.J.C.J.J.J.J.J.J.P.J.Z.G.J.",
"n.n.n.b.b.m.m.b.b.b.m.m.b.c.b.b.n.b.n.m.m.n.n.n.m.U.n.U.b.m.x.m.m.m.n.n.n.b.b.b.c.b.m.v.c.m.v.v.m.U.U.m.n.n.m.v.n.b.V.b.b.N.b.l.b.n.n.n.n.v.N.v.B.B.B.A.B.A.V.B.C.n.n.H.I.I.E.I.E.I.E.D.C.H.H.H.H.H.H.n.n.n.n.D.I.Q.Y.E.!.!.E.!.!.E.W.U.t.'.'.'.W.'.W.'.R.!.R.Y.~.Q.J.Q.~.Q.~.Q.Q.^.^.~.Q._.!.~.T.^.Q.^.!.^.^._.)._.^._._.'._._._.$X_.#X_.#X).).).).{.(.(.(.(._.)./.).~.)._.).{.'.).'.^.^.^.'.'.^.^.^.'.^.^.^.^.^.'..X'.'..X'.}.^.}.}.^.).|.|.|.`.|.`.|.2X`.'.$XgX'.2X`.`.2X#X2X1X1X`.-X1X1X1X{.|.`. X`.`.1X`.1X`.1X1X#X1X1X1X1X|. X|.|.`. X X2X X X X;X X;X X;X X3X{. X|.|. X X1X2X X2X2X2X2X`.|.|.|. X2X3X X3X1X|. X1X3X3X3X4X4X4X8X2X4X2X6X6X4X2X2X6X6X2X2X2X$X2X$XgX6X2X2X2X2X2X2X1X1X1X5X2X4X2X4X2X6X6X6XgX$XgX6XgXgXgX4X4XfXfX8X4XgX8X4X4X4X2X7X8X7X7X7X3X3X7X3X4X4X4X4X4X8X4X8X6X4X6X4X8X2X2X2X2X2X2X6X4X7X2X3X7X7XqX7XwX7X4X7X0X3X9X9X9X;X3XwX}. X X X X1X1X2X X X3X2X3X X3X X3X3X X2X3X1X3X3X2X7X2X4X7X2X4X2X3XwX0X3X9X3X3X3X3X3X3X;X3X3X;X3X;X3X3X1X1X3X3X3X;X{. XwX X}.|.}. X{.}. X{.-X1X-X1X1X-X{.-X{.1X|.;X3X-X|.-X;X{.;X|.{.;X3X{.-X{.|.{.;X|.|.|.{.{.{.;X;X{.;X{.=X;X;X;X[.;X;X[.[.-X).-X-X{.-X{.[.=X[.-X[.=X[.;X[.[.;X;X=X;X[.[.[.=X[.=X[.=X[.=X=X(.=XOX(.(.(.).).).).).(.}.~.(.[.[.(.[.[.J.~.].J.].~.J.~.(.K.K.(.J.K.J.[.J.K.J.J.J.J..XJ.J.J.J.].A.J.].J.Z.~.H.C.J.J.H.J.A.J.J.A.J.J.G.J.",
"n.n.m.n.c.m.m.m.v.m.m.v.m.c.v.m.n.b.n.n.n.n.m.U.U.m.m.n.n.c.b.m.t.I.I.n.n.m.n.m.n.n.c.v.U.U.v.m.U.m.v.m.v.m.n.n.n.b.b.n.N.c.c.x.n.b.b.B.b.B.v.B.B.B.B.B.B.B.B.V.H.D.C.D.D.I.E.E.Q.E.I.D.H.H.H.H.H.D.H.n.D.C.E.C.Q.Q.Q.!.!.!.!.!._.!.E.!.'.'.W.U.W.'.'.U.R.!.'.t.~.Q.Q.~.~.!.Q.!.~.^.~.~./.^.~.Q.Q.^.~.^.^.^.).^._.).'._.'.W._.$X$X_._.$X_.`.+X_.).).+X).(.).~.}.).)._.).).).^.).'.`.^.'.^.'.'.^.^.^.^.^..X^.!.'.'..X X.X X}.'.|.}.{.{.^.{.|.|.|.`. X X`. X`.|.`.`. X`. X X#X|.2X1X1X1X1X1X1X#X1X|.1X1X|.2X#X1X1X1X`.`.|.|.1X X{.1X X X|. X2X X`. XwX X X X;X{.3X3X X X X|.3X|. X X1X1X2X$X X2X2X|.|. X$X1X2X1X|.2X`.|. X2X2X2X4X6X4X2X4X7X4X2X4XgX4X6X6X2X2X2X2X2X2X6X6X2X6X2X2X4X2X2X2X2X5X5X2X2X X2X2X$XgX6XgXgX6XgX4X6XgX4XjXfX8X8XfX8X4X2X7X5X4X4X7X7X7X3X7X7X3X3X7X2X7X2X7X4X8X4X4X6X2X4X4X2X2X6X2X8X1X2X4X7X4X7X3X7XwXqXwX7XqXwXqX0X0XwX;XwX;XwX3X3X3XwX X3X X3X2X2X3X X2X1X X1X2X1X2X3X X2X3X2X3X4X7X8X4X4X7X3X7X3X3X3X3X3X3X3X;X3X9X3X9X3X0X3X3X3X-X1X3X3X1X;X X3X{. X}. X}.}.}. X}.3X|.|.-X3X;X|.-X1X-X1X-X-X1X|.-X1X1X|.;X|.|.{.|.;X{.{.{.|.;X;X|.;X|.|.;X|.;X|.|.;X;X{.;X[.;X-X=X=X=X-X-X{.-X-X{.-X{.=X{.{.[.;X{.=X[.=X[.-X[.;X[.;X-X;X=X;X[.=X-X-X[.].OXOX(.+X(.(.(.~.).).(.(.^.(.(.[.=X(.(.[.[.}.].J.~.(.J.K.J.(.K.K.(.(.J.[.J.J.J.J.J.J.Z.J.J..XJ.A.].J.A.J.J.~.J.J.H.H.J.J.P.A.].J.J.J.J.G.",
"m.m.m.c.c.n.m.x.c.m.n.n.n.n.m.m.b.b.m.m.v.n.U.m.n.n.m.m.b.m.b.b.I.t.I.I.I.n.m.m.v.m.n.v.U.2.U.2.m.2.v.U.v.v.v.x.v.v.B.c.v.c.v.v.b.b.n.n.n.B.B.n.N.B.N.B.V.V.n.B.n.C.D.n.I.E.I.I.I.I.E.H.H.H.G.H.H.H.C.H.C.H.n.n.D.Y.E.Q.!.W.!.E.W.E.!.!.W.'.'.W.'.W.'.'.!.R.!.'.Y.Q.!.~.Q.^.~.~.!./.^._.^.~.^./.^.~.^.^.Q._.^.^.).)._.'.$X_.'._._.$X_._.`._.).).).).).).).(.~.).).).)._._.).).^.).^.`.^.'.'.}.'.'.'.^.'.'.^.'.^.^.'.'.|.'. X'.^.{.'.{.{.|.{.^.|.`.`. X X|.|.`.|.'.`. X`.1X`.1X|.#X1X1X#X1X+X1X#X#X2X|.`.|.|. X`.|.2X`.|. X|.|. X3X|. X`. X X X`. X X X X X X X|.wX}.3X{. X|. X X X1X1X2X2X2XgX'.|.|.1X X X X1X X|.|.2X1X X2X4X2X4X2X8X1X2X2X8X4X8X4XgX4X6X6X2X2X2X6X6X6XgX6X4X2X2X2X4X2X4X6X2X6X2X2X4X2XgX6XgX$X6XgX6XgXgXgXjX4XgXfXfXgX6X8X8X4X1X6X7X2X7X4X7X2X3X3X3X7X2X4X4X4X8X4X2X4X6X4X4X2X2X2X2X6X2X2X4X4X4X4X4X7X4X4X7X7XqX7XqX7XqXwX0X0XwXwX3X3XwXwX XwX X3X2X X3X2X2X3X3X3X X3X3X1X X3X3X3X7X2X4X2X2X8X4X4X7X4X3X0X9X3X3XwXwX3X9X3X3X9X0X3X0X3X3X2X3X2X>X3X X3X{.3X{. X}. X X}. X{.{.{.-X1X{.1X;X3X-X1X{.-X3X-X-X3X{.-X{.{.|.;X;X|.|.1X|.;X;X|.|.;X|.;X|.;X{.{.;X-X-X|.-X-X-X-X;X{.-X-X[.{.-X[.{.-X-X-X{.=X;X-X{.=X{.=X[.=X[.=X[.;X=X{.[.;X{.=X;X[.=X=X=X=XOX(.OXOXOX/.)././.).(.(.(.(.OX=X[.[.[.].~.}.~.J.J./.J.(.K./.(.J.(.K.J.J.[.(.J.J.~.J.Z.J..XJ.].A.J.A.Z.Z.C.C.H.C.H.J.J.J.J.P.J.J.J.J.J.",
"m.m.m.n.m.m.v.m.U.U.t.U.m.U.t.U.n.n.v.n.m.n.m.m.m.m.m.n.b.b.b.n.I.I.m.E.I.I.I.n.n.U.U.m.t.U.U.t.4.3.v.2.3.U.v.2.v.B.v.v.v.3.2.U.m.n.n.B.C.n.B.B.v.B.c.B.B.B.C.V.H.n.Q.E.I.E.I.E.E.E.Q.Y.D.H.H.L.H.C.n.H.Q.I.n.Q.E.Q.!.Q.I.!.W.!.Q.E.E.E.W.'.!.!.U.'.U.'.W.'.'.W.Q.^.!.^.!.^.^.Q.~.^.~.~.~.).~.~.~.~.~.T.^.(.~.^.'._._.`._._._.'.$X_.#X_._.#X).).).).).^.}.(.}.).).).)._.).^.^.).'.).|.^.'.`.^.`.`.`.'.`.|.'.'.|.'.'.'.'. X X'.}.^.|.^.{.`.|.`. X2X X|.|. X|.|.|.2X`.|.|.|.1X|.1X1X1X1X1X#X$X$X1X$X1X1X1X1X1X|.#X X1X|. X`.|. X X X|.|. X X X`. X X X X X2X X2X2X X}. X3X|.|.;X3X3X X1X3X$X'.gX$X1X X1X X|.2X|.2X|. X2X2X2X2X X2X2X7X4X2X3X3X8X2X4X8X4X4X2X4X2X1X6X6X4X4X4X4X2X4X2X2X2X2X2X2X6X6X2X X2XgX6X2X6XgXgX6X6XgX4XfXgXgX4XfX8X8X6X4X8X2X8X2X7X2X7X3X2X4X4X4X3X4X4X3X4X4X2X4X2X3X2X2X2X2X2X2X2X2X4X4X2X2X2X7X4X2X4XqX8X4XqX7XqX8XqXqXwXqXwX3XwX4X X4X4X4X4X3X2X3X3X X X3X2X2X3X2X X3X X3X2X3X2X3X3X2X3X4X4X7X2X3X0X3X0X3X3XwX3X3X3X0X3X3X9X3X9XwX3X2X3X1X1X-X1X3X X{.;X}. X X}.3X{.{.|.{.3X{.1X-X1X3X{.-X{.1X;X3X-X1X1X-X;X-X-X3X{.-X;X{.|.-X-X1X;X1X-X-X{.{.3X X;XwX}.wX{.;X;X-X{.-X-X=X[.;X-X[.-X-X;X{.-X-X{.-X{.-X-X{.=X-X=X=X:X=X-X=X=X=X-X[.=X=X(.=XOXOX:XOXOXOXOXOX(.(.).OX).(.OX(.(.[.[.(.(.(.].~.~.J.~.~.K.K.(.(.J.[.J.K.}.J.K.J.J.J.J.]..X~..XJ.].A.J.A.J.C.H.A.H.J.H.G.J.G.J.J.J.J.J.K.J.",
"c.v.m.m.v.n.m.m.t.t.U.U.U.m.U.t.m.n.m.m.n.m.n.n.n.m.c.b.b.b.b.b.E.t.I.I.I.E.E.I.I.m.U.U.4.U.U.4.U.3.3.U.U.3.v.v.v.v.v.v.U.3.U.2.n.n.n.n.B.B.C.B.B.N.B.v.b.B.B.H.n.H.D.C.E.I.E.I.E.Q.E.Q.H.H.H.H.H.H.H.H.n.Q.Q.H.Q.Q.Q.!.!.!.!.!.Y.E.Q.Q.W.!.!.!.'.W.'.W.'.U.U.'.!.!._.^.^.^._.~.^.~.).(.(.~.~.~.~.~.~.~.~.^._.^._.).'.^._.`.$X_.'._.'._._._.)._.).{.).{.).).}.).).).).^._.^.).'.^.|.'.`.'.|.'.|.|.`.`.|.'.|.|.'. X X'. X'.'.'.'.|.'.`.`.`.`.`.|.`. X1X|.|.1X|.|.`.|.|.|.1X|.1X1X6X2X2X1X1X2X2X1X1X#X#X2X#X#X2X X X|.|. X|. X X X|.|.|.|.|. X2X X X X4X X X X X X3X X;X3X1X X|.|.|.3X1X1XgX'.gX$X4X2X2X X2X|.1X X2X X1X X X2X2X2X2X4X7X2X4X8X3X2X8X4X7X7X4X1X2X2X1X7X7X6X4X4X4X4X X X X3X2X1X2X6X4X4X X2X2XgX2X6XgX6XgX6X4XgXwX4X8X8X8X4X8X7X5X8X4X2X2X3X2X2X3X7X4X7X3X4X4X3X2X3X2X3X2X3X X2X2X3X3X3X7X3X2X7X7X2X8X2X4X8X8X4X8X8XfXiXqX8X7XwX7XqX4XwX3X3X XwX4X3X4X3X4X3X3X XwX X X3X2X3X3X2X4X3X3X3X3X3X2X7X7X2X4X8X7X3X3X3X3X3X3X9X9X3X3X;X3X9X3XwX3X3X5X3X3X3X3X5X;X1X X}. X3X X}.}. X;X{.|.|.-X1X-X3X1X-X-X1X1X;X1X1X3X3X-X3X|.-X-X|.-X1X1X{.-X-X3X;X3X;X;X|.{. X{.;X{.}.;X}.1X-X-X-X1X;X-X-X-X[.-X-X;X[.{.=X{.-X-X{.-X{.-X-X-X=X;X-X-X=X:X-X-X=X[.=X=X(.(.].=XOXOXOXOXOX@XOXOX+XOX(.(./.(.(.(.K.(.K.J.(.J.J.J.J.J.J.~.(.K.K.(.K.(.[.(.K.J.}.]..XJ..XJ.J.J.J.A.A.J.].J.J.H.J.C.H.J.J.J.J.J.].G.J.G.J.J.",
"x.b.m.b.m.n.m.v.m.U.U.t.U.t.t.U.m.m.m.n.c.n.m.n.m.b.b.n.n.b.b.n.U.I.I.E.n.I.n.D.n.n.n.v.U.U.U.U.v.x.v.v.v.v.U.v.v.v.U.U.U.2.U.2.v.n.n.Y.C.n.B.B.B.B.B.V.n.C.H.C.C.D.Q.n.E.I.I.E.I.E.Q.E.Q.H.H.H.Q.n.Q.Y.Q.E.Q.E.Q.Q.!.Q.!.!.!.!.E.Q.!.W.!.!.W.!.U.W.U.'.U.U.'.U.!.^._._._.!.^.^.Q._.(.^.}.~.}.~.~.}.~.~.~._.~.).).)._._.'.'.#X'._._.'._._.`.).).).).).).{.).).(.'.).).^.^.'._.^.'.`.`.'.|.|.`.'.`.`.`.`.`.|.'.`.'. X'.'.'.'.'.'.'.|.'.|.|.`. X`.|.|. X|.|.1X|.|.|.|.|.3X1X-X1X X1X2X2X2X2X2X$X1X#X1X$X#X|.1X|.#X`. X|.|. X|. X X{. X X|. X X X X2X XgX XgX X2X2X X3X X X X|.1X`.1X1X1X X$XgX'.gX4X4X2X3X2X|.2X2X X1X X3X2X3X2X2X4X2X2X2X2X3X4X4X2X2X2X3X5X3X3X3X7X2X4X3X2X2X4X X2X X2X X2X2X2X2X2X X4X X2XgXgX$XgX8X8XgXgX4X4XgX8X1X6X4X8X2X2X7X2X4X3X3X3X1X7X3X4X4X4X4X4X3X2X4X2X3X3X X1X3X X3X3X-X2X2X4X3X2X3X4X8X4X8XfX4XfX8X8X8XqXpXqXwX8X8XwX4X4X4X4X4X XwX4X XwX X X3X X3X3X X3X X X3X X3X7X3X3X7X7X2X2X3X4X7X4X7XwX3X3X7X7X3XwXwXwXwX9X3X0X3XwX3X3X3X2X2X;X7X2X3X3X3X;X X;X3X X3X{.|.-X{.-X|.1X-X1X-X1X{.1X1X1X3X1X-X1X-X;X-X-X-X{.{.-X-X3X-X-X1X1X-X1X-X3X}.{.;X;X{.;X;X-X-X;X{.-X;X=X-X{.;X;X[.=X[.=X[.-X{.{.-X-X-X-X{.-X-X=X=X=X+X=X=X=X=X:X[.(.=XOXOXOX:XOX%XOXOXOX+XOX+X+X/.OXOXOX/.(.(.~.(.~.~.J.~.~.J.(.J.K.(.(.K.K.[.].J.J.].J.J.J.].].A.].J.J.Z.J.].J.J.J.Z.J.H.Z.L.H.J.G.J.L.P.L.J.J.G.G.",
"x.l.b.N.b.b.n.b.m.m.U.t.U.U.t.U.v.n.m.m.m.c.b.x.n.b.b.b.N.V.V.b.m.m.m.m.m.n.n.m.n.n.U.m.v.U.%.U.v.n.v.U.v.U.U.t.U.v.U.v.U.U.U.m.n.n.n.B.B.Y.Y.B.B.B.n.B.B.B.H.H.D.C.D.H.I.E.E.I.!.E.I.Q.Q.H.E.Q.H.Q.Q.D.H.Q.Y.Q.Q.E.W.Q.Q.Q.!.Q.!.Y.E.W.!.!.!.E.U.'.'.U.W.'.U.'.!.!.^.'.).'.!.Q.~.).^.~.(.(.~.(.~.~.~.~.~.~._.^.!._._.'._._._._._.$X_.#X`.`.#X).).).).).^.).^.{.).).).^._.).)._.'.).`.|.|.'.'.`.'.`.`.`.'.`.'.`. X'. X'.'.'.R.'.`.'.`.'.`.|.`. X`.1X|.1X1X X|.1X X|.|.{.1X3X3X2X1X$X#X#X$X#X#X$X2X#X1X1X#X X#X X X`.|.|.'. X'.'. X{.|. X X X2X X2XgX2X2X2X2X2X2X X X X3X1X2X X X X X2X1X'.gXgXgXgX4X2X2X2X2X X2X2X1X X2X2X X2X2X2X8X7X4X2X7X2X7X2X3X1X3X2X3X2X1X2X4X7X4X3X X X X2X X4X2X2X2X6X2X4X2X X2X X2X2XgXgX8XgX4X8XgX4X6X4X8X6X8X8X1X8X7X2X7X3X2X3X2X2X2XwX4X3X4X4X4X3X3X2X2X X3X X3X1X X3X3X3X7X4X7X2X3X4X8X4X4XgX8X8XgXfX8X8X8X8X8X4X4X8X4X4X4X3X4X4X2XwX X4X3X3X X XwX X3X X3X3X X3X X7XwX4X7X4X7X4X4X4X4X3X2X3X0X7XwXwXwX7X3XwX9X3X0X3X3X7X2X2X1X3X1X8X2X7X5XwXwX XwX XwX X}.|.|.|.{.1X-X{.3X-X3X-X1X-X1X;X-X1X3X-X1X-X|.|.;X-X3X1X-X-X3X3X1X;X3X;X|.;X}.;X}.;X;X;X9X{.;X-X;X;X{.=X[.=X;X-X=X{.=X{.[.-X-X-X-X-X{.1X-X-X;X:X-X=X=X=X+X-X=X-X=X=XOX=X(.oXOXOX=XOX=X@X+X+XOX+XOX/.OX/./.(./././.J.J.~.Z.J.J.J.J.~.K.K.(.].J.K.K.].J.].K.J..XJ.].J..XJ..XJ.J.Z.G.Z.Z.L.Z.L.Z.G.J.J.J.J.J.G.G.J.G.J.",
"V.l.N.P.V.V.V.x.c.c.c.m.b.c.m.n.m.c.m.c.m.b.m.b.b.c.b.b.b.N.b.b.b.x.b.b.n.n.E.I.n.v.b.v.c.c.B.n.n.D.n.n.D.n.I.I.U.W.W.U.t.U.t.I.U.n.Y.v.B.v.B.R.B.B.B.B.C.H.n.H.C.D.I.n.E.n.E.Q.I.E.E.I.Q.E.Q.E.Q.C.Q.Q.Q.Q.Q.Q.Q.Q.Q.Q.!.!.Q.Q.~./.Q./.Q.Q.Q.!.U.!.!.!.R.!.R.!.!.!.!.!.!.!._.^.).).^.(.}.^.(.~.^.~.~.~.^.~.).~._._._.).`._._._.`.).).).).`.).).|.).|.^.{.^.{.^.}.'.'.^.^.'.).'._.'._.$X$X'.'.'.'.'.'.'.'.'.'.'.'.'.'.'.'.'.'.'.'.'.`.`.|.|. X`. X|.;X X|.3X3X{.3X|.3X|.|.1X1X1X1X#X2X#X#X$X$X|.|.#X|.1X`.1X|.|. X X'. X X X'.|.{.|.|.|.|.}.|. X1X2X2X2X6X4XgXgXwX4XgX2X$X$XgX`.'.gX$X$XgX$XgXgXgX4X4X4X2X4X X2X2X2X2X2X2X XgX2X2X2X X2X2X1X1X2X2X3X3X1X2X2X3X3X4X3X4X3X4X3X X X X X X4X2X4X4X4X4X X X X X X XjX X X XjXgX6X6X4X8X8X6X8X1X1X8X8X8X4X4X7X1X3X X X2X2X4X3X2X3X2X3X4X4X4X4X4X3X4XwX2X3X3X7X7X3X4X4X4X4X8X4XgXgXfXgXfX8X8X8X8XqX8X8X4X4X4X4X3X4X3X4X X XwXwX X XwX X3X XwX XwX X3XwX7XwX7X3X4X2X7X7X4X8X4X8X4X3XwX3X3X4X3X7XwX3X3X3X;X3X3X3X1X1X1X7X7X2X8X7X4X3X4X3XwX3X X X{.{.|.1X3X1X-X3X-X3X1X1X-X-X3X1X-X3X1X,X-X1X;X-X-X-X-X1X1X;X;X1X-X1X-X-X<X}.;X<X;X}.<X.X<X;X;X;X[.;X=X;X;X;X=X-X;X[.-X[.-X-X-X-X{.-X-X{.-X:X=X+X=X:X=X-XOX=X-X+X=XOXOX=X:X=XOX%X=XOXOX:XOXOXOXOXOX(./.OX(.(.(./.J.~.~.J.~.~.K.J.K.~.K.K.].].J.P.J.J.].P.].J.].J.J.A.J.A.].P.A.A.J.A.J.J.K.G.G.J.J.].J.P.J.K.G.K.L.",
"M.V.l.M.l.l.l.N.b.x.b.b.m.b.m.c.m.b.b.b.b.m.c.b.b.b.n.b.b.b.b.b.l.m.b.b.b.m.m.I.n.c.v.V.c.b.N.b.m.D.D.n.n.E.D.E.W.W.U.t.W.U.W.t.I.n.n.v.v.v.B.U.C.B.n.Y.C.C.H.n.D.H.D.n.n.Q.E.I.E.I.E.E.D.C.E.I.Q.Q.E.C.Q.Q.E.Q.Q.E.Q.Q.!.Q.!.Q.Q./.Q.Q.Q.Q.!.E.!.U.!.U.!.!.!.!.!.!.!.!.!.!.^.!.^.^.).~.~.(.~.}.~.~.~.}.~.).~.^.).!.)._._._.`._._._.`.'.).).^.^.`.).).).^.{.^.|.'.'.^.^.^.^.'.^.'.$X'.'.'.'.$X'.'.$X'.'.'.'.'.$X'.'.'.'.'.'.'.'.^.'.'.`.|.`.`. X3X|.|.|.|.|.|.3X;X3X|.|.3X1X2X1X1X1X|.$X$X`.$X#X`.`.#X).|.|.`.|.'.}. X X.X'. X'. X}. X}.|. X X2X X1X2X4X2X6X8X6XgXgXgX$XgX`.2X$XgX'.gX$X'.gX'.gX4XgXgX6X4X2X2X X2X X2X X2X X X X2X$X2X2X2X2X2X6X7X2X3X2X3X5X2X1X XwX3X X3X XwX XgX XgX X4X4XgX4X4XgXgX XjX X X XwXjXjX X8XgX8X6X8X8X8X8X8X8X6X8X4X8X4X2X3X X2X1X2X3X X3X3X X X2X3X2X3X2X3X4X4X3X3X7X3X3X3X2X4X7X2X7X4X8X8XfX8X8X8X8X8X8X4X4XfXgXqX4X4X4X4X3X4X4XwX X X X3XwX XwX X3X3X3XwXwX X XwX3XwX7X7X4X4X4X4X4X4X7X7X3X7X3X3X7X3X7X3X3X3X0X3X3X3X{.1X3X4X1X7X7X7X4X7X4X3XwX3X3X{.3X{.3X;X|.-X3X-X1X3X1X-X3X3X1X1X;X3X5X3X1X-X-X1X-X-X3X-X-X-X1X5X-X-X-X;X{.;X}.}.<X<X<X<X<X<X[.<X[.=X;X<X:X[.;X;X[.-X;X{.=X{.-X-X|.-X-X{.-X-X-X-X=X-X+X=X>X-XOX+X=X+X=X=XOX+X:X:XOX=XOXOXOXOXOXOXOXOXOX+X(.(.(.(./.(.~.J.~.~.J.J.(.[.J.(.K.J.J.].].].J.J.]..X].J..X].A.A.].A.A.].P.P.J.G.Z.G.J.J.G.J.P.J.J.L.J.J.K.L.",
"M.M.M.M.l.V.l.l.l.l.c.k.b.c.b.b.c.x.b.m.c.c.b.b.b.b.b.b.b.b.b.b.b.x.b.V.C.b.U.U.n.b.c.c.c.N.c.B.D.D.n.D.D.D.D.E.U.E.W.W.W.t.W.E.n.n.v.v.v.U.B.v.n.B.B.C.C.n.n.H.D.I.D.C.D.Y.E.E.I.E.I.Q.I.E.!.E.E.Q.Q.Q.Q.Q.Q.Q.Q.Q.Q.Q.Q.!.E.Q./.Q.Q.Q.Q.Q.Q.!.!.W.!.!.!.!.!.R.!.!.!.!.!.)._.^.)._.)._.^./.(.^.Y.~.~.~.^.).^.)./.)._.).)._.).).).).).).).).).|.{.).|.{.|.^.{.'.'.^.^.^.^.'.^.'.'.#X'.'.'.$XW.$X$XW.'.$X'.$X'.'. X'.'.'.'.'.'.'.'.`.|.'.'.|.|.`.|.|.|.|.|.3X1X|. X|. X|.|.1X2X2X#X#X1X#X$X#X|.#X|.|.|.|.`.|.|.`. X X'.'. X X'. X X|. X X X{.|.3X1X3X2X2X6X8X2X2XgXgX$XgXgXgX$X2XgXgX2X2XgXgXgXgX4XgX4X2X2X2X2X X2X X2X X X2X2X2X2X2XgX2X6X6X$XgX4X1X4X2X4X4X7X2XwX4XwXwX4X XwX X X4XgX X4XgX4XgXjX X X X XwX XwX X X XwX8X6X8X6XuX8X8X8X7X8X8X8X8X4X4X4X2X2X X X3X X4X2X3X X4X3X3X4XwX X X3X3X3X3X3X4X7X4X7X7X2X2X4X8XgX8XgX4X8X8X8X8X8XfX8X8X8X8X4X2X3X4X3XwX3XwX X XwX X;X X}. X X XwX X3XwX3XwX7X3X7X7X4X8X4X8X4X4X4X4X7X4X7X4X7X3X7X3XwX3X9X3X;X;X3X3X1X4X1X2X7X7X7X3X3X3X3X{.3X{.3X3X|.;X1X1X;X3X1X3X-X1X-X1X1X1X3X;X1X>X3X{.1X-X1X1X-X-X-X3X1X-X1X-X1X1X;X<X<X<X}.<X.X9X.X}.<X<X<X<X<X<X<X;X-X;X-X-X[.-X[.[.-X{.;X-X-X{.-X=X-X=X-X-X=X+X=X-X=X+X=X=X=X=X-X:X@X=X:X:XOX=X=XOX=XK.OX(.OX(.(.).(./.(.~./.~.~.~.J.(.~.(.K.K.(.].].].J.J.J.].J.J.].J.J.].A..XA.].A.A.].Z.G.J.G.J.J.J.J.P.K.P.].J.G.L.L.K.",
"P.M.V.V.l.l.N.k.l.b.l.b.l.l.b.k.b.b.b.l.b.l.b.k.c.b.V.b.b.n.m.b.b.b.b.b.D.b.U.U.c.n.c.b.c.c.b.b.m.m.D.E.D.n.E.m.W.t.U.U.W.W.t.I.U.v.v.v.B.v.v.B.U.B.n.B.n.n.H.n.C.E.n.n.I.D.I.E.E.I.E.E.Y.E.E.I.I.Q.E.Q.Y.E.I.Q.Q.Q.E.Q.Q.Q.Q.Q.Q./.Q./.!.Q.!.Q.!.U.U.!.!.R.!.!.!.!.!.!.!._.!.^.^.~.^.~.^.~.^.~.~.~.Y.^.~._.~._.^.).).).).`.).).).).).).).).).).^.).^.^.^.{.^.^.^.^.'.^.'._.'.^._.'.$X'.'.W.$X'.'.$X'.'.'.'.$X'.'.'.gX'. X'.'. X^.`.'.`.|.|.|.|.{.|.;X|.|.|.|.1X3X1X3X|.1X1X|.2X2X1X1X|.|.1X$X|.|.|.|.|.|.|.|. X X'. X X'. X X X}. X}. X{.|.3X|.3X3X5X1X2X2X6X6X6X6XgX$X$X$XgX'.'.$XgX$XgX'.'.gX X4X2X4X XgX2X X2X4X2X2X2X2X X X2X6XgX2XgX6XgXkX4X8X8X4X7X7X4X3X XwX X XwX X XjXwX XwX4X4X X XjXjXgXjXgX X XjX XwXjX XwX8X8XfX6X8XpX8XyX8X8X8X8X8X8X4X4X4X4X4X4X4X4X X4X X4X2X X X4X X3X4X X X4XwX7X4X3X8X3X4X7X8X8X4X8XgX8XgX8X8X8X8X8XfX4X6X4X4X4X3X3X3X3X3XwXwX}.wX X3X3XwX X3XwXwX X X3X X3X3XwX3XwX7XqX4X4X8X8X4X7X4X7X3X3X7X4XwX4X7X3X3X3X7X3X2X3X1X4X2X8X7X5X2X7X7X1X3X3X3X{. X{.{.3X3X;X3X1X1X;X-X3X5X3X3X,X1X-X1X1X3X1X1X;X-X1X;X1X1X-X1X,X3X-X1X;X-X{.}.<X<X;X<X<X<X<X<X<X[.<X;X[.-X;X-X;X{.;X;X;X{.=X-X{.{.-X-X).=X{.=X(.(.=X(.(.+X=X(.=X[.=X=XOX+X=XOX-XOX=XOX:X].OX=X(.=X(.(.(.(.OX(.(._.~./.~.~.(.~.~.[.K.K.K.OXK.].K.J.].J.].J.].].J.J.J.A.].A.].P.J.J.A.J.J.G.J.G.J.K.P.J.J.L.J.L.].P.].K.",
"M.l.l.N.M.l.M.l.b.l.b.N.b.N.b.l.V.l.b.N.M.c.k.b.M.b.b.b.n.b.m.n.b.b.b.D.t.U.t.U.U.m.U.m.v.c.c.n.n.n.n.n.n.n.n.n.I.I.I.m.n.I.I.I.n.v.v.v.v.3.U.v.B.B.C.B.C.D.n.H.D.I.D.E.Q.n.E.Q.Q.I.E.E.R.E.E.!.Q.Q.Q.Y.E.Q.Q.Q.Q.Q.Q.Q.Q.!.Q.Q.Q.!.Q.Q._.Q.Q.Q.!.!.Y.!.R.^.!.R.R.!.!.!.^.!.^.!._.^.!.~.!./.^.~.T.^.Q.^.^.!.^.Q.(.).).~.).OX).).).).).).^.).).).^.'.^.^.^.^.^.'.^.^.^.^.'.'.`._.'.'.#X_.$X'.'.'.$X$X'.$X'.'.$X'.`.|.|.'.'.'.'. X'.'.|.|.'.|.|.`. X|.|.|.|. X|. X X1X X2X1X2X|.1X1X1X1X#X1X1X#X1X|. X|. X|.|.|.|. X X}.'.|.|.|.|. X X|. X X3X;X X3X3X-X3X1X7X8X5X6X2X2X6X$X$X$XgX2X X$X2X'.2X2X2XgX XgX X2X2X2XgX2X X2XgX2X XgX2XgXgXgX2XgXgXgXgXgX4X6X4X4X4X4X8XwX XjXjX XjX XjX X XwXwXwX XwX4X XgXjX XjX X XwXwX XwXgXfX8XfXfXfXiXyXiX8X8X8X8X8X8X4X4X4X4X XgX XgX4XwX4X4X X4X4X X4X3X X X3X3X4X8X8X4X7X4X4X8X4X8X4XqX4X8X8X4X8X7X4X8X4X4X4X8X X X X;X3XwX3XwX XwX XwX XwX X X3XwX XwX X3X3X3X3X0X3XwX7X4X8X4X4X8XqX4X4X4X4XwX4X7X4X7XwXwX3X7X7X3X3X2X2X1X2X2X6X5X7X4X2X3X3X1X|.;X|.{.|.-X-X1X1X-X1X-X3X1X-X1X-X3X-X3X1X,X-X3X-X-X1X-X1X-X;X3X;X5X-X3X-X-X3X-X;X[.<X;X;X{.;X[.;X;X{.;X-X-X-X-X{.;X|.;X-X-X-X{.[.-X[.=X{.=X{.=X-X(.{.(.[.{.(.-X{.OX[.).[.{.{.=XOX=XK.=XOX=XK.].].(.[.[.(.(.(.(.+X)././.(.(.~.~.~.~.K.(.K.(.K.].].].J.].J.A.].J.J.].J.].].A.]..XA.].A.P.P.J.J.J.L.K.G.J.J.J.P.].J.P.J.L.].",
"l.V.b.b.b.l.b.b.c.b.b.b.b.c.b.b.b.V.b.l.l.l.l.l.b.M.N.b.m.m.m.n.m.D.n.m.W.t.'.t.U.U.t.U.v.v.v.c.m.v.m.m.n.n.m.n.U.m.n.m.n.n.n.n.v.n.v.U.v.B.R.B.n.v.n.n.n.C.D.n.n.E.n.Q.D.E.n.n.n.E.I.Q.E.E.!.I.Q.E.Q.E.Q.Q.Q.Q.Q.Q.Q.Q.Q.Q.Q././.Q./.!.Q.Q._.!.!.!.!.!.!.!.!.!.!.!.!.!.!.!._.^.^.^._.^.^.!.!.!.!.^.^.Y.Q.~.Q.^.^./.(.(.).).).-X).).^.).).^.|.^.{.^.{.{.^.{.'.}.^.^.'.'.`.`.'.`.'._.'.$X'.'.W.$X'.'.$X'.$X'.'.$X X|.'.}.'. X|.'.{.'.^.|.|.`.|.|.|.|.|.1X|.|.1X|.|. X2X X2X X2X1X1X1X1X1X1X#X1X1X|. X'.|. X|. X X X X X X|. X X|.}.|. X}.{.3X3X;X-X3X3X-X5X1X1X5X1X5X2X1X$XgX$X'.2X1X2X`.gX2X`.`. X2X2X2X XgX2X XgX2X X2XgX2X2X2X$XgXgXgXgXgXgXgXgX6XgX4X6X4X2X4XjX X X X XwX X XjX XwX XwXwX XwXgXwX XjX XjX XwX XjX XjX8XjXfX8XyXyX8X7X8X8X8X8X4X4X8X4X4X XjX XgX4X4X XwX4X4X4X4X X4X X3XwX4X3X8X4X4X7X8X4X8X4X8X4X8X8X8X8X8X8X8X4X8X4X7X2X8X4XwXwX3XwX3X3XwX3XwXwXwX}.wXwX}.;X;X XwX XwX XwX3X3X3X7XwX7XqX8X8X4X8X4X8X4X8X7X4X4X8XwX4X7X3X3X3X3X3X3X3X7X4X8X7X8X7X5X7X3X3X1X3X|.{.|.|.;X1X3X3X1X3X3X-X3X-X3X1X1X-X1X3X1X1X3X5X3X-X-X3X-X-X1X-X3X1X3X;X3X-X1X-X;X|.{.;X;X;X;X;X{.{.;X;X1X-X>X-X-X-X-X-X;X|.-X{.-X[.-X[.{.[.=X{.{.-X[.-X-X(.=X{.{.(.).=X).(.(.[.(.OXOX(.K.K.K.].[.].(.[.}.}.).).(._.)._./.^.~.~.}.~.J.}.~.].(.K.].K.].K.J.].].].].A.].A..X].].A.].P.A.].J.J.G.J.L.J.J.L.P.].].P.J.].].L.P.",
"b.n.x.x.b.m.b.b.b.b.b.b.b.b.b.b.b.l.V.l.M.l.l.M.l.b.b.b.n.n.m.n.I.t.n.I.U.U.'.%.t.U.U.U.U.3.m.m.U.m.v.m.m.n.v.n.x.v.m.m.m.n.n.v.v.U.v.v.v.U.U.B.U.B.B.n.D.C.n.b.E.n.Q.E.Q.n.I.D.I.E.E.E.E.E.!.E.Q.E.Q.D.E.Q.Q.Q.Q.Q.Q.Q.Q.Q.Q.Q.Q.Q.Q._.Q._./.~.~.!.Q.^.^.Q.!.^.Q.^.Y.Q.!.)._.^.!.!.!.!.!.!.!.!.!.R.!.!.~.!.~.Q.~./.~.).(.(.(.(._.^.).).).{.'.).^.^.'.^.^.}.^.^.^.'.|.'.`.|.'.'.'.'._.$X$X'.$X'.'.'.'.$X`.$X`.`.`.#X|.|.|.{.|.|.{.|.|.'.|.|.|.|.`.|.|.|.|.|.|.|. X2X$X X2X$X2X1X$X1X1X1X1X-X1X#X|.|. X X|. X|. X|. X X X X|. X|. X'. X X}. X}.3X3X;X-X;X-X5X>X1X5X5X1X5X1X1XgX2X1X X2X1X`. X|. X$XgX X2X2X2XgXgX2XgX2XgX2XgX X$XgXgXgXgXgXgXgXgX2X6X6X6X2X8X2X4XjX X XjXwXjX XwX XwX X XwX3XwX X X4XgX XwXwX X XwXwXwXwXfXfXkXkXyX8XyXyXqX8X8X8X4X4X XgX XjX4XgX4X4XwXgX4XjX4X4X XwXwX3XwXwX3XwX7X4X8X4X4X4X4X8X2X4X4X4X8X4X4X4X8X7X7X4X4X2X3X2X3X X X X;XwXwX;X;X XwX X}.wXwX XwX X}.wX XwX XwX3X9XwXwXwX7X4XqXqXqX8X8X8X7XwX7X8X8X7X3X3X7XwX0X7X3X3X3X4X4X4X6X6X7X7X7X2X3X;X|.|.3X3X|.|.3X;X1X-X1X3X1X1X1X3X-X3X3X-X-X3X1X5X3X-X3X5X;X5X3X5X1X5X5X5X5X5X-X;X1X{.;X|.3X3X1X1X1X1X-X|.1X1X-X1X#X1X1X-X-X-X-X-X-X[.[.[.(.(.[.[.=X[.).{.(.(.{.).{.[.-X(.}.(.(./.(.OX[.[.K.].K.].].].[.[.[.(.).).(.)._.).).(.~.~.~.J.~.].(.K.J.[.].[.].].J.].J.J.].J.].].].].A.].A.P.].].A.J.J.P.J.J.J.P.K.P.L.P.].L.P.].J.].",
"n.m.b.b.x.c.m.b.m.b.m.b.b.m.b.b.V.V.M.l.N.l.l.l.N.b.b.b.n.m.n.m.t.I.m.I.U.U.U.!.t.t.t.U.U.U.v.m.3.m.v.v.v.m.v.U.x.x.x.m.c.v.v.v.U.B.U.U.U.B.B.Y.v.B.n.B.b.n.C.D.n.n.n.n.Q.E.Q.I.E.I.E.I.E.I.E.E.E.Q.Y.Q.Q.Q.E.Q.Q.Q.Q.Q./.Q.Q.Q.!.Q._.!.Q.~.!.Q.!.~.!.~.Q.^.T.Y.Q.Q.~.!.Q.^.~.!.^.!.!.!.!.!.!.!.!.!.Y.!.Q.~./.^.~.~./.~.(.).}.).).).).^.^.).).{.^.^.^.^.^.^.^.'.'.^.'.`.|.`.'.$X'.$X'.'.'.$X'.'.$X$X'.$X$X`.2X#X|.|.{.|.{.|.}.{.{.|.{.{.|.|.|.|.|.|.|.|.|. X|.|.`.`. X2X2X2X1X1X1X1X1X1X1X1X1X-X|. X'. X'. X X|. X X X|. X|.1X X X X}. XwX3X3X;X;X;X3X;X1X,X1X5X-X-X;X1X5X1X1X1X1X1X1X|.#X X1X1X X`.$X2X2XgX XgX X2X X2X X2X2XgX$XgX$XgXgXgXgXgX2XgX8X2X2X2X2X8X XjX X X X XwX X X X XwX X3XwX3X X4X XjXjX XjXwX XwX XjXqXfXkXkX8XuXyXyX8X8X7X2X4X4X4X4X4X X XgX XgXgX X4X X4X4XwX4X4X4X3XwX4XwX4X4X4X8X8X7X8X4X7X4X8X8X4X8X4X8X7X8X8X7X7X3X2X2X3X3X3X;XwX;XwX XwXwX XwX X X X}. X XwX XwX X3X X3X0XwX3X4XqXqX8X8X8X8X4X8X4X8X7XwX7XqX4XwX7XwX3XwX3X7X2X7X2X8X6X7X7X7X5X3X3X3X3X3X3X{.3X{.3X3X3X3X-X-X3X;X1X-X3X-X1X3X1X-X3X3X-X5X>X5X1X-X5X;X>X,X3X5X-X3X3X-X-X3X-X;X-X3X-X;X1X-X1X1X-X1X#X1X1X-X{.;X1X-X{.{.{.-X[.=X[.[.=X=X[.[.-X{.[.-X[.{.-X).[.{.(.(.(.~.K.[.OXOX=X(.=X].K.J.].(.(.(.}.).}.).).(.(.^.(./.~.(.(.~.(.[.(.(.[.[.].].].J.].J.A.].A.A..X]..X].].J.J.J.J.P.J.J.J.J.P.J.J.J.J.].P.L.].K.K.].",
"n.b.m.b.m.n.b.m.D.m.D.b.F.b.b.F.b.l.l.G.l.b.l.b.D.b.n.m.D.n.n.n.U.I.U.E.t.t.W.U.t.W.U.I.U.t.U.U.t.U.3.U.m.m.3.v.m.v.c.c.m.b.b.n.v.U.U.Y.Y.Y.v.B.c.v.B.v.V.n.C.n.D.D.n.Q.D.I.Q.D.Q.I.H.E.Q.E.E.Q.I.Q.H.E.Q.Q.Q.Q.Q.Q.Q.Q./.Q.Q.~._.!.Q.!.^.^.~.~.Q.~.~.~.Q./.H.~.~.Y.Y.Q.T.T.~.^.^.!.^.^.!.!.!.R.!.R.Q.^.^.^./.^.).).).).).).).).{.).'._.).`.).`.).`.^.(.^.^.).^.`.`.|.|.|. X`.`. X`.`.'.'.$X'.gX$X'.'.$X$X$X'.$X1X|.-X1X{.|.{.{.{.{.}. X}.}. X}.}. X'. X}. X X X X2XgX'.gX X'.gX X`.$X#X1X1X1X1X1X X X`.|.|. X|. X X X X X|.1X2X|. X X X3X1X3X;X3X3X5X;X3X5X;X3X1X,X3X3X5X1X5X3X-X1X1X1X1X1X1X1X|.|. X2X2X2X2X4X4X2X2X4XgX2X2X2XgXgX$XgXgX6XgXgX6X6X2X4X6X2X4X6X XjX X X XjXjX X XwX XwX}.wXwXwXjX XjX X X XwX X X X4XfXhX8XkXyXyXuXyXuX8X7X8X7X2X2X2X X4X4XgX4X4X4XgX4X4X4X2X3X4X4X3X4XwX4X7XwXwX4XwX4X4X8X4X8X4X4X4X4X8X2X8X8X8XgX8X6X6X2X7X1X4X2X3X3X3X3XwX3X4X3X4X4X X3X X4X X2X X3X4X4X4XwX7XwX7XwX4X7XwX4XqX8XyXqXyXqXqX8X4X7X3XwX3XwX7X7X4XwX7X4X3X8X2X3X3X3X3X;X3X1X X3X3X|.3X3X3X X|.|. X;X XwX3X3X X;X-X-X-X-X;X1X3X-X1X5X;X;X3X-X;X3X5X7X3X3X-X1X1X;X1X3X-X-X1X;X1X-X1X-X-X1X1X-X-X-X{.;X;X{.;X{.-X{.[.[.[.(.[.[.[.;X-X-X-X{.{.=X).OX[.[.-X[.[.(.(.[.=X[.[.[.(.(.[.(.[.[.(.(.).(.).(.}.^.).~.(.(.(.(.(.(.~.(.~.~.~.K.K.].J.J.].J.J.J.].J.].].J.].A.].K.J.J.J.J.J.J.Z.Z.Z.G.Z.A.].J.J.J.P.J.P.L.",
"n.b.F.m.D.m.m.D.m.D.D.b.m.F.F.b.b.l.l.l.V.b.b.b.b.b.b.D.C.m.n.n.I.t.t.I.W.U.U.t.U.m.U.t.I.I.t.U.U.2.m.x.2.v.m.m.c.v.m.m.c.b.m.v.v.U.v.Y.B.B.C.B.V.B.n.V.n.B.n.C.I.n.E.n.n.E.E.n.D.E.E.n.I.Q.Q.E.n.Y.Q.Q.Q.Q.H.Q.Q.~.Q.~.Q.~.Q.^.~.!.!.~.!._._.Q.^.~.~.~.~.~.~.~.~.~.~.Y.~.Q.Q.^.~.!.^.!.!.!.!.!.Y.^.^.^.^._.^.~./.)._.).~.).).).`.^.^.'.^.).).^.).).).^.^.).).).^.`.'.|. X`.`.`.`.`.`.'.'.'.'.$X'.$X$X$X'.$X'.$X|.1X|.).{.{.{.|.}.;X;X{.}. X}. X}. X'. X X|.|. X2X'.'.gX X2X'.2X$X X2X1X2X1X1X2X2X`. X|. X X'. X'. X X X X X2X2X|.}.}. X X1X1X1X5X-X1X;X3X-X;X-X;X3X3X;X3X5X2X;X3X1X1X1X2X1X2X2X2X X2X2X X X4X2X4X4XgX2X X4X4XgXgXgXgXgXgX4X8X4X2X2X6X6X2X4X2X4XjX X XjX X X XwX4X X XwXwXwX XwXwX X X XwX XjXjXwX4XqXqXyX8X8X8XyXyXyX8X8X7X6X4X2X2X4X4X2X4XwXgX4X6X4X6X4X2X4X4X3X3X3X3X3X4X4X3X4X4X8X8XwXwX8X4X7X4X8X7X7X7X6X8X8X6X6X8X6X7X2X8X2X7X3X3X3X3X4XwX4X4X4X3X4X X2X3X3X X X4X4X4X4X4X4X4X4X4XwXwX8X7XqXqXqX7XqX8XqXiXqX0XwX7X7XwX3XwX7X7X3X4X3X3X7X3X3X3X3X3X X3X3X3X|.3X X3X3X X|.;X{.3X{.}.;X{.3X;X-X3X1X3X1X>X1X-X,X-X-X3X;X;X;X;X;X;X;X3X3X-X1X|.-X1X1X-X1X1X5X1X-X1X-X-X).-X1X{.|.{.{.{.|.{.[.[.-X[.[.[.[.[.[.[.=X{.-X[.-X(.[.{.(.-X(.[.-X[.[.[.[.[.[.[.=X[.(.(.(.(.(.).(.(.(.).^.}.~.(.).(.).{.~.(.(.~.[.}.~.}.(.].K.].J.J.J.J.].J.J.].].A..XJ.J.K.J.J.J.J.A.J.A.V.A.A.P.].P.Z.J.].J.J.L.",
"F.F.b.b.F.m.D.m.D.m.m.F.F.b.F.F.V.l.G.V.b.b.b.b.b.b.D.m.m.m.n.m.I.I.I.I.t.U.U.t.m.U.m.U.t.t.U.U.m.m.v.v.m.v.2.x.n.c.v.x.v.b.V.b.B.v.U.U.n.B.n.V.B.b.n.b.C.C.n.n.D.I.n.E.n.E.n.n.I.n.E.n.I.n.Q.Y.Q.n.Q.n.Q.C.Q.Q.Q./.~.Q.Q.Q._./._.Q.~.!.^.^.~.^.Q.~.~.Q.~.~.Q.H.T.T.Q.~.~.Y.^.~.^.^.^.^.!.!.!.^.Y.R.^.Q.!.~.~.!._.^.)._._.)._.).^.^._._.^._.^.^./.^.^.(.).).{.|.^.^.|.|.`. X|.`.`.'.'.'.'.'.$X$X$X$XW.'.$X$X$X$X|.|.|.|.|.|.{.{.{.;X}.}.}. X X}. X.X|.'.'. X|.|.'.'.2X'.2X2XgX'.2X$X2X1X#X2X1X1X#X|.2X|. X'. X'. X X X|.2X|.1X1X|.|. X|.1X1X1X1X1X-X1X3X3X-X1X3X3X-X3X;X5X;X2X3X2X1X1X1X2X1X1X1X2X2X2X2X6X2X2X4X2X2X2X4X6X2X6X2XgXgX$XgX6XgX8X6XgX6X4X8X4X6X8X4XjX X XjXjX XjX XwX XwX3X XwX XwX X XwX X XjX XwX4X4XwX8X8X8X8XuXyXyXyX8XyX4X8X4X4X4X X X6X4X4XgX4X4X4X4XgX4X2X4X2X3X3X4X3X3X3X3XwX4X3XwX8X4XwX4X4X8X4X2X8X8X8X8X7X8X8X6X8X2X8X7X2X3X3X7X7X4XwX3X4X4X3X4X3X4X4X4X2X4X4X4X3X4X4X4X3X3X7XwX4XqX8XqXqXwXqXqX7XqXqX4X7X0XwX7X7X3X3X3X4X3X7X7X7X4X2X3X3X3X3X3X3X3X3X3X|.3X3X1X X;X{.3XwX;X3X3X3X3X{.3X3X3X3X;X5X3X-X3X;X1X;X-X;X;X;X;X;X;X;X-X|.1X|.1X-X1X-X1X-X5X1X1X1X1X1X#X`.-X|.-X-X{.;X{.;X{.{.-X[.{.}.}.[.[.].[.[.[.[.[.[.{.[.[.{.[.-X[.-X{.-X{.{.=X[.[.(.[.[.[.(.[.(.(._.(.~.(.(.^.^.~.~.(.).(.(.(.(.[.J.}..X~.J.K.J.].L.].K.J.J.].J.J.].L.].J./.J.L.H.J.J.A.A.A.A.J.P.J.A.J.A.P.J.P.].J.",
"b.b.D.b.b.b.D.m.m.m.D.D.m.D.b.b.b.V.b.b.b.V.x.l.b.b.x.b.b.n.b.b.I.t.t.I.W.U.t.U.m.m.U.m.U.I.t.W.m.U.U.m.v.n.v.v.m.v.c.c.m.c.c.v.n.B.B.B.B.B.b.B.V.v.V.B.b.n.B.n.n.n.n.n.n.n.I.n.n.n.n.n.n.E.n.E.Q.H.Q.Q.Q.Q.Q.Q.Q.Q.Q.Q./.~.~.Q.~.^.!.~.~./.!.~.~.^.Q.~.Q.Q.Y.Q.Q.^.^.Y.!.^.T.!.Q.~.!.^.^.^.^.R.!.Q.Q.^.^.^.Q.^._.~._.(._.).(._.)._.^.^.^.^.^._.^.^.~.^.).}.`.{.|.'.`.`.|.`.|.'.'.'.'.'.'.'.'.'.'.$X$X$X'.'.$X'.-X`.{.|.{.{.{.{. X{.}. X}.}. X X'.'.'. X X^.|.|.2X X'.gX'.'. X2X1X2X#X1X1X1X#X2X|. X|.|. X X'. X'. X|. X|. X2X|.1X X1X3X1X1X1X1X1X1X1X-X1X3X1X-X3X;X5X3X3X7X3X5X5X1X1X5X5X2X2X5X2X2X4X6X4X4X6X6X4X6XgX2X6X4X6X2X$XgX$XgX6X6X6X6X8X8XgX8XgX8X6X8X XjX X X X X X X XwX X XwX XwXjXwXwX X XwX XjX XgXwX4XjX8XqX8X7XyXyXyX7X8X7X4X3X4X4X3X4X2X4X4X4X4X2X2X4X4X2X4X4X3X3X4X3X3X3X4X4X4XwXwX4X4XqX4X4X4X7X8X4X8X7X4X8X4X2X8X8X8X7X8X4X7X3X3X4X3X7XwX4XwX4XwX4X4X3XwX4X4XwX4X4X4X2X3X2X3X3X4X7X4XwXwX8XqX8X4XqXqX8X7XqXwXqXqXwXwX7XwX7XwX7X4X3X4X3X4X7X4X3X3X2X3X3X3X3X;X|.3X|.;X X3X{.;XwX;X9X;X3XwX3X5X3X7X3X5X5X3X-X-X-X-X;X[.;X-X;X{.{.{.;X{.{.-X{.#X1X`.#X1X1X1X5X5X1X1X1X1X+X#X#X-X;X-X{.-X{.-X[.}.[.[.[.[.}.}.}.(.}.[.(.[.(.[.[.(.{.{.-X{.{.-X-X[.;X-X=X-X[.-X[.).(.).(.~.(.(.(.~.~.(.~.(._././.(.(.(.K.~.J.J.}.K.J.K.J.J.K.J.J.].J.J.L.J.J.J.J.L.J.K.L.G.H.A.J.A.A.A.A.A.A.P.A.J.J.J.J.J.",
"b.F.F.b.m.b.D.m.D.m.D.m.D.n.m.m.b.V.b.V.b.b.b.l.b.x.b.b.b.m.b.m.b.n.m.b.U.m.m.m.m.m.m.m.m.U.U.m.I.t.I.m.I.m.n.n.v.c.v.c.c.N.N.B.B.v.B.B.v.v.V.N.V.n.N.B.n.n.Y.n.v.v.n.v.n.n.Y.I.U.n.Y.n.I.C.Q.n.H.Q.Q.Q.Q.Q.Q.Q.Q.Q.Q.Q.~./.Q.Q.Q.~.~.Q.~.^.Q._.!.~.Q.Q.~.Q.Q.Y.Q.~.!.^.~.!.~.!.Q.^.~.~.^.).^.^.^.Y.R.T.Q.^.Q.^._.~._._._._.+X)._.^.)._.).^.^.).^._.).).).).).).`.).).`.'.`.`.`.`.`.`.`.`.`.`.`.'.$X_.$X'.$X$X'.).|.{.).}.|.{.|.|.}.}.|. X X}. X'. X'. X'.$X'.'.`. X`. X2X'.2X X|.1X|.|.$X`. X X X X X X X X X X X X|.'.|.|.|.1X2X2X$X1X1X1X|.|.|.|.1X|.1X1X1X3X3X;X|.3X3X7X3X7X2X3X1X2X2X2X2X2X7X8X1X8X7X2X8X8XgX2X6X6XgX$XgX6X$XgX6X6X6X6X6X6X6XfX8X8X8X8X8X8XwX XjXwX XwXjX X XwX XwX XwX X X XjX XjX X XjXjX4XwX XwX4XqX7XyXyXyXyX8X8X7X7X4XwX4XwX3X2X4X4X3X2X2X4X2X4X4X4X4X4X4X4X4XwX4X4X4XwX3XwX4XwX7X4XwX7XqX7XwX8XqX7X7X2X7X3XwX3XwX3X4X7X2X2X7X7X7XqX4X4XqX7X7X4X7X7X4X7X3X4X7X2X7X7X3X3X3XwXwXwXqX4XqX4XqX4XqXqX7X4X7XwX0X0XwX0XwX3X3X7X3X4X4X8X4X8X4X6X4X4X1X2X4X3X3X3X3X|.;X3X3X;X XwXwXwX;X9XwX;X3X0X3X7X3X7X3X-X5X>X1X-X-X;X{.=X[.[.{.=X{.;X|.;X{.$X1X#X1X#X1X1X2X2X5X1X$X1X#X#X#X{.-X-X-X{.-X{.{.[.}.}.[.}.}.}.}.}.[.}.].[.}.[.~.[.{.{.{.-X{.|.;X[.;X[.[.;X[.{.}.[.(.(.(.(.~.~.(.~./.).^.(._.(././.(.K.(.[.J.].J.J.K.G.K.K.K.K.K.K.K.K.K.L.J.].L./.L.L.L.J.G.J.Z.Z.A.A.A.A.J.A.].].J.J.J.J.",
"b.b.b.b.F.m.D.m.m.m.m.n.m.m.D.m.m.m.b.b.b.x.c.z.x.x.b.b.b.b.b.b.n.n.b.m.U.m.m.v.n.m.m.v.I.m.m.U.I.I.I.I.I.n.v.n.v.3.c.c.3.N.B.5.v.B.c.c.N.N.b.N.B.V.B.n.C.C.n.n.m.n.v.n.U.C.Q.n.C.n.I.Q.Y.E.Y.Y.E.Q.H.Q.H.Q.E.H.Q.Q.Q.Q.Q.Q.Q.Q.Q.~.Q.~.Q.Q.~.~.~.Q.!.~.Q.Q.!.!.!.!.!.!._.^.^.~.^.~.!._.~.~.).^.R.^.^.R.~.!.^.~._./._.)._.+X_._.).).'.'.).).).^.^.).).^.).}.^.).).`.`.'.'.`.`.'.`.`.`.`.`.`.'.`.$X'.$X$X'.$X$X'.'.{.`.{.'.{.|.|.|.|. X}. X}. X}. X X X'.2X'.gXgX X$X X|. X2X2X`.1X|.2X`. X2X'.'. X X'. X X.X X X|.|. X X X X2X1X2X6X6X1X2X$X$X1X2X1X1X#X1X1X1X1X-X3X3X3X3X3X2X2X3X2X4X1X4X7X2X2X8X1X2X6X6X4X2X8X6X6X6XgX6X6X6X6X$XgX6X6X6XgX6XfX8X8X6X6X8X8X8X6X XwX X XwX X XwXwX XjX XwX XjX XjX XjX XjX XwX XwXjX4XjX7XqXqX8XyXyXyXiX7X4X4X3X X4X X X3X4X4X4X2X4X4X4X4X8XwX4XfXwX4XfXwX4XwX4X4XwXwX3X4X4XwX7XwX4XqXqXiX8X7XwX0X3XwX3X0X3XwXwX3X7X7X4X4X8X8XqXqX7X7X4X7XqX4X7X4XwX4X3X3X3X3X4X4X3X X4X4XwXwX8X7XqX8XqXqX4XqX7X0X0XwX0X0XwXwX3X3X7X8X7X4X8X8X8X4X8X8X4X7X7X1X2X X;X3X;X|.;XwX{.wX;XwX9XwX9XwX9X;X0X7X3X3X5X3X-X-X>X;X-X;X=X;X[.;X[.;X{.{.|.{.1X$X1X#X#X1X$X6X1X$X2X$X1X#X#X1X+X1X-X-X1X;X-X-X{.[.{.[.}.}..X.X}.].[.[.}.}.[.[.[.}.}.{.;X{.;X1X{.-X[.{.;X{.[.;X<X{.{.}.(.(.(.(.(.).^.(.).(._.OXOX(.K.K.K.J.].J.].J.K.K.K.K.K.K.K.K.K.K.K.].L.].L.OXoXK.L.K.K.J.Z.J.Z.A.A.A.A.].A.A.].P.J.Z.",
"F.G.b.F.b.F.m.D.I.m.m.n.n.m.m.m.m.b.b.x.b.x.x.m.m.x.b.b.b.b.b.b.V.c.b.b.b.m.v.m.n.m.m.m.t.U.m.m.I.t.I.I.n.U.n.v.v.N.c.B.B.5.B.B.N.B.N.N.c.N.N.N.B.V.B.C.C.n.n.Y.n.U.v.n.U.B.n.v.U.Y.I.Y.n.Y.I.Q.Y.E.Q.I.n.Q.I.Y.Q.E.Q.E.Q.Q.I.Q.C.~.Q.~.Q.Q.Q.Q.Q.^.!.!.^.!.!.!.!.!.!.'._.^.!.~.~._.~.).).(.~.~.^.^.^.^.~.^.^.!._.)._._.+X+X+X_.'.).'.).).'.).^.).^.^.).{.^.^.).`.`.`.).'.).`.'.`.`.`.`.'.$X`.`.#X$X$X'.$X'.'.'.).`.^.|.|.{.`.|.|.|.|.|.'. X X'.'. XgX'.'.2XgX'.`. X`.2X X$X X2X3X2X1X1X2X2X X X.X X X X X X3.jX|. X X X X X X1X6X6X$X$X$X2X2X2X2X X X2X2X|. X|.3X1X3X3X3X4X4X4X7X3X4X4X2X4X2X4X8X1X7X7X6X5X2X6X6X6X6X6X6X6XgX2XgX6X6X6XgX6X6X6X6X8X8X8X8X8X8X8XwX X XwX X X X X XwX X XjXjX X X XjX X X X X X4XwX4XwX4X4XwXqX8XyX8XiX8XqX7X4X7X X3X3X3X3X3X7X4X4X4X4X4XgXgX8XgXwXjX8XwX8XqX4X4X4XwX4XwX3XwX3XwX7XwXqXqXqXqX7XwX3XwX9X9X3XwX3X9X7X7X7X7X8X8X8XyX8XqX8X7X4XqX7XwX7X7X3X7X7X7X3X3X3X3XwXwXwX4X7XwX7XwXqXqXqX7X4X3X3X9XwX0X0X0XwX7X4X7X4X8X4XgX4X8X8X4X8X7X2X2X3X3X3X3X3X3X3X;X3X9X9XwX;X9X9XwX9X9X9X3X,X3X3X;X;X1X5X-X;X;X-X=X;X=X;X[.{.3X;X|.3X1X1X1X1X#X1X1X1X1X2X5X$X1X1X1X#X1X-X-X-X-X-X{.{.{.{.{.{.{.}.}.}..X[.}.}.].].]..X~.}.{.}.|.{.|.{.{.{.;X[.{.[.;X;X{.=X[.[.[.}.(.(.(.)._.).).).OXOXOX(.(.(.K.].J.J.].J.K.K.K.K.K.K.K.K.K.K.K.K.K.oX].OXK.K.K.G.K.J.J.].J.A.A.A.A.].A.].J.].].J.",
"F.l.F.b.F.F.m.m.m.t.E.D.n.n.U.m.x.c.x.m.m.b.x.x.c.c.b.b.b.V.V.N.V.b.c.b.b.b.n.n.n.m.n.n.m.I.U.m.t.I.m.U.n.m.v.m.v.v.c.c.5.B.5.A.B.N.N.3.N.c.V.c.V.V.n.B.n.I.n.Y.n.Y.Y.n.n.U.n.v.n.Y.n.B.I.Y.Y.Y.Q.n.Q.n.E.I.D.n.C.E.I.H.Y.E.Q.Q.C.H.~.Q.C.C.Q.^.Q.~.!.^.!.!.!.^.!.!._.^._.!.^.!.~.^._.}.~.~.~.^.}.^.^.R.!.~.^._.).)._._.+X+X+X_.^._.).).'.).).^.~.^.).).|.).).).|.).`.).).'.).`.`.`.$X`.`.`.`.#X#X'._.$X'.$XW.$X`.).`.^.{.'.|.`.|.|. X X'.}. X X X X'.2X'.gX'.2X$X2X X$X X X2X2X2X2X2X1X2X1XgXgX X X X.X X X X X X X X|. X X X3X6X6X6X6X2X2X2X2X2X2X2X2X X2X X2X1X-X3X2X7X4X3X4X4X2X8X2X4X6X8X1X7X7X8X1X4X5X7X2X6X4X2X6XgX6X6X6X6X6XgXkX6XkX6X6X6X6X6X7X6X6X8X5XwX XwXwXjX XwX X X XjX X X X XjXjX XjX XjX XwX4X XwX4X3X7X8XqXqX7XiX8X8X4XwX4XwX3X3X X3X3X7XqX4X4X4XfX4XgX8X4XjXfX4XqX4X8X4X4XqXwX3X7XwXwX7XwX7XwXwX0XqXqXiXwX7X9XwXwX3X3X9X3X3X7X4X8X7X7X8XyX8XyXqXqXwX8X7XqX8X7X7X7X4X7X3X7X3X4XwX4XwXwX4XwX4X4X4X7XqXqX8XwX7X0X9XwX0XwXwXwX7X4X3X4X4X8X8X8XgX8XgX4X4X4X3X2X2X2X;X;X3X;X3X3X0X;X;XwX;X9X;XwX3X;X;X3X9X7X5X1X;X;X,X3X-X;X{.[.;X;X;X;X;X;X|.;X1X1X5X1X5X1X1X1X3X1X1X1X-X1X1X1X1X@X1X-X-X-X{.;X<X{.;X{.{.;X}.}.}.}.[.].}.}.}.}.}.{.}.{.}.{.{.|.|.[.[.-X=X[.{.[.[.{.=X{.(.(.[.[.~.(.(.).).+XOX/.OXK.K.(.K.K.J.].J.].K.].K.].K.K.L.K.K.K.K.K.oXK.K.OXoXOXK.K.J.J.J.J.A.Z..X].A..X].A.J.].A.J.",
"F.S.b.F.m.F.m.z.E.I.t.I.m.U.m.m.x.x.x.x.x.x.x.h.c.c.c.V.N.b.b.b.c.b.k.b.c.c.c.c.c.m.n.v.m.U.U.U.I.t.U.I.n.m.v.v.v.v.3.B.5.B.5.3.c.v.N.c.N.c.N.N.B.B.B.b.n.Y.n.I.Y.B.U.n.v.v.n.v.n.n.Y.U.B.I.Y.Y.I.I.D.Y.Q.n.Q.C.E.E.Y.E.Q.E.Q.Q.Y.H.Q.Y.Q.~.^.^.Y.!.Y.!.!.!.!.!.!.!.!._._._.!.Q.!.Q./.(.(.).(.(.^.^.^.^.).^.).).).).).).).+X+X#X`.).).'.'.)._.^.^.).).).).{.).{.).).).)._.).'.`.`.).#X#X`.#X`.`.'.$X#X#X`.#X`.`.`.|.`.|.`. X`.`.'.`.`.`.|.|.|.'. X'. X X X'.gX$X2X1X1X XgX X2X1X`.2X X2XgXgX'.'. X X XR.R. X X X X X X X2X1X2X2XgX$X$X$X$XgXgX'.`.2XgX'.gXgX'.gX4X3X4X3X4X X3X2X3X X2X2X2X2X2X2X2X7X4X5X4X2X7X2X1X6X1X1X6X6XgX8X8X6X6XfX6X8X6X8X8X6X2X8X8X8X8X8XwX XwX XwX X X XjX X X XjX XgXjXgX XjX X4X4X X XwX XwXwXwXwXqXqX8XlXfXqX8XjXwX XwXwX3XwX4X3XwX4X7X4X8X4XfXgX4XfX4X8XgX4XfX4X4X4X4XwX4X4XwX3XwX4XqX0XqXqX0X0X0X0X9XwX9X9X3X3X3XwX3X7X7X6X8X8X8X8XqX8X8X8X8XqXqX7X3X7X7X7X7XwX7XwX XwXwXwXwX4X4X X4X7XwXwX7X4XwX7X0X3X7X0X7XwX7XwX7X4X8X4X8X8X4X8X6X6X4X8X6X8X4X7X7X3X3X5X3X;X3X9XwX;X;X}.9X;X;XwX3X9X3X9X7X;X3X7X3X;X;X;X}.;X;X;X;X;X3X;X{.{.{.;X-X3X-X{.-X1X-X-X;X-X-X-X-X|.1X-X1X>X+X-X-X-X{.-X;X;X|.;X{.}.}.}.[.}.[.}.J.}.[.(.}.}.}.{.{.{.{.}.[.[.}.}.[.{.;X}.<X}.<X}.}.].}.].~.}.).-X(.(.(.(.(.OXK.(.K.J.].].J.].].K.K.K.K.K.L.K.K.L.oXOXK.oXOXL.L.L.K.L.J.J.].J.A..X].A.A.].].A.J.].J.",
"G.F.F.b.F.m.m.m.t.I.t.I.m.n.m.m.m.v.m.m.x.x.x.x.c.m.b.c.c.b.k.c.b.c.N.c.N.c.m.b.m.v.v.c.v.m.n.n.I.U.U.t.v.x.m.3.v.x.3.B.3.B.B.B.c.N.N.c.c.N.N.c.N.n.n.B.n.n.I.I.U.n.n.v.n.n.U.Y.Y.v.n.Y.Y.I.Y.n.D.Q.Y.E.I.I.I.E.n.Q.I.H.Q.E.Q.Q.Q.~.Q.Q.Q.Q.Q.Q.!.Q.Q.!.Q.!.!.!._.'._.'.^._.!.Q.Q.^./.~.~.).}.(.^.^.^.^.^.^.).^.).).).).).#X_.+X`.`.'.).^.`.^.)._.^.).^.).}.).^._._._.^.).).)._.`.#X`.#X2X#X`.`.#X_.'.$X`.#X1X#X2X`.|.#X`.`.`. X`.#X`.2X|.|.|.|.}. X X X2X2X$X$X|.2X1X$X`.2X2X2X2X1X|.2X'.gXgX'.R. X X X X X X X X XjX X2X2X2X2X$X$XgX2X$X'.gXgX'. X'.gXgXgX2XgX2X3X3X4X2X3X4X3X3X4X3X X4X2X2X X4X4X5X8X8X7X6X8X4X4X6X2X2X4X6X8XfXfX6X8X8X6X8X8X5X8X7X6X7X8X7X8X XwXwX XwX XwX X X XjXjX X4X4X4XjXgX XgX X4X X4X X X XjXgXwX8XqXqXqX8XqXwXwX XwXwX XwX X3X4X7X4X4X4XgX4XjX4XfX4X4X4X4X4X4X4X4X4XwX4XwX4X7XwX7XwXqXwXwXqXwX0XwX7XwX9XwX3X0X0XwX7X7X3X7X8X8X8X8X8XfXqXqX8X8X8X4X7XwX7X7XqX7X7X7X7X XwX4XwXwXjXwXwXwX4X4X4X8XwX4X7X3X0X3XqXwXwX7X4X7XwX7X8X4X4X8XqX8X8X8X8X4X6X8X5X3X5X3X3X3X7X;X3XwX;X;XwX}.9X;X;X;X9X0X3X3X0X7X;X;X;X;X;X9X;X;X;X;X;X{.;X;X{.{. X-X;X-X;X;X-X-X-X-X|.-X;X;X;X;X-X-X1X1X-X-X).-X).|.3X{.{.}.3X;X}.{.}.}.[.}.}.}.}.).}.{.}.{.}.{.}.[.}.[.[.{.[.[.[.}.}.].}.]..X].}.(.).).).).OX(.(.(.K.K.K.].].J.].K.K.J.K.K.K.K.K.K.L.K.K.K.K.K.OXoXOXOXOXOXK.L.J.A.].A.A.].A.].A.J.].J.].J.",
"F.F.F.b.F.m.I.t.t.I.I.U.v.m.m.m.v.m.x.v.m.v.c.v.n.B.n.V.b.c.b.c.N.b.b.b.b.n.n.n.m.c.m.v.m.v.v.U.U.m.U.I.v.v.v.x.v.B.B.v.3.3.B.3.3.v.3.v.c.c.b.b.b.B.n.B.n.Q.Y.I.I.n.Y.n.n.Y.n.Y.I.Y.Y.Y.Q.Y.E.Y.!.Q.Q.E.E.!.E.Y.!.E.Q.Q.Q.!.!.Q.~.^.~.Q.^.Y.Q.Q.Q.!.!.!.!.!.!.!._.'._._.)._._.~.!.~.~.).~.(.).~.^.^.^.^.^.).).).)._.).).).).).`.`.).).'.).^.^.).~.^.~.).).^.^.(.)._._.).)._._.).`.1X#X2X1X`.1X`.`.#X$X$X`.#X#X|.2X`.#X|.`. X2X'.`.$X`.$X|.|.|.}.|.|.|. X2X2X2X$X2X1X2X2X2X2X'. X2X X2X XgX'.gX'. X X XR. X'. X X X X X X2X1X1X2X$X6X$X$XgX$X X X2X'.gX'.$XgX2XgX2X4X4X2X4X2X4X2X2X2X2X4X2X4X2X4X8X4X8X4X4X4X4X2X3X2X2X3X2X4X2X8X6X8XgX8XfX6X8X8X8X6X8X8X7X8X8X4X3XwXwX XwX X XwX XjX X X4XgX4XgX XgX4XwX XwXwX X XwX X4XwXwX8X8XkX8XfX8XgX4XjX X XwX4XwX4X8X4X4X4X4X4XgX8X4X4XgX6X2X4XgX4XgX4XgX4XwX4XqXwX4X4XwXwXqXwX0X7X0X7X0XwX9X0X7X9XwXwX7X2X3X4X8X6X8X8X8XfX8XjX8X4X8X8X7X4XqXwX4XwXwXwX7X3XwX XwX4XwXwX3X3XwX3X4X7X4XwXwX0X0XwXwXwX8XwX7XwXwX7XqXwX4X4X8X7X8X8X8X8X8X1X7X3X-X3X>X;X3X3X;XwX;X;X.XwX;XwX}.,X3X3X0X0X7X;X3X,X;X;XwX;XwX;X9X;X;X;X;X3X{.;X{.|.;X-X;X-X;X{.[.{.;X;X-X-X;X-X;X@X-X+X1X-X).{.{.;X{.{.{.}.}.}.}.{.[.{.[.[.{.{.}.[.[.{.[.{.{.{.{.[.[.}.}.[.{.[.}.}.}.].}.}.].].}.}.}.(.[.{.(.(.(.(.(.K.[.J.J.}..X].J.].(.].K.J.K.K.oXK.K.OXK.K.OXOXOXK.OXK.OXL.K..XJ.].].A.].J.J.J.J.J.J.J.",
"F.m.F.F.m.E.t.E.E.t.U.t.n.m.n.v.m.v.v.v.c.v.c.x.b.c.n.c.B.c.V.c.n.b.b.B.b.n.B.n.n.m.m.v.v.n.v.n.n.n.U.m.U.v.v.B.v.v.v.B.U.U.3.v.B.v.B.c.v.N.v.B.B.c.n.C.Y.I.I.Q.I.C.U.Y.I.Y.Q.Y.Q.Y.Q.Q.Y.Q.Y.Y.E.Q.Q.Q.Q.Q.!.E.Q.Q.Q.!.Q.!.Q.!._.^.!.~.Q.Q.^.Q.^.!.Y.!.!.Q.!.!.!._._._._._.!.!./.~./.~.(.(.(.).~.~.^.^.^.).^.^.).).).).).).).).`.`.`.).'.).{.).).).^.).)._.^.^.~._.~.).).).'.`.`.`.#X`.#X2X#X`.#X`.#X$X2X#X2X$X`.`.2X`.`. X`.2X`.`.`. X X{. X X X|.|. X$X`.2X2X$X2X2X#X$X2X2XgX X2X`.2XgX'.'.gXR. X X X X'. X X XjX X X2X2X1X2X$X$XgX2X2X2X'.gXgXgXgX XgX$XgXgX2X3X4X2X3X4X2X4X4X2X4X2X4X2X4X4X2X1X4X3X2X3X7X2X2X3X4X4X7X4X7X4X8X6X6X4X8X8X8X4X8X4X7X4X4X8X7X2XwX XwXwX XwXwX XwX XjX XjX XjXgX4X4XwX XwX X XjX XjXwX4XgXjXjXfXfXfXfXjXgXwXjX XwX X4X4X7X4X4X7X4X4XjX8X4XfXfX4X4X2X4X4XgX4XgX4X4X4X4X4X4XwX4X7X7X7XqXqXqX0XwX0XwXwXwXwXwXwXwX7X7X7X7X4X8X8X8XfX8XfX8XqXqX4X4X8X4X7X7X4XwX7XwX7XwXwXwXwXwXwXwXwXwX4XwXwX4XwX7X4XwXwX7XqXwX7X3X7X7X4XwX4X8X7XqXqX8X8X8X8X8X1X2X3X5X3X3X;X3X5X5X3X9XwXwXwX;X;XwXwX3X;X7X3X7X;X3X,X,X7X;X9X;X9X9X;X;X;X3X;X3X3X;X3X;X-X;X-X{.;X-X;X-X[.{.;X{.-X-X=X{.-X{.+X).-X+X{.{.{.{.[. X}.{.{.{.{.{.{.[.}.[.}.}.[.{.-X;X[.{.[.}.}.<X}.{.[.[.[.[.[.}.].}.].}.].~.}.}.}.[.[.(.=X].(.~.J.}.J.~.].].}.].J.].K.K.].K.].].(.].OXoX].oXOXOXK.K.K.L.K.].]..XA.].].].J.J.].J..XJ.",
"F.F.F.t.D.t.E.t.t.I.t.U.m.m.m.n.c.v.x.v.v.x.c.c.c.c.c.v.B.b.n.c.v.v.n.n.v.B.n.B.B.n.v.v.n.v.v.n.v.v.v.c.v.B.v.v.B.v.B.B.U.B.B.B.U.U.U.U.U.v.B.n.n.B.B.B.I.n.Y.I.n.Q.E.Y.E.Q.Q.Q.Q.Q.Q.Q.Q.Q.Q.E.!.Q.Q.!.Q.!.Q.!.!.Q.!.Q.!.W.!.Q.!.!.!.!.!.!.Q.!.!.!.^.Q.~.!.Q.^.!.!.!./.!.!._./._.~.(.~./.).~./._.^._.^./.)._.).).).).).^.).^.{.).`.'.).).'.).^.^.).^.{.^.).^._.^./.).).+X).).+X#X#X#X#X#X1X2X#X$X$X$X1X2X#X2X`.`.2X`.`. X`.'.'.$X$X'.2X`.`. X{.{. X X|.3X|.$X$X2X#X2X2X$X2X2X$X$X2XgX'.gX'.'.'. X X X X X X X X XjX5X2X$X1X1X5X$X6X6X6XgX'. X XgX$X$XgXgXgX6X6X2X4X4X2X2X4X4X4X2X4X4X2X4X X4X2X X X X X2X X3X X2X XwX3XwX X3X X4XgX8X4X4X4X8X4X8X4X4X4X4X7X4X4X4XwX4X4X XwX X X X X XjXgX4XgX4X7XwX3X X XjX XwXjX XjXjXfXjXfXjXfXfXfXgXjXgX X X4X4X4X4X4X4X8X8X4X4X4X4XfX4X4XgX X4X2XgX4XgXgXgXgX4XfX4X8X4XqX4XwX7XwXqX7X0XqXqX0XqX7XqX7XqX8X8X4X4X8X4X8XqXfXfXgXgXjX4XgXqX4X4X4XwX4XqXwX4XwXwXwXwX XwXwXwXwXwXwX XwX4X7XqXwXwXwX8X8XqX7X4X7XwX3X0XwX3X7X0X3X7X7X8X8X4X8X1X5X1X1X3X3X-X1X5X7X8XwX4X7X3XwXwXwX;X3X7X3X0X9X7X,X3X7X,X;X9X;X9X;X9X9X;X3X9X{.3X;X{.-X;X-X;X-X-X-X-X{.=X{.=X-X-X{.-X).|.-X{.1X-X|.-X{.{.{.{.{.[.{.}.{.{.{.{.{.[.{.-X{.[.[.;X;X[.;X}.}.}.}.}.}.}.<X}.].}.}.].].}..X.X].}.}.[.[.[.[.[.(.(.J..X.X~.~..XJ.].}.].J.].J.J.K.[.=X].OXK.K.OXOXOXoXK.K.J.].J.J.]..X].].J.].].(.].K.(.].",
"F.m.W.t.t.W.t.W.U.t.U.m.m.m.v.m.x.x.v.x.v.3.x.v.x.c.x.v.v.B.v.n.n.B.U.B.n.n.B.U.v.Y.Y.v.n.v.n.U.v.c.v.B.c.v.v.B.B.v.U.v.v.v.U.v.U.U.U.U.U.U.B.B.n.n.n.B.n.I.n.U.n.n.n.Q.H.Q.E.Q.Q.Q.Q.Q.Q.E.Q.Q.Q.!.!.Q.!.Q.!.Q.E.!.Q.!.!.Q.Q.!.!.!.!.Y.!.Y.!.!.^.!.Q.^.^.Q.Q.^.!.!.!.!.W./.~.^.(._._.(.~.(.(.)._./._.Q./.^.~.).).^.).^.^.'.^.{.`.).'.).).)._._.^.).).^.).).).^._.).`.).#X).).).#X).`.#X#X#X#X#X1X2X2X$X2X1X$X`.2X`.2X`. X$X X$X$X$X$X`.`. X{.{.{.{.|. X|.1X2X$X$X2X$X2X$X2X2X2X2X2X'.gX'.gXgX'. X X X X X X X X X X2X$X5X2X1X2X$X6X6X2XgX X XgXgXgXgXgXgX$X6XkX6X4X2X4X2X2X2X4X4X4X4X4X4X4X4X4X X XgXgX3X2X X3XwX XwX3X3X3XwXwX4X4XgX4X4XwX4X4XwX8XwX4X4X4XwX4X4X4XwX XwX XjXwXwXjXwXwXwX4XwX4X3X3XwXwXwXwXwX X XjXjXwXgXfXjXjXfXfXfX4X XjXgX X4X4X4X4X8X4X8X4XqX4XjX8X4XgX4X4XgXgX4XgX4XjXgX4XgXgX4X4X8X4X4XwX8X8X7X4X7XqX7X7XwXwXqX7XqX8X7XqX4X4X8X8X8XfXfXfXgXjX4XgXgX4XfXwXqX4X4X7X4XwXwX4X XwXwXwX4X XwX X3XwX3XwX3X4X8X4XqXhX8XwXqX8X4X7X3X3X3X0XwX3X3XwXqX8X7X7X7X7X;X1X5X5X5X5X7X7X7X4X8X4XwX4XwX;X;XwX;X7X0X;X3X,X3X;X0X7X0X;X;X9X9X;X;X;X;X;X;X;X3X;X-X1X1X-X-X1X-X{.-X{.-X{.-X).{.-X-X-X|.-X-X{.1X{.).}.{.{.}.{.{.-X;X{.).-X+X{.-X).<X{.;X[.[.;X[.;X;X}.}.}.;X;X.X}.}.].}.].].].].]..X.X]..X}.~.].}.J.}.}.J.~.~..X~..X[.]..X}.].].(.].K.K.K.oX(.K.OXK.K./.K.K.K.Z.P.].A.].J.J.].L.].K.~.K.J.].",
"F.t.D.F.D.t.D.t.t.t.U.m.m.x.v.x.x.x.v.c.x.x.c.c.m.v.x.v.v.n.v.v.n.v.U.v.v.n.v.n.U.n.n.n.v.B.n.B.c.B.c.c.B.c.B.3.v.v.U.v.U.U.U.U.U.U.U.4.v.U.U.U.v.v.n.n.n.n.n.I.n.E.Q.I.E.Q.I.Q.D.E.Q.Q.Q.Q.Q.W.Q.!.Y.!.E.Q.Q.!.!.!.Q.Y.Q.!.E.E.!.!.!.!.!.!.!.!.!.!.Q.Q.Q.^.Q.Q.!.!.!.W.Q.Q._./._.^.(._._.^./.).).)./._.Q._._._.).).^.^.{.^.{.^.).^.).)._.^.^.^.).).).).{.^.).{.).).-X).+X+X).#X).+X`.#X`.1X#X2X$X1X2X1X#X$X`.$X`.2X`.2X`.`.2X2XgXgX$X X X|.|.|.3X X{.}.|.1X#X$X2X2X$X$X$X$XgX2XgXgXgX'.gX'.gXgX XR. X X X X X X X$X2X6X6X6X6X6X8X5X2X2X XgXgXgXgX$X$XgXkX$XuXgX4X X XgX X4X XgX XgX4X4XgX X XgXgXgX X X4X X2X X XwX XwXwX3XwX3X4X4X4X4X4X X4X4X8XwX4XwX4X4X3X4XwX4XjX X XjXjX XwXwX XjX8X4X8X4XwX7XwX X XjXjX XjX4XgXjXjXgXfXgXgXgXgXgXgX XjX XgX XgX4X8X4X8X8X4X8XwX8XfX4X4X4X4XfXgXgXgXgXgXgXgXwX4X8XwXgX8X4X4XwX7X4X4XqX7XqX8XiX8XpX8X8X8X8X8X4X4XqXjX8XjXgX4X4XgXgXjX4XjX4XgXwXwXwXwX4X XwXwXwX XwXwX X XwX3X4X4XwXwX4X4XqX8XhXhX8XqX4X4X3X3X7X3X3X3X3X0X3X4X7X7X7X5X2X3X>X5X3X2X7X7X8X8X8X8X8X4XjX4XwXwXwX3X5X;X0X9X;X;X9X,X7X;X;X9X;X;X;X;X9X;X;X{.3X{.;X-X1X-X1X|.1X1X-X1X1X1X-X{.1X#X{.|.1X|.{.|.;X-X|.).-X).-X+X{.{.).-X`.-X).+X{.-X{.[.;X{.<X<X<X<X[.;X}.}.}.}.}.}.}.}.}.].}..X].].}.}..X.X]..X].~.].~..X~.~.~.~.~.}.}..X.X}.]..X[.J.[.K.K.[.K.K.].].K.K./.K.L.J.J.].J.J.J.].K.K.K.K.K.(.K.(.~.",
"t.D.t.D.t.W.D.t.E.U.t.U.v.m.x.c.x.c.3.x.v.c.v.c.3.x.v.v.m.c.c.v.v.n.U.n.U.v.v.v.B.I.U.v.n.v.v.v.c.5.c.B.c.B.v.v.v.v.v.U.U.v.v.U.v.U.2.U.v.3.U.x.c.v.v.v.n.Y.I.n.E.n.D.Q.Q.E.Q.D.I.Q.D.Q.Q.Q.Q.Q.E.Q.Q.E.Q.Q.!.E.Q.Q.E.!.Q.Q.Y.!.Q.!.I.!.Y.!.Y.!.^.~.^.^./.~.Q.^._.W.!./._._._._._./._.~._.(.)./.)././.Q.!./.).).^.'.).^.^.^.^.'.).'.^.'.^._.!.^.).^.{.).).{.|.).{.).-X#X1X`.).).`.`.`.+X#X#X1X$X2X$X$X1X$X1X2X`.2X`.2X`.`.2X X'.$X'.$X'.`.|.|.{.}.}.{.|.|.#X`.2X$X2X2X$XgX$X$X2X2X'.'.gX'.gXgX'. X X X XjX X X X2XgX6X6X6X6X6XuX6X6X2X1XgX'.gX'.gXgXgXkX$XkXuXgXgX4X4X X4X X4X X4X4X4X X4X4XwX X XgX4XgX4X4X4XwX XwXwXwXwXwX XwX X4XgX4X4X4X4XgXwX4XwX4XwX4XwX4X4X XwXwXwX X XwX X XjX X8XwX4X4X3XwXwXwXwXwXwXwX4XwX4X4XgX4XjXgXgXgXjXgXgXgX XgX XgX2X4X4X8X4X8XfXwXgX4XfX4XgX4XfX4XjXgXgXgXjXgX4XgXjXgXgX4X8X4X7X4X4X7X7XqX8XqXfXyX8X8XpX8X8XyX4XqX4X8X4XjXwXqXgXgXwX4XjX4XgX4XwX4XqX4XwXwXwXwXwX XwX3X XwX3X XwX3X3X7X4XqXqX8XqX8XhXqXqX4X7X7X7XwX0X3X0X0X3X0X7X7X3X7X7X5X1X3X7X5X2X7X4X8X8X8XqX4X8XwX4XwXwX X3X7XwX3X7X7X,X3X;X;X7X;X;X;X9X9X;X;X;X;X;X{.;X X1X1X1X1X-X1X#X-X5X1X1X1X#X-X1X+X|.{.|.-X|.|.-X1X[.{.-X).{.-X-X-X).-X{.+X{.{.-X;X[.{.;X;X[.;X;X[.}.<X}.}.}.;X<X}.].].].].].}.].].}.].]..X]..X~..X].~..X.X~..X.XJ..X].}.].].}.].].(.].].OX].K.OXoXK.(.K.K.K.].J.].L.].J.J.K.G.K.K.K.K.K.K.K.",
"F.z.m.F.D.m.D.m.n.m.m.c.m.c.c.x.v.v.v.v.v.c.v.c.c.b.b.n.n.n.C.b.v.v.v.v.U.3.v.v.3.v.v.U.v.v.v.U.v.c.v.c.v.v.B.v.n.U.U.n.U.m.v.m.U.2.v.v.3.v.U.m.m.m.m.n.n.n.n.n.I.I.I.E.E.I.E.Q.Q.Q.Q.Q.Q.H.Q.n.Q.Q.Q.Q.Q.Q.Q.Q.Q.Q.Q.Y.Q.Q.!.Q./.Q.Q.Q.Q.Q.~.^._.)._.^._.Q._.W._.^._.Q.^._.^._.~._./.~./.~.~._./.^._.)._.^._._.).^.{.^.^.`.^.^.).).^.).).^.Q.^.^.^.^.`.{.^.).^.|.|.#X).).`.`.`.`.`.`.`._.$X$X#X$X#X#X2X$X$X`.$X`.2X2X1X X X X X|.|. X|.|.{. X}.|.|.|.|. X X'.gXgXgXgXgX'.gXgX'.gXgXgX'.gX XgX X X X X X'.gXgX2X$X$X6X$X$X$X$X$X8X8X2X4XgX X X X XgXgXgX'.gX$XgX4X4X X X4X4X2X4X2X4X2X4X2X4X4X4X X4X XgX X XgX4X XwX X X XwXwX X XwX XwX4X8XwX4X4X4X4XqX4XgX4X4XwXgX4X4X4XwXwXgXwXwXjX4XjX XwX XwX3X7X4X4XwX4X4X4XjX4XqXjXfXfXjX4X4XgXjXjX4XgX XjX X4X4X4XwXjXwX3X4XwX8XgXqX4X4XfXgXwXgXjX8XgXgXjX4XgXwXgX8X4X4X8X7X4X7X4XiX8X8XpXfX8X8X8XyX8X8X8X8X8XqXqXfXwXgXwXjXwXfXwXfXfXwX4X4X4XwX7X4XwXqX4XwX XwXwX4X X3X4X3X4X7X4X7X7X4XqXqX8XqX8XpX8X8X8XqX7XqXiX7XqXqX2X5X7X5X3X5X7X3X3X5X3X7X4X7X7X7X4X4X8X4X5X2X7X7X7X7X7X7X7X7X,X7X;X3X-X;X;X9X;X9X;X;X;X;X;X;X3X-X1X-X1X|.1X{.1X-X|.{.1X1X1X1X1X-X{.1X-X{.-X{.-X{.|.;X{.-X{.{.{.{.1X{.1X+X-X+X).=X-X=X;X[.{.[.[.;X<X}.}.}.<X}.;X}.}.].<X}.=X].].].].]..X[.}.J.}.].].]..XJ..XJ.Z.J.}.].~.].(.[.K.K.K.(.OXK.K.].oXOXK.K.K.K.L.J.G.J.K.L.L.].].].J.].P.].L.].P.",
"F.F.F.z.F.F.m.D.m.m.m.m.x.v.c.v.x.x.c.x.x.v.b.n.v.v.b.n.b.n.b.n.v.v.U.v.U.v.v.U.U.U.3.U.3.v.v.3.n.n.n.v.n.n.n.U.I.n.n.U.n.m.U.v.U.v.U.U.U.v.v.v.v.U.n.U.I.I.I.I.n.n.I.I.I.I.Q.Q.E.I.H.Q.Q.Q.Q.Q.H.Q.H.Q.H.Y.Q.Q.Q.E.Q.Q.Q.Q.Q.Q.Q.~.~.Q.Q.~./._.~._.Q./.Q._._.!.!._.!.^.!.^./.^._._.^.).)._.).(.)./.)./.)._.).^.^.).^.).^.^.{.^.^.^.{.).).^._.Q._.^.).).`.`.).).).`.).'.).)._.)._._.#X#X$X#X#X$X$X X$X$X2X X$X#X$X1X`.`.|.|.|.|.|.|.|.{.|.|.}.}.{.|.|.|.`.'.gX X'.'.'.'.gX'.gXgX'.gX'.gX'. X'. X X X X X XgX'.'.gX6X2X6X$X$XgXgX2X2X2X2X XgXgX XgX'.'.gXgXgX$XgXgX X4X4XgX X4X2X X2X2X2X4X4X2X4X2X XgX2XgX4X4X4X XjXwXjXwXwX X XjXwXjX X4X4X4XfX4X8X4X4X4XwX4X4X8X4X4X4X4X4XgXwXjX XjXwXwXgX XjXwX4XwX4XwX4X8XqXqX8XgXjXfXfXjX8XfXjXjX4XgX4XgXgXgX4XwX4XgX4XwXwX4X4X4XqX4XgXgXgXgXgXwXgXgXwX4XfX4XjXfX4XjX4X8X4X4X4X8X4XqX8XiX8XqX8XiX8X8X8XqXpX8X4X4XjXqXwXfXwXhXwXqXwXfXwX8XwX4XwXqX4XqX4XqXwX4XwXwXwX XwXwX3X7X7X7XqX7X8X8X7XqX8X7XqXqX8XiXyXiX7XqX8XqXqXwX7X7X7X5X7X,X3X5X3X5X3X7X3X3X7X2X7X8X8X8X7X8X8X7X3X7X7X7XwX7X5X7X5X3X;X,X;X;X;X9X;X;X;X;X;X;X3X;X1X-X1X-X-X1X-X-X1X-X1X-X-X3X-X;X1X1X-X|.-X|.-X1X{.-X1X1X{.{.-X{.-X-X-X{.-X+X-X-X-X=X-X;X{.;X}.}.}.}.}.<X}.}.<X<X].].<X<X].=X=X].].].}.[.J.].}.].}..X].J.].]..X].J.].}.[.(.[.K.(.[.OX].K.K.OXOXOXK.(.K.K.K.K.K.K.J.].K.L.J.P.].].L.K.K.].L.].",
"b.F.F.F.b.F.D.m.m.U.v.x.x.v.m.x.v.v.v.c.c.m.n.c.m.b.n.b.n.n.n.b.v.v.U.U.v.v.U.v.2.v.U.3.U.3.3.U.n.v.m.n.v.n.n.n.n.n.n.m.U.n.n.U.U.U.U.v.U.U.v.v.U.U.m.U.I.n.n.E.E.I.E.n.Q.I.I.Q.Q.Q.Q.Q.Q.Q.H.Q.Q.H.Q.H.H.E.Q.D.Q.Q.Q.E.I.Q.Q.Q.Q./.Q.Q.Q./.^././.^._.!._.!.!.!._.^.^._._._._.(._.~.~._.).)._.)._.)._.).).).).).).).).'.{.^.^.|.).^.).^.^.).^.^.).^.^.{.).^.^.).).{.).)._.`.).'.#X_._.#X'.$X#X$X`.2X$X2X`.$X2X`. X`.|.1X|.|. X|.|.|. X|.}.|.}. X|.|.'.|.'. XgX'.'.gX'.gX'.gXgX'.gX'.gX'.'.gX X X XgXgX X XgX XgX$X2X$X$XgX$X$X$X2X2X2X1XgX'. X XgXgXgXgXgX$XgXgX4X4X4X4X4X2X4X4X2X2X4X X2X2X2X2XgX X2X X4X4X XgX X XjX X X XwXwX XwXwX X4X8X4X4X4XqX4XjXjXwXwX4X4X4X4X4X4XgXwXgXjX4X4XwX4XwXwX X4XwX8X4XwX4XqX4X4XjX4XfX4XqXgXjXwX4X4XjXgXjXjXgX4X4XjXgXgX4XjXwX4XwXgXwXjXgX4XwXgXgXgXfX8XgXqXgXgXjX4X4XqXgX4XqX8XhX8X4XqX8XiXqXpX8XfX8X8XqX8XhXqXqX8XqX8XqXwX4XwXqXqXwXwXwXjXqXwX7X7XwX4XqXqX4XwXwX4X X4XwX3X3X4XqX8X8XqX8X8X7XqXqXiXqXiXyXpX8XpXiXqXpXiXqXqX0X7X7X7X7X3X3X5X7X3X7X3X5X7X3X7X3XwX8X8XqXwX7X4X4X4XqX7X7X7X7X7X,X3X3X;X;X,X;X;X9X;X9X;X;X3X;X3X-X;X1X;X1X;X-X1X;X|.;X3X1X3X1X3X-X3X-X1X{.{.-X-X).|.-X1X{.1X-X1X-X1X;X-X-X-X-X-X>X).=X-X[.;X}.}.}.;X}.{.[.<X}.}.<X].].].].=X].=X].].}.].}.[.[.[.].].~.].J.J.].J.].J.(.(.J.[.(.(.(.(.(.K.OXOXK.OXK.K.K./.K.L.K.K.K.K.K.].P.K.L.K.K.K.L.].].K.",
"F.l.b.F.F.m.m.D.m.m.m.m.x.v.c.c.c.v.c.x.b.v.b.c.b.b.b.n.b.b.m.b.v.v.3.v.v.3.3.v.m.2.3.m.2.U.3.v.m.v.c.n.m.v.n.n.v.n.U.U.n.U.U.n.U.U.v.U.U.U.U.n.I.n.I.I.I.E.I.I.E.I.I.Y.n.E.Q.Q.Q.I.Q.H.Q.Q.Q.Q.Q.H.H.Q.C.H.C.H.Q.Q.Q.Q.Q.Q.Q.Q.Q.~.~./.Q.^._.Q.Q.Q.Q.!.Q.^.!._.^._._.^.)._._.^.^._.).(.^.).}.).)._.).).)._.).).{.).).).^.|.^.{.).).).).).^.).^.).).).).`.{.{.).`.).'._.`.).).).`.#X`.#X_.#X$X'.$X#X$X#X2X2X#X1X`.1X1X{.|.{.{.{.|.{.}.}. X}.}. X|.{. X`.'. X'. X X'.gX'.'.gXgX'.'.gXgX'.'. X X XgX X X XgX XgXgX2X2X$XgX$X$X$X'.1X2X2X2X'.gX XgX'.gXgXgXgXgXgXgX4XjX4XgX4X4X4X2X2X4X2X2X2X X2X X X X XgX X X4X XjX X XwXjX XwX XwX XjXwX4XwXgXqXqX4XgXwX4XgXwXgXqX4X8X4X4XwXgXwXwXwXjXjXjXwXjXjXwX4XwXqXqXqX8XjXfXwXfX8X4XgX4XgXfXjX4X4X4XjX XgXgXjX4XwXjXwXjXwX8XwXwXqX4X8XfXgXfX4XjXgX4XjXgXqXjX4XfXfXgXgXwXfX8XhXqXjX8XqX8XqXfXfXkXyX8XkXqX8XjX8XhXqXqXqXqXwXqXwXqXqXqXqXwX8X4X4XwX4XwX4XwXwXwXwXjXwXwX4XqXwX8XqXqXqXpX8X8XqXpXqX8XqX8XqXyXpXpXyXlX8XqXqXwX7X8X7X7X7X7X5X7X3X7X3X7X3X3X7X3X7X7XwX7X8X8X8X7X7X7X7X4X7X7X5X5X3X5X7X3X5X3X,X3X;X9X;X;X3X;X,X1X5X1X3X1X1X1X3X3X1X-X{.1X-X-X1X-X1X-X3X3X-X1X1X{.-X-X1X;X-X-X1X1X3X3X1X-X1X-X-X>X-X-X-X{.;X}.;X}.;X[.{.<X{.].<X<X}.<X<X}.<X].=X].].}.K.(.[.[.].}.[.K.].].].].J.J.].[.J.(.[.(.(.OXOXK.(.OXOXOXOXOXOX/.K./.K.K.K.K.K.K.K.].].K.K.K.].L.].].L.K.",
"F.F.b.F.F.n.m.m.m.n.m.m.c.c.v.c.c.v.c.m.c.n.b.n.n.n.b.n.m.n.b.b.m.m.v.m.v.2.v.2.3.m.v.2.v.m.m.x.n.n.c.m.m.n.n.n.n.m.I.I.I.E.I.I.U.U.U.Y.n.Y.I.I.I.I.Y.I.I.I.Q.Q.I.E.I.I.I.E.Y.D.D.Q.Y.Q.Q.Q.Q.J.H.H.H.H.H.H.H.Q.Q.H.Q.H.H.Q.Q.Q.Q./.Q._.!._.!._.!.!.!.Q.!.!._.'._._.)._.).)._.)././.).).).).).).).)._.).).).).).^.).'.).|.^.^.'.).).).{.).|.).).{.`.^.{.|.).).).{.).`.`.`.).#X`.`.`.#X#X$X$X_.$X`.`.$X2X2X#X2X#X|.1X|.{.}.{.|. X{.|.}.|.}.}. X}. X X}.|. X X'. X X X X'.gX'.gXgXgX'.gX'.gX'. X X XgX XgX'.gXgX'.gX$XgX$X'.gXgXgX2X2X X'.gXgXgX X2XgXgXgXgXgXgX6X8XgX4X4X2X4X2X2X4X2X4X2X4X2X2X3X X4X4X X X4X X XjX X XwXjX XwX X4X4X4X4X4XwX4X4X4X4X4XqX4XwXfX4XjX4X4XqX4XfXwX4XgXjXwXjXjX4XjX4XwXfXqX4X4XqXwXgXfX4XqXjXfX4X4X4X4XjXwXgXjXgXjX XjXgXjX4XqXqXwXjXwXqXqXgXjXgXjXgX4XgX4XfXgXjXfX4XgX4XjXgXjXgXqXjXqXfX8XqXyX8X8X8XyXkXfXlXfXfX8XpXhXqXqXqXqX8XwXwXsXwXwX0XwXpXwX0XqXqXqX4XqXqX8XqXwXgXjXwX4XqX4XwXqX8XhX8X8XlXkXqX8XqXqX8XpX8XiXyXyXpXpXqXqXqX0X7X7X7X7X7X7X2X7X3X3X5X7XwX3X3X4XwXwXwXwXwX7X7X7X4X7X3X7X7X5X2X3X5X5X7X7X7X3X7X3X,X5X;X3X;X1X3X1X>X1X;X1X-X-X3X3X-X1X-X1X-X-X3X-X{.3X1X3X-X-X1X{.-X-X;X|.|.-X3X;X3X-X3X-X3X-X>X-X3X;X;X{.;XwX}.;X}.{.[.;X[.;X[.[.=X}.].=X].[.].].=X].K.(.[.(.(.[.].=XK.].K.].J.K.L.J.K.(.K.(.(.OX(.(.(.OX/.OX/.OX/./././.(.(.K.OXK.K.].K.K.K.].].oX].].].].].",
"F.z.b.F.F.D.D.b.n.m.n.b.b.c.m.b.v.c.v.b.c.n.n.v.n.b.n.n.D.m.m.n.v.v.v.3.x.4.2.m.U.2.v.U.x.v.3.m.b.m.n.n.n.n.m.n.n.n.I.I.I.n.I.n.n.U.U.v.U.U.I.I.I.I.Y.E.E.Q.I.E.Q.n.E.I.Q.n.E.Y.Y.E.H.Q.Q.Q.H.Q.Q.H.Q.H.Q.H.C.H.H.Q.J.Q.Q.Q.Q.Q.Q.!.Q.^._._.!.^._.!.!._.W.!._.!.!._.).).`.)._._._.^._.~.).).).)._.)./.)._.)._.).^.).).^.^.).).{.^.|.^.`.).`.{.`.{.).).`.).).|.|.`.{.`.|.).1X1X).#X`.#X_.'.$X$X$X$X$X$X#X#X2X1X1X1X{.|.-X X3X{.{.{.}.|.^.3X}.}. X}. X|.|.'. XgX'.'. X X X'.gXgX'.'.gXgX'.'. XgX'.'.gXgX'.gXgXgXgXgXgXgXgXgXgXgXgX$X2X2X2XgX X'.gX2XgX$XgX$XkX6X6X8X8X4X8X4X4X2X2X4X4X2X4X2X4X X4X2X X X4XgX X X4X XwX XwX XwX XwX4X4X XwX4XgX8X4XqXqX4X3X4X4X4XwX4X8X8X4XwXwXgXqXgXwXjXwXjXwXwXwX4XwX4XqXqXgXqXjX4XwX4X4X4X8XgX4XwX4XgXjXjX4XgXgX4XgXqXjXwXjXqXqXqXjXqXwX4X8X4X8X4XjXfXfXqX4XwXjXjXjX8XfXqXqXjXqX8X8XqX8XqXqXfX8XkXfXfXkXfXpXlX8X8XqXqX7XwXwXqXqXwXwX0XqXpXwXpXpXqXqX8XwXqX7X8XwXjXwX4XgXjX8X4XfX8XhX8XlXkX8XyX8XhXqXpXqXqXpXpX8XaXpXqXiXqX7XwX7X8X7X4X7X7X7X7X7X3X7X3X3X7XwX3X7X7X3X7X0X3XwX7X7X7X5X7X2X7X7X5X1X2X7X7X7X7X7X7X;X3X3X,X5X5X;X1X1X3X3X-X3X3X-X1X3X-X3X;X1X1X{.3X{.-X;X{.-X{.-X-X{.|.-X-X-X1X-X1X3X;X1X3X-X-X-X-X1X{.;X;X3X;X;X;X;X[.;X[.;X[.-X[.[.].<X[.].].[.=X].=X(.[.K.].[.].[.].=X].K.L.K.K.K.J.(.K.K.K.(.(.(.(.OX/.OXOXOXOXOX(./.(.(.(.(.(.(.K.K.K.].K.K.].].].P.].].].",
"m.F.F.m.b.m.b.n.n.b.b.n.b.n.n.b.V.c.c.b.v.b.n.b.b.D.n.C.n.n.n.n.v.n.m.v.m.m.3.m.x.m.x.m.v.v.v.m.n.m.m.c.m.m.m.n.n.n.E.I.I.E.I.I.U.n.n.I.I.I.U.I.I.I.I.Y.I.I.E.I.E.I.Y.I.I.E.E.C.n.Q.Q.Q.Q.Q.Q.H.H.Q.H.J.H.H.H.Q.~.H.Q.H.H.Q.H.Q.Q.!._._.!._.!._.!._._.!.!.'.W.'._._.).`.).`._.~._.~.~.).^./.)._._.).)._.).).).).).^.^.).^.^.^.^.^.).{.`.1X{.|.`.`.{.).|.).|.).|.).|.|.|.#X`.`.#X).#X`.#X_.`.#X#X$X`.|.$X1X1X1X1X1X{.-X{.}.}.}. X}. X}. X}. X}. X X|. X XgX'.'. X'. X X X'.gX'.gXgXgX'.gXgX'.2X X'.gX XgXgX X2X X2X2X$XgXgXgXgXgXgX2X2XgXgXgX'. X6X6X6X$XgX6XkX$X4X4X4X2X4X3X3X X4X4X3X X X4X4X4X XgX4X X XwX4X XjX XwXwX XwXjX X4XwXjX4X4X4X4X4X4X4X4X2X4X4X8X8XfX4X8XfXfXgXgXjXjXjXwXjXgXjX4X4X4XqXqX4X4XqX4X4X8X8X4XqX4X8X4XjXgX4XwXwX4X4XgX4XjX4XjX4XjXwXwXhXqXqXjXwX4XqXgXjXjXfX4X4XfXjX8XqXwXwXjXqX8XjXqXjX8XhX8X8XkXhX8XlXhXfXlXhXlXkX8XqXfXqXqXqXwXqXqXqXwXsX0XqX0XwXqXqXqXqXqX7XwX8X4X8X8X4X8XwX4X4XqX8XyXfXyXhX8XlX8XhXyXqXpX8XyXpXpXpX8XiXqXiXqX0XwX7XqX7X7X7X3X7X7X7X7X7X3X7X4X7X3XwX0X;X3X3X3X3X3X7X3X1X2X7X7X4X2X7X7X2X7X8X7X7X2X7X5X3X;X1X5X1X>X1X1X-X;X|.-X;X;X3X-X{.3X1X;X|.;X-X-X-X-X-X-X{.{.{.-X-X{.;X-X;X;X3X3X-X3X;X-X-X-X-X;X;X;X;X{.;X}.;X;X{.;X[.{.=X=X[.}.].].[.].].[.=X=X(.=XOX=XK.K.=X].K.].].].L.K.K.].].K.(.(.K.(.(.(.(.OX/./.+XW.+X/._._.OXOX/.OX(.OXK.].K.K.].K.].].].].J.].",
"F.b.D.F.F.b.D.F.n.n.n.b.n.n.b.V.v.n.b.c.b.b.n.n.n.C.n.D.D.D.m.n.n.U.v.v.m.v.v.m.v.v.m.U.m.v.m.m.v.b.n.m.n.m.n.n.n.n.I.E.E.E.I.n.n.I.n.U.I.I.I.I.Q.Y.E.I.Q.I.I.Q.Y.Q.n.E.Q.I.I.E.Q.I.D.Q.Q.Q.Q.Q.~.H.J.Q.J.Q.H.H.H.Q.H.Q.H.Q.Q.Q.Q.Q.!.^._.'._.!._.'._._.W.'.!.!._.^.).`.`.).).)._._.^./.(._.~._.~._./.)./._.^._.~._.^.^.).^.^.^.{.).).|.).|.{.|.{.`.{.^.{.).|.|.).).|.#X1X#X`.`.#X`.#X`.$X_.#X#X`.$X`.1X1X1X1X1X1X3X{.3X;X X;X;X}.}. X}. X}. X}. X|.|. X'. XgX X X X'. XgX'.gX'.gXgX'.gX X2X`.`.gXgX'.'.2X2X2XgXgX2X2X`.gX'.gXgXgXgXgX$X'.gXgX2X2X2X6X6X6X6X6X6X4X4X4X3X2X3X1X X4X2X4X4XwX4X4X4X4X X4X XwX X XjX XwX X X X X XwX4X X X4X4XwX4XqX8X4X4X4X2X4X8X4XqXgXfX8X4XjX8XfXwXgXgXjXjX4X4XjX4X4X4X4X4X4X8X4X4XjX4X4X8XjX8XqXwXjXfXgXjX4XjX4XjXgXwXjXwXhXwXwXqXqXqXqX4X8X8XfX8XfXfXjXwXfXqXgXjXfX8XqXhXqXjX8XhX8XhXhXfXlXlXlX8XkXkXlXlXfXlX8XqX4X4X4X7XwX0XqXsX0XwXwX0XpXqXqXqXqXqXqX8XqXqX8X8X4X4X8XjXqX4XfX8X8XfX8XkX8XyXfXhX8XqXpXpX8XyXpX8XyXyXqX7XqXwX3X7XqX8X4XwX7XqX4X7X3X3XwX7XwXwX7X3X3X;X3X9X;X3X3X3X;X5X1X4X7X8X7X7X7X4X7X3X7X5X3X3X5X5X1X3X5X-X3X;X3X-X;X1X-X;X;X;X3X-X;X-X-X{.-X;X{.{.-X{.-X{.-X3X{.-X{.-X{.;X;X-X3X-X-X-X3X-X;X=X{.}.{.;X{.;X{.;X{.-X-X-X[.{.(.}.}.[.].[.=X=X[.=X=XOX=XOXOXK.K.K.K.K.oX].].K.=XK.K.(.K.K.(.(.(.OX).).(._._.W.+X+X/.)._.(.(./.(.(.(.OXK.].K.].K.].oX].oX].",
"m.b.D.b.b.D.b.n.n.b.n.n.b.b.n.m.c.b.b.c.m.b.n.b.n.n.D.n.D.D.n.n.n.I.n.m.m.m.m.n.m.m.m.I.m.n.n.m.m.b.b.m.n.b.n.n.n.D.E.Q.E.I.I.n.I.I.n.E.I.E.E.E.Q.I.E.Y.I.I.I.U.I.I.I.I.I.n.E.Q.n.Q.Q.Q.Q.Q.Q.H.H.H.H.Q.H.~.H.Q.D.H.Q.H.Q.Q.Q.Q./.!.Q._.)._.'._._._.!._.!._.!.!.^.)._.^.)._._.^.^._.~.^.~./.Q.~._./.^.)./.).^.).^.).^.^.^.).{.^.`.{.|.{.1X|.+X|.{.).|.).).`.^.`.).).'.).`.`.).`.`.#X).`._.#X$X$X#X2X#X2X1X2X#X1X|.-X;X3X{.{.{.{.3X X{.3X}.}.wX X X X X X X X2X X X'. X X X X X XgX X'. X2X2X2X2XgX'. XgX'.'.gXgX X X X X'.gX XgXgXgX XgXgX X6X8X2X4X4X2X7X4X4X7X4X4X8X8X4X7X2X3X X XwX X XwX XwX4X4X X4XwX X X X X X XwXwX XjX X XjXwX4XwX X4X4X2X4X2X2X7X4X4X8X8XfX4X4XfXfX4XjXgXqXgXwXjXwXjX4X4XfX4XjX4X8X4X8X4X8X4XqX4XqXqXjXqX4X4XjX4XjXgXjXwXgXgXwXjXqXhXqXqXqXqXwXjXqX4XjXjXjXjXfXqX8XqXjX4XgXqX4X8XwXfXqX8X8XhX8XfXfXkXqXhXfXhXfXhX8XhXqX8XpXqX8X7XqXqXqXqXqX0XqXiXpXpXqXqXqX8XiX8XpX8XqXqX4XqX4X4X8X8X8X8X8XyXfX8X8XyX8X8XqXqX8X8XqXpXyXiXpX8XiXqXqXqXwX7X8XqX7X7X7X7X3X7XwX0X3XwX3XwXwX9X;X9X;X3X;X3X;X3X3XwX3X7X4X7X7X2X8X4X7X7X8X1X7X5X3X1X5X1X1X-X1X3X;X{.{.3X;X{.3X;X;X;X;X;X;X;X-X{.-X{.;X[.;X{.;X{.;X[.;X{.;X;X{.;X;X{.;X[.;X;X{.{.-X{.-X{.-X-X{.+X(.-X+X-X=X=X=X{.[.OX[.[.[.(.[.(.K.=XOXK.K.OX].oXK.K.K.].].].K.K.K.L.K.K.K.K.(././.OX_.).+X_.).).(.(.(./.(.(.(.(.K.(.K.K.K.K.K.].K.].L.K.",
"m.z.b.b.F.m.b.b.G.b.b.b.m.b.b.b.b.c.b.m.b.b.b.n.D.n.n.b.D.m.D.n.D.n.I.n.n.m.n.m.n.m.n.m.m.n.m.n.n.m.m.b.m.n.n.n.I.n.I.E.E.E.E.I.D.I.I.I.I.E.I.I.I.E.Y.E.Y.I.I.I.E.E.I.I.E.I.I.D.Q.n.Q.Q.Q.Q.Q.H.H.Q.J.H.Q.H.H.Q.C.H.C.Q.Q.Q.Q.Q.Q._.^._._.^._._.!._.!.!._._.!.'._._.).'._.'._._.)./._.(._.~./.~.^.)._./.)._.)._.).^.).).'.).^.^.`.).).|.).|.|.).`.{.).|.).{.{.).).`.).`.).`.).`.#X#X#X`.`.#X$X$X#X#X$X1X1X1X1X`.1X1X|.{.|.{.{.{. X}. X{. X3X3X}.|. X|.3X4X X X`. X X X X X X XjX'.gXgX X'.gX2XgXgXgX2XgXgXgXgX'. X'. X XgX XgX X'.gXgXgXgXgX6X2X2X2X2X2X2X3X7X4X8X4X4X8X8X4X4X3XwXjX X X X XwX X4X3XwX3XwX X XwX XwX X X XwX XwX4X X4X4XwX4X4X4X3X4X4X8X4X3X8X4XgX8X8XfXfX8XfX4XjX4XjXjXgXgX4XjX8XwX8X4XjX4XwX4X4X4X4X4X4XfXgXwXwXwXjXwXjXjXwXgXjXjXwXjXqXwXhXwXhXwXwXqXwXgX8XjX8XfX4X8XjXjX4X8XwXwXjX4X4X4X4XjXjXqXhXhXlXfXqXkXhXlXfXhXhXhX8XfXqX8X8XqXqXiXqX8XqXqXqXiXpXqX8XpXpXpXqXqXqX8XqXyX8X8X8X8X8X4X8X8X8XqX8X8X8X8X8XqXqXqXqXpXpXyX8XpXpXyXpX8XpXqX0XqXqXqX7XqX7X4X3XwX3X3XwXwX3X XwXwX3X3XwX X;X3X3X3X3X3X3X9X7X4X7X4X7X7X7X7X5X7X8X8X2X5X5X3X3X>X1X;X{.3X9X;X;X3X;X;X3X|.;X3X;X;X{.{.;X{.{.[.;X{.;X[.;X{.;X{.{.;X{.;X3X{.3X{.;X{.{.{.;X{.;X-X-X{.-X-X-X-X-X-X-X).+X=X=X-X[.[.[.(.=X[.OX=XOXOX=XOXOXK.=XK.=XK.K.K.oXK.K.K.oXK./.(.L.K./.(.(.(.OX/.+X(.(.(.(./.(.(.(.OX(.(.K.K.K.K.K.K.].].].].K.",
"m.m.b.m.b.b.b.b.b.b.b.b.F.b.b.m.b.b.b.b.b.b.m.n.m.m.F.m.m.D.n.D.n.m.D.m.n.m.m.n.m.n.n.n.n.n.m.m.n.n.m.m.m.n.D.n.n.E.I.E.I.E.I.n.I.I.E.n.n.E.I.E.I.Q.I.I.I.I.I.I.Y.E.I.I.I.I.Q.I.Y.E.Q.Q.H.Q.Q.Q.Q.H.H.Q.Q.H.Q.Q.n.Q.Y.Q.E.E.Q.E.Q./.!._._._._._._.!._.!.!._.!._.'.^.)._._._./.^._.^.~._.~.~.~.^./.~._.).)._._.).^.).^.).{.{.'.{.|.).|.`.{.`.).|.{.`.`.{.|.|.^.).{.^.`.).+X`.`.).`.#X`.#X#X'.$X$X#X#X$X#X#X1X1X1X1X|.1X`.|.|.{.;X}. X X{. X3X X}.-X|.|. X X X`. X3. X X XgX X XjX'.gX X2XgX2X2X2X'.'.gX'. X2X2X X X X X X'.gX XgXgXgX XgX XgX2X6X4X2X5X7X1X3X2X2X7X8X7X8X8X3X3X3XwX X XwXwX X XwX3X3X XwX X XwX XwX X XwXjX X XjXwX X X4X4X4X X4X4X4X4X7X8X6X8X8XgX8X8X6X4XgX8XfX4XfXfXgXwXjXjX4XfXwX4XfX4X8XgXwX4X8X4XqXqXwXwX8XgXwXqXgXgXwXgXwX4X4XqXgXwXqXwXqXqXqXqXwXqXqXgXgXfXfX8XjX8XqXjXqXqXqX4X4X4XqX4XqXhXhXlXfXhXkXfXlXhXhXfXpXhX8X8XqXlX8XlX8XpX8XyX8XqXiXfXkXqXqXqXqX8XpXqX8X8XqXqXqXqX8X8X4X4X7X4XwX4X7X8XqX8XqX8XqXqXqXqXqX8XpX8XiX8XyXqXpXqXpXqXqXqX8XqX7XqX8XwX7XwX7X3X3X3X3X3X;XwX;X;XwX3X;X;XwX;X3X3X9XwX7X7X3X7X7X2X7X8X2X8X7X5X7X3X1X3X3X5X7X;X;X3X;X3X;X3X3X;X;X;X;X;X{.{.;X;X[.;X[.;X[.;X[.{.;X[.;X;X{.;X}.;X<X;X;X{.;X}.;X{.{.;X{.-X-X-X-X-X+X+X-X-X=X-X-X+X=X[.[.=X(.[.[.OX=X=XK.OXK.=XK.OX].OXK.K.OX].K.K.K.K.K.K.K.K.OX(.(.(.(.(.(././.(./.(././.K.(.K.K.K.(.K.K.K.K.L.].].L.].K.",
"D.n.n.b.n.b.F.b.l.G.b.b.b.b.b.b.n.b.b.c.n.b.n.b.m.n.m.D.D.n.n.D.n.n.n.m.m.n.n.m.D.n.n.n.I.n.n.n.m.b.n.n.D.n.n.n.D.n.E.E.E.I.I.E.E.n.n.I.I.n.U.n.n.I.E.Q.Q.I.Q.I.Q.Q.Q.Q.Q.Q.D.Q.D.Q.I.H.Q.Q.Q.Q.Q.~.Q.Q.Q.Q.Q.H.Q.I.E.E.Y.Q.Q.Q.~.!./.^.^.^._.^.!._.^.!._.!._.!.!._._.).).^.)._./.^._./._._._./._._.)._.^.).).).^.).).{.^.|.|.|.{.|.|.{.|.|.{.).).|.).`.).).{.`.|.).|.`.`.).|.#X#X`.#X`.#X#X$X$X1X1X1X2X1X1X1X1X1X|.1X2X|.|.|.|. X X|.|.}.{. X3X|.{.{.|.|.|.2X|.jX X X X X X X X X X2X2X2X2X2X$XgXgX XgX2X'.gX2X X X X X X X X XgX'.2XgX$X2X6X2X2X1X1X2X1X1X3X3X2X1X1X7X2X2X3X4X XwXwX X XwX XwX XwX3X XwX X X X.X X X X X X X X XwXjX4X4XwX4X4X4X4X4X4X8X8X7X8X8X8XgX8X8XfXfX4XgX8X8X4XjXgXgXwXgXgXfX4X4XqX4X8X4X4XwX4X4X8XjXqX4XjXjXwXgXjXjXwXjX4XwXwXwXjXwXwXqXqXwXqXjX4XwXfXgX8XjXgXfXwXwX8X4X4XwX4X4X4XqXhXlXlXhXlXkXhXlXjXhX8XqXhXlXqXhXqX8XlXlXlXlXhXyX8XfXfXhXkXqXlXyXqXqX8XiXqX8XqX8XqX7X8XwX7X7X8X7X7X7X7X4X7X7XqX7X8XqX8X8XiX8X8XpXyXiXpXpXqXqXqX0XqXiXqX7XyXqX7XqX7XwX3XwX3X3X3X3X3XwXwX;XwXwX;XwX;X3X3XwXwX7XwX7X3X2X7X7X7X7X7X7X8X7X2X5X7X5X,X3X7X9X3X;X9X;X9X;X9X;X;X;X3X;X;X;X;X;X;X{.=X[.{.;X{.;X[.;X{.;X[.;X;X;X;X{.;X;X{.;X}.|.;X{.-X-X-X-X-X@X-X-X@X+X+X+X-X=X).-X[.[.-X[.-X=X=X=X:X=X=XOXK.:X=X:X].=XoX].K.K.K.K.OXK.K.K.K.K.(.K.OX}.(.(.(.K.(.K.].(.(.K.(.K.(.K.K.J.K.K.K.L.L.].L.K.",
"D.C.D.n.b.b.n.b.b.b.l.V.b.b.b.b.b.b.b.b.b.b.m.H.m.m.D.m.m.I.D.I.F.D.D.m.n.D.m.D.D.D.m.D.D.n.D.m.n.m.m.n.n.n.n.D.E.n.E.I.I.E.I.D.E.E.E.m.n.I.m.E.I.n.E.I.I.!.E.Y.Q.!.Q.E.Q.!.I.Q.Q.Q.Q.Q.E.Q.Q.Q.Q.Q.Q.Q.Q.Q.Q.Q.E.Q.E.Y.E.!.!.Q.Q.Q.~.~.!._.^./.Q._.^._._.!._.!._.)._.).).).!._.~._.~.~.)././.^.)._._.)._.).).).).).).^.{.`.|.|.`.|.1X).`.`.{.).{.`.).).`.-X`.{.1X).`.|.`.).#X`.#X`.).#X#X$X$X1X$X1X$X2X2X2X#X1X`.2X`. X`. X`. X$X X`.1X X3X{.1X|.{.-X1X{.1X1X1X1X1X1X1XgXgX XgX X`.2X2X1X2X8X1X2X6X2X1X2XgX X X X X X X X X X X X XgX X2X2X6X6X5X2X1X1X1X1X|.3X3X1X5X3X1X1X X3X XwX X4X XwX X XwX3X3X XwX X X XjXjX X XjX XjX X X XjXwX4X4XwX4XfXwX8X8X8X2X8X8X8XgX8XfX8XgX4XfXjXfXfXgXfXgXjXjX4XjX8X4XfX4X4X4X4X4XqX4XwX8XwX8XwXwXjXgXjX8XgXgX4X4XwX4XwXwXwXjXwXqXwXwX8XwXgXwXwX4X8XqX4XjXqXqXwX4X3X4XwXqXhXhXlXlXvXjXkXlXlXkXqXqXqXhXqXqXqXhXfXlXkXlXlXkXfX8XkXkXkXkXyXfX8XkXpXqX8XyX8XqXiXiX7XqX7X7X3X7X7X7X7X7X7X7XwXqX7XqX4X8XqXqXyX8XiXiX8XpXqXpXiXqXwXqXiXqX4XwXqXqXqXwX7X3XwX3X X X;X3X3XwX}.wXwXwXwXwX0X3X0XwXwXwX0X9X0X7X7X7X8X7X4X7X8X1X3X7X7X7X3X,X9X;X3X;X;X9X9X;X;X;X;X;X;X;X=X[.[.;X;X[.;X[.{.<X[.<X;X[.;X;X;X;X{.;X;X{.}.;X}.;X{.3X;X-X-X@X5X>X@X5X@X@X>X+X-X+X+X(.{.-X-X[.-X[.-X=X[.-X=X[.=X=X=X].=X].K.].K.=XK.oXOXK.K.OXK.=X].(.(.K.(.(.].(.L.].].oX].K.K.K.K.K.K.K./.K.K.J.L.]./.K.K.",
"E.n.D.V.D.V.F.V.l.b.l.b.b.F.b.b.b.V.b.b.b.n.b.n.n.F.n.D.E.E.t.n.n.m.m.n.m.m.m.m.m.F.D.n.n.D.n.D.n.n.D.m.D.n.I.n.n.E.I.E.E.I.E.I.m.I.D.I.m.I.I.m.I.n.I.E.I.E.Y.I.E.I.!.!.Q.E.Y.E.E.Q.E.Y.Q.C.Q.Q.Q.Q.Q.E.Q.Q.Q.Q.I.R.!.I.Q.E.I.Q.Q.~._./.~.Q./.!._.~._.!.^._.~._._.^._.).).^._._.)._._.).~.^.).(./._._._.).).).).^.).).|.^.|.{.).-X{.|.1X1X{.1X|.`.{.|.{.).`.{.`.|.|.|.).1X`.#X).`.#X#X#X#X$X$X$X1X5X1X1X1X1X#X1X2X`.gX`. X2X2X`. X$X2X1X|.|.-X|.-X{.{.|.1X{.1X1X5X5X5X5X X X2X X2X X2X2X2X2X2X2X8X8X2X2X2X'.'. X X X X X X X X X XgX XgX2X2X2X2X2X6X1X1X3X1X X1X1X1X1X1X X3X3X3XwX X XwXwX X XwX3X3XwX XwX}. XwXjX.XjX.X X XjX.XwX XwX X4X4X XjX4X4X8X8X8X8X8X8X6XgX6XfXgX8XgXgX8XfX8XjX4XjX8XgXgX8XjX4X4XgX8X4X4X8X4X4X4XqXqX4XwXwXwXqX4XjXwXjXjXjX4XwXwXwXwXwXqXqXqXwXwX4XqXfXgXjX4X4XqX4XwXqX3XwX7XqXqXhXjXlXlXjXjXlXkXvXkXjXpXwXpXqXqXqXqXqXlXfXlXlXkXfXkXkXkXkXkXjXkXlXkX8XfXyXqX8X8X8X8X8XqX7X7X0X7XwX3X0X4X7X7X7XqX7X0XqXqXqXqX7XqX8XiX8XyXiX8X8XqX0XwX0X8XwXqXqX7XwX7X8X4XwX3X3XwX3X3X3X X;XwXwX3XwX;XwX3X0X0XwX0X0X3X3X7X9X7XwX7X8X8X8X2X7X7X5X3X,X,X3X;X9X;X9X3X;X;X9X;X3X;X;X;X;X;X;X[.;X[.;X[.<X<X;X[.;X[.<X;X;X[.<X;X;X;X;X;X X X;X;X{.-X1X-X-X-X@X5X@X>X5X+X-X+X-X-X-X[.-X{.-X[.-X-X=X=X=X(.=X].=X=X=X].=X].=X].K.K.].].OXOXK.].K.].K.].].].K.].J.].].].].].].K.K.K.K.K.K.H.K.K.K.K.G.J.K.J.",
"n.Q.D.n.V.n.N.b.x.l.l.b.F.b.b.b.V.b.F.b.b.b.D.n.D.n.n.D.D.t.D.D.m.n.m.m.m.D.D.m.m.m.m.D.n.D.D.n.m.D.D.D.D.D.D.D.E.n.E.E.D.I.W.D.W.E.W.E.I.D.E.I.I.E.I.E.R.I.E.Y.I.Q.Q.Q.Q.Q.Q.E.Q.Q.Q.E.C.Q.Q.Q.Q.Q.Q.!.E.Q.E.Q.E.!.!.E.!.E.!.E.Q.~.Q././.~.^.~./.^.~._.Q._.!.!._.^._.'.)._.^./._.~.^./.).).^.).)._.).).).).).).^.).).`.).|.|.|.`.|.|.|.|.{.|.).`.).).`.|.|.|.{.-X|.1X`.|.#X`.`.`.`.`.#X2X#X$X2X1X1X1X5X2X1X2X#X2X2X2X$X$XgX2X2X$X$X2X#X1X1X1X{.-X|.-X{.-X-X1X5X5X6X6X5X$XgX2X X2X|.2X2X2X6X2X6X5X2X1X1X1X XgX`. X X X X X X X X X X XgX2X2X1X6X1X1X1X2X1X2X1X2X5X2X3X1X2X3X3X2X XwXwX X XwX X X3X3X X3XwX XwX X.X.XjXjXjXjX.XjX X X XjXwXjX4X4XjX8X8X8X8X8X8X8X6X8X6XgX8XfXgX8X4XfXgXjXjX8X4XfXgX8XgXgXjXgX4XwX4X8XwXwXwXqXqXqXwXqXjXwX4XwXjX4X4XwX4XwX4XwXwXwXqXwXwXqXgXwXqX4XgX4XjX8XqXjXwXqXwXwXwX4X4XhXhXhXlXlXkXkXkXvXkXlXqXsXwXqXhXqXqXqX8XfXlXfXkXkXfXkXkXgXkXkXfXkXfXyXlX8XyX8X8XiXiX8X7X,X0X3X7X3X7X7XqXqX0X9XwX0X0XqXqX8X8XiXqXyXqXyX7X7X7XiXqXwXwXqXwX7X4XwX7XwXwXwX3XwXwX3X3X3X3X3XwXwX;X X3XwX3X3X0X0X0X0XwX0X9X9X7X0X0X7X7X7X4X7X5X7X5X3X5X,X;X3X;X;X;X9X;X3X;X;X9X;X;X;X;X;X;X;X;X;X;X[.;X<X[.[.;X<X{.;X[.;X;X;X;X;X{.;X;X;X;X{.|.;X-X-X1X@X>X5X@X5X5X@X@X>X+X+X-X-X-X{.;X{.;X;X[.[.=X-X=X[.[.[.K.=X].].].].=X].OX=XOXoX=XK.K.OXK.].].].].].].J.L.].oX].].K.].J.K.K.K.J.K.K.L.K.G.K.K.L.K.",
"D.D.D.n.D.b.S.b.l.l.b.F.m.z.F.b.n.b.b.b.n.b.n.D.I.D.D.E.m.E.n.m.F.m.F.b.m.m.m.D.m.m.m.m.D.m.m.D.b.D.n.E.n.D.I.D.D.E.D.E.D.E.W.D.W.D.t.E.D.E.m.E.I.I.E.I.Q.I.Y.I.I.I.I.Q.!.Q.Q.D.Q.Q.H.Y.H.E.Q.Y.!.I.Q.Y.!.!.Y.!.!.!.!.E.!.!._.Q.Q.Q.Q.~.~./.^./._.Q._.Q.^._._.!._.^.).^.).)._.^.^./._.^.(._.).(._.)._.).).).).).|.^.).^.{.^.).).|.).+X|.1X1X|.1X{.`.{.{.`.{.|.).1X|.`.|.#X`.`.-X#X`.#X#X#X2X#X2X1X5X1X2X1X1X2X#X'.`.gX'.gX'.gX$X X$X#X1X#X#X1X1X+X1X|.-X|.1X1X3X5X6X6X2X2X$X2X2X2X2X1X2X2X2X5X2X7X2X2X1X2X X X X.X X X X X X X X XgX X X2X1X2X1X$X2X X1X2X3X2X3X8X1X7X5X3X2X4XwX X4X XwXwX XwXwXwX3XwX3X X X.XwXjXjX X X.XjXjXjXwXwX X X4XgXwX4XqX8X8X8X8X8X8X6X8X8XgX8X6X8X8XfXfXfXfX8XgXfXfXjXjX4XwXfX8X4X8X4XwX4X4X8X4XwX4XwX8XwX4XjXjXqX8X8XjX4XwX3XwXwXwXwXqXwXwXwX4X4X4X4XwX8X4X4XwXgXqX8XjXjXqXjXjXqXhXqXhXhXjXlXjXlXjXkXqXwXqXqXqXqXqX8X8XlXfXkXfXfXkXkXkXgXvXkXkXfXkXfX8XyXqX8X7XqX8X8XqX7X7X7X7X9X9X3X0X0XqXqXqX7X7X8XqXqX8X8X8X7XyXiX7X8XwX7X7X7X0X3X3XwX7X7XwX4X7XwX4X7X3XwXwX4XwXwX;X X XwXwX;XwXwX0XwXwXwX0X0X3X9X0X7X0X3X8X7X7X7X2X7X3X7X3X3X;X;X;X3X;X;X;X;X3X;X;X3X;X3X3X;X;X-X;X{.;X[.{.;X;X;X[.;X<X{.;X;X{.3X;X|.;X;X{.;X3X;X|.-X1X-X-X>X5X@X5X-X-X>X>X@X-X-X+X+X[.-X[.;X|.[.[.-X[.[.[.[.(.=X].].K.=XOX].K.[.OX].OX=XoX].].K.].K.].].J.].].J.K.].].].].].K.K.K.L.K./.K.J.K.G.L.G.J.L.L.",
"D.F.D.b.b.F.z.b.m.F.F.m.F.F.D.n.n.n.m.m.n.n.n.n.H.E.H.I.D.H.n.H.m.D.m.b.m.b.F.m.D.m.b.z.m.b.D.b.E.D.E.E.D.D.W.D.E.W.D.E.W.D.W.W.D.W.W.D.t.$Xt.t.$XW.D.I.D.n.E.Y.Q.n.Q.Q.I.Q.Q.D././.Q.Q.E.!.R.!.E.Q.I.!.Y.Y.!.Y.!.Y.^.Y.Q.Q.Y.Q.~./.~.~./.!._._.!./._.^._._._._._.!.'._.`.`._.).'._.)._.).^.).).).^.(.).~.).).).^.^.`.`.`.).`.`.-X-X#X).-X|.|.{.).|.{.|.`.|.).|.|.|.`.|.|.|.`.|.`.`.#X`.`.2X$X#X$X#X1X#X2X1X$X2X#X2X6X1X$X2X1X#X1X#X1X1X1X#X1X`.1X1X1X1X|.3X1X2X5X1X7X2X1X5X2X1X6X2X2X5X4X8X2X5X3X3X X3X|.|.{.3X X X X3X X4X4XwX XgX X X X X X X2X2X X2X X X X4X6X4X4X8X8X4X8X2X8X4X4X X XwXwX X XwX XwX X X X XjX X XjX X X XgX XwX XwX8X8X8X8X8X8X8X8X8X8X4X8X4X8X8X2X8X7X6X8X6X8XfXfXfXfX4X4X4X4XgXwXfXwX4XqX4XqX8X8XfX8XpX8XwX8XwX8XqXfX8XqXlXqX8X4XwXwXwXwXjXwX4XwX4X XwX XwX4X4X4XwX4X4XwXqXjXjXwX8XhXfXhXfXhXlX8XkXlXkXlXzXwXjXwXqX8XhX8XfXqXlX8XlXfXlXyXkXkXkXkXlXfX8XlX8X8X8X8XyX7XqXqX7X7X7XqX7X7X7X0XqX7XqX7X7X6X8X8X7X7X8X7XiXiX8XqXwXwXwX3X3X9X;XwX;XwXwXwXwXwXwXwX XwX3X3X3XwXwX4X3XwX3X3X7X7X7XwX7X3X7XqXwX7XwX7X3X7X7X7X7XqX7X4X7X8X4X7X2X3X;X3X;X;X;X;X;X;X3X-X3X5X5X5X5X1X>X#X-X#X1X-X;X;X;X<X;X;X;X|.{.|.-X|.{.3X3X3X;X;X3X1X-X1X-X-X1X-X1X>X-X-X-X=X-X=X-X:X=X=X{.-X[.{.{.;X[.[.[.[.[.[.[.[.].(.(.].(.].[.(.=X=XOXK.(.].K.K.K.K.K.=XK.K.K.].K.].K.K.K.].K.K.K.K.K.K.K.J.G.K.L.H.J.L.J.",
"F.G.F.F.F.b.m.F.F.b.b.F.F.n.D.m.I.m.n.m.m.n.n.Q.n.n.n.n.b.C.m.b.m.m.F.b.m.F.b.b.F.b.b.F.b.b.b.D.H.n.n.D.D.E.E.D.W.D.W.W.W.D.W.L.W.t.t.W.t.$X$Xt.W.W.D.E.I.E.n.E.Y.Y.C.E.H.D.E.E./.E.E.Q.!.E.!.I.!.Q.Q.I.I.R.U.R.T.R.Y.Q.Q.~.Q.Q._.Q./._./._._._._.!.!._._.'.'.!.!.'.'._._.).)._.).).)._.).(._.~.).^.^.^.^.^.^.).).).`.).`.).1X).#X#X1X1X#X|.`.|.`.{.`.{.|.{.+X|.|.{.|.`.#X`.|.`.).#X`.1X$X$X$X2X$X2X`.2X#X2X2X#X1X1X1X1X2X1X1X1X$X$X2X$X2X1X#X1X1X|.|.|.|.3X1X X-X1X1X7X2X7X8X7X2X2X8X2X6X2X2X4X3X3X3X X3X{. X{.{.wX X X X X X2X X XgX X XgX X X X X X X X|. X X2X4X4X8X8X8X6X7X8X4X4X3X X X X XwX XwX XwXwXjX X X X X X XjX X XjX X4XgX8X8XyX8X8X8X8X8X8X8X8X4XqX4X8X4X6X4X8X8XgX8XfXfXfXfXfXgX4XjX4XgXgXgX8X4X8X4X8XwXqXqX8XhXqXqXqX8X8XiX8XqXqX8XqXqX8XwXjXwXwXjXjXwXwXjXwXjXgXwXwXjXwXjXjXqXjXfXfXfXfX8XhXqXpXyXfXlXlXlXlXlXjXzXhXpXqX8X8XqXfXqX8X8X8XlX8XlXlXfXhXkXlXkXkX8X8XpX8X8XqX7X7XiX8X7X7X7X0X0X0XqX7XqXyX8X8X8X8X8X7XyXyXiXyX8XqXqX0XwXwX0XwXwXwX3X}.wXwX}..XwXwXwXwX X3X3X4X4X4X4X7X3XwXwXwXwX3X3X7X7X7X4X8X7X7X7X3X5X7X7X4X7X7X7X7XqX7X7X3X;X3X;X3X;X3X{.-X;X;X1X5X1X5X5X5X5X5X5X$X1X1X-X X;X;X;X;X;X{.;X;X{.|.{.;X|.{.3X3X3X3X3X3X-X1X-X1X-X1X-X-X-X-X:X:X-X=X-X=X[.=X[.=X[.{.[.}.[.[.}.[.[.[.[.[.(.[.[.[.(.=X=X=X].=XOXK.OXK.].K.].].K.].=X].].OX].K.].OXK.K.K.K.K.K.K.K.K.K.L.J.K.L.K.K.",
"F.F.F.F.F.F.b.F.m.F.b.m.m.D.D.m.I.n.n.n.I.n.I.n.D.n.n.b.b.m.b.b.m.b.m.m.b.m.b.b.b.b.b.b.b.b.F.n.D.E.D.D.E.I.E.E.E.E.W.W.W.W.W.W.t.%XW.W.%Xt.$Xt.W.W.W.D.D.C.Q.Q.Y.n.Y.H.Y.n.Q.H.Q.E.E.Q.!.I.R.!.Q.!.!.Y.!.R.Y.Y.Y.Y.~.~.~.^._._./.~.^./.^./._.^._.!._._._._.'._._.'._._._.`.).)._._._.).).).).).).^.^.^.^.).).).).).`.1X`.#X+X`.+X#X+X#X-X|.-X|.|.|.|.|.1X|.1X|.|.|.|.`.`.|.).`.`.#X#X#X2X#X$X2X$X`.$X2X1X#X2X$X2X1X2X2X2X1X#X1X2X1X$X1X1X1X1X`.1X`.1X|.|.|. X1X1X1X1X8X4X8X7X8X7X8X2X6X8X2X8X1X3X X X3X X{. X|. X|. X X XgX X X X XjX X X4X2X X X|. X X`.|.|. X X1X4X4X7X4X7X2X4X4X4X4XwX X X XwX XwX XwX X XwX X XjX XjX X4X4X4XqXqX4X8X8X8X8X8X8X8X8X8X4X4X4X4X4X7X4X8X8X8X8X8X8X8XkXfX8XgXfXgXwX4XfXgXwXjX4X4XjX8X8X8XqX8X8XqXjXwXwX7XqXqXqXqXpXqX4XwXwXwXqXjXwXjXgXwX XwXjXgXwX8XwXqXqXjXqXfXhXfXfXfXjX8XhXfXkXpXlXlXkXlXhXzXjXhXqX8XhXqXhXpX8XhXlXyXlXlXkXkXkXpXkX8XlX8XpXpX8XiX8X7X8X7X7X7X4X7X4X7XwX7X7XqX0X8X8X8XyXfXyXyXyXiX8XyXiXiXqXpX0XwXwXwX9XwXwXwXwXwXwX XwX XwX3X3X3X3X4X4X4X3X4X3X3X3X3X3X3X7X3X4X7X7X7X7X7X3X7X5X3X7X7X7X7X5X7X4X7X3X3X;X3X;X;X-X;X;X;X1X;X;X>X1X;X7X5X5X5X5X5X1X1X3X{.3X;X9X;X9X;X|.;X|.1X1X|.-X|.-X3X5X5X1X5X1X3X1X1X-X1X-X-X-X=X;X,X-X-X:X:X=X[.;X[.[.[.[.[.[.}.[.[.[.[.(.OX[.[.(.=X[.=X(.=X(.OX(.[.K.K.K.].K.].].K.=XOX].].K.K.].K.].K.].J.K.].oXK.J.K.G.L.K.J.H.J.",
"b.F.b.F.b.F.D.b.F.D.D.F.D.D.F.D.n.n.I.E.I.D.D.I.H.n.H.n.B.b.m.b.D.b.b.x.b.m.b.b.b.b.b.m.n.V.F.n.D.D.I.E.D.D.D.E./.E.W././.W.W.L.W.t.W.W.t.$Xt.t.t.W.E.D.E.D.Q.C.C.C.D.C.D.Q.D.E.Q.Q.E.E.I.W.!.U.E.E.!.Y.Y.!.Y.R.!.R.R.^.^.~.).).~._./.^./.^._._.!._._.!._._.!._.!._._.`.'._.`.).).'._.)._._.(.^.).}.^.~.(.^.^.}.).`.+X`.1X`.1X#X1X1X+X|.#X|.|.|.|.{.|.|.1X1X1X|.|.{.`.|.).`.`.).`.`.#X|.#X#X$X$X2X$X2X$X$X2X1X2X1X2X6X1X1X1X1X1X$X1X2X$X2X#X#X1X|.1X|.1X1X|.|.1X2X1X7X2X7X8X2X8X4X5X8X2X6X8X6X4X3X3X X X X X X|.3X3X X X X'.gX X XgX X X X4X4X X X|.}.|.|.|.|.|.2X X3X2X4X2X8X8X8X4X4X4X XwX XwX XwXwX XwXwXwXwXwXjX X XjX X XwX4X4X4X8X8X8X8X8XyXfX8X8X8XqXgXqXqX4X4X8X8X8X8XyXkXkXfXfX8XjX4X4X4XgXgXwXgXfX8X4X8X8X8X8X8XlXhXqXwX8XqX8XqXqX8X8XqXqXqXqXjXqXjXwXwXjXwXwXjXjXwX4XwXwXjXjXjXqXjXqXhXhXhXhXfX8XhX8XkXqXfXlXqXlXlXlXhXzXqXjXqXlXfXqX8XlXpX8XhX8XlXqXlXkXfXlXlXkXlX8X8XqXyX8X8X7XqXqX7X8X7XqX7X7XqXiX0XyXyXqXfXkXkX8X8XiXqXyXqX7XqXqXwXpXwXwXwXwXwXwXwXwX XwXwXwXwXwXwX4X3X3X4XwXwX7XwX3XwX4X3X7XwX3X7X7X7X4X7X7X7X2X5X7X2X7X7X3X3X5X7X7X7X3X3X3X3X1X3X;X1X-X{.;X1X-X-X-X,X1X5X-X5X;X>X5X;X9X;X;X;X;X;X3X;X3X{.3X X1X{.3X3X3X1X3X-X3X3X5X-X-X-X-X>X1X;X;X;X-X-X:X;X-X-X-X=X[.-X}.{.}.[.}.[.[.[.[.[.[.(.[.[.OX[.[.OX=X=X=X=X].(.K.=XK.OX].=XOX=X].=XoXK.OX].K.K.K.K.K.K.K.K.].K.K.K.K.J.L.L.K.L.",
"b.F.b.F.b.F.F.D.F.D.D.b.F.D.F.m.n.n.D.n.Q.n.n.H.n.Y.C.n.b.b.b.m.m.n.b.m.b.m.m.n.m.b.n.F.H.H.b.H.H.D.E.D.D.E.D.E.D.W.D./.W.W.W.W.W.W.$Xt.$Xt.t.$XD.D.D.D.C.D.H.H.C.C.H.D.D.H.D.H.D.W.I.!.E.!.W.I.!.Q.Q.!.Y.!.Y.^.^.Q.~.^.Q.)._.(.(._.~./._._._.~._._._._._.^._._._.'.)._.).'.).'.).).).).).).).^.).^.~.).^.).)._.#X{.`.1X#X#X#X#X#X@X{.#X1X|.{.`.|.|.|.|.|.|.1X-X{.|.`.`.|.`.`.).#X#X`.#X2X$X$X2X$X X$X2X$X2X$X1X1X6X1X6X2X1X$X1X$X1X2X6X1X2X1X1X1X2X1X1X X|.3X X3X7X7X2X2X7X4X8X8X4X2X6X2X2X4X2X4X X2X X X X X X X X X X`. XgX'.gX2XgX2X4X4X4X X X X{.{. X}. X X X X3X4X4X8X7X8X8XqX4X4XjX X X XwX XjX X XjX X X X XjX XjX X X X4XwX7X4X8X8XyX8X8XpX8XqXqXfX4XqX8X4XqXwX8XqXpX8XkX8X8X8X8XfXjX4XjXjX4X4X4XjX4XqX8X4XqX8XhXyXhX8XqXqXqX8X8XqX8XqXpXqXqXqXqXqXwXqXwXjXwX4X4XwXwXjXjXwXjXqXqXhXhXhXhXjXkXjXfXfXqXhX8XlXfXlXpXlXlXlXhXhXzXwXhXhXqXhXlX8XhXlXyX8XlX8XkXpXlXfXlXkXkXhXpX8X8X8X8X8X8X8X8X8X8XqX8XqX7X7X7X8XqXyXlXkXkXlX8XpXpXiXqXqXwXqXpXwXwXpXwXwXwXwXwX XwXwX.XwXwXwX3XwX3X3X3XwX3XwX3X3XwX3X3X0X3X7X3X7X3X7X7X7X7X7X7X3X5X3X,X3X,X3X7X7X5X1X3X;X|.3X-X;X1X;X;X-X;X-X;X;X-X,X-X,X;X-X1X;X5X;X;X9X;X;X9X;X9X;X3X1X1X3X1X|.1X1X3X3X3X-X5X3X;X1X-X;X;X-X;X;X-X;X<X-X,X-X-X=X-X-X[.}.[.[.[.[.{.}.[.[.(.[.=X[.[.=X[.[.=X[.(.=X=XK.(.=X].=X].K.K.=X].].=XK.].OX].K.].OXK.K.].K.].K.K.K.G.K.L.K.L.J.K.",
"z.b.F.b.F.D.D.F.m.b.F.F.m.D.D.D.n.n.n.I.n.D.I.n.n.m.n.b.b.m.b.x.D.m.b.n.n.F.b.b.b.b.b.C.b.H.H.n.D.D.n.Q.E.H.E.D.E.E.W.W./.W.W.W.W.W.t.$Xt.$X$X$XE.D.Q.Q.Q.H.Q.n.Q.C.H.H.Q.D.Q.E.E.Q.E.E.!.I.!.U.I.!.!.I.R.!.Q.Q.^.^.^.~._.~.~.^._.~._._./._.~._./.!.!._._._.)._._._.^.)._.).).`.).).).).).).).).^.}.).^.).^.)._.#X).`.1X`.#X`.1X+X1X#X+X#X{.|.|.|.{.|.1X1X1X1X|.|.|.|.`.`.).`.`.#X|.2X`.$X1X2X$X$X$X2X$X1X2X6X1X2X1X2X1X1X6X1X1X6X1X6X1X2X1X1X$X2X1X X1X X1X X3X1X3X3X2X4X3X4X8X2X4X4X4X4X8X8X4X4X X X2X X XgX X X3XgX2X X`.'. X'. X X X XgXgX X{. X X{.}. X}.wX|. X3X2X8X4X8X8X4X8X4XqX4XwXwXjXwXwXwXwXwXjXwXjXjXwXjXwXgX4XjX X4X4XqX4X8X8X8X8X8X8X8X8X4XwXqX4XwX8X7X4X8X8X8XyXyX8X8X8X8X4XgX8X X4X4XgXfX4X8X4X8XjX8XqX8XyXyXhXqXqXqXqXqX7X7X7X8XqXqXqXjXqXjXwXjXwXjXjXwXjXjXwXwXqX8XhXjXhXqXhXkXkXhXhXhXfXhX8XlX8XhXpXhXlXlXlXhXzXjXhXzXhXqXjXhXlXpX8XlXlXfXpXfXlXkXlXlXlXpXyXlXlXiX8X8XiX8X8X8XyX8XyXyXqX8XqX8XiXyXhX8XkXlXfXlXqXqX8XqXqXiX4XwXwXwXwXwXwXwX3XwXwXwXwXwXwXwXwXwX4X3X4X4X3X3X3X3X3X3X3X3X3X3X3X2X7X3X7X8X7X3X7X7X7X3X7X3X5X3X7X3X3X7X3X1X3X;X3X3X;X;X1X-X3X;X;X;X-X;X;X;X;X<X<X-X;X;X;X;X;X;X9X;X;X;X X;X1X1X1X{.-X|.|.-X5X;X1X-X3X-X;X;X-X-X;X-X-X<X-X-X:X-X:X:X;X=X[.[.<X[.}.[.[.[.[.].[.[.J.(.[.[.(.[.=XOX=XOX[.=X(.].(.K.=X=X=X=X].=X].K.].K.].K.=XK.K.].K.K.K.K.K.K.K.K.K.K.H.J.L.L.",
"m.b.b.F.b.b.D.D.F.b.m.F.b.D.F.m.n.n.n.n.n.H.n.H.C.n.b.m.n.x.b.m.n.n.m.m.m.n.b.n.b.m.D.b.D.H.F.C.D.Q.C.E.D.Q.D.E.D.H.W.Q.W.E.D.D.t.$Xt.t.$Xt.$Xt.Q.Q.Q.Q.Q.Q.H.H.H.H.H.Q.H.Q.H.Q.Q.Q.E.!.E.!.W.!.!.Q.!.!.!.Q.^.^.~.!./.^.^.~._./._.).)._._.).!./._./.!./._._._.^.'.)._./.!._.).).)._.).).).).).).).).^.).~.).).).).`.#X#X1X#X#X#X1X#X#X1X1X|.1X|.{.|.|.|.|.1X1X|.1X|.|.`.|.`.`.`.`.`.$X$X$X$X2X2X2X2X$X X$X2X1X2X1X1X1X2X1X2X5X2X$X6X5X2X2X5X1X6X1X1X1X1X1X2X2X2X2X7X2X1X2X2X7X4X7X4X4X6X6X8X2X4X X4XgX X4XgXgX X X X2X`. X'.gXgX XgX2X X XgX4X X X X X}. X}. X}.3X3X3X3X4X4X4X8X4XfX4XjXjX4XgX XjXwXjX X X X XwX XjX XjXwX4X XwX4X4X3X4XqX8X8X8XyXqXqX4XqX4XwXwX4XwX4XwX8X8X8X8X8X8X8X8X4X8X4X8XgX4XfX4X4XfX8X8X8XqX8XqXqXhXlX8XhXjXfXqXqX8X8X8X8XqXjXqXqXhXqXjXfXwXfXwXfXwXjXqXfXjXfXhXqXlXlXhXkXkXfXlXlXfXfXlXpXkX8XlXlXlXlXlXhXzXhXzXlXhXlXzXkXpX8XlXlXfXpXfXfXpXkXlXhXlXlXlXyXpX8XlXpXpX8XyXlX8XiX8XyX8X8X8XpX8X8XlXkXpX8XlX8XqXqXqXqX8XwXwXwXwXwXwXwXwXwXwXwXwXwXwX XwXwXwXwX3XwX3X3XwX3X3X3X3X3X3X3X7X7X3X7X4XwX7X7X7X7X7X7X7X7X5X5X7X3X3X7X2X;X7X3X3X3X|.7X3X3X;X3X;X3X;X-X;X;X;X;X;X[.[.;X;X;X;X;X;X;X;X9X;X3X;X;X1X3X1X|.1X1X3X3X5X1X;X3X;X-X;X-X;X[.;X-X=X=X;X<X-X:X=X-X=X;X[.;X}.[.}.[.}.}.[.[.(.[.].(.[.K.[.[.(.(.=X=X=X(.[.OX[.].K.=X].=X=X=X].=X].].OXK.=X].K.K.=X].K.K.K.K.K.K.K.K.L.L.J.G.",
"F.b.m.D.b.D.D.b.F.z.F.m.F.b.F.D.m.n.D.n.I.n.n.b.D.C.n.H.n.C.H.n.n.b.n.b.n.b.m.D.m.b.b.b.n.b.H.n.H.n.E.C.D.D.Q.D.D.W.D.W.D.W.W.W.$Xt.$Xt.t.$Xt.$XQ././.Q.H.H.H.D.H.Q.H.H.H.Q.Q.Q.Q.W.!.Q.!.E.!.!.!.Q.Q.!.!.!.Q.^.!.~.!.~.~.^./.^.).)./._._.~./._.~._./.^.~._./._._._.!._._.).).).).).)._.).).)._.^.)._.~.).^.).).).).+X`.).#X).#X#X-X-X`.1X).|.{.|.).{.|.|.1X1X).).|.|.|.|.|.|.`.#X1X X#X2X$X2X#X2X$X2X$X2X2X2X2X1X1X2X1X6X7X2X6X2X2X6X6X2X2X2X1X2X2X2X3X3X3X4X3X4X4X3X3X3X1X3X3X4X4X4X6X4X4X6X4XgX4X4X XgX X X X2X X XgXgXgX X'.'.gXgX X2X4X4X X X}. X X}.3X;X}.3X4X4X3X2X8X4X8X8X4XwXwXjX4X4X4X X XjXwXjXwXjXwXjX XjX XgX XjX4X4XwXwX4X7XwXiX8XqX8XqX8XqXqXwX4XwX7XqX7X4X7X8X7X8X8X6X5X4X4X4XqXwX4X4XjXgXfXwX4XjX8X8XjX8XlX8XhXhX8XqXqX8XqX8X8XqXqXqXhXqXjXjXjXjXfXwXjX4XjX8XjXqXfXqXqXfXhXhXfXjXfXjXkXfXhXhXhXfXfXqXlX8XlXlXhXqXjXjXzXhXlXhXhXlXhXlXlXqXlXyXpXyXhXpXpXlXkXlXlXlXfXlX8XlXfXlXlX8XpX8XlX8XpX8X8XfX8XpX8XfX8XlXkX8XqXqX8XwXqX4XqXwXwXwXwXwXwXwXwXwXwXwXwXwXwXwXwXwX7X3X3X3X4X3X X3X3X3X3X3X3X3X3XqX7X7X8X8X7X4X7X7X7X7X2X3X5X7X5X5X3X3X1X3X;X3X3X3X5X1X3X-X3X,X3X;X;X;X;X=X;X=X<X;X<X;X;X<X<X9X;X;X3X;X;X1X-X1X-X1X{.1X1X-X-X1X3X;X;X[.=X;X[.;X<X;X{.-X=X-X=X:X-X=X=X;X[.<X}.}.}.;X;X[.[.[.[.[.[.(.K.[.(.[.(.=XK.[.OX=X(.(.=X=X=X=X=X].=X=X=XK.=X].OX].K.K.=X].K.K.[.].K.].K.K.L.G.J.L.L.J.",
"n.n.b.b.m.z.b.b.m.m.F.m.F.z.m.b.b.m.b.n.H.n.n.H.C.D.C.n.b.H.n.C.n.n.n.m.n.m.m.n.b.b.n.D.V.n.n.H.D.n.D.n.D.n.D.E.D.I.D.D.D.E.Q.W.W.W.E.E.W.E.E.E././.Q.Q.Q.H.W.H.H.Q.H.H.Q.H.Q.Q.E.Q.E.Q.!.E.E.!.!.!.!.Q.!.!./.Q.Q.!._.~.Q.Q.~.Q._./.^._.Q._._.Q.Q.!./.^._.~.~./.^.(.^./._.).`.).).)._.).).).)._.~.)._.~.).).).).#X).).#X+X#X@X#X1X+X+X|.-X|.{.|.|.|.|.|.|.1X1X|.|.|.`.|.`.1X|.#X2X1X2X#X$X$X$X$X$X2X$X2X2X6X2X6X2X6X1X2X6X1X1X1X2X6X1X2X1X6X2X1X1X1X1X X X3X3X4X4X4X4X3X3X3X3X2X1X1X2X2X4X4X4X4X4XgX X4X4XgXgXjXgX XgX X XgXgXgXgXgXgXgXgX'. X X'. X'.'. X}.wX X XwX XwX4X4X4X4XqX8X8X8XjX4X4XwX XjX XjXjXwXjX X4XgXwX4X4X4X X4X4X4XwX4X7X7X8XqXiX8XqXqX4XqXwX4XwX8XwX8X8X8X8X8X7X6X2X8X8X4XgXgXgXjX8XfXfXfXqX4X8X8X4X8XqX8XfXqXqX8XqX8XlX8X8X8XqXpXfXqXqXjXqXwXwX8XqXgX8XgXqXqX8XfX8XhXkXlXkXlXlXhXfX8XfX8X8X8X8XfXqX8XhXhXhXlXhXhXhXhXlXhXhXlXlX8XlXfXpXlXyXhXyXlXlXlXlXlXkXqXpXfX8XpX8XlXjXkXlXfX8XlX8X8XfX8XkX6XfXyX8XkXlX8XlXhX8XhXqXqX8XqX4X4XqXwXwXwXwXwX XwXwXwX7XwXqXwX8XwX4XqX3XwXwX3X3X3X3X3XwX3X9XwX7X7XwXqX7XqX7XqX7XyX7X7X3X7X3X7X3X;X3X7X3X3X3X7X3X7X7X3X;X3X;X;X;X;X;X<X<X}.<X<X[.;X;X;X;X;X9X;X9X;X3X-X-X1X1X1X{.{.3X|.;X{.;X;X;X;X-X;X=X<X[.=X=X=X;X=X<X-X:X-X:X=X-X=X}.[.;X}.}.[.[.[.[.].[.].].(.[.[.K.[.(.=X=X=X(.=X].(.OX].K.].].=X=X=X].=XK.=X=X=X].K.].K.].K.].].K.].L.K.K.J.K.J.L.",
"b.b.n.m.b.b.b.b.n.F.b.F.m.F.F.b.x.c.b.n.n.b.C.n.b.n.b.C.n.n.n.n.n.n.n.n.n.n.n.m.m.n.b.n.n.H.H.b.Q.n.n.C.n.D.D.D.n.D.D.E.E.E.E.D.W.E.W.W.E.!.Q.E.Q.W.Q.Q.Q.H.Q.H.H.E.H.E.H.Q.Q.Q.Q.I.!.W.E.!.W.Q.Q.!.Q.!.Q.Q.!.Q.~./.Q.~./.^.Q.^.Q._./.~./.Q.Q.Q._./.~././._./.~.Q.^./.).).).).)._.).).)._.^._._.).^.).).).).).).).+X`.).#X#X#X#X#X#X1X#X1X|.1X|.{.|.{.|.1X|.1X1X-X`.|.|.|.|.2X`.$X#X2X#X`.`.gX$X2X$X2X2X2X1X2X2X2X1X2X1X1X1X1X1X$X6X6X6X2X1X1X2X X2X1X3X1X2X3X2X3X4X3X2X3X X4X3X3X4X2X2X4X4X4X4XgX X4X4X XgX XgX'.gXgXgXgXgX XgX'.gXgX XgX X X X X X X X}.;X}.wXwX X X3X3X4X4X8X8X4X4X8X4XgX4XgX XwXjX X XjXjXjXjX4XgX4XgX X4X4XwXwX3X4X4XqX8X8XpXqX8XqXwXwXjXwX4XqX8XqXqX8X8X8X6X8X8X8XwX8XgXgXjX4XjXfXjX4XjX4XjX8XqX8X8XqXpXhXqXjXfXqX8XqX8XqX8X8X4XjXjXwXwXjXfXjXgXwX4X4X4X8XfXwXfX8XfXhXqXlXkXfXfXfX8XfXyXfXqXfXqXjXhXpXhXlXhXhXzXlXhXqXlXhX8XlXqXlXlX8XyXlXhXlXlXlXlXlXlXlX8XpXlX8XlXlXlXkXkXyXyXfXfX8XfXyXgXfXkX8X8XkX8XkXlXhX8XlXqXqXqXqXwXwXqXwXwXwX7X4XwX XwX XwXwXwXqXwXqXqXwXwX3XwX3XwX3X3XwX3X3X3X3X7X4X8X7XyX8XqX7XyX8XwX4X7X7X7X5X3X7X5X2X3X3X3X3X5X5X2X7X3X7X,X3X;X;X;X;X<X;X<X<X;X<X;X;X;X9X;X;X;X;X;X3X1X;X1X3X3X-X|.;X3X{.3X{.;X{.;X[.[.<X<X=X{.;X=X-X-X:X-X<X-X=X-X[.;X{.}.;X[.{.[.[.[.}.[.[.(.K.[.(.(.[.[.=X[.(.=XOXOXOX].K.K.=X=X=X=X].].K.=XK.].=X=X=XOXK.K.].L.L.J.L.L.K.L.L.J.P.L.",
"n.n.b.n.n.n.b.m.b.b.F.m.F.b.F.z.b.b.b.b.b.n.b.b.m.b.n.b.n.b.n.n.n.m.n.n.n.n.n.n.n.n.V.C.n.C.n.H.D.C.C.n.H.n.E.Q.D.D.I.D.D.D.E.W.E.W.I.E.I.E.E.Q.E.Q.E.Q.Q.Q.Q.Q.Q.L.Q.Q.Q.Q.Q.Q.Y.Q.Q.Q.!.Q.!./._.!.^./._._./.!.!./.~./._.Q.~.Q./.Q.!.Q.!.Q.Q.Q./.~.^./.~././.(./.(.(.^.).).(.}.).).).).).).).).(.)./.).).).).).).#X#X#X#X#X#X1X-X#X+X1X#X|.|.|.`.{.|.|.|.1X1X1X|.|.|.`.#X`.2X1X2X#X#X2XgX$X$X$X2X$X2X$X5X$X2X2X1X1X1X2X1X1X$X1X6X1X6X5X6X6X1X5X2X1X1X2X2X3X1X X4X3X3X3X X3X2X4X2X3X2X4X4X4X4XgXgX4X XgXgXjXgXgXgXgXgXgXgX XgX XgXgX'.gXgX X X X X|. X|.}. X;X3XwX3XwX X4XwX4X4X8X8XfX8XgXwXgX4XjXjXjXjX XjX X X4XgX4XgX4X4X4X4X4X4XwX4X4XqX8XqXfXpXfX8XjXwX4XwXgXwXfXqXfX8XyX8X8X8X8X8XfXfXfXfXwXjX8X4XfXhX4X4XqX8X8X8XhX8XhX8XqXfXhX8XqXkX8XlX8X8X8XqX8XjXwXqXfXfXjX8X8X8X8XfXkX8XkXkXkXkXkXkXlXkXhXfXfX8XfXqX8XqXhX8X8XhXhXhXzXhXhXhXlXhXhXlXhX8XlXkXpXfXlXhXpXyXpXlXlXlXyX8XlXlXlXkXkXfXkXkXfXkXkXkXkXfXkX6XfXfXfXkXlXfXpXqXkXlXlXqXlX8XqX8X7X8XwX8X7XwX7XwX4XwXwXwX4XqX7XqXqXwX7XwXwXwXwX X3X3XwX3X3X7XwX7X7X7XwX7XqX7X7XqX7X7X7X7X7X2X7X3X7X7X4X7X3X3X;X3X5X3X5X5X5X3X5X;X}.9X;X;X;X;X<X}.[.;X;X}.;X;X;X;X;X5X,X-X-X1X-X-X1X;X;X3X{.;X3X;X;X-X=X[.].[.=X;X-X[.;X-X:X-X-X<X=X-X=X[.[.[.}.;X[.[.;X}.[.[.[.[.(.[.(.=X[.=XOX(.(.=X(.].K.=X].=XK.].=X].=XoX].].].=XK.=XK.].K.].K.L.L.].L.].L.L.].].J.].J.",
"n.C.C.n.n.b.D.b.b.F.b.F.b.F.F.m.b.b.b.m.b.b.m.b.m.b.m.b.n.b.b.n.m.n.n.m.n.n.n.n.n.n.n.n.H.D.C.n.C.D.H.H.Q.H.Q.H.E.D.D.D.E.D.D.I.E.!.E.E.E.E.Q.E.E.I.E.C.E.E.Q.E.Q.D.Q.Q.Q.Q.Q.Q.Q.Q.!.Q.Q.!._.Q.!.Q.!.!./.!.!././.!./.!.~./.~.!.!.Q./././.Q./.~./.~.~././.~.~./.(.~.~./.).(.).).).)._.).).).).).).).).).).).).).+X).).#X+X#X#X#X#X+X1X).#X{.`.|.).|.|.|.1X1X1X|.|.|.|.|.|.1X|.|.1X2X2X2X$X2X2X$X2X6X2X2X$X2X#X2X6X1X1X#X#X1X1X1X2X6X2X2X1X2X1X2X1X2X1X3X1X X3X X3X X3X X3X4X3X4X4X4X4X4X4X4XgX8X4X XjX X4X X4XgX XgXgXgX'.gX2X X X'.gXgXgX XgX'. X X|.|. X;X X X3X3X XwX4X4X7X4X8X8XfX4XgXwXgX4XjX X X XwX4X XjXgX8X4X4X4XjX4X8X4XwXgX4X8X8XfX8XfX8XfXqXgX4XjXgXqXfXqXfXhXfXkXfX8X6XfXgXfXfXjXgXgXjXfXjX8X8X4X4X8XjX4XqX8XpXyXhXhXhXqXhXfXyXfX8X8XfX8XhXqXjXjXjXjXfXhX8XfXfXfXfXlXfXlXfXkXfXkXkXkXkXkXfXfXfX8XkX8XhX8XqXhXqXqXhXzXhXhXhXhXlXhXlX8XpX8XqX8XlXyXlXlX8XlXpXlXlXlXlXlX8XfXlXyXlXkXjXlXfXkXfXfXkXkXfXkXkXkXkXkXpXkXlXqXqXlXfXhXyXqXqXwXwX8X7XqX7X4X7X7X3XwXwXqX8XwXqXwXqX4XwXwX9XwX;X3X3X3X3X3XwX3X3X4X7X7X7X7X7X8X7X7X7X7X7X7X7X7X2X7X3X7X3X3X3X;X3X1X-X3X3X3X;X3X;XwX}..XwX;X;X;X}.;X;X;X;X;X;X;XwX;X5X3X3X3X-X-X3X;X|.3X;XwX;X;X;X=X;X[.;X<X[.=X[.;X;X-X=X-X<X-X-X=X=X-X=X;X[.[.{.{.[.}.}.}.[.[.].[.(.].(.(.].(.=X=XK.[.OXK.(.[.K.].OXK.=X=XOX].].K.=X].].=XK.K.K.].].].L.].L.K.K.J.P.L.L.].",
"n.n.n.v.V.n.n.n.b.b.F.b.F.F.b.F.V.b.b.b.b.b.b.b.b.c.m.b.n.c.m.n.v.x.v.v.v.n.n.v.n.n.n.C.n.n.C.n.H.n.H.n.Q.D.H.Q.n.n.E.D.n.E.D.D.E.E.Q.D.n.Q.D.Q.I.R.I.E.E.Q.W.Q.!.Q.E.E.!.Q.Q.Y.!.!.Q.~./.~./._.^.!.!.~.W.!._./.~._./.~.Q.Q.~.Q./.Q._.~./._./.~.!./.~./././.~./.~.~.(.).(.(.).).).).)._.).)._.).).).).).+X).+X).#X+X`.#X#X#X#X@X+X+X`.).).`.{.{.^.|.{.`.|.1X1X1X{.`.|.|.`.2X X1X#X2X1X2X6X$X2X6X2X2X2X$X1X$X1X#X2X1X1X1X1X2X$X1X2X1X6X6X2X2X2X1X2X2X X1X1X3X X3X3X|.3X3X4X3X4X4X2X4X4X4XgX4X4X4X4X4X4XgX XgX XjXgXgX XgXgX X X XgXgXgX XgX XgX X|. X X{.3X3X3X3X X XwXwXwXwX XwX8X8XgX8XgX4XgXgX8XgXgXgXgX4X4X4X4X4X8X4X8XqXjXwXjXwXgXjXgXjXfXfXfXfXfXqXjXwXgXjXfXfXjXhXkXkXgXkXfX6XfXfXfXkXgXkX4XjXjX8XfXwX4X4X8X8X8X4X8XfXhX8XfXhXqXfXhXyX8XfXlX8XhXhXhXfXjXqXhXlXkXkXkXkXkXhXkXfXlXkXkXkXkXkXfXkXkXfXlXfXpXfXqXjXqXqXjXqXjXsXhXhXjXsXlXqXhX8X8XhX8XpXlX8XlXlXpXpXlXlXlXpXlXkXlXpXlXfXkXkXkXkXkXkXkXgXkXfXkXkXkXkXjXkXyXkXkXpXlXyXhXyX8XlX8XpXyX7X7X8X7X7X8X7XqX4X8X8XqX8X7XwXwX8XwXwX7XwXwXwX7X3XwX4XwX4XwX7XqX7X7XqX4X7X7X7XiX7X8X7X7X3X5X,X7X3X3X3X;X{.;X|.1X-X1X1X3X;X3X3X;X}.wX;X;X}.wXwX X;X;X|.;X;X3X;X3X,X1X;X1X;X3X;X;X;X;X;X;XwX;X;X;X[.[.;X[.=X=X=X[.-X;X=X-X:X-X:X=X-X=X[.[.{.[.[.[.[.}.[.[.(.[.[.[.(.[.[.(.[.OX(.(.].(.OX=XK.].=X=XK.K.=XK.].K.K.].=XK.=XK.].=XK.K.K.K.].K.K.].K.K.].L.].P.",
"n.B.n.n.v.n.n.b.b.F.m.F.F.F.F.b.b.b.b.b.m.b.b.x.b.b.m.n.b.b.m.n.m.m.m.v.v.n.n.n.n.n.C.n.n.V.B.n.n.H.H.H.C.H.Q.Q.Q.D.D.Q.D.D.D.n.n.I.n.Q.Q.E.E.n.E.E.E.I.Q.E.E.W.W.!.Q.!.Q.!.T.!.Y.T.~.Q.~././.^./.!.!._./._./._././._././.^.!.~.!./._._._.~._.)./.~.~./.~.K.(.~./.(.~.~.^.(.^._.^./.)._.).).).'.).).).).).).).).).+X).#X@X#X#X1X1X+X).#X1X).).`.|.).|.|.-X|.1X|.|.|.|.`.1X`.#X|.2X#X2X2XgX$X6X$X6X$X$X2X2X$X`.2X1X2X1X1X2X1X1X5X2X2X$X2X1X1X1X1X|.1X1X1X X1X1X2X X3X1X X3X3X4X4X4X4X4XgX4X6X4X6X X4X X4X X XgXgXgXgXgX X XgXgXgXgX'. X XgX X X X X X X3X XwX3X3X;XwX}.wXwX XwXwX8X8X8X8X8XgXgX4XgXgX8XgXgXgX8XgXfX8XgX8X4X8X8XgXgXgXjX4XgXfXfXhXhXjXgXgX4XgXjXgXgXfXfXfXkXkXgXkXfXfXgXfXfXgXgXjXgXgX8XjX4XgX8X4XqX8XqX8XqXqXyXhXhXqXkXhXlXfXlXyXfXlXhXhXhXhXjXhXkXhXjXlXlXjXlXjXkXlXkXkXlXkXxXkXlXlXkXkXlXfXfXlXpXhXhXhXsXjXqXjXhXhXhXhXfXhXlXhXpX8XlXqXlXlXkXpXlXpXlXpXpXpXlXlXlXkXlXlXkXkXkXkXgXkXkXbXkXkXkXkXkXkXkXkXhXlXqXlXpXhXyXhX8X8X8XfXqX8X8XyX7X8X7X7XyX8XqX8X7XqXqX4XqXwXwXwX3XwXwX XwXwX3X3X7X7XwX3X4X7X7X4X7X7X7X3X8X7X7X7X3X7X7X3X3X5X5X3X1X3X|.;X-X-X1X-X-X;X|.{.}.wX}.;X X;X;X}.;X{.;X;XwX}.wX}.5X3X;X1X-X-X-X;X3X{.wX;X;X;X;X;X;X;X;X=X[.=X=X=X[.;X-X=X<X-X<X-X=X=X=X[.=X[.{.}.}.[.[.[.[.[.].[.(.[.[.K.[.K.[.=XK.OX(.K.(.K.=XK.K.].OXoXK.K.K.K.K.].K.K.=XK.K.K.].].OX].K.].=XK.J.P.].L.].",
"n.v.v.v.V.n.n.m.F.m.F.b.F.F.F.F.b.V.b.b.b.V.b.H.n.b.b.b.n.m.v.v.x.m.v.v.v.n.n.n.C.I.n.Y.C.n.b.n.b.n.H.C.H.Q.Q.D.Q.D.Q.D.D.E.n.E.H.D.H.I.D.Y.I.E.I.E.R.W.E.!.W.!.W.W.E.!.!.Q.Q.Y.~.Q.Q.~./.~././.^.Q._.^.!._._./._./._.Q._.Q.~.Q./.!._._.^._._./.Q./.Q././.~./.~.~.(./.(.^./.(.~./.).)._.).).).).).).).+X).).#X).#X+X#X#X#X#X$X@X-X#X1X+X).).^.{.^.|.{.|.|.|.-X|.1X|.|.|.|.1X X#X#X1X2X6X6X6X6XgX2X2X2X$X2X1X#X$X2X5X1X2X2X1X6X2X1X$X1X2X$X1X1X1X1X|.|.1X X3X3X3X|. X X|.|.3X2X X2X4X4X X X4X4X X X X X X X XgX XjX X XjX4X4XgX XgX XgXgX XgX XgX|. X X XwXwX X3X X}.wXwX XwXwXwX8X8X8XgXfXfXgXfXfXgXgXgXgXfXgXgXfX4XfX4X8X8XwXfXgXgXgXgXfXfXfXfXfXfXjXfXgX4X4XjXfXgXgXkXkXgXkXkX6XgXkXgXfXfXjXjXwXgXgX4X4XgX4X8XjX4X8XqX8XpXlX8XhXqXhXqX8XlXfXfXfXlXhXhXhXhXjXhXlXvXkXlXlXkXkXkXkXfXkXkXkXkXkXkXfXkXkXlXkXlXpXkXhXhXhXsXhXjXjXqXqXjXhXqXhXpXfXhXlXhXhXkX8XlXlXpXlXqXpXlX8XlXlXlXlXlXkXlXkXkXkXkXvXkXkXgXvXgXkXkXfXkXkXkXkXfXyXyXyXyXlXyXpXyX8XyXiXyX8X8XyXyXyXiX8X8XpX8XqXqX7X7XqX7XwXwXwX3XwX3X3X3X3XwX7XwX7X3X7X7X4XwX8X7X7X7X7X7X7X2X2X5X7X3X7X7X4X7X3X;X3X3X;X1X1X-X1X3X{.;X;XwXwX}.}.wX3X;X{.3X3X|.;X|. X|.1X,X3X1X-X5X X;X;X;X;X;X;X;X;X;X;X;X;X{.;X{.<X;X;X;X-X;X-X:X-X:X-X[.=X{.[.[.[.[.[.[.[.}.[.[.[.[.K.=X[.(.(.].(.].K.(.].(.K.OX].].=X].].].].K.].K.K.K.K.K.K.K.K.].K.].K.].K.].K.].].K.K.K.].",
"v.v.v.N.n.b.n.b.F.b.b.D.b.F.F.D.C.b.b.b.b.n.n.n.B.b.n.n.m.m.v.x.x.x.m.m.n.v.n.n.E.C.C.n.C.n.C.n.n.n.n.D.H.C.H.C.D.Y.D.H.Q.D.Q.E.Q.C.H.n.D.n.E.I.!.E.E.E.W.E.E.!.W.W.!.!.Q.!.Y.~.Y.~.Q.Q.~./././.Q._.!._._._.OX_._./././.~.~./.!.Q.!.~.Q.~.(.~././.~.~.(.(.~.~.~.(.~./.~.(./.~.).~.(.)._.).).`.).).{.).).).#X).+X_.).+X+X@X#X#X#X1X#X1X1X1X|.|.|.).|.|.|.+X|.{.|.|.|.`.#X|.`.#X|.1X$X2X6X2X6X6X2X$X2X$X2X#X2X1X2X1X2X6X1X6X8X1X8X$X1X$X#X1X#X`.1X`.{.|.1X X3X2X4X3X3X3X3X X4X3X3X4X X4X XgX4X X2X X X X XgX X X X XgX X XgX X4XgXgXgX X X X XgX X X XwX3X X3XwX X XwXwX X XwX XwX4X8XgX8XgX8X4XgXgXfXfXfX8XfXfXfXfXgX8XfX4XfXgX4XjXjXwXjXjXfXfXhXfXfXgXjXgXjXgXgXgXfXfXgXkXkXkXkX6XgX6XkXgXgXgXfXwXgX8X8XjX8XjX8X8XqX4X8X8XfXqXqXfXhXfXhXhX8XyXhXpXfX8XlXhXhXjXqXjXkXjXkXfXhXkXkXkXlXkXlXkXxXxXkXkXkXfXkXlXkXlXfXhXzXjXjXjXzXzXjXzXhXhXhXhXlXqX8XlXlXlXlXlXlXlXlXlXpXpXqXpXlXlXfXlXlXlXkXvXgXjXkXkXkXkXkXkXkXvXkXkXkXkXfXlXyXkXyXkXkXyXkXyXkXyXyXkXyXiXyXyX7XyXyXyX8X8X8X8X7X4XqXqX0X0XwX3XwX9XwX3XwXwX3X7X4X7XwX4X7X7X7X7X7X2X7X7X2X7X7X7X,X3X2X7X7X7X7X3X3X3X3X3X5X5X3X2X-XwX}. X}.;XwX3X;X X3X{. X;X|.|.;X|.;X5X3X5X;X1X;X;X;X;X[.;X;X;X;X;X}.;X;X;X;X;X=X;X-X-X[.=X-X:X-X<X-X=X=X=X[.[.{.[.{.[.}.[.[.[.}.[.[.[.[.(.=X(.[.K.=X(.].(.K.OXK.=XOXK.=X].].K.K.].K.K.].K.K.K.K.K.=XK.K.K.K.K.].K.].].L.K.K.K.",
"3.3.B.B.c.N.c.m.b.F.F.F.m.F.D.t.E.m.n.n.n.n.D.n.n.n.n.m.n.m.m.n.v.c.v.c.m.n.n.v.B.c.v.c.v.b.B.C.n.G.D.C.H.b.H.n.H.H.C.D.Q.C.H.H.n.C.n.n.H.n.E.Y.I.E.I.I.!.E.U.!.W.W.!.W.Y.Y.Q.C.J.Q.H.~./././././././._././._./.W.W.OXW./._._._./././._././.^.Q.J.~./.~.J.~.~.J.~.~.(.~.[.(.~.~.~.^.}.).^.).).^.^.).^.).[.).).+X+X).+X+X+X#X#X@X+X#X1X1X1X1X1X{.1X{.).|.|.).|.|.|.|.|.#X1X+X1X1X2X`.$X2X$X2X$X$X6X2X$X$X2X2X2X2X2X6X6X6X8X2X8X2X2X1X$X2X2X#X1X1X1X|.1X3X3X|.3X2X5X2X3X2X3X3X2X3X3X X2X2X XgXgXwX X X XwX4X XgX X X4X4XgX4XgX2X X XgX XgXgXgX X X X4X3X X3X{.wX3XwX XwX X4X3X2X4X4X8X8X8XfXfX8XgXfXgXgXkXgXkXgXkX8XfX8XgX8XfXgX8X4X4X4X4X4XfX4XfXfXfXfXfX8XgXgXjX8XfXfXfXfXfXkXgXkXgXgXkXgXjXjXgXgXjXgXgXkXgXkXfXqXfX4X4XqX8X8XqXkXhXhXhXjXjXqX8XlX8XhXqXqXhXhXhXlXkXlXkXlXkXkXkXkXuXkXZXkXuXZXkXkXaX8XkXkXlXfXlXhXlXhXlXhXhXhXhXpXhXhXzXhXqXhXlXhXqXlXlXlXlXlXpXlXqXlXqXhXhXlXlXvXjXvXhXlXlXqX8XkXkXxXkXkXkXkXyXkXkXkXyXkXyXkXyXkX8XyXfXpX8XkX8X8XpXpX8XiX8XyX8X8XkXkX8X8X7XwX7X0XwXwXwXwXwXwX XwXwXwXwX4X4XwX7X7X7X4X7X7X7X8X7X4X7X2X7X8X7X5X8X7X5X3X-X3X;X3X3X3X-X1X3X1X5X1X2X1X2X3X3X|.3X{.{.3X;X3X}.wX{.3X3X3X;X;X1X-X;X{.;X9XwX<X9X}.;X9X.X;X}.;X}.;X}.}.<X=X;X:X-X-X;X=X-X=X=X=X=X-X=X-X[.[.[.-X[.{.(.[.(.[.[.{.(.[.(.(.K.[.].J.[.K.].=X=XK.OX=XoXK.oX].].].].K.].].K.].].].K.=XK.K.K.K./.K.K.J.K.K.",
"3.3.3.c.c.c.b.x.m.F.F.m.m.D.E.t.I.D.n.n.E.m.n.n.n.E.I.n.n.n.v.m.v.c.c.v.c.v.c.n.c.n.c.v.c.v.n.B.n.C.V.H.C.H.V.H.H.H.H.H.H.H.H.C.H.C.C.C.n.Q.n.E.E.I.E.Q.E.I.W.W.W.W.W.!.E.Q.H.Q.H.Z.Q.J./.Q._._./._._.W.W.+XW.OX+X/.OX_.W.+XOX_.!./.!./.Q././././.~.J.J.J.].J.].~.~.~.(.~.}.~.(.~.(.).(.).}.).^.^.~.^.).).).-X(.(.-XOX+X+X@X@X#X+X|.1X1X1X1X|.#X`.|.{.|.{.`.{.`.-X1X1X1X`.1X#X1X$X`.gX`.$X2X6X2X$X$X X$X X$X2X2X6X2X8X4X6X8X1X6X6X$X2X$X#X2X1X2X1X1X3X2X3X3X3X3X2X5X2X5X7X1X2X2X2X2X4X4X XgX XgX4XwX XwX XwX4XwX X X4X4X4X4XgX4X4X4X4X4X X XgXgX4X4X X X3X XwXwXwX XwXwXwXwX3X4X4X8X8X8XuXyX8X6XkXgXgXgXkX6XkXgXfXhXfXlXfXkXkXfXfXqXwXjXqXjXjXqXfX8XfXfXfXfXfX8XkXfXkXyXfXfXgXkXgXgXgXgXjXjXgXgXgXgXkXkXgXkXfXfX8XqX8XqXwXjXjXqXjXjXfXfXfXfX8XjXqXhX8XhXqXqXpXlXjXvXjXkXkXkXlXkXkXkXkXkXkXZXkXkXkXkX8XlXfXlXlXfXlXhXhXlXhXhXlXhXhXhXhXhXjXhXqXhXlXlXlXlXlXkXkXpXlXqXhXqXlXhXkXkXlXjXlXjXhXhXqXlXlXkXxXkXxXyXkXyXyXkXkXxXaXkXyXkXpXlXfXyX8XfXyXlX8X8XfX8XyXpX8XpXkXyXkX8XyXqX7X0XwX9XwX9XwX3X9XwX8XwX7XwX7XwXwX7XqX7XqX7X7X8X7X7X3X4X3X2X2X7X7X5X7X5X,X3X;X3X|.;X1X;X3X-X1X1X2X2X2X1X|. X;X X3X X X X X}.{.;X3X;X7X5X3X-X{.3X;X;X}..X<X.X9X;X;X;X;X;X;X;X;X<X;X;X{.-X;X;X;X=X-X=X=X{.=X-X[.[.=X;X[.[.[.{.[.[.[.(.[.[.[.[.(.[.(.[.J.].[.].K.[.=XoXoX=XOX].=X].].].].K.=XK.K.].K.oXK.].K.(.(.K./.K.(.].K.(.K.",
"B.3.3.v.b.x.x.b.b.m.F.b.m.D.m.D.E.m.D.m.n.n.n.D.n.n.D.n.U.v.n.v.v.b.n.c.c.v.c.c.c.c.b.v.c.n.n.B.H.C.V.H.D.C.H.H.H.C.C.H.H.C.H.H.C.C.C.C.n.C.Q.Q.E.E.I.E.E.E.E.!.'.t.U.W.Q.Q.J.Q.~.C.Q.Q./._._./.W./._.W._.+XW._.W.OX_.+X_./._.W./././.!./.~.~.Q./.J.J.~.~.J.}.~.J.~.~.~.~.}.).~.^.).).).).).).).^.^.~._.).[.{.).-X+X+X+X@X#X#X>X+X#X1X+X#X1X-X1X1X).|.|.{.|.|.|.1X1X1X#X2X1X`.2X$X2X$XgXgX2X2X$X$X`.gX$X$X2X2X6X2X8X4X6X1X5X2X4X2X1X1X$X2X#X2X1X2X2X2X7X2X3X3X1X3X1X1X3X1X1X1X2X X2X2X4X XgX4X4XgX X4X X4X2XgX X2X4X4X4XgX6XgX4XgX XgX XgX XgX X4X X X3X3XwXwXwXwX X4X X X3X4X3X8X4X8X8X6X8X2X6X6XgXgXgXgX6XgXkXqXfXfXfXfXfXfXgXjXgX4XjXqXgXgXfXgX8XfXjXfXfXfXfXfXyXfXkXkXfXkXkXgXgXgXgXjXgXgXgXjXkXkXkXkXfXkXfXfX4X8XfX8XjXqXhXfXjXfXhXfX8X8X8XhXfXhX8XhXpXlXhXlXvXkXlXfXlXfXkXkXkXkXkXkXZXxXkXkXlXlXlXlXhXlXlXhXhXlXhXlXjXhXkXlXhXqXhXzXhXpXzXhXlXlXlXlXlXlXlXzXpXpXlXkXkXkXkXvXjXvXzXlXlXpXpXyXlXkXlXyXyXkXkXyXkXyXxXyXlXkXyXkX8X8X8X8XlXpXfXpXfXqXpXhXkX8X8XkXkXyXyXqXqX7XqXsX0XwXwXwXwXwXwXwXwX4X7X7X7X7X4XqX7XqX7X7X7X7X4X3X3X7X3X7X7X8X7X7X7X1X1X;X3X3X;X7X3X3X3X8X1X6X8X3X2X2X3X X3X X3X}. X;X X|.3X;X3X3X1X;X3X;X3X;X3XwX<X<XwX;X;X;X}.}.<X}.;X<X;X;X}.=X;X;X{.-X[.[.;X{.=X=X[.[.=X[.[.(.[.(.{.-X[.[.[.(.(.-X[.=X(.(.(.K.}.[.(.(.=XOX].=X=X=X].].].].[.:X].].K.L.].K.K.].].(.K.K.(.K.(.K.(.(.K.(.",
"B.B.B.B.V.b.b.F.F.F.m.D.D.m.n.I.m.D.n.n.n.E.m.n.n.I.I.n.n.n.v.n.v.v.c.c.v.c.c.v.v.n.c.v.n.b.B.n.H.D.H.n.C.H.H.H.H.H.H.H.H.H.H.H.H.C.H.C.Q.D.Y.E.Y.E.E.E.!.I.W.W.'.!.W.!.Q.Q.Q.H.C.J.J.Q./././._.+XW.OX+XOX_.+X/.+X_.+XW.+XW.OX+X/.W.Q./.Q.Q./.H.Q.~.~.J.J.~.J.J.~.~.~.~.(.^.(.~.).^.).).{.).{.^.~.~.^.).).(.).-X).=X+X+X#X@X@X#X1X+X#X1X1X#X#X).|.1X|.1X1X|.|.|.1X1X1X1X#X1X`.#X2X'.$X'.$X2X2X2X`.$X`.$X1X$X2X$X8X6X8X8X8X1X1X1X6X$X6X1X1X$X1X1X1X4X2X3X4X2X X3X2X1X7X2X1X6X4X1X2X2X2X2X4X X4X X X4X4X4X X4X X4X4X2X6X6X4X6X4X6X X4X XgX XgX XgXgX4X XwX XwXwXwXjXwXwXwX4X4X4X2X4X8XgX8X8X6XgX2X2X2XgX$X6XfX6XgXgX8X4X8XgXfXfXgX8XwX4X4XqX4X4X8X8XgXgX8XfXfXfXkXkXkXyXfXfXfXgXgXgXgXgXgXgXgXgX XjXgXgXjXfXfXfXfXfXfXfXfXjX8XjXqXfXfXhX8XjXjXhX8XhXqXqXhXqXqXqXhXkXjXhXhXhXfXlXfX6XuX6XuXkXuXkXkXlXkXlXkXkXlXkXkXhXlXfXlXjXlXjXjXhXhXhXhXhXhXhXhXlXlXlXlXlXlXlXpXqXpXhXpXlXlXjXvXkXvXkXlXlXlXqXlXlXpXlXiXkXyXyXaXlXyXkXyXlX8XlXpX8XpXlX8XpX8X8XlX8XpXkXpXfXpXlXyXkXkXkXpX8XyXqX8XwXwXwX9XwXwX7XwXwX8XqXwXwXqXwXwX4X7X7X4X4XqX7X7X7X7XqX4X8X7X7X7X7X7X7X7X3X3X3X3X3X5X7X7X7X2X2X1X1X2X3X2X;X3X3X{. X}. X}.{.|.-X1X;X3X3X;X3X3X3X3XwX<X9X}.wX;X;X;X;X;X;X<X;X}.<X}.-X-X=X;X-X;X-X=X-X[.{.=X[.[.[.[.[.}.[.[.[.[.{.[.[.[.[.(.(.OXK.[.[.(.(.OX=XK.OX=XOXoXOX].=X[.].].oX].].].].].L.J.K.K.K.(.K.K.K.(.K.~.K.J.K.",
"B.n.n.n.n.n.F.b.F.b.b.b.n.m.m.n.n.D.n.n.n.m.E.n.n.n.n.n.n.n.v.n.v.c.m.v.n.b.n.n.n.b.n.C.n.C.n.C.H.H.H.C.H.H.H.Q.C.H.H.Q.H.D.H.H.H.C.Q.C.H.H.E.Y.n.Q.E.Y.E.I.E.!.W.W.'.t.'.W.Q.Q.H.H.L.Q././.!./.+XW._./._.+X+X/.+XW.+X_./.OX/././.Q.Q.Q.Q.Q.~.Q.~.J.~.K.~.J.J.~.~.~./.)._.~._.).).).).+X`.+X`.'._.^.^.).).{.+X).+X).+X+X@X#X#X1X+X#X|.1X1X+X1X`.{.1X1X1X1X|.|.|.1X`.2X#X2X#X`.$X$X$X$X$X2X2X$X$X'.$X`.$X$X2X2X2X8X6X7X2X1X1X1X1X1X1X1X1X1X1X1X$X1X2X2X2X2X4X2X3X7X7X2X3X2X7X7X4X3X4X2X4X3X2X2X4X4X3X2X4X4X4X4X8X6X8X6X4X6X6X6X6XjX XgX XgX XgX X X X4XwXwXwXwXwXwX4XwXgXgX4X6X4X6X8X6X6XgXgX$X2X2X2X X4X6X4X4X4X4XgXfXjXjXjXgXgXjXfX8XjX8XgXgXfX6XfX6XfXfXkXfXfXkXfXkXkXfXfXgXgXgXgXgXgXgXgXgXjXjXgXgXjXgXfXfXgXfXjXfXfXjXjXjXkXjXfXfXlX8XhX8X8XfXhX8X8XqXhXhXhXjXjXlXhXfXhXfXfX6XkXgXkXkXkXkXkXyXlXfXlXlXlXlXkXhXhXlXhXlXlXhXhXhXqXhXhXlXhXlXhXlXlXvXlXlXlXlXlXlXpXpXlXkXlXlXkXkXvXlXlXzXlXpXpXpXqXlXqXyXqXpXqXyXqXpXqXpXqX8XpXpXiX8XpX8XyXqX8XkXlX8XlXyXfXkXfXfXkXkXkXyX8XpXqXsXsXwXwXwX4XwX4XqXwXqXqXwXqXqXqX7X7XwX7X7XqX7X4XwX7XwX7X8X7X7X8X7X7X7X7X7X7X7X4X7X8X2X2X7X3X2X7X7X4X3X2X3X3X|.3X X}.3X}.3X;X;X3X X3X;X9X;XwX3X9X<X;XwX<XwX}.<X;X;X;X;X}.[.;X<X;X[.-X{.;X;X[.=X[.[.-X[.[.[.[.[.[.}.{.}.}.}.}.[.[.(.[.OXOX=XOXOX(.(.(.(.(.K.OXOX=XOX=X=X].OX[.[.].].].].K.K.K.L.].OXK.K.K.(.K.K.(.J.(.J.(.(.",
"D.n.n.b.b.b.b.D.n.b.m.m.m.v.v.m.n.m.m.D.m.D.m.n.n.I.n.I.n.m.m.v.c.n.b.n.n.B.n.C.n.C.n.C.n.C.C.C.n.n.n.D.n.H.H.H.Q.H.D.C.C.Q.C.H.Y.Y.H.C.Q.H.C.Q.Q.D.Q.E.E.!.W.E.W.W.U.W.W.'.Q.Q.Q.~.Q.H./.Q./.W./._.OX_././._.).+X_./._._.W._./.Q.^./.Q./.Q.H././.~./.~.~.~.J.~./.~.)._.).)._.~._.'.).`.).`.).#X).'.).).{.).).-X-X-X#X@X#X@X$X@X1X#X-X`.`.1X).+X{.`.|.|.1X1X|.|.#X2X#X2X#X1X2X`.'.gX$XgXgX2X$X$X$X$X$X$X2X$X$X1X2X8X1X1X1X3X-X3X1X5X1X5X1X1X1X1X|.|.1X2X4X2X4X4X4X3X7X7X3X2X4X4X4X3X3X4X4X3X4X2X3X2X2X4X4X4X8X8X8X6X8X6X6X6X6XfX XgX XgX XgX XgX4XgX X4X4XwX4XwXjX4XfX8X4X6X4X6X6X4X4XgXgX2X2X2X4XgX4X4X2X4X4X6X4XgXgXgXgXjXgXgXgX8XjXgX8X4XgX4XgX6XfXfXfXfXgXkXkXfXfX8XfXgXgXgXgXgXgXgXgX XgXjXjXgXjXjXfXfXjXjXjXkXfXfXhXkXkXkXfXhXhXfXhXqXhXhX8XqX8XhX8XhXhXqXjXjXjXjXjXfXfXfXgXkXfXfXkXfXkXlXlXfXlXlXlXkXlXlXlXlXhXlXjXhXjXhXhXhXhXlXhXlXhXlXlXlXlXlXlXhXlXlXlXpXpXlXkXlXkXlXlXkXlXzXlXlXpXlXpXpXqXqX7XqXqXqXqXyXiXqXqXyXiXqX8XqXqXqXpXqX8XiXqXyXkXfXkXkXfXkXkX6XkXkXfXkXhXpXhXwXqXqXwXqX4XwX7XqX4XwXqXqXqXwX7XqX8X7X7X4X7X7X7X3X3X7X7X7X7X7X7XyX8X8XwX8X4X7X5X7X5X7X2X5X2X2X1X1X2X2X3X;X3X3X3X X3X3X;X X|.;X3X;X9X3X3X;XwXwXwX<XwX<X;X;X<X;X;X}.;X<X;X;X[.;X;X;X=X;X;X[.{.;X=X[.=X-X[.}.<X[.{.}.}.;X}.}.}.[.[.(.[.OXOXOXOX=XOX/.OX(.OXOXOXOX=XK.(.[.[.K.(.].[.K.K.].K.K.K.K.K.K.].K.K.[.K.(.[.(.[.K.K.",
"D.D.m.D.b.b.F.b.n.b.b.m.n.x.m.v.m.D.m.m.n.I.D.n.m.n.n.n.n.v.v.m.n.n.b.n.B.b.C.n.B.n.H.C.H.C.n.n.b.C.n.H.D.C.H.H.H.D.H.H.H.H.Q.C.C.Q.H.Q.H.Q.H.Q.E.Q.Q.I.!.E.!.W.W.W.W.W.!.!.U.Q./.K./.~.Q.Q././.!./._././._./._.W././.!././.!._./._.~./.~././.~./.J.~.~.(.J.(.~.).).)._.).)._.)._.).`._.`._.`._.`.`.).`.).-X).).+X).+X`.@X$X@X1X#X1X`.1X`.1X#X|.`.`.1X1X2X1X|.2X#X2X$X2X$X2X`.$X'.$X$X$X'.$X$X`.$XgX$XgX2X$X2X1X1X1X1X1X1X-X1X-X5X5X1X1X1X1X1X1X1X2X X$X2XgX X2X2X7X4X7X7X4X7X3X3X3X3X4X3X2X3X3X4X2X2X7X6X8X8X8XfX6X6X6X6X6X6X6XgX4XgXgX4X X XjX X XgXwX4X4X4X8X8X8X8X8X6X8X4X6XgX4XgXgXgXgXgX2XgX X X4X4X X X4X X X X XgX2XgXgX4X4X4X4X4X6X2X2XfX6X6XfXfXkXfXfXfXyXfXfX6X6X4X6XgXgXgXgX XgXjXjXgX4XjXgXgXjX4XfXjXjXjXkXfXkXkXjXfXhXlXhXhXkXhXhX4XqXjX8XjXqXqXjXhXqXjXjXfXwXjXqXjX8XkXyXqXlXlXqXhXlXhXhXhXlXhXhXhXlXhXhXlXjXlXhXhXyXlXhXhXlXhXlXlXlXlXjXlXlXqXpXqXpXzXlXlXkXkXkXkXvXxXkXlXzXpXlXqX0XwX7XwXwXqX0XwXwXqXqXqXqXqXwXqXqXiXpXqXyX8XpXpX8X8XpXkXfX8XkXyXkXkXkXfXlXlXqXlXqXqXhX8X8X8XqXwX7X7XwX7XqX7XqX7X8XwX7X7X7X4X7X3X0X;X;X3X3X5X7X7X8X8X8X8X4X7X2X5X3X5X3X7X2X2X7X2X5X1X1X3X1X3X|. XwX3X3XwX{.;X3X;X3X3X3XwX3XwX;X<XwX<X;X;X;X;X;X;X;X;X;X[.;X[.;X[.;X;X[.=X;X;X=X[.[.[.=X<X<X}.;X{.}.}.}.}.}.}.[.K.[.OX=X=X%XOXOXOXOXOXOXOXOXOX).OX=X(.(.(.[.J.[.K.].K.K.K.K.K.K.K.K.].K.K.].].K.].K.].K.].",
"D.D.F.F.m.F.b.b.b.b.n.v.v.v.c.v.n.m.n.n.n.m.m.n.m.n.n.m.v.v.x.x.n.n.C.C.n.C.n.n.n.C.C.n.n.n.n.c.b.n.C.n.H.H.H.n.C.H.Q.n.H.Q.D.H.C.Q.Y.~.Q.H.Q.D.H.H.E.Q.Q.E.W.Q.U.W.U.W.W.W.!.!./.Q.Q./.Q./.Q.W././././.!./.^././.E.Q././._./././.Q._.Q./.~.~./.Q.~./.(.~./.~.~.).).).).'.).).^.'._._.`._.`._.'.`.1X#X+X1X).+X{.+X-X-X+X#X@X$X1X1X#X1X`.#X).`.`.).`.|.1X1X X1X`.$X`.$X2X2X`.$X`.'.$X$X$X$X'.`.`.gX'.2X$X6X2X2X1X1X1X|.-X1X-X-X1X1X1X-X1X5X1X1X1X2X|.2X$X X`. X X4X7X3X3X3X3X3X3X3X3X3X3X4X3X4X3X1X7X8X1X8X6X8XfX8XyX6X6X6X6X6X$X6XgX4X4XgX X X XgXgX XgX2X4X8X8XfXgX8XgXfX6XgXgX6X2XgXgXgXgX2XgXgXgX4X4X2X2X2X X XgXgXgXgXgXgXjXfXgXgX4XgX4X4X6XfXgXfXfX8X6XfX6XkX8X6X6X8X6X4X2XgXgXgXgX XgXjXjXgXgX4XgXwXgXgXgXvXjXkXkXfXkXkXkXlXhXkXhXhXlXhXlXjX8XjXqX8XqXjXqXjXjXjXqXwXjX4X8X8XhXfXfXqXjXhXjXfXhX8XlXhXfXhXlXlXhXlXhXlXlXhXhXhX8XhXhXhXlXlXhXlXlXlXlXlXfXlXqXpXpXlXaXlXlXxXkXkXkXlXkXlXzXpXpXpXqXwXwX7X7XwX0XqXqX0XqXqXwX0X0X0XqXiXqXpXiXqX8X8X8XyXfXkX8XkXfXkXkXkXkXkXlXfXlXhXhXhXqXqXqX8X4X3X3X3XwX7XwX4X7X7XqX4X7X4X7X7XwX7X3X3X0X7X7X7X3X5X7X7X4X7X3X5X2X1X5X3X3X7X5X2X7X3X1X3X1X1X;X1X3X3XwX3XwX3X3X;X|.3X;X;X3X9X;X;X3X9X<XwX;X;X;X<X}.<X}.;X<X;X;X;X{.;X=X;X;X;X=X[.[.;X;X[.=X}.<X;X<X{.;X}.}.}.}.].[.(.(.OX].OXOXOXOXOXOX_.(.+X(.(.=XOX(.(.[.~.J.~.J.K.K.K.K.K.K.K.K.K.K.K.K.K.K.K.=XJ.[.K.[.J.",
"D.D.F.F.F.F.b.b.D.b.n.n.v.B.n.n.D.m.m.m.m.D.n.n.I.n.I.m.n.n.m.v.n.D.C.n.C.D.D.C.D.C.H.n.n.n.C.n.D.C.C.H.H.Q.H.C.H.H.Q.H.Q.H.C.C.Q.Q.Y.H.H.C.H.C.H.D.Q.Q.Q.W.Q.W.E.!.Q.E.W.Q./././.Q.Q./.Q.Q./.~.Q._././.!./._./.Q._.Q._._././._._.~.~._.^./.~.^.~./.(././.(._./.).`._.).).#X_.`._.#X_.`._.#X'._.`.).).#X-X+X-X1X-X1X5X#X5X1X#X#X#X`.|.|.#X|.`.2X`.#X1X1X2X1X1X1X$X`.$X`.`.$X2X`.$X$X`.$X2X$X2X$XgXgXgX$X6X6X2X5X1X1X1X1X1X-X3X;X5X;X-X1X1X1X1X1X1X2X2X2X2XgX2X2X1X3X X3X3X3X2X3X3X3X4X3X3X7X2X7X8X4X6X8X8X8X8X6XkX6XyX6XuXfXuXkX6X4X6XgX6X4X4XgX4X XjX XgX4X8XgX6XfXkXgXkXfXgXkXgXgXgXgXgXgXgXgXgX4X X4X2X2XwX4X4XwXfXgX4XgXgX XfX8X8X4X4X8X6X4X8X8X6XfX8X6X6X8X1X8X8X1X1X2X|.`. X X4XgXjX4XgX4X X XgX X4XgXfXkXfXfXfXkXkXjXkXkXlXlXlXlXfXlXfXhXjX8XjXjXjXqXqXjXjXqXwXjXjXwXjXwXjXwXjXqXjXhXhXqXlXjXjXzXlXlXhXhXkXjXjXlXlXlXhXhXkXhXlXhXlXlXlXlXlXhXlXlXqXjXhXpX8XaXaXlXlXxXvXkXkXxXlXkXlXaXaXpXpXpX0XpX0X0XwXqXqXwXpXwXqX0XwXwX0XiXiXqXiXpXqXpXlX8X8X8XkXfXfXfXkX6XkXfXkXfXkXfXkXlXfXyXfX8X8X8X4X7XqX8XiX8X7X8XwX7XwX7X4X7XwX7XwX7X3X7X7X3X7X7X7X4X4X4X7X8X6X5X1X5X7X5X1X7X7X3X3X5X3X3X3X3X3X3X3X3X3X3XwX}.;X;X}.}.wXwX9XwX;X;X<X;X;X;XwX;X;X;X;X<X<X;X;X[.;X<X[.;X;X<X}.[.<X}.<X}.<X}.<X}.}.<X;X{.}.}.[.}.(.}.[.(.=XOXOXOXOXOXOXOX+XOX(.+XOX).).[.~.(.}.K.J.(.K.].K.].K.K.K.K.].].K.K.].].K.].K.].J.J.[.",
"D.D.D.W.D.m.b.b.b.b.n.b.n.b.B.n.n.n.n.m.m.m.m.n.n.m.m.n.n.m.n.n.n.C.n.H.n.C.C.n.C.D.C.n.H.H.n.n.C.D.C.D.n.Q.H.Q.Q.n.Q.C.H.n.D.Q.I.Y.I.C.H.D.Q.H.H.Q.H.H.Q.Q.W.Q.E.Q.E.Q.Q.Q.Q.W././.Q.~./.!./.!././._././._./._./././././.~._./.~.).^././.^._.(./.~.(.^.~.(.(.).).)._.#X_.`.`._.`._.`._.`._.$X_._.`.#X_.`.1X).+X).-X-X1X$X#X#X#X`.|.`.|.`.1X1X|.#X$X1X2X2X2X1X#X X$X`.$X$X2X$X2X$X X2X2X$X1X$X2X$X2X$XgX2X2X1X2X1X1X-X1X-X-X-X1X3X5X1X>X1X5X1X1X|.2X2X2XgX`. X2X X3X3X3X3X2X3X3X7X2X7X3X3X3X3X3X5X8X7X2X6X7X6X8X8X6X6X6X6X6XkXgX6XgXgX6X4XgXgX X4X4X X4X8XgX6X6X6X6X$XkX$XkXkXgXkXgXkXgXgXgXgXgX X XgXgXjX4X3X X|. X|.|.|. XgXgXhX8X2X X`.`.|.-X`.).).`.#X).).1X1X6X5X1X1X5X1X-X|.|. X3X X4XjXjXjXjXjXjXjXhXhXhXgXjXjXkXkXkXjXvXlXhXlXfXkXqX8XhXqXjXqX8XqXjXjXfXjXjXjXjXwXjXwXjXwXjXjXjXqXjXhXjXjXjXzXjXhXjXhXhXjXlXlXlXjXlXhXhXhXlXlXlXlXlXlXlXhXlXhXhXhXpXhXhXpXpXkXpXvXkXkXvXkXkXkXlXyXlXaX8XqX0XwXwX0XwX0XwXqXwX0X0X0XqX0X0X0XqXqXiXqXpXqXpX8XpXlX8XyXfXyXfXyXfX8XkXfXyX6XkXfXkXfX8X8X8X8X8X7XqX7XqX7XqXwX7X8XqXqXwXwX7X7X7X7X0X9X,X3X7X4X7X2X7X7X8X8X7X7X2X5X5X1X5X1X1X5X5X-X-X1X3X5X5X3X2XwX;XwX}.wX}.wX}.wX;X;X;X;XwX;X9X9XwX9X;X<X;X;X;X;X;X[.;X;X;X[.;X<X[.[.;X[.<X<X[.}.}.].<X}.<X<X}.}.{.}.}.}.}.{.[.[.[.OXOXOXOXOXOXOX+X/._.(.(.).).(.(.}.(.J.~.}.K.(.K.K.K.K.K.K.K.K.K.].K.OXK.K.].K.J.].J.J.",
"t.%XW.F.F.F.F.b.C.b.V.n.C.n.I.n.n.m.n.m.m.n.D.n.n.m.D.n.n.n.U.n.C.D.D.C.H.H.n.H.H.n.n.H.D.C.n.H.n.H.D.C.H.H.Q.H.H.n.D.C.Q.H.H.n.Y.Q.Q.C.H.H.H.H.H.Q.H.Q.E.Q.W.Q.!.I.Q.E.Q./.W.OX/././._./._.Q.!./.!._.~.~._._./._.~./.!.Q._.~._./.!.~.^.^./._.~.^./._.(._.).(._._.).).).`._.).)._.`._.#X_.#X#X_.`.`.`.#X).).+X).).1X).#X1X#X#X#X|.`.`.|.1X|.1X`.1X1X1X2X1X1X1X#X$X`.2X$X1X`.1X1X$X1X#X2X1X2X1X2X6X2X2XgX1X8X2X1X1X1X1X1X1X1X1X1X1X;X1X1X1X1X1X1X2X2X2X2XgXgX2X2X2X X4X2X2X3X4X3X2X3X7X3X7X3X7X2X6X4X8X6X4X8X8X6X6XyX6X6X6XfX6XfX6XgX6X6XjX4X X4X X4X4X4XgX8XfXfXfXfXkXkXkX6XgXkXkXgXfXfXgXgXgXgXgXgXgX4X2X4X4X4XhXjXwX X|.2X2X X`.|.1X3X2X7X4X2X6X1X1X5X5X1X1X1X).-X{.(.).(.{.[.3X|.|.3X X X1X2X4X4XjXjXfX8XfXfXkXfXhXkXlXkXkXlXkXlXlXlXyXhXhXqXjX8XwXjXgXqXjXwXqXwXjXwXwXjXjX8XwXhXjXwXjXqXhXqXjXlXjXzXjXlXlXhXzXlXlXlXlXjXlXhXlXlXhXlXlXlXhXlXlXlXzXhXhXlXhXqXpXpXlXaXkXkXkXjXkXkXlXyXlXpXqXpXpXqXqXwXwXwXqX0X0X0XwXpXqX0XqX0XiXiXqXqXiXqXpXpXpX8XpX8X8XkX8XfX8X8XkX8XfXyXkXfXkXfXkXfXyX8XpX8X7X8XqXqXqX8X7XqX7XqX7X7X7XwX3X3XqX7XqX7X7X7X3XwX7X7X7X4X8X7X7X7X5X5X5X7X,X1X;X-X-X;X-X5X3X5X7X3X;XwXwX;X}.wXwX}.;XwX;XwX;X;X;X;X<X;X9X;X;X;X;X;X;X;X;X;X<X<X{.<X[.<X[.[.}.<X[.<X].<X<X].].}.].].}.}.}.[.[.}.[.[.[.[.=X[.OXOXOXK.+X(.(.).+X).[.}.}.(.J.[.[.(.].(.K.(.K.K.K.K.K.K.].K.].K.=XK.OX].].].}.J.].",
"%Xt.W.F.D.D.m.F.b.b.v.V.n.n.Y.C.n.D.m.n.m.n.m.n.n.I.I.n.I.I.Y.Y.E.C.H.Y.n.H.H.n.H.Q.H.H.n.H.n.H.C.n.C.D.C.D.C.n.C.H.C.D.C.D.C.Q.n.I.I.n.C.H.C.H.G.G.H.H.Q.Q.Q.Q.Q.Q.Q.Q.W././././._._./.~.Q.!./.Q._.Q./._.Q./.^._.Q.!./.~._._.~._.~.^./.(.^./._./.).~._.(.)._./.).+X)._._.#X_._.)._.`._.`._.`.`._.+X).#X).).).).+X).).1X`.#X1X`.#X`. X$X|.2X1X2X#X1X1X2X1X#X#X#X X$X`.2X#X2X#X#X1X2X1X1X2X1X1X1X1X1X6X$X8X2X5X7X1X1X1X1X1X1X1X1X5X1X-X1X-X1X1X1X2X1X2X6X X2XgX2X X3X2X4X4X4X3X4X4X3X2X3X2X7X2X7X7X8X7X2X6X8X6X8X6X6X6XyX6X6X6X6XgXgXgXfX4XgX4X4X4X XgXgX4XgXfX6XuXfX6XuX6XkXfX$XfXgXgXgXgXgXgXgXjXgX2X X X1X4X4X{.3X3X X3X1X|.|.`.|.|.1X1X1X1X-XlXpXzXzXlXiX8XyX8XiXqXqXqXqXqX7XwX;X3X{.-X3X|.}.1X1X7X4X8X8X8X8XhXfXkXhXkXfXfXfX8X8X8XyXfXpX8XfXqX8XjXqXjXjXjXjXwXjXqXjXjXwXqXjXwXjXqXjXqXhXhXjXhXhXhXjXzXjXjXlXjXjXlXjXlXlXlXkXlXlXlXlXlXlXlXlXlXhXhXlXhXqXhXqXpXhXkXlXlXlXkXvXkXkXfXlX8X8XpXqXpXqXqXqXwXqX0XqXpXwXpXpXqXwXwXqX7XqXiXqXqXpXpXqX8XiX8XyXyX8XqXyX8X8X8X8X6XfX8XkXfX8X6X8XfX8X8X8XqX7X8XiXqX7XqX4X7XwX4XwX8XwXwXwX7X7X7X4X7X3X7XwX3XwX4X7X7X7X8X5X8X6X7X1X1X>X-X3X-X1X3X3X3X7X4X3X3X9X X}.wX}.}.}.}.}.}.;X;XwX;X;X;X;X;X;X;X9X;X;X;X;X;X;X[.;X<X[.<X[.[.;X<X].<X}.<X]..X}.].<X}.<X}.}.}.}.{.[.{.[.=X(.OXOXOXOXOXOXOXOX(.(./.(.(.}.[.}.}.(.[.(.(.OXK.(.K.K.K.].K.K.=XK.K.=XK.].K.].].J.].].].",
"t.%Xt.W.W.D.b.m.b.b.B.B.F.C.C.D.E.m.n.m.n.m.n.m.I.n.n.I.Y.Y.Y.D.Q.D.C.D.D.C.H.D.n.D.H.n.D.H.D.H.H.n.H.b.n.H.H.H.D.n.D.C.H.Y.H.n.Y.I.I.Y.D.H.H.V.H.G.H.H.E.Q.Q.E.Q.Q.Q.Q.Q././._./._.Q./.!.~.!.Q.Q._./.!.~._._././.^./._.~._._._.~.^.~.^.~._.).~.).(.^./.).)._.+X).).+X).)._.+X).+X)._.`._.#X#X_.$X_._.#X).).).(.).).).`.#X`.#X#X X`. X X|.2X X$X1X#X2X#X1X#X`.).#X`.#X1X2X1X1X1X1X1X1X1X1X1X1X1X1X1X3X5X1X7X2X3X5X2X1X1X1X5X2X1X1X5X1X1X1X1X5X1X2X2X2X6XgX2X2XgX X2XgX X4X4X2X4X7X1X8X7X8X4X5X2X4X4X4X4X4X7X4X6X8X6X6X6X8X6X2X4XkXgXgX8X4XgX X XgX XgX4X6XgXkXgX6XkX8X6X6X6XkX6XfX8XgXfX8XgX6XgXgXgXgXgXgX2X1X1X2X7X7X2X3X3X|.).1X|.{._.^.(.1X5X-X3X7X8X8X7X-X-X+X-X3X7X0X3X7X;X=X-X;X;X5X5X5X5X1X7X5X7X1X7X8X8XkXlXkX8X8XfXfX8XqXyXyX8X8XhX8XhXfXwXgXgXjXjXgXjX4XjXjXwX4XwXjXqXjXqXjXzXjXwXjXwXhXzXjXhXjXqXhXhXhXhXlXjXjXlXjXvXlXlXvXlXlXlXlXlXjXhXlXhXqXjXsXpXqXpXqXlXlXlXkXjXlXfXkXqXhXqXqXiXqXqXpXiXiXqX8XqXwXqXpXqXpXqX8X7X8XpXqX8XpXpXqXpXiXqX8XqXqXyXiX8X8X7XqX8XyX8XkXfXfX8XkXyXyX8X8XyX7XqX8XqXiX8X7X7XwX4X4XqX7XwX7X7X8XqX7X8X7X8XwX3X3XwX3X7X8X3X7X7X7XuX5X5X5X-X3X;X;X;X3X5X7X3X7X7X;X3X;X;X}.;X}.wX;X}.;XwX}.;X;X9X;X9X;X;XwX9X;X;X;X;X;X[.<X<X;X<X.X<X}.].}.}.<X<X}.].].<X}.].}.].}.}.[.}.[.[.-X=X=X[.[.[.OXK.OXOX(.(.}.(.(.}.~.}.}.}.(.[.K.K.OXK.(.(.].OXK.(.K.].OX].].].].].].].].J.].].].",
"W.t.%Xt.D.F.F.b.b.b.c.n.b.n.F.n.n.D.n.D.D.m.m.n.n.n.D.n.n.Q.Y.Y.C.E.D.H.H.D.n.H.D.C.D.H.C.D.H.n.C.D.C.n.n.n.n.H.D.C.n.H.H.D.Q.n.I.Q.Q.I.H.C.H.C.H.H.H.H.D.H.E.Q.Q.Q.Q.Q.W./.!./.+X/._._./._.Q.^._.~.^./._.~.)._.!./._.~._././.^.~.)._.^.).~.~._.)._.).(.).).+X_.+X).).).).)._.).)._.`._._.).).`._.$X#X_._.)._.).).+X).+X).#X`.$X`.`.`.`.$X`.$X X`.2X2X#X#X#X`.#X#X#X1X2X2X#X1X#X1X1X1X1X3X-X-X1X1X1X1X3X2X1X5X2X1X8X6X1X1X2X5X1X1X1X1X-X1X1X1X2X2X4X6X4X X2XgX2X4X X XgX4X4X4X2X4X4X6X2X5X4X4X7X1X8X7X3X4X4X8X7X2X6X8X6X6X8X6X6X$XfX8XgXjXgX XjX XgX XjXgXkXgX6XfX6XfXfXfX6XkX6XgX8X6XfXfXgX6XgXgX$XgX$X2X$X2X1X4X3X3X|.{.{.-X{.).).).(.Q.m.h.x.).-X-X{.(.K.n.k.h.h.b.J.[.].].].N.G.K.OX+XOX{.OXyXpXyX7X7X8X7X8XyX8X8X8X8X8X8X8X8X8XqXqXpX8XhX8XqX8XjXjX4XwXjXjXqXqX8XqXqXjXwXjXwXwXwXjXzXjXjXjXjXjXjXjXjXjXhXjXhXjXlXlXlXlXjXzXlXlXlXlXlXlXlXzXzXlXhXlXhXhXjXwXqXlXpXlXlXlXkXlXfXfXpXkXkXpXpXhXpXqX8XqX8X7XqXqXqXqXpXqXqXiXqX8XqX8XiXpXqXpXpXyX8XpXpX8X8X8XqX8XiXqXyX8X8XkX8XkXkXyXyXkXkXyXiX7XyX7XpX8XqXqXqX8X7XwXwX3XwX3XwXqX7XyX7X8X4X7X7X3X4X7XwX7X7X7X7X7X7XuX7X5X5X5X,X;X3X,X3X7X2X7X2X5XwX}.3X{. X;XwX}.}.wX;X}.;X;X<X<X;X;X;X;X<X;X9X;X;X;X;X<X;X}.}.<X<X}.<X;X<X].].}.<X}.].].<X}.].].}.].[.[.[.{.[.{.{.[.[.(.OXOX(.[.(.~.(.(.}.J.}.}.}.(.[.[.OX].OXK.(.K.(.K.OXK.K.K.].].OX].].].oX].].]..X].].",
"t.t.%XW.t.m.m.m.b.n.b.b.n.D.b.D.m.D.n.m.n.n.n.n.n.n.n.E.I.B.n.Q.D.H.D.n.n.n.D.b.D.n.n.D.n.H.C.D.H.C.n.n.b.b.H.n.C.H.C.C.Q.Q.H.Q.!.Y.Q.Y.H.H.C.G.G.G.C.H.Q.C.W.E.Q.Q.Q.Q./.!./._._._./.^./.!._.~./._./.^._./.~._.^././.!._.^./._._.^._.~.^.^./.(.(.(._._.+X+X_.).).+X/.(.+X_.+X).+X_.#X).+X#X_._._.#X_.#X+X_.).).+X).).).`.#X$X`.`.|.`.`.|.|.$X|.1X#X`.#X#X`.#X`.|.1X#X1X1X1X1X1X1X1X-X-X-X{.-X{.-X;X1X3X5X5X3X1X8X6X1X1X2X1X2X2X1X1X1X5X1X1X1X2X2X4X2XgX4XgX2XgX XgX XgX6X4X6X2X2X8X4X5X8X5X8X5X8X3X4X2X2X3X2X2X4X4X6X2X6X6X6X6XkXgXfXfX4XjXjX XgX X6XgXgXkXgXkXkX8XyX8X8X8X6X8X8X6X6X6X6X6X6X6XgXgX$X$X$X$XgXyXqXpXqXqXpXzXcXvXzXvXpX3XY.%.| | ~ ~ E T I G l j n m J T ~ ~ } } g.G.(.>X>XuX6XuXyXyXtXyX7XuX7XyX8X7X7X8X8X8X8X8XyXiX8XyXlX8XqX8X4XjXgXjXjXgXgXjX4XqX8XjXjXqXjX8XwXhXjXzXjXwXwXjXjXjXwXjXjXqXqXjXfXhXjXlXlXlXvXlXvXlXlXvXlXlXlXjXhXzXhXhXpXhXjXwXqXqXhXqXjXlXjXkXlXhXqXhXhXpXqXpXqXpX8XpX8XiXiX8X8XyXqXiXpX8XiX8X8XiXyXqXpXqXqXpXyXqXiX8XiXqXqXiXqXiXqXyXlX8XkXkXkXkXlXyXyX8XyXyXqX8XiXpXpXqX8XqX7X7X4XwX7X4XwX8X8XyXyX8X8XqXwX3XwX7XwX7X7X0X7X7XtX6X7X7X7X7X7X7X9X7X7X3X5X3X2X1X X X;X;X}.wX}.}.}.}.;X;X;X;X<X9X;X;X;X9X9X;X<X9X9X;X;X<X<X}.<X].].<X].}.}.<X<X}.}.].].}.].].}.<X[.[.[.[.(.[.[.).(.[.(.[.].(.(.[.(.[.[.~.(.}.].}.[.}.[.(.OXOXOXL.OX(.].(.[.K.K.(.].].].OX].=X=X].J.].]..XJ.",
"%Xt.t.W.D.F.F.x.b.b.b.b.b.b.D.b.m.n.m.E.I.n.n.n.n.I.I.n.D.E.H.n.C.D.H.H.n.D.n.n.b.D.C.n.D.C.D.D.n.D.n.b.n.n.n.H.H.n.Q.D.C.H.Q.Q.!.Q.Y.Q.H.n.H.V.H.H.H.D.H.E.Q.Q.Q.Q.Q.Q./././.W.OX_._._._._.~._.!./.^./.^._._._./.^./._.(._._._.^.~.~.).~._.^.).^._.).)._.)._.+X+X).+X).).+X_.+X).+X_.+X).+X+X#X#X_.#X_.).+X).).).#X+X).`.`.#X2X`.|.`. X`.`.`.2X`.`.1X#X#X`.#X`.`.1X1X1X1X1X1X+X1X-X1X{.|.-X{.-X-X1X1X5X3X3X1X7X8X1X8X2X2X6X2X$X$X1X1X1X1X1X6X1X2X4X4X6X4X XgXgXgX XgX4XgX4X4X2X4X1X4X4X2X7X2X8X4X2X8X2X2X2X5X4X6X2X8X8X8X6X2X6XkX6XgXfXgX XjX4X2XgXgXgXgXkXkXkX8X8X8X6XfX6XfX6X6X6X6X6X2X6X5X2XgXgXgXgX2XgX2X1X-X1X-X(.H.C.c.$.,.&.+.~ I J m H l l l j i q 8 * > > 0 g c c Z H h G ` X.O.0.t.z.@X>XrX5X5X5X5X5X5X2X7X1X7X8X8XfX8X8X8XpX8XqXfXlXqXfXwX8XjXwXwXjXqXgXwXqX4XqXqXqXwXjXwXjXwXjXjXjXwXjXwXwXwX4XjXjX8XhXjXjXlXjXlXvXlXlXvXlXlXlXlXlXlXhXzXhXhXhXhXqXhXqXlXlXvXjXlXlXkXfXhXlXhXhXqXhXlX8XpXyXqX8X8XyXqX8XpXqX8XpX8X7XyXqXqXyX8XpXpXqXqXqXiXqXiX8X8XqXyXqXyXpX8XpXfXlXlXlXkXkXpXpXqXyX7XqXiXqXiX8XiX8X3XwXwX7XwXwXqX7X8X8X8XiXqX4X3X3X3XwX0X7XqX7X7X7X7X6X7X7X7X7X7X7X0X7X0X7X5X3X;X-X;X;X;X XwX}. X;XwX;XwX}.;X;XwX9X;X;X;X9X;X9X;X;X;X9X;X;X;X<X;X].<X.X}.<X].].<X}.].}.<X].}.<X}.].{.[.[.[.-X[.[.[.[.[.[.(.(.(.].(.].(.(.(.K.}..X}.}.}.(.[.K.OXOXOXK.(.=XK.K.OXK.oX].OXK.=X].].].].].}.].].].",
"W.D.W.L.D.b.b.b.n.b.F.b.b.F.D.m.D.b.b.n.v.n.n.B.v.v.n.Y.n.D.C.H.E.n.n.I.n.D.n.n.C.C.n.b.G.n.H.C.D.b.n.b.n.b.n.D.n.n.n.Y.n.Y.E.Q.Q.Y.Y.I.C.n.n.G.H.V.n.H.D.H.E.Q.Q.Q.Q.Q.Q.Q.!./.!././.Q._././._.~.!.~.Q._.~.^./._._./._.)._./._./.^.~.^.^.^.^.^.^.~._._._.@X+X_._.+X).+X+X+X+X).+X).).).).).).+X_./.+X_.).+X).+X).#X+X1X#X#X#X).1X).1X`.1X#X1X#X`.`.#X).`.1X`.1X1X|.|.1X1X{.1X{.1X{.|.-X|.-X|.-X3X5X3X5X3X5X1X5X1X$X2X1X2X$X2X$X2X$X1X2X2X2X6X2X6X6X4X6X8X2X6X4X4X2X4X4X2X2X2X1X2X2X4X3X4X8X4X4X8X8X8X8X8X8X8X8X5X6X6X6X6X6X6X6X6X6XkXgXgX6X4XgXwX4XgX XgXgXfX8X8X8X8X8XfXfXkX$XgX6X$X$X1X1X8X8X`.2XkX1X).1X3X4X;X-X).C.,.&.E W J J m l z 1 e 0 e 0 9 8 6 $ # . . : : , y y y y 7 s v Z G R ) ) z.L.@X>XOXOXOX-X8X7X-X1X7X4X7XqX7X8XlXlXkXyXkXkXkXyX8X8XfXqXhXqXjXwXwXwXjXwXwXqXwXwXjXwX XjXjXjXhXqXwXjXwXjXjXwXjXqXjXlXlXlXvXvXkXvXvXjXvXjXvXkXlXqXhXlXqXzXsXhXlXlXpXlXfXlXlXhXlXjXlXjXlXjXjXlXlXzXpXqX8X8XqXiXqXqX8XqXyXqX8XqX8XwXiX8XqX8XqXqX8XiXyXpX8XqXyXyXpX8XiX8XyXpXyXyXyXyX8XiXiX8XiXyXpXpXqXiXqX7XqX7X7X7X7X3X7XwXqXiXyXyX7X7XwX7XwXwX3X9X0X0X;X0X,X9X5X7X7X3X0X,X7X0X0X0X7X,X,X;X7X;X3X3X3X3X}.wXwX;X;X;X;X3X;X;X,X,X;X<X;X9X;X9X;X9X;X;X;X;X;X;X[.<X].}.<X].].}..X<X].}.}.<X}.].}.}.[.[.-X[.(.[.(.[.[.(.=X(.(.OXOX(.OXOX/.(./.(.}.}.}.~.}.(.-X(.OXOXOX=X=XOXOXK.=XK.=XK.].=X].].].].].[..X].J.",
"W.W.D.D.D.D.b.b.b.V.m.b.m.m.D.F.x.b.m.b.n.B.v.U.v.n.n.n.n.H.F.D.H.I.Q.n.n.C.n.D.n.D.n.H.n.C.b.H.V.b.C.b.b.n.b.b.D.n.n.D.E.D.Y.I.Y.Y.D.H.C.C.H.n.b.D.H.H.E.Q.D.Q.Q.Q.E.Q.Q././.Q./._._././._._././.!.Q.~._.Q./.~.~./.)././.(.OX/._.!.Q.!.Y.!.~.^./._.)./.+XW.+X+X+X+X+X+X+X+X#X+X+X+X(.).).(.).)./._./.(._.+X+X+X+X+X#X+X@X1X#X#X#X`.`.1X1X|.`.1X`.1X1X1X#X#X1X#X1X|.-X{.|.1X|.1X1X1X|.|.{.|.1X1X1X1X5X1X5X2X6X1X6X6X6X6X6X6X$X2X$X2X$X2X6X2X2X6X2X6X6X4X2X8X8X2X6X4X X2X4X X X3X3X X4X3X3X3XwX7X8X7XyX8X7X7X6XuX6X8X6X6X6X6X6X6XkXgXgX$XgX6XgX4XjX4XwX XjX4XgX4X7X8X7X8XkX6XgX6XgXgXgXkXgX5X1X).#X`.6X2X8XqX-X(.}.~.b.%.| R l e - -   -       - & & & . @ . . # . .   . . : : : : : # . @ 8 d V ..0.F.L.K.OX-X5X7X7X7X3X7X3X3X2X3X7X8X8XyX8XfXkXkXkXkXyXpXqXqXwXwXwXjXwXjXwXsXwXwXwXwXwXjX X XjXwXqXqXqXqXwXwXjXqXqXhXhXlXlXkXvXvXkXkXvXkXkXvXjXhXhXlXhXqXhXhXhXlXhXkXhXlXhXlXlXlXjXjXzXzXjXjXzXhXlXpXqXqXqXqXhX8XpXiXqXqX8XqX8XwX8XqXqXpX8XpX8XpX8X8XlXlX8XyXyXqXqXyXpXyXyXpXpXpXqXyXpXyXyXpXqXqXqXpXqXiX0XqXwXwXwX7X7X7X7XqXqX7X7X7XqX7X0X0X7X0X3X3X9X0X;X9X7X,X,X;X0X3X0X0X0X0X7X7X0X7X7X7X3X3X3X3X3XwX X}.wX;X X;X;X;X;X;X<X<X9X;X;X;X9X9X;X;X9X9X;X;X;X;X[.<X}.].}.].<X<X}.;X].}.}.}.}.;X}.{.[.[.[.=X(.(.[.(.{.(.=X(.=X(.OXOX+XOX(.).}.^.}.~.^.~.{.).(.OXOXK.OXK.OX=XK.K.K.K.=X[.].[.].[.].].K.].].[.",
"W.W.D.D.D.b.b.C.C.b.b.n.n.b.m.b.b.b.b.n.v.v.v.U.U.n.n.n.n.V.C.H.Q.n.Q.I.Q.D.C.n.V.D.H.n.C.D.D.C.n.G.n.n.C.b.b.n.n.C.C.n.C.Q.D.Q.Q.Y.Q.C.H.C.H.C.H.H.C.D.H.E.E.n.Y.E.Q.Q.Q.!./././.Q././._././.Q.~.Q.~.~.~.Q./.~.Q._./././.^././.Q.!.Y.^.Q.^.^.Q.^.^._.).+X_.+X+X+X@X+X+X#X@X#X+X+X#X)._._./._.)./.).).)._.`.).+X`.).#X#X1X#X#X`.`.1X1X`.#X1X#X#X`.1X`.1X1X1X1X1X|.-X|.1X1X).1X|.{.|.|.).|.1X1X1X1X5X1X6X2X7X1X8X6X6X2X6X2X2X5X2X2X2X6X2X2X2X8X2X8X8X2X6X6X2X2X2X2X2X2X2X2X2X2X2X2X3X3X2X2X2X4X4X7X8X8XuX8X6X8X6X6X8XuXkX6XuX6X6XgXkXkX$XgX2XgXgX XwXgXjXgX4XfX8X7X7XyX8X6X6XgXgXgX$X$X$X1X1X-X).8X#X1X).1X3XC.b.#.} L J l 0 * = - o - - o o = $ $ $ $ # 3 . . . . . # # . . : . . # . & X % * w j V I ) ..X.r.l.=X3X7X3X-X3X3X-X7X7X7X8XyXyXkXkXxXkXxXlXhXqXwXwXjXwXwXwXwXwXwXwXwXwXjXwXjXjXjXjXhXqXjXhXjXwXjXwXhXjXlXjXlXlXvXvXvXvXvXvXvXkXkXlXhXzXhXhXhXpXhXsXhXlXkXlXlXjXhXhXjXzXjXzXjXjXzXjXhXpXqXqXqX8XpXpX8XqXiX8X8XqX4X7X8XwXqXqXqXqXpXqX8XiXyX8X8XpXpXpXpXqXpXqXqXqXpXqXpXqXpX8XqXpXqXpXqXqXqXiXqXqX7X7X7XwX7XwX7XwXqXiX8X7X7X7XwX7X3X3X3X9XwX9X0X;X7X,X7X7X5X7X7X0X7X7X7X0XwX7X3X0X7X7X5X3X3X X3X;XwX}.3X;X;X;X;X,X;X;X;X;X9X;X3X;X3X9X9X9X;X;X;X;X;X[.;X}.}.].}.}.<X].<X<X<X}.;X}.}.}.=X[.[.{.=X{.[.[.(.[.{.[.[.(.(.(.OX(.).(.}.^.}.}.~.}.(.).(.(.+XOXOXOX=X=X=XK.].K.].K.K.[.].].].].].~.].].].",
"oXW.W.D.D.D.F.n.D.V.C.m.b.D.D.b.m.b.n.b.n.v.n.v.n.v.U.B.n.D.D.n.D.Q.n.D.Q.n.Q.C.D.n.C.H.n.H.C.H.H.C.G.n.C.D.C.n.n.n.n.n.E.E.Q.Q.Y.Q.Y.Y.Q.H.H.C.H.C.H.D.D.D.D.Q.E.Q.E.Q.Q./.!._._._._._._./._._./.^.Q._./.^./._./.~./.~././._./.!.Q.!.Q.~.Y.Y.!.^.)._._.+X+XOX@X+X+X+X+X+X+X+X+X+X).+X).).).)._.).).).+X).+X)._.).#X`.#X`.#X`.+X1X#X`.1X1X`.|.1X#X`.#X1X1X$X2X2X1X|.1X|.1X1X|.|.`.1X|.-X|.|.1X$X1X1X1X7X1X6X8X6X8X6X6X6X6X5X2X6X5X6X1X6X6X6X6X6X2X6X6X6X8X6X6X8X2X2X X2X2X X X2X2X X2X2X4X4X1X4X4XuX7X8X8XuX8XyX6X6X6X6X6XfX6X6XgX$XgXgXgX6X6XgXwX4XgX4XgX4XfXgX8X8X8XgX8X2XgX$XgX2X`.$X1X1X4X8X1X1X2X-X/.H.%.+.T l e w < * < 0 = - -             X X X 3 # # # : . : : : : . . . . $ $ $ + % + 4 w k j N J T { b.K.;X-X{.;X;X-X7X7X7X6X6XyXuXuX6XxXlXlXqXqXwXwXwXjXjXjXjXjXzXwXwXwXjXwXwXjX XjXqXqXsXwXqXsXjXjXjXjXlXlXkXvXjXvXkXvXkXjXkXvXlXlXhXzXjXjXpXhXqXjXhXhXjXqXjXlXjXkXzXjXzXjXzXjXjXzXhXpXlXqXlXpXqXlXqXlXqXqX8X7XqX7XqXqX8XqXqXpX8XqX8X8XqXpXpXqXkXpXpXpXqXsXlXpX8XiXpXpXqXpXqXpXyX8XqXpXiXqXqXqXqXqXqX7X7X7XwX7X7XqX7XiX4X7X7X7XwX0X0X3XwX7X0X7X0X7XtX7X7X7X7X7XqXqXqXqX7XwX7X7X7X4X7X5X3X;XwX X}.wX X}.3X;X;X;X,X,X;X;X9X;X9X;X9X;X3X;X9X;X;X;X;X;X[.;X}.;X<X].].<X.X.X<X<X].<X}.}.OX-XOX[.[.[.(.-X[.[.=X[.=X[.[.[.OXOXOX).^.}.^.{.^.}.}.).-X(.OXOXOXK.OXK.OXOXOX].K.K.].].[.].[.].].].]..X].",
"W.W.W.D.D.D.D.b.n.n.b.H.n.b.n.b.n.D.n.n.n.n.n.v.U.n.B.n.D.n.D.n.Y.H.I.Q.I.H.H.H.C.H.D.C.Q.n.n.H.D.C.D.C.n.n.n.n.C.n.C.D.Q.H.E.Y.I.Y.C.Q.Q.H.H.H.D.H.D.n.D.Y.D.D.H.W.Q.Q.!.!./.!._._._.!.^._.!./.~._.~.~./._._././._._././.Q./._._.Q.!.!.!.!.~.T.~.^.(.)./.+X@X+X+XOX+XOX+X+X).).#X#X).).).)._.).+X).).+X`._.`.#X`.#X`.#X`.#X`.#X`.1X`.`.`.1X|.#X|.#X`.1X1X2X2X1X1X|.1X#X`.1X1X1X1X1X1X`.$X1X1X1X5X5X2X6X5X6X6X8X6X8X6X4X2X5X6X1X2X7X2X8X2X6X8X2XgX6XgX$X6X6X2X6X$XgX2X2X2X2XgX$X2X2X2X4X6X4X4X8X8X8X8X8X8X6XyX6X6X6X8X6X8X6X6X6XkX$XgXgXgX6XgXgX4XwXwXgX8XgX8X4X8X8X8X8X6X2X$XgX$X$X$X6XgX6X1X).)./.)./.m.$.E G n e > 8 , = o * , > > > ; ; : : ; # 2 $ : : 6 # . . # 3 : 3 : : : . O O O . + + 2 ; 6 8 8 i c H [ +.z.l.J.=X<X,X7XyX5X5XuXuX5X5X8XpXhXzXpXqXwXzXjXjXjXjXjXwXwXjXjXwXqXjXwXjXjXwXwXzXhXqXqXhXjXhXlXjXlXjXkXlXvXzXkXvXvXvXkXlXkXlXhXlXhXzXjXzXjXzXhXhXhXjXhXhXjXlXjXzXjXzXzXjXjXlXhXpXlXqXqXlXpXhXqXpX8X8XqX8X4XqX8XqX8XhXlXyXpX8X8X7XqXpXpXpXpXiXsXpXpXsXpXqXqXpXyXlX8XlXpX8XpXpXqXqX7XiXqX7X7X7X8XqX7X7X7XqX7XqX8XyX7X8X7X7XqX7X7XwX7XqX7X7X7X7XtX7XyXtXyX8XyX7X7X7X7X4X7X7X7X7X3X7X3X3XwXwX}.wXwX}.wX;X;X<X<X<X;X;X;X9X;X9X;X9X;X0X;X9X9X;X;X;X;X}.}.[.}.<X].<X<X<X<X.X<X<X}.<X=X+X=XOXOX(.=X-X[.=X{.=X;X[.[.[.{.}.}.}.}.}.}.}.^.}.}.[.(.OX@XOXOXK.OXOXOX=XK.K.].].].].].<X[.].].[.].}.].",
"t.%XF.W.D.F.b.H.V.n.n.b.D.b.H.n.n.C.n.n.n.I.I.U.n.I.I.I.n.C.n.H.D.Y.Q.n.Q.I.Q.H.n.H.C.H.H.H.H.H.C.H.H.D.H.C.H.n.H.D.n.H.I.H.C.E.C.E.C.I.C.H.Q.H.H.H.D.H.n.E.Q.Q.E.Q.W.W.W./.!._.^.Q._._./.^._.^./.^._./.^.~./._./././.~./._././._.!.!.^.^.!.^.!._.).).).+XOX+XOX).+X+X+X+XOX).OX-X+X#X1X#X`.`._.`.#X`._.).#X).#X#X).#X`.).#X`.#X+X1X1X#X1X#X1X1X`.1X#X1X1X1X1X2X#X1X1X1X1X2X#X2X1X#X1X1X1X2X2X1X2X2X6X1X2X6X6X6X6X5X5X6X7X3X1X8X7X2X7X1X8X1X4X7X$X6X6XgX6X6XgXgXgX$X2X2X2X2XgX6X4X4X2X6X4XgXgX8X8X8X8X6X8X6XfX6X8X6X6X8XgX8X6XfXgXkX$XkX6X6XgXgX4XgXgXwXjX4XgX8X1X8X8X8XgX$XgX$X'.'.'.$X2X#X_.Q.n.%.| [ ~ R h u u $ X O + + $ * + + O       O   O X . . . . & & . . . . . . . . : # O O + + + + X O O O # : 8 8 d c L ` { >.G.K.,X7XtXtXyXyXyXtX8XqXqXzXpXhXhXjXjXjXjXjXjXqXjXqXqXqXwXqXjXwXwXjXhXqXqXpXjXzXzXhXjXzXlXzXlXvXjXzXvXvXkXkXvXkXvXlXzXhXzXjXzXjXjXjXjXwXjXjXjXhXhXjXzXjXzXjXjXzXlXhXpXqXlXpXlXpXpXlXqXlXqXqXqXqXiXhXfXhXhXfXlXhXfXpXqXqXpXqXqXpXpXpXqXsX0XqXpXpXpXpXlXpXpXpXlXlX8XlXqXqX8XqXqX8XqX7XqX7X7XqXqX8XqX7X7X7X8X8X8XwX4X4X4XwX7X7X4XwX7XyX7XuX6XtX7X7X7XyX8X7X4X7X7X4X3X3X7X3X3X9X;XwX;X;X;X;X;X;X;X;X9X;X;X9X9X;X;XwX9X9X3X;X9X;X;X;X[.;X;X}.[.;X<X}.;X}.<X<X9X.X.X<X;X].-X=XOX=X=X+X=X-X[.;X;X}.}.[.{.[.}.{.{.}.}.{.}.}.}.}.).(.=XOXOXOX=X=XOX=X=XK.=X].].].].[.].[.].].].].].].}.",
"%XW.t.W.D.D.n.D.b.n.n.V.n.H.n.C.H.D.I.I.Q.I.E.n.n.I.n.n.E.n.n.D.Q.D.D.C.C.D.n.Q.H.H.H.H.H.H.E.C.I.H.C.H.C.D.H.Q.Q.H.Q.H.Q.n.n.Q.n.C.H.D.H.Q.H.Q.H.C.H.n.H.H.Q.Q.Q./.W./.!.!./.!._._._.^.^._.!./././.(.)./.(.(.(./.(./.(././.(._.!._.!.!.^.^.~.^.^.).(.).+X+XOX@X+XOXOX+XOX+X+X).+X1X+X1X#X`.#X).#X`.+X+X`._.#X`.`._.#X_._.`.#X#X1X`.#X1X#X1X1X`.1X1X#X1X1X1X1X2X#X#X$X X#X#X$X1X$X1X2X6X2X1X1X2X$XgX2X5X2X6X1X6X1X6X1X8X2X7X2X7X1X3X5X7X2X5X3X2XgX6X6X6XgX6X2XgXgXgXgX$XgXgX6XgX4XgX6X8XgX8XgX8X8X8X8X8X8XgX6X8X6X6X8X8XgX6X8X6XgXgXgX6XkXkXgXgX4XgXfXgXfXfX4X8X8X6X8X6X2X2X2X$XgX$X$X$X#XQ.n.x.| I n d d d 8 9 8 ; + O $ 8 0 q + :   O +     . &   . # @ # # 6 . . . # . . # . . .   . +       : O O # : : # : # # 6 k c U ` O.K.@XrXuXtXyXaXpXyX7X0XwXwXzXhXwXjXjXjXhXjXqXqXqXjXqXhXqXqXqXqXqXhXhXhXhXjXzXzXhXlXjXlXvXlXlXhXzXxXxXvXvXlXlXkXjXzXhXzXjXjXjXzXjXwXjXjXjXwXzXhXhXzXjXjXlXzXjXhXlXlXhXlXzXpXhXlXqXpX8XqXqXiXlXqXlXfXhXkXlXkXlXpXfXiXpXpXpXqXpXiXiXsX0XqXsXpXqXpXqXlXpXlXkXfXkXfXfX8XiXqX7XqXqXqX4X8XiXqX8X7XqX7XqX8X8X8X8X8X8XqXwXwX8X4X8XqX7X7X7XyXyXyXyXuX8XyX8X8X7X8X7X4X7X4X7X0X3X;X3XwX}.;X;X;X;X;X;X;X;X;X,X;X;XwXwX9X3X;X9X9X;X;X;X;X;X;X;X;X;X;X}.<X}.<X<X.X<X<X<X<X.X<X;X=X+X+XOX=XOX-X=X;X{.}.;X{.{.{.}.}.}.}. X|.}.}.}.{.}.}.[.(.(.OXOXOX=X+X=X=XOXK.=X].=X].[.[.].].[.(.].[.].].",
"t.t.oXW.D.D.F.b.n.b.n.C.n.C.H.H.D.Q.E.H.E.C.n.Q.E.n.I.n.n.I.n.n.n.n.C.D.C.H.H.C.H.I.Q.n.Q.C.H.Q.H.H.H.n.H.I.H.n.H.H.Y.H.H.C.D.n.D.E.n.C.D.C.Q.H.Q.Q.H.D.H.H./.Q.Q.W.Q.!./.W.!./._._._.^._._.^._._.(././.(.(./.(.(./.)./.(./._.(._.!.!._.R.!.!.~.)._.).(.OX).@X+X-X-X+X+X+X+X+X).#X+X#X1X1X#X#X#X).#X`.`.+X`.#X`.`.#X`._.#X`.#X`.`.1X`.`.1X`.#X1X#X|.1X`.#X#X`.1X X2X#X#X X$X1X$X1X2X2X2X6X2X6X$X2X$X2X$X6X1X6X6X1X1X7X1X5X3X7X5X7X2X3X3X5X2X2X5X6X6X6XgX$XgX2X6X$XgXgXgXgXgXgXkX6X4XgX4X8XgXgX8XfXfX8X8XgX4X6X6XgX6X6XfX8XgX6X8XgXkXgXgXgXgX6XkX X4X4XfX4XgXgX4X8X8X2X6X6XgX2X#X_._.'._.E.%.) J l d d 0 9 8 $ : O $ ; $ ; ; % O ; O O : O : :   O O O @ . . . . # # # . : . . . # # . : O + + + : .   . . . . O : . . : 6 s A ` z.L.OX>X>XyXyXaXiX7X0XwXhXzXwXzXzXjXhXhXhXjXjXjXqXjXqXjXjXqXjX8XhXhXhXhXsXjXzXzXlXzXjXjXzXlXzXzXvXxXvXlXlXlXlXvXjXsXjXjXjXzXhXhXzXwXwXjXjXjXjXhXjXhXlXjXlXzXlXjXzXpXqXzXzXzXlXpXpXhXpXpX8XqXlXlXhXfXhXhXhXkXhXpX8XpXqXpXiXpX8XpX0X0XqXiXiXqXqXpXpXlXhXlXlXyXlXyX8X7XqXqX8XiX7X7XqX7XqXqXqXqX7X8X8XpXqX8XqX8XqX4X8XwXwX7X8X8X7X8XyXyXyX8XyXyX8XuX7X4X7X8X7X4X2X3X3X9X3X3XwX;XwXwX}.;X;X;X;X;X,X;X;X9X;X9X9XwX9X3X;X;X<X;X;X;X;X[.}.;X;X;X}.<X<X<X9X<X.X9X<X<X}.<X:X@X=XOXOX=X-X-X[.{.;X{.;X[.[.{.}.{..X X}.}.|.}.}.}.(.).(.OX+X=X+X=X=X=X=X:X].=X=X[.<X].<X[.<X].].[.].(.].",
"W.oXW.F.W.F.D.D.b.D.n.n.H.b.n.F.n.E.D.E.Q.D.H.m.n.C.n.D.n.I.n.n.D.C.H.C.Q.H.H.Q.Q.H.H.Q.H.Q.Q.Q.I.D.H.C.D.C.H.D.H.Q.C.D.H.C.H.C.Q.Q.H.Q.L.H.Q.H.Q.n.C.H.n.Q.~.Q.Q./.Q.Q.Q./.~._._._._./.^._._.).W.OX/./.OX/.OX/./.(./.(.(.(.(.^._.!.!.^.!._.^.^.).^.).).+X+X@X+X+X+X+X-X+X-X+X#X@X+X#X1X#X).`.`.#X).+X).`.).`.+X#X`.`.).`.`.#X#X#X|.#X`.1X#X#X|.1X1X|.#X#X2X1X1X#X$X1X$X`.#X1X#X1X$X2X1X6X2X$X2X$XgXgX6X6X6X6X6X1X5X2X2X5X7X7X3X7X7X5X1X1X7X1X2X6X6X6X6X6X6XgXgXgX$XkXgXgX6X6XgXfX6X8XgX8XgXfXgX6X6X8XfXgXgX8X4X4X8X8XfX4X4X4XgXfX8XjX4X8XgXgX8XgXfXfXfXfXfX8X2X2X3X2X8X2X`.`.6X#XE.#X1X!._ J j e e 8 8 8 6 $ # : 2 : 2 6 $ ; # O : # : # : # # . # # # % # $ # % # # # # . . # O : O O +   o O   . . .   . . : . . : 3 : 6 s Z ) +.X.z.G.yXsXcX7X8XqXqXpXpXzXqXlXjXjXhXfXjXhXhXfXhXhXhXkXkXkXjXzXzXlXlXlXlXlXvXlXlXlXlXjXzXjXzXkXxXkXvXlXvXlXvXkXjXzXjXlXjXjXjXjXjXjXwXpXhXhXjXzXhXjXsXzXhXlXzXlXhXzXzXlXpXqXqXpXqXqXpXpXlXqXlXkXkXhXfXkXlXqXpXpXqXqXpXqXqXpXpXqX0XsXwX0XqXqXpXpXlXlXlXhXkXlXfXqXqXqX7X8XqXqX8XqXqX8XqX7X7XwX8X8XiXqX8X4X8X4X4XqX4X8X4XqX8X8X8XuX8X8X6X7X8X7X6X8X8X8X7X7X2X4X4X0X3X9X3X3XwX;XwX;X;X;X}.9X;X;X,X;X7X7X,X3X9X3X,X,X3X9X;X;X;X;X;X;X}.;X}.<X<X<X}.[.<X;X;X;X;X-X-X:X>X>X+X=X=X+X-X=X[.{.[.}.}.{.}.{.}.;X}.}.{.}.}.;X[.[.[.[.OX-X+X:X:X=X-X=XOX=X=X=XOX].[.].[.].[.[.[.(.].[.",
"W.t.W.t.F.F.n.D.n.b.C.b.n.D.V.D.n.D.D.E.D.H.m.D.D.n.C.n.n.B.n.I.C.D.D.Q.H.Q.Q.H.C.Q.H.H.Q.C.D.Q.H.Y.n.C.n.H.H.C.C.H.H.Q.H.Q.Q.H.H.H.Q.H.Q.Q.Q.Q.Q.D.H.n.H.H.Q.H.Q.Q.E.E.Q.Q.Q./._.(.^././.~./.).OXOXOX/._.OX/./.(._.(./.).(././._._._.^.^.^.^.^.^.).(.).+XOX+X+X-X+X+X-X+X+X+X+X1X1X1X1X1X1X#X+X).).`.`.).`.1X`.#X`.`.).#X`.`.#X1X1X1X1X#X|.1X#X`.`.#X`.|.#X1X2X#X2X#X#X2X#X2X#X$X1X2X6X6X$X2X1X$X6X$X6X$XgX6X$X1X7X7X6X5X3X5X2X7X7X3X3X1X1X8X7X6X4X2X8X6X6X2X2XgXgX6XgXgX6X6X6X6XgXgX6XfX8X6X8X6XgXgXgX8X4X6X4X4X4X8X8X8X4X8XwX4X4X8X4X8X4X8XgXfXfXfXfX8XgX8X4XzXhX2X|.2X4X2X-X).n./._.n._ J e 8 4 $ * $ 2 : $ $ : # # # # $ $ # O : # # # # O # # # # # + # % % # # # X # O . O O O .     o     . : . : . . . 3 . . . . 3 : 7 N P ) O.z.,X7XiXpXiX0X3X7X0XpXzX8XhXlX8XhXfXfXgXhXhXfXhXjXkXjXkXlXhXlXlXlXlXlXlXlXlXlXlXzXjXzXzXvXxXvXvXvXlXlXlXjXzXjXlXjXlXzXjXjXjXwXzXjXjXjXwXhXhXzXjXhXzXzXlXpXzXpXlXzXpXlXqXqXlXqXlXqXlXzXlXjXfXlXlXlXhXlXhXyXpXiXqXiXiXpXpXpXsX0XsX0XsXpXqXqXqXlXhXlXlXfXlX8X8XqX8XqX7X8XqX7XqX8XqXqX8X7X8XpX8X8X8XqX4XqX4X4XqX8XfX8X8X8X8X7X8XuX8X8XuX8X6X8X8X4X1X2X8X7X7X3X9X3X0X9X3XwX;X;X;X;X3X{.;X,X;X3X;X3X3X,X3X,X,X;X,X;X;X;X;X;X;X;X].}.<X<X}.].<X;X=X;X;X;X;X[.-X>X=X:X=X-X+X=X-X[.-X=X{.;X}.[.}.}.{.}.}.}.[.{.{.}.}.{.[.OXOXOX=X=X=X=X=X=XOX[.].].=X].=X<X[.].].[.].[.].K.",
"W.oXD.D.D.D.D.n.n.n.m.H.V.b.D.b.D.D.D.n.D.D.D.b.H.n.C.D.n.n.B.Y.n.H.n.H.H.H.Q.H.D.C.Q.n.n.Q.E.C.I.C.E.E.n.n.n.n.C.Q.H.Q.Q.H.Q.H.Q.H./.Q.Q.Q.Q.Q.Q.Q.C.Q.C.C.Q.Q.H.H.Q.H.Q.Q.Q./.(./._./././.).(.W.OXOXL.OXOX/./.OX/.(.(.(././.(._._.~.^.Q.^.Q.^.).^._.).+X_.@X+X+X+X+X+X+X+X`.+X-X+X1X1X1X+X1X-X).{.).{.+X`.).1X+X`.).`.).#X#X`.#X`.`.1X1X|.#X|.#X|.#X1X#X1X`.1X1X1X#X1X#X2X#X1X$X1X1X6X1X1X$X1X$X$XgXgX6X6XgX$X6X2X2X7X7X7X7X7X4X3X7X3X2X7X1X8X2X1X8X2X6X6X6XgXgX6XgX6X6X6X6XgX6XfXgX8X6X6X4X6X4X4X4X4X4X4X4X4X4X2X4X3X4X4X4X4X4X4X4X4X4XgX6X6XjXkXfX8X8X4X4X6X|.4XhX4X|.{.{._.%.| E E I a e 4 2 2 4 2 2 2 2 6 # 3 # . @ @ @ # # : # # # # @ # # # O O # # # + % O + @ . X . O O O O O +   o     : . O   . : . : # 3 . . . . : 2 4 d j H +.0.J.;X;X7X7XyXiXpXpX7X8XkXzXlXkXjXjXlXjXjXjXhXhXjXkX8XlXhXlXlXlXlXkXlXlXlXlXzXzXzXzXlXvXxXkXjXvXzXzXjXvXvXjXjXjXvXjXjXwXjXjXqXqXqXhXhXqXqXzXzXhXpXzXqXlXzXzXpXhXzXqXpXqXqXlXqXzXqXlXjXlXfXhXfXlXqXlXqXpX8XpXpXqXpXiXsXqXqXpXsXpXpXpXzXlXpXlXlX8XqX8XqX7XqX7X7X8X7XqX7X8X8XqX7X7X7X7X4X8X8XqX7XwX4XwXwXwX8XwX8XqX8X8X8X7XuX8X8X8X8X8X8X7X8X8X7X8X8X7X7X7X3X3XwX3X;X3X{.3X;X;X;X;X;X,X3X;X;X7X3X7X,X3X;X;X;X;X;X[.=X[.}.<X<X<X<X<X<X<X;X<X;X;X=X{.=X=X=X+X+X+X=X=X).=X[.-X-X{.[.{.{.[.[.[.}.}.[.{.[.{.}.{.[.[.OX[.(.=X=X:X-X=XOX=X=X].=X].=X[.[.].].[.].[.[.(.[.",
"W.F.D.D.D.n.n.E.n.n.n.m.D.F.G.D.D.n.D.b.D.F.b.F.D.D.b.n.n.n.B.n.C.C.H.H.C.Q.n.Q.Q.H.I.H.I.H.H.n.Q.D.n.C.E.n.H.n.H.H.Q.H.H.Q.H.Q.Q.H.Q./././.Q.Q.Q.Q.Q.D.Q.C.H.Q.H.Q.H.H.Q.H.H././.(.(.~.(././.OXOX/.OXOXOXW.OX/./.OX(./.(.(.(./.~._.^.~.^.^.^.^._._.).`.+X+X#X@X@X@X#X@X1X+X#X+X+X).).).).+X).).).-X+X).{.).1X).).`.+X`.`.).`.1X|.#X1X).`.#X|.#X`.#X1X`.1X1X2X#X#X#X2X#X#X#X1X#X6X1X$X1X$X1X1X$X2X2XgX$XgX6XfX6X5X1X8X7X4X7X7X1X2X7X3X5X2X1X6X2X8X8X8X6X4X6X6X6XgX4X6X6XgX6XgX6X6X6X6X8X6X8X8X6X4X6X2X4X2X4X4X4X4X4X3XwX8XqXjX3XwX4X4X2X8X4XgX8XfXfXfXfXfX4X2X2X8X3X{. XqXqX/.,._ m e w = % * 4 * 2 2 $ # # # 6 : 6 3 # @ # % % @ # O # # O # + # # % # + % # O + @ @ + # @ O . O . O O o O o   O       :   : . # : : # . . . 3 2 @ $ @ % U R g.J.].;X0XpXpXyX7X7X7XyXpXlXlXlXjXjXvXvXjXkXfXkXkXkXfXlX8XkXkXxXxXlXlXlXlXzXwXzXjXlXlXlXlXvXzXlXhXlXlXzXlXvXjXkXkXzXzXwXsXhXqXlXqXsXjXsXhXhXzXhXzXzXzXpXhXzXlXqXpXlXlXqXpXlXpXlXzXhXlXlXqXhXlXlXlXlXpXpXqXqXqXpXpXqXpX0XiXwXwXqXqXlXzXlXlXpXlXlX8X7X4X7X8X4X7X4X7X8XwX7X7X4XqX4X7X8XiXwX8XqX4XqXwXjX4XqX4X8X8X8X8X8X8X4X7X8X7X8X7X8X8X7X8X6X7X6X7X7X3X3X3X}.3X X;X;X|.3X-X{.3X;X3X3X5X5X3X,X3X3X,X3X;X,X;X;X<X=X;X<X<X}.<X<X}.<X}.;X<X<X-X=X{.).=XOX=XOX=X(.-X=X=X;X[.-X[.;X{.[.-X[.{.[.[.{.[.-X-X=X=X[.[.(.=XOXOX=X=X=X+X=X=X=XOX[.=X].<X<X].[.].OX[.[.(.K.",
"D.F.D.D.D.E.n.n.n.n.D.b.F.F.D.D.D.n.F.b.F.F.F.G.H.G.b.n.B.v.B.C.C.H.D.H.n.H.H.C.n.n.Q.E.Q.E.n.Q.E.C.E.n.n.n.C.n.H.Q.H.Q.Q.K.Q.~.~.H.J./././.~.Q.Q.Q.Q.Y.Y.H.C.Q.C.C.J.C.C.~.H.~.(././././.OXOXOXOXoX@X@XOX/.L.OX/./.(./.(.J./.~./.^.~.~.~.^.^.^.^.).'._.$X_._.@X#X#X#X+X@X#X+X+X).(.)./.).[.(.}.{.}.).{.).{.{.}.{.).|.).).).1X).1X1X`.1X`.1X|.#X|.1X#X1X#X1X1X1X1X@X1X1X1X1X1X1X1X5X1X1X1X1X1X1X2X6X6X6X6X6X6X6X7X6X5X8X8X8X7X6X7X7X2X3X5X4X6X7X5X8X8X5X8X2X8X8X8X6X6X6X2X6X6X6X8X6X8X6X2X8X5X5X4X3X X3X2X3X4XwX4X3X X3XwXwXwX3X4X XwXwX4X8X8X6XfXfXkXfXfX8X2X2X X3X4X3X~.#.| &.m e 4 4 $ $ = o $ 2 2 2 # . # 6 $ 3 : 2 # % @ @ @ @ @ # O O % @ % O % + O O O O X o   X O O . O O O O . X X o X O     X   :   . O O O $ # # # . @ & 2 @ O c c T *.z.L.OX,XuXyXaXuXyXuXyXkXkXjXvXjXjXvXjXvXjXgXgXfXfXfXlXlXkXkXxXlXlXlXzXlXhXzXzXlXlXzXhXzXzXhXzXlXlXvXkXkXjXvXkXwXzXpXqXlXqXlXqXhXzXlXpXzXhXzXzXzXlXzXqXlXhXpXhXqXlXlXqXzXhXhXpXqXhXhXpXqXlXlXhXlXyXpXqXpXqXpXpXqXqXqXwXqXqXwXwXqXzXpXhXqXqXqXqX4X7X4X7X7XqX7X7X7X4XqX8X8X7X4X7X8XqX7XwXwXqXwXwXwXwXqXwXjX8X8X8X8X4XqX8X8X7X4X7X7X8X7X8XyX6XtX7X7X7X3X;XwX}.wX3X3X{.3X1X-X3X;X5X1X3X,X3X3X7X;X3X3X;X;X;X;X[.<X<X<X].<X].}.<X<X<X<X;X[.;X-X{.).).OX=XOX[.[.=X[.-X[.-X[.-X-X[.-X[.[.;X[.-X(.=X=X[.[.[.=X(.=X[.(.=X-X=X:X=XOX=X=X[.=X=X[.<X].[.<X].[.[.=XK.(.",
"C.H.D.D.I.n.n.E.E.n.D.D.D.D.D.oXF.D.D.F.b.F.G.F.F.G.F.b.V.n.B.C.C.H.C.n.H.n.H.Q.H.H.Q.C.n.Y.Q.I.Y.E.Q.n.C.D.H.H.H.Q.H.Q.H.Q.J.J.L.K././.Q.Q.Q.Q.Y.Q.C.Q.H.Y.J.Z.C.T.Z.~.J.~.~.H.(./.OXOXOXOXoX/.W.OXOXW./.OXOX/.OX/./.(./.(.(.(.~.(./.~.~.~.^.~._._._.)._.@X$X$X#X@X#X#X#X+X).#X+X+X+X-X{.-X-X-X-X).{.}.{.).(.).).{.).).|.{.{.|.).#X`.#X#X#X).`.).#X`.1X2X1X#X1X1X1X#X#X1X1X1X5X1X1X1X$X5X2X5X5X6X2X6X2X6X6X6X6X2X5X8X2X1X7X2X7X2X3X1X7X2X8X7X2X4X6X4X4X6X8X8X2X1X6X6X6X6X5X2X2X6X2X6X5X8X5X8X4X3X X4X3X3X3X X3X3XwXwXwXwXwXwXwXwXwXwX X4X4XgX8XfX8XfXkXjX8XwX4XzX3X}.{.B.^ J j e * o w % $ @ @ 2 $ $ $ # 2 # 6 $ # # $ % # % # @ # @ % % O # + % % O O # @ @ @ o o +   X X O O . O O O % X @ X   X o X .   : O X O O . # # # O . & @ X . q 9 f F Y X.F.+XeXyXVXaXyXyXuXgXkXgXkXjXkXjXbXjXjXjXgXfXlXlXlXkXlXxXxXlXlXzXlXhXzXjXzXlXjXhXzXzXjXhXzXjXvXvXkXkXvXjXkXzXzXlXpXaXlXyXlXpXhXlXzXzXpXhXhXzXzXpXlXqXpXqXlXlXpXpXpXzXpXzXqXlXqXpXhXzXpXpXzXlXlXpXpXiXpXyXlXlXqXqXqXqXqXqXpXzXqXqXpXpXqXwXqXqX7X8X7X7X4X7X4X7X8X7XqXqXqXqX8XqXqXqXqX7XwXwX4XwXqX8X8X4XqX8XqX8X8X7XwX7X4X7X7X7XuXyXyX7XuXuX5X3X3X3X3X;X3XwX}.|.;X;X3X1X1X5X5X5X5X7X7X5X7X3X,X;X;X;X;X;X<X<X;X<X<X<X<X<X<X;X<X[.;X;X[.-X).-X).{.(.[.{.[.).-X[.=X{.;X-X{.;X[.-X;X[.=X[.=X=X=X[.=X=X=XOX=X=X=X=X=X+X+X=X=X=X=X=X=X[.].<X<X[.[.].=X(.[.(.[.",
"n.G.D.C.n.I.I.E.D.H.D.D.D.L.D.L.D.H.b.F.S.F.F.G.G.G.G.b.b.B.C.Y.H.C.C.H.n.n.E.H.n.Q.n.Q.E.E.I.Q.Q.E.I.Q.D.Q.I.Q.Q.H.H.Q.Q.H.Q.H.L./.H./.Q././.Q.Q.E.Y.H.Q.C.Z.C.Z.Z.Z.T.J.J.J.K.K.(.oXOXOXOX@XOXL.@X%XW.OXW./.OX(.(.(./.(./.~.(.(.~.~.~.~.~.^.~._.'._._.$X@X_.$X#X_.#X@X#X+X#X+X-X+X-X).OX-X-X-X[.{.{.[.[.}.{.(.{.{.{.{.{.{.{.).1X`.1X).|.).`.1X`.`.1X1X#X1X1X`.+X1X5X-X1X5X5X1X5X5X5X1X5X5X6X7X6X6X6X8X6X6X6X6X2X6X6X5X8X5X5X4X1X6X7X2X8X1X4X5X8X8X8X8X8X8X7X8X6X8X6X5X2X6X2X5X6X1X1X8X7X6X7X2X X X|. X X XwX3XwX4XwXwXwX4X7XwXwXwXwX4X4XfX6XfX6XgX8XgX8XfXqXjXqXqXwX^. .l e u 0 > + w O 2 $ 8 * 2 2 2 2 6 6 2 # 3 # # # % % % @ % % % % $ % O $ O % @ + O O X     X   O   O . . X . O @ @ @ @ X X o   :     O X O O . . . . O $ $ X #   : O : O 9 V ) r.F.%XaXZXVXVXuXkXgXgXjXgXgXgXjXvXjXjXfXfXfXkXkXlXxXxXkXxXxXlXlXzXhXzXzXhXjXqXhXqXzXjXzXvXlXvXkXvXkXvXvXzXpXzXaXlXaXlXaXzXlXpXqXlXzXpXpXlXzXqXlXlXlXpXlXlXhXzXhXqXhXpXlXqXhXqXzXlXlXlXlXlXlXhXkXkXpXkXpXqXqX8XqXwXqXpXwXqXqXqXqXqX0XqXwX7X8X7X4X7X8XqX7X7XqXqX8XiXqXiXqXqX0X0X0XqXwXwXwXwXjXqXwX4XqX8XqXwXwXwX4XwX7X5X7X6X7X7XyXtXtXyX7X7X2X3X3X3X{.|.{.3X|.3X1X7X5X7X6X8X7X7X2X7X3X3X3X9X3X;X;X<X<X}.;X<X<X<X<X<X<X<X<X=X;X;X;X-X-X#X-X-X[.{.[.=X-X[.[.-X{.-X-X;X=X-X-X=X-X:X=XOX=XOX=XOX=X=X>X-X-X=X{.=X=X=X=XOX=X=X=X=X=X=X[.].].[.[.(.=X(.[.(.",
"n.D.n.I.D.D.I.n.E.W.D.F.D.oXL.L.L.D.F.b.F.F.G.G.G.F.b.V.b.C.C.C.C.H.D.b.n.H.C.H.Q.H.Q.Q.H.Q.Q.Q.D.Y.Q.n.Q.n.Q.Q.H.Q.J.H.Q.H.H.H.H.H././.Q.Q.Q.Q.n.n.Q.C.Y.J.Q.C.T.Z.J.~.~.~.~.J./.OXOXOX@X@X/.OXOX@XL.OXOXOXOXOX/././.(./.(././.~.(.~.~.~.^.~.^._._.$X_.$XW.@X$X@X$X#X#X#X#X#X+X).)./.(.}.(.).-X{.-X{.).{.[.).{.}.).).{.|.).{.`.).#X`.#X|.#X#X|.+X`.#X2X2X1X1X1X-X#X#X#X5X#X6X5X$X2X5X5X1X6X6X8X8X6X6X8X6X6X2X5X1X6X1X2X7X2X6X4X5X1X1X8X2X7X6X2X8X7X7X8X2X7X4X8X6X6X2X6X6X1X5X2X1X1X5X1X8X7X4X8X3X3X3X X;X3X3XwX3XwXqXwX4XwXwXwXwXjXwXwX8X8XkXkX6X6X6X2X8X8XhXhX3X}.x.E l > + * + + X 8 # $ $ 4 2 $ # # 3 $ 3 # 2 @ 2 @ @ @ % % % @ % % % % % % $ % + @ @ X X X o X     X O O X # . X O @ @ o o X   o   .   O O O O O O O O O O & O & # . . . . # $ 3 k V ..L.uXZXZXxXaXyXkXkXkXjXgXjXjXjXkXjXjXlXlXlXkXvXkXkXxXvXkXlXlXzXqXjXqXhXpXzXjXzXjXjXzXlXkXjXvXkXvXkXlXzXzXzXzXxXlXxXlXzXzXzXlXpXhXhXzXzXlXzXqXpXqXzXqXpXlXpXzXzXpXlXpXpXpXpXqXpXlXlXzXzXpXlXlXpXfXlXqXiX8XqXwX4X7XqXwXwXqXqXwXqXwX7XqX7XqXwX7X8X7X4XqX8X8XqXqX8XpXqXqXqXpXwX0XwXwXwX4XqXwXwXqXqXqX8XqX7XwXqXwXwX7X7X7X7X7XtXtXyXuXtX5X7X7XwX3X{. X{. X-X3X1X1X3X8X8X7X8X7X8X7X7X3X9X;X0X;X;X;X;X<X;X;X<X<X<X<X<X<X<X;X<X<X-X;X-X1X+X{.-X[.=X[.[.(.{.=X[.;X-X<X-X-X-X=X=X=X=X=X=XOXOXOXOX=X=X=X-X=X=X=X=X+X=XOX=X=X=X=X].=X[.=X<X[.<X].].=X=XK.=X",
"n.n.n.D.n.H.E.Q.D.H.W.G.L.L.W.L.L.D.L.L.F.P.F.F.G.G.b.F.b.H.F.n.H.H.D.Y.H.H.D.Q.D.Q.H.H./.Q./.Q.E.W.Q.Q.Q.E.H.H.D.H.D.H.D.H.D.Q.D.G.H.H.D.Q.D.H.D.n.Q.H.H.H.Q.H.Q.J.H.H.Q.J.Q.~.~./.~./.(.(.OXOXW.W.@XOX+X/.W.(.+X+X).)._.).(._.~./.~.~.~.^.^.^.~._.).).@X#XW._.$X$X_.$X#X#X+X+X+X+X).-X).-X{.+X+X{.+X{.).{.{.(.).-X).-X|.`.1X`.1X1X#X-X`.1X).`.1X`.-X1X+X|.1X1X#X#X1X1X1X6X1X6X6X6X6X6X6X6X6X6X$X6X6X6X2X6X2X5X2X2X7X2X2X3X7X2X3X1X1X5X2X7X4X8X1X8X5X4X6X8X6X8X2X1X6X1X$X2X2X2X6X6X6X8X6X6X4X2X8X6X7X2X2X7X4XwX7XqXwX4XqXwX4XwXjXwX8X4X8X8X8XgX8X6X6XfXkXlXgX6X).,.R l < - X $ $ ; ; ; + O ; > 6 $ # # # # # # $ # @ % % O @ o + O % @ % O % X @ % O % X O X o o X X & o X o @ X @ X & o o o o @ o @ X X @ & @ @ @ # . @ . @ O % o % % # O . . . . : 6 5 B ) q.%XZXZXxXyXaXkXxXyXfXfX8XhXkXhXvXvXjXkXkXkXkXkXvXkXvXlXlXzXjXjXlXhXzXhXlXjXkXjXkXjXvXlXkXlXlXlXlXlXlXlXlXlXlXpXlXlXlXlXlXzXlXpXzXzXlXzXpXqXpXlXqXqXlXpXlXhXpXlXpXzXhXzXhXzXlXzXzXqXqXqXpXqXqXlXqXpXqXqXqX8XpXyXqX4X7XqXqXqXpXqXpX4X7X8X7X7X7X8XqXqX7X8X8X7XqX8XqXqXqXqX0XwXwXqXwXqX0XwXqX0X0X0X3XwXqX7X7X9X3X0X0X0X0X7X7XtX7XuX5X3X-X3X1X;X;X|.;X3X X{.3X3X3X3X3X3X3X7X7X3X7X7X7X;X7X;X3X;X;X;X;X[.;X9X;X;X;X;X<X|.;X;X;X1X-X-X-X{.-X-X{.=X[.[.=X=X{.-X=X-X-X-X{.(.=XOX[.OX[.[.=X=X-X:X:X=X>X:X=X=X+X+X=X=X=X-X=X=X=X<X[.<X[.<X[.K.=XK.=X].",
"D.n.n.C.D.Y.H.D.Q.D.G.W./.D.D.L.F.L.F.D.D.D.F.F.F.F.b.F.b.D.H.H.D.C.H.C.C.Q.H.Q.H.Q./.D.Q.L.L.Q.Q.Q.Q.Q.E.Q.Q.Q.Q.Q.Q.H.H.H.H.H./.H.D.H.L.D.H.H.H.H.H.Q.Q.J.~.H././.H.H.H.~.H.~.(.~./.(.(.(./.OXOXOX+X/./.OX_././._.(.).(././.~.(.~.~.^.^.~.~.^.).^.`.).$XW.@X#X_.@X#X@X@X#X+X`.).#X-X`.-X).+X{.).+X).-X).-X=X{.[.).#X{.|.#X`.`.1X#X1X`.|.+X-X#X#X1X`.1X-X#X1X1X1X-X$X1X1X$X6X1X6X2X6X6X2X6X6X2X6X6X6X6X2X6X6X6X1X6X2X5X3X2X2X2X5X1X3X2X7X3X1X6X8X2X8X6X6X4X8X8X8X8X6X2X2X2X6X6X6X6X6XgX8X8X8X8X8X8X1X7X5X3X7X7XwX4X7XqX4XqX4X4XjXgXjXfXjX8X8X8X8X8X8X6X2X2X#X`.m.| l w + o + : ; ; : : + : + ; $ # # # # # # $ # # % @ @ + @ X # % O o O o X @ + @ @ X @ X X @ @ @ X @ X X X @ X X X X @ @ & X @ @ @ o @ X o o @ X X O X # # X % % o @ # . : . 3 . 3 3 3 5 C / t.%XaXZXaXuXyXyXaXlX8X6XhXfXfXfXkXjXjXjXkXkXvXkXvXkXkXjXjXzXjXjXhXhXhXjXhXjXkXjXvXvXjXkXlXlXlXlXaXpXlXyXpXpXlXlXpXpXaXzXpXlXlXlXzXzXhXlXlXhXpXzXzXqXzXqXpXzXqXlXqXzXpXzXlXzXqXpXpXhXlXqXlXqX8XpXqXlXpXqXpX8XqXqX7X8X8XiX8XlX8XqX7X8X4X7X4XqX7XqXqX7XqX7X7X8XpXqX4XqXwX7XwX7XqX0X0XwX0XwX0X3X0X0XqXqX7X3X3X0X0X0X,X0X7X0XyX7X5X7X3X3X3X;X3X1X1X3X;X3X;X3X3X;XwX3X0X7X3X7X7X7X3X7X0X;X,X;X;X-X;X-X<X;X;X;X;X9X;X;X;X;X;X1X;X-X1X-X-X-X{.[.{.[.=X[.[.=X[.{.{.{.-X{.-X=X[.[.[.(.=X(.(.=X=X=X:X-X=X=X=X-X:X-X+X-X[.=X[.=X[.[.].[.[.].=X].=X].].",
"I.D.H.D.n.E.H.D.D.D./.L./.D.L.D.F.D.F.G.F.F.D.D.G.D.F.C.V.H.F.H.H.D.C.D.D.H.Q.H.Q.H./.D.L./.H.E.Q.!.Q.Q.Q.Q.Q.Q.Q.Q.Q.H.H.H.D.H.D.H.H.D.D.D.H.D.H.H.Q.Q.Q././.Q././.J.~.Q.H.~.J.~././.~./.OX/.OXW.+XW.OX+X_._.OX)./././._.~.^./.(.).).~.~.^.^.^.^.).)._._.$X_.@X_.$X#X_.+X#X+X#X#X1X+X+X{.+X1X).+X+X).+X+X+X{.).).{.{.1X|.|.1X`.1X#X1X-X1X).`.1X1X).-X#X`.1X#X1X#X1X1X1X1X6X5X2X$X6X2X1X6X$X2X6X5X6X6X2X6X1X6X1X1X6X2X7X1X2X3X1X1X1X3X5X1X7X8X7X6X8X6X8X8X8XgXgX8X4X8X1X6X6X6X6X6X6XgX8X8X8X8X6X8X6X8X5X3X7X7XwX3X7X3X3X4X4X4X8X4XfXfXfXfX8X2X1X1X8X8XkX6X/.x.| W l e - + + + : + : O + + ; + : # # # # # # # % O + O @ % X @ O % % O O O o @ + o + o X X X X X X X X o o & X @ X @ X @ X X X X X X X X X @ @ X X X X X . @ . X @ & X @ O . # . 3 # 3 : 3 3 5 N I r.%XuXOX+XyXZXxXxXyX8XkXkXfXlXkXjXlXkXkXvXxXlXlXkXvXkXvXjXjXjXzXhXjXlXkXjXvXkXkXvXlXlXlXlXpXlXpXlXpXlXlXpXlXpX8XpXlX8XpXlXlXzXzXlXlXqXpXqXlXpXlXqXpXzXzXqXzXqXhXzXzXpXlXpXhXpXqXqXqXpXqXlXpXqXpXqXpXqXqXqXpX8X8XqXqXqXqXqXqXqXqX8XqX7X4X7X8XqX8XqXqX8XqXqXqXqXwXqX7XwX0XwXqXwXwX0X0X0XwXwXwX0X7X7X7XwX9X3X0X0X,X9X9X7X7XtX7X7X5X3X3X3X3X3X3X3X;X3X;X3X{.3X;X3X7X2X7X7X3X7X7X7X3X,X3X3X;X;X;X;X;X<X;X9X;X;X;X;X5X;X3X-X;X1X1X-X-X-X;X{.=X-X[.;X[.=X=X-X-X{.-X-X-X[.=X[.[.=X[.=X=X[.+X=X-X=X=X=X:X+X+X=X=X-X[.-X;X=X<X[.[.[.[.<X].=X].=X].",
"Q.C.Q.E.H.D.D.H.H.H.L./.L./.L.D.L.D.F.F.F.F.F.L.D.F.H.F.F.n.H.H.D.C.H.Y.H.Q.H.Q.H.Q.H././.Q./././.Q.Q./.Q./.Q.Q.Q./.Q.H.Q.Q.H.H./.H././.Q.H.H.E./.Q.H./.~.H.~.~.K./.~././.~.Q.~.(.~.(.(.OXL.OX/././.+X/./.OX)._.+X_.)._.)./.).).(.).~.~.^.^.).^._._._.`.@X_.$X_.@X_.#X@X#X#X).+X#X@X1X{.+X-X).-X+X).-X).).[.(.-X-X-X).1X#X|.`.1X`.1X`.1X1X1X#X{.+X|.`.).1X).1X).1X1X1X$X1X2X$X2X1X1X$X6X$X6X2X6X6X6X6X6X6X6X6X6X2X2X1X1X3X1X1X1X3X1X1X5X1X1X8X2X4X8X8X8X8X8X8X8X8X8X6X8X6X6XgXgX6XgX8XfX8X8X8X8X8X8X1X4X7X2X3X7X3X3X3X4X4X4X4X4X4X8X8XfX8X8X8X1XlXfXlXyX1Xm.| J e w = o ; + : O : O O O : + + + # # . O @ # # O % O @ + @ + X o @ O @ % @ X @ X % @ @ @ X X X X X X X & X X X X X o X X @ X o @ X @ X X X X X X X X O . @ . X X @ o & X . . . . 3 # . . & 3 3 5 V I ) ..z.@XuX5XZXvXlX8XlXlXkXlXkXlXkXkXkXkXkXlXkXhXjXjXkXjXjXvXjXhXlXjXkXlXkXjXkXkXlXlXlXlXhXpXlXyXlXqXlXyXyXlXpX8XpXqXpXlXzXpXzXpXzXqXlXzXqXlXpXlXhXpXlXlXpXhXzXpXzXhXhXpXpXqXqXpXpX8XqX8XpXqXqXlXqXqXlXqXqXlXqX8X8XpXpX8XpXqXqX8X7XqXqX8XqX7XqX8XqX8XqX8XiX8XqX8XqXwX0XqXqXqX0XqXwX0X0X9XwX9XqX7XwX7X0X7X0X9X0X0XtX7XyXtX6X7X7X2X3X2X3X3X;X3X3X3X3X;X3X;XwX;X7X7X3X7X7X0X3X7X,X3X;X;X;X;X-X;X;X;X;X;X;X;X;X;X;X;X3X3X5X1X;X5X1X-X-X-X[.;X;X[.[.-X{.{.-X-X-X-X;X;X-X{.=X(.=X[.[.OX=X=X+X=X+X=X-X=X=X:X+X=X=X=X[.=X[.=X[.=X[.[.].=X].=X=X",
"Q.H.H.n.E.n.H.D.D.H.L././.L.D.D.F.F.F.F.F.F.G.D.H.F.D.V.D.H.D.H.H.n.H.n.H.H.Q.Q./.D././.L.W.W./.W.Q./.Q.Q.Q.Q./.Q./.Q.H.H.Q.Q./././.Q.Q./.Q.Q.Q.Q.Q.Q./.~.Q.~.Q.H./.J.~.~.~.~.(.).~.(.(./.OXOXW.+X/._.OXW.+X/.)._.).).(.(._.(.).).).~._.^.^.).^.).^._.).+X)._.#X_.$X#X#X@X@X+X#X#X+X{.#X|.+X{.#X+X+X{.).).).+X{.-X{.{.1X`.|.1X`.|.+X`.-X#X+X1X1X`.`.-X1X1X+X1X#X5X1X$X1X2X1X5X$X$X2X2X1X2X6X$X2X6X$X6X6X6X5X2X5X7X1X1X6X1X2X3X1X1X1X3X1X8X7X2X7X8X8X8X8XfX8X8X8X6X8X6X8X8XgXfX6XfX6XfX8XgXfX8X8X6X6X8X6X7X7X4X7X3X3X2X7X3X4X4XgXgX8X6X8X2X2X8X6X8X8X1XH.%._ C j d 0 O   O O O O :     O + + + O X # # @ # # # O O # + @ % X X @ % O X X @ X X @ o @ X o X & & X & X X X X & o & X o & @ X @ X X o @ @ X X X @ X X X X @ . X O @ & @ & X X . . . . . . @ @ 3 % 3 2 k N N P ..D.>XaXxXaXuXkXyXyXyXkXlXlXlXkXxXkXlXkXlXkXjXjXjXjXjXjXhXhXjXjXvXkXkXkXvXlXhXhXpXpXpXqXlXqXlXhXpXpXpX8XqXqXlXqXhXzXhXlXzXzXlXzXqXqXpXzXpXhXpXpXlXpXlXpXzXhXpXzXqXpXqXpXqXqXqXpX8XqXpXqXqXlXlXpXhXpXqXiXqXpXqXqXpX8XpXpX8XqX8X7X7X8XqXqXqX7XiXqXqXqXpXiX8X8XqXqX7XqXqX0XqXqX0X0XwXwXqX7X7XwX7X7X0X0X0X7X9X7X7X7X7X7X7X7X3X3X0X3X3X3X3X3X3X;X3XwX}.;XwX3X7X7X7X7X3X7X3X9X3X5X;X3X;X;X;X;X;X;X;X;X5X3X;X7X3X,X3X1X;X;X1X-X-X-X-X-X;X[.-X-X[.-X[.-X{.-X-X-X;X{.=X[.[.=X=X=X(.=X=X=X=XOX=X+X+X=X-X=X-X[.-X=X[.=X[.[.].<X<X=X=X].=X<X",
"Q.D.Q.n.n.H.D.n.H.E.D.L.D.D.L.F.L.F.D.F.L.D.D.D.D.H.F.H.F.b.G.C.H.Q.H.Q.E.H.H.D.H.E.H.H.D.L.L.L.Q.Q.E.Q.Q./.Q.Q.H.Q.Q.Q.Q.H.Q.H.Q././././././.Q./.Q./.Q.~.Q.Q.Q.H.L.~./.(.(.(.~.(./.~././._.oX/.OX_.OX_.W.+X_.+X/./.~._.~._./.~._.(.^.~.~.^.^.^.^.).).).+X+X@X@X@X_._.@X_._.#X+X+X`.+X-X+X|.).-X).#X).1X-X-X).).|.-X1X+X{.`.`.|.#X1X1X#X1X1X#X|.-X#X1X`.`.1X#X1X1X1X1X$X$X5X1X2X1X1X$X$X2X6X6X6X6X$X1X6X2X2X6X2X2X6X4X5X3X2X1X1X-X1X1X5X1X2X8X1X6X4X8X2X6XgX8XgX8X1X8X8XgX8X6XfX6XfX6XfX8XfX8X8X8X6X8X5X4X4X7X3X2X3X2X1X2X4X8X8X8X8X4X1X5X8X8X4XpXpX8Xb._ l e e < $ O : ; : : # . O : # + # + O # O O # # O @ O O % @ O @ + X % X o @ % o X X X @ @ X & & X @ X @ X X X @ X @ o X X o @ X o X @ o & X X o & X @ X . X X X . X . @ & @ X . . . . . . . # 2 @ 2 3 2 2 3 3 k / r.K.>XaXxXaXpXlXuXyXlXlXaXkXlXlXlXkXkXjXjXjXkXjXjXjXhXhXlXlXjXjXjXvXkXjXlXlXpXpXpXwXpXqXpXqXpXqXqXhXpXqXpXqXpXzXpXzXhXpXqXzXlXpXlXqXqXlXqXzXhXpXzXqXpXhXzXpXlXlXlXqXqXqXlXpXqXpXpXhXpXlXpXqXlXqXzXlXqXlX8XpXqX8XlXqXqXqXiXqXqXqXyXqX8XyXqXqXlXiX8X8XiXqXiX7XqXqXiXqXqX0X0X0X0X0X0X0XqX8X7XqX0X0X7X7X0X7X7X,X7X7X7X8X7XwX3X3X3X3X3X,X3X;XwX;XwXwX;X;X7X7X3X7X0X7X7X7X3X7X;X3X-X5X;X7X;X;X,X;X;X;X;X;X;X,X5X3X5X1X1X,X;X1X;X{.{.;X-X;X;X[.[.-X{.-X-X{.;X-X;X[.;X[.-X=XOX=X=XOXOX=X=X=X=X:X+X=X:X=X=X=X=X;X=X[.[.}.[.].K.=X=X].].",
"n.D.n.Q.D.C.D.H.D.D.H.D.D.D.D.F.L.D.D.G.D.G.G.L.G.V.D.b.b.D.V.D.Q.D.D.C.H.D.D.Q.Q.L.L.W.L.W.L./.W.Q.Q.Q./.Q.Q././.W./.E.Q.D./.E.Q./.W.Q.Q././.Q.Q./.Q.~.Q.Q.Q.Q./.Q.Q././.~.~.~./.~././.OX/.OX/._.+X+X/._.OXW./././.~.Q.~./._._._.^.^.^.^.^.Q.^.).^.)./._.@X+X_._.@XW.#X#X_.+X_.).).`.).).#X1X).#X+X1X).+X{.{.+X1X1X).`.`.`.|.|.1X|.|.1X#X1X1X1X#X1X1X+X1X1X1X1X5X5X$X6X2X1X$X$X$X2X2X6X2X6X6X6X6X6X1X6X6X1X1X6X8X4X8X8X7X2X3X3X1X1X3X1X1X3X1X8X5X8X4X8X8X6X8X8X8X6X8X6X6XfX6XfXgX6X6XfX8X8X8X8X6X8X2X8X8X7X5X7X7X3X3X1X7X8X8XfX4X6X1X8X8X4X7X8X5X2X).t.E l e 8 X O # 6 8 6 ; # . O # ; % + + O # # # # # @ # @ # # + % @ X o O @ X X X @ X X % & o & X o @ X X X X X % @ o @ X X @ @ o X X @ X o o @ X @ @ X o X X X . . X X . X @ X X X . .   . . . . @ 3 % @ & 3 2 2 2 j } S.H.yXZXaXaXyXuXpXyXaXyXaXyXlXlXpXlXjXkXkXjXjXjXjXjXvXjXlXkXkXhXkXfXlXhXlXhXpXpXqXpXqXqXlXhXpXqXpXqXqXlXqXhXpXzXpXzXlXzXzXhXlXlXqXpXhXlXlXqXzXpXlXzXlXpXzXzXzXqXqXlXpXpXqXpXhXpXhXlXqXqXzXpXhXlXpXlXpXqXqXpXqXpXpXlXqXqX8X8XqXqX7X8XqXqX8X8XqXqXqXqXqXqXqX0XqXqXqX0XqX7XqX7XqXwX7X7X7X7XqX7X7X7XwX7XqX7X3X7X7X7X7X7X3X0X3X3X3X3X3X3XwX9X;X9XwXwX9XwX7X7X7X3X7X;X3X,X3X;X,X;X,X3X,X3X,X;X3X3X;X3X,X3X,X3X;X;X3X-X1X-X-X1X{.{.=X-X-X;X-X-X[.-X[.[.=X-X;X=X[.[.=X=X=X=X=XOX=X(.=X=X:X=X=X:X=X=X=X=X=X=X=X<X].].<X<X].:X].=X].].",
"D.Y.D.n.n.E.D.D.D.H.D.G.F.F.D.F.F.D.L.D.L.D.D.G.D.F.b.F.n.V.b.H.Q.Q.H.Q.D.H.D.H.D.H.D.L.D.L./.W.Q.E.D./.W.Q./.E./.Q.H./.E./.E.H.E.D.H./.Q.Q.Q./.Q.Q.Q./.Q./.Q.Q.Q.L.Q./.~.~.~.Q.Q.~./././.OXOXOX+XW.W.+XOX_._._._._._._._._.^.).(._.Q.Q.^.~.^.^.).^.)._._.+X@X#X@X#X#X+X+X@X_.#X_.+X).+X).).+X1X+X#X-X1X+X1X#X#X-X).1X).).{.).1X1X+X#X-X1X1X1X1X1X1X1X1X1X1X1X1X1X1X2X1X$X1X1X1X$X1X$X2X6X$XgX6X6X5X6X6X1X6X7X1X8X7X7X2X2X3X3X2X1X1X1X1X5X2X6X1X6X4X6X2X6X8X8X4X1X8X4X8XgX8XgX6XgX6XgX8XgX8X8X8X2X6X8X5X8X4X3X2X7X3X1X7X1X8X8XfX2X2X6X7X8X8X8XyXx.+.E H a e = X % ; : # : # : #   : # ; + O + O $ # # $ # O O X % # O @ + @ @ X @ + % X X X X X @ & o & o & X X & X X @ o @ X X X X @ o & @ @ o & o X X & o X & X X X X X X X X X @ X @ X .   & . . & . @ @ @ @ 3 & . 3 2 k N / u.OXuXaXyXyXyXpXyXyXyXpXlXpX8XfXlXjXkXjXjXjXjXjXlXjXkXlXkXlXfXhXfXkXfXlXzXpXwXwX8XpXqX8XpX8XpXqXlXlXpXlXpXhXpXhXlXqXzXlXzXpXpXqXzXpXzXqXlXqXzXqXqXzXzXhXlXpXzXlXhXlXlXqXlXpXlXpXqXpXlXqXpXzXlXlXlXqXlXqXqXlXhXpXlXpXpXqXiX8XqXqXqX8XqXpXqXpXpX8XpX8XqXqXqXiX7XiXqX7XqX0XqXqX7XqX7XqX7X7XqXwX0X7XwX7X7X7X7X7X7X7X7X3X3X3X3X3X9X3X;X3X3XwXwX9XwX;XqX7XqX7X7X3X3X5X7X,X3X,X3X3X,X3X5X;X,X;X-X,X,X3X5X3X;X1X1X-X1X-X1X{.-X-X-X-X{.{.;X;X;X[.[.[.-X=X[.;X[.=X=X[.=X=X=X=XK.=X=X=X=X=X+X-X=X=X;X<X].=X=X=X[.[.<X].}.].<X].<X=X<X",
"n.H.n.H.D.n.H.D.L.E.L.D.D.D.F.G.G.D.L.G.D.G.H.D.F.n.b.H.G.C.C.C.H.Q.H.D.H.D.D.D.L.L.E.L./.D.L.L.D.Q.E.Q.Q.W.Q./././././.W.Q.E.Q.E.Q././.Q./.Q.Q.Q.Q.!.Q.Q.Q.Q.Q./././.~.~.Q.~.~.).(._.~././.OXW.OXW._.+X+X_._._.+X).).#X).+X_.).^.^.Q._.~.^.^.^.).).).+X_.@X@X+X+X+X@X+X+X+X).+X+X).`.).+X).`.)._.#X).`.+X#X`.+X).1X+X1X).`.{.{.`.1X`.1X1X#X|.#X1X1X+X1X1X1X1X1X1X$X1X$X1X$X#X$X6X1X2X6X2X$X6X6X6X5X5X6X1X5X1X6X8X1X7X1X3X2X7X3X5X2X7X2X5X4X5X6X7X8X6X4X8X6X6X2X6X8XfX8XfX6X6XgXfXgXfX6XfXfX8X8X8XfX6X6X8X8X7X8X2X5X8X7X6XkX6XkX1X8X`.lX8X8X1X-X&.R l e k $ % # . 6 6 : O : # : # : + # O X + O $ # # # # # O % O O @ + @ O % @ @ % O @ @ X o % X X X @ @ X X @ % o X @ X @ X X @ X & o @ & o & & o % & & % % & X X & @ & X X X & % @ @ @ & X . X & @ & @ @ % @ 3 . 3 & @ 3 2 w P } OX@X>XuXuXZXpXiXqXpXpX7XzXqXzXhXqXqXjXjXjXbXvXkXjXvXkXjXkXkXjXvXkXkXjXlXsXqXlXhXhXpXhXqXhXhXhXhXzXsXjXsXjXsXlXzXzXzXlXzXpXlXqXlXpXzXzXhXzXlXzXlXzXqXpXhXlXlXpXlXhXpXqXqXlXlXqXlXqXlXqXqXqXpXqXpXpXqXqXlXlXlXqXpXqXqXqX7X8X7XwX8XqX8XqXqXqXqX8XpXqXqXiXqXpXqXiXpXqXyX8XyXqX7X7X8XiXiX8XqXqXyXqX7X7X5X7X3X7X7X3X3X3X0X3X3X;X3X;X;XwX;X;XwX;X9X7X0X0X3X7X3X3X0X;X3X3X7X0X3X,X;X;X7X3X3X;X7X3X;X3X7X3X5X;X3X-X1X3X;X-X-X-X-X{.-X{.-X;X{.[.[.[.[.].[.[.].=X].=X=X=X=X:X=X<X:X=X=X:X=X=X=X=X=X=X-X<X[.<X<X].}.].<X].].<X].<X",
"E.n.E.n.Q.Q.D.D.D.H.W.L.L.D.D.D.D.L.D.F.D.D.D.G.C.F.H.b.n.F.H.F.H.D.H.n.D.D.H.Q./.D.L.D.D.L.W.L.E.E././._././.W./.!.!./.Q./.Q.W.Q.Q.E.Q.E./.Q.W./.Q./.Q.Q.Q.Q.Q././.Q././.~.~.Q./.(.(./.OX/.W.OXW._._._.+X+X+X_.+X).).+X).).)._.)./.^.Q.Q.^.~.^.).)._._.@X_.+X@X@X+X_.#X#X+X#X`.+X#X).+X`.+X+X).+X+X).+X).`.#X`.`.).`.).|.-X|.{.1X+X+X1X1X1X+X|.1X1X1X1X1X1X1X1X1X1X1X1X1X1X1X2X5X2X$X5X6X6X6X2X6X6X6X1X5X2X8X5X1X8X1X4X7X3X2X3X7X2X3X7X4X7X8X2X4X6X6X8X6X8X4X6X8X8X6X6X6X6XgX6XfX6X6XfX6X8X8X8X6XfX8X8X8X8X8X7X7X5X7X6X6X$X6XgXkXvX1XlXfXpX-XH.{ J d w 8 $ O # : : 6 # : # ; # # O % O O + % + # # # O # O # # @ O % X + o O O o O % X O o @ X X X X X X X X o % @ X o X X o X X X @ o X X X X o % & o % & o o X X @ @ o @ X X @ % & % o & X   X & @ X @ @ @ @ & 3 . . . 3 2 2 k P 0.L.7XVXaXiXaXpXqXsXpXqXzXqXhXhXqXjXjXzXvXjXlXjXlXkXkXkXjXkXkXjXjXkXlXhXpXpXhXpXsXhXpXzXhXsXqXsXwXzXsXjXqXzXzXpXzXlXzXhXpXlXqXzXlXqXzXpXlXzXzXzXlXzXpXpXqXpXlXpXpXqXpXzXpXzXzXpXpXqXpXqXqXqXlXqXlXlXlXpXqXpXlXqXhXpX7XqX7X8X8XqX8XiX8XpXiX8XqXqXiXiXqXiX8XiXqXpXpXqXqXqX8XiX7XyXyX7XqX7X7XqXiXwX7X3X3X7X7X3XwX7X3X3XwX3X9X3X9X3XwX3XwX;XwX;X3X,X3X9X3X0X,X;X3X7X7X7X3X7X3X3X5X,X;X,X;X;X-X3X3X5X;X;X1X-X3X-X1X-X1X{.{.-X{.-X-X;X{.=X[.=X[.=X].].].[.[.=X=X[.=X[.;X:X;X-X=X=X=X=X=X>X:X=X=X:X[.<X[.<X<X<X<X}.].:X].].].",
"C.E.H.E.n.H.D.H.Q.H.D.D.D.D.G.D.H.D.n.G.G.D.G.D.G.C.V.H.H.C.H.H.D./.H.D.D.H./.D.L.D.W.D.L.W./.W.L.E.Q./././.W.OX!./.W.W.Q.W./.W.Q.W.Q.W./.!.Q./.W.!.W.Q.!.!.Q.Q.~././.~./.Q.Q.^./.~.~._.OXW.OXW./.+X@XW.W.+X_.#X_._._.)._.'._._.^._.^.!.^.Q.^.^.^.).).)._.+X@X+X_.+X+X+X+X+X+X+X#X#X-X`.#X_.).).#X).`._.#X).#X#X#X#X).1X|.-X1X|.1X1X1X|.1X).).1X1X1X`.1X-X#X1X1X5X1X$X1X6X$X$X1X$X2X6X2X2X6X2X6X6X6X8X1X1X1X7X2X8X7X7X7X3X3X3X3X7X2X7X2X7X2X8X2X5X8X8X2X6X4X8X6X8X8X8X8XkX6XfXgXkXkX6X6X8XfX8X6XfX6XfX8X6X7X8X8X8X8X8X8X6X6X$X$X#X8X1XkXkX7Xm.) J j 4 $ 2 . . : : : 6 : # # # % $ $ + % O @ @ O # @ @ # . @ X # O + + @ @ % O % % @ O X X @ X @ X o X X @ X X @ X % @ X X @ @ o X X @ X @ X X @ & % o % o & o & X & @ & X X X . @ & @ & @ X X X X X X X @ @ @ @ @ 3 & 3 . @ @ X 2 d G } z.OXaXaXaXcXpXpXpXpXzXqXhXwXhXjXhXjXlXzXlXlXlXlXlXkXlXkXkXvXvXjXhXlXqXhXpXhXpXpXhXqXqXzXhXhXwXhXjXsXjXhXhXzXzXzXzXlXhXzXhXpXpXhXlXhXpXqXlXlXlXqXhXpXqXlXlXpXlXlXqXzXzXlXhXlXpXqXlXpXpXpXqXlXpXqXqXqXpXqXqXpXyXqXqX8XyXqXqX8XqXqXqX8XqXiXyXqXiXqXqXpXqX8XpXpX8XyXiX8XqXyX7X7X8XyXyXyX8X8X8X8X7X2X7X3X3X0X9X3X3X0XwX3X3X;X3X3X;X9X;XwXwX;X9X,X3X7X9X7X9X7X7X7X7X7X7X5X>X3X3X1X;X3X3X;X1X;X-X;X-X3X;X1X;X3X-X-X-X-X{.-X-X-X-X|.;X-X=X[.[.].[.K.[.[.].[.=X=X=X;X<X:X<X;X:X:X=X+X:X=X=X=X=X=X<X}.].<X].<X].].&X].<X<X<X",
"H.n.n.Q.n.E.H.D.L.D.L.D.L.L.D.D.G.F.H.D.D.G.D.H.H.H.D.H.H.H.C.H.H.D.H.Q.E.L.H.L.W./.L.D.W.D.L.oXD./.W./.W././././._._./.!././.W.W.W.!.Q.W.Q.!.!.Q.!.!./.!.Q.!.Q._./._./.~._.~.Q.~._.Q.~./.+XW.OX_.W._.!.@X_._._.!._._._._._.)._._._.!._.^.^.^.^.^.).).)._.+X+X+X#X+X+X#X+X+X1X+X+X#X`.+X`.).`._._.+X_.`.`.`._.#X`.`.`.1X|.1X{.3X-X).1X#X#X-X`.).1X`.1X+X#X1X1X1X1X5X6X1X6X1X1X6X2X6X2X6X6X$X6X2X6X8X1X6X8X6X6X7X7X4X4X7X3X3X7X3X2X7X2X7X4X7X6X8X8X2X8X8X8X6X8X8X8X8XfX6XfX8X6XfX6XgX6XfX8X8X8X8X8XfX6X6X8X4X7X6XpX8XuX6X6X$X6X$X#XfX1X7X1XQ.+.J 0 > @ % # : 6 6 6 3 6 ; # # # % # % # O % % O O # . # . X . # X O @ @ @ + X o @ O + X % X % O o @ X X @ X X o X O X X % X X X X o X X @ o & @ o o o & o % % % & X X @ X X X X X % & @ X & o & X X X X @ @ @ @ % @ @ @ . @ @ . & @ 2 2 j Y @.=XdXiXcXpXpXqXwXzXhXzXwXhXjXzXzXlXlXlXlXlXlXlXjXkXvXjXkXjXkXlXhXhXhXhXpXhXhXpXzXhXqXhXzXsXsXsXjXsXzXzXzXlXzXzXzXzXpXpXlXzXlXpXzXzXlXzXqXzXpXhXpXlXpXqXlXqXlXzXpXhXzXzXlXzXzXpXhXhXlXlXpXlXqXpXqX8XqX8X8XqX8XqX7XqX8XiXqXyXqXqXyXqX8XqXiXqXqXiX8XpX8XqXiXlX8XlXqXiX8XiX7XyXiXyXyXqX7XiX8X7X5X3X7X7X3XwX0X3X3X3X3X9XwXwX;XwX;X;XwX;XwX,X3X0X7X;X0X3X7X7XwXqX7X7X7X,X1X,X3X5X;X-X-X-X-X3X-X3X-X-X,X3X;X1X-X-X{.+X{.-X{.-X;X-X[.[.=X[.].].].].].=X].=X=X=X:X;X<X<X:X:X=X:X=X=X=X:X:X=X<X<X<X<X].<X}.<X<X].<X].<X].",
"Q.E.C.Q.E.H.D.n.L.D.D.L.D.F.L.D.H.F.C.F.F.n.V.D.H.H.H.n.H.C.H.H.H.D.D.H./.Q.L./.L./.W.L.L.W.L.W.W./.D.W.L./.!._.W./._.W.W._.W.W.W.!.W.W.!._./.!.!.W.!.!._.!.!.!._./.~./.^.~.^.~.!./.(.^.(._.W.+X+X!.@XW._.+X_.+X_._.!._._._._._.!._.^.^.!.^.^.^.).`.).).+XOX+XOX+X+X+X+X+X#X+X`.#X1X#X#X#X_.)._._.#X_.#X'._.$X'.1X#X|.1X1X-X|.|.1X#X|.#X-X`.+X`.+X1X#X#X1X1X1X1X1X5X2X1X2X6X5X1X6X2X2X6X$X$X2X6X5X6X5X5X8X5X2X8X8X4X7X2X2X3X3X2X2X7X3X7X2X7X2X7X4X6X6X4X8X6X8XgX8X8X8XgX6XfXfXfXfX6X6XfXfX8X8X8XfXfX6X8X8X8X6X8X8X7X8X6X6X6X6X6X6XkX1XQ.m.+.E j % % X # 2 6 6 6 6 6 # : $ $ % + % @ + % + @ O O @ X . X . X X O O % O % O @ % O @ + X % X O X @ X % X @ X % X X @ X % X X X X X @ X X @ X & X & & o o o & % & o o % & @ X X X X @ & @ X o   X       X X @ X X & & . % % @ X X & & @ & 6 d H *.G. XUXzXjXpXwXpXwXzXzXzXzXzXzXzXpXpXzXlXpXlXlXlXkXvXkXjXkXlXjXjXlXzXzXhXhXjXqXzXjXzXwXzXjXzXzXzXzXzXlXzXzXzXzXlXzXpXzXhXpXhXsXhXpXzXlXpXlXpXpXqXqXqXzXqXlXlXzXzXhXzXlXlXpXpXlXpXhXqXlXqXqXqXqXqXwX7XqXwX8XqX8X8XqXqX8XqXyXqXqXqXqXyXqXqXiXiXqXqXiX8XqXyXlXfX8XyXqX7XyXyXyXyXyXyXyXyX8X7X2X7X3X7X0XwX3X3X9X3X3X;X3X;XwXwX;X;XwX;X;X0X,X7X0X0X,X0X7X7X0XqX7X3X7X3X,X1X;X1X1X3X-X-X-X-X;X1X-X}.3X;X;X-X{.-X+X).-X{.-X1X;X-X-X<X].<X}.].].].].[.=X<X<X;X=X<X<X;X:X-X:X=X:X=X=X-X;X=X;X}.<X<X<X<X].].<X<X].].<X<X",
"E.H.Q.D.C.D.D.H.Q.E.L.D.D.D.D.D.F.H.F.C.H.F.H.C.H.H.H.H.C.H.H.b.D.Q.H././.L././.L./.L.W.W.L.W.L.L.E.D./.W./.W./._./.W._._.W.W._.Q.W.Q.!.W.W.!.!.!.!./.!.!.!._._._./._./.^./.Q.~.~._./._./.+X+XOX_.@X_._.W.+X_._._./._.Q._.!._.!._.!.^.!.^.!.^.~.).^.).).OX+X+X+X+X+X+X+X-X@X#X+X+X+X`.`.`.#X#X`.+X_.`._.#X$X_.#X#X`.`.#X X-X1X-X1X|.1X1X1X1X1X).1X1X1X1X#X1X1X2X6X1X$X6X2X5X2X6X6X6X6X2X2X6X2X$X6X6X2X8X6X8X7X5X2X7X7X5X3X3X3X-X3X3X7X2X7X2X8X7X2X7X8X8X8X8X8X8X8X8XfX8XkX6XfX6XfXfXfX6X6XfX6XfX6XfX6XfX8X7X2X7X8X6X5X6X6XuXkXuXfXlX2Xn.%.I V 4 X % $ : 6 : 6 : : # # # * % % % o % % + O % O @ . X X . X X @ @ @ O @ O o O O % X @ @ + % X X % X X o @ O X @ o @ o X O @ X @ X o & X X o o X X o o % & o o % & & & o o & X @ & @ @ @ X & o &     X X X X X @ @ & & X % X . X @ & @ X # 2 k T +.Z.UXUXzXzXwXjXwXzXjXzXzXzXxXxXaXzXpXpXzXlXjXlXlXjXkXjXvXjXjXvXjXjXwXzXhXsXjXjXsXhXhXjXzXjXjXqXjXlXzXzXzXzXhXzXlXzXzXzXzXzXhXzXzXqXlXzXqXhXpXlXqXqXqXpXlXlXpXpXlXlXzXqXlXlXqXzXzXlXpXpXlXpXqXqXqX7X4X7X8XqX7XqX8XqXpXqXqXpX8XyXqXqXiXiXqXqX8XpX8XpXyXpXyXlXpXlXyXyXiXyXiXpXpX8XkXhX8X3X5X3X7X7X3X3X3X3X3X9X;X9X;XwX;X;XwX;X;XwX;X;X3X3X;X3X7X3X0X7X7X7X7X7X2X5X3X,X1X5X-X-X-X1X1X;X1X3X;X;X;X X;X-X=X).{.{.+X).+X-X;X{.;X}.<X].].}.<X<X[.<X[.=X].=X;X<X:X:X<X<X<X-X=X:X:X:X=X;X=X<X<X}.<X<X<X<X].].<X<X].<X",
"Q.H.Q.n.Q.D.D.D.D.H.D.L.L.F.G.D.b.D.n.F.b.D.V.H.H.C.H.C.n.H.V.H.D.D.H.H././././.OXW.L./.oX/./.L./.E.E.D.W.D.Q.W.W./.W.!._.W._.W.W.!.W./._.!._.W.!.!.!._.!._._.!.)./.(._./._.~.^.).).).(.+X_.+X@X#X_.@XW.+X_._.)._._.!._.!._./.!.!._.!.^.^.^.^.!.).).).).+X+X@X+X-X+X+X+X+X#X#X@X+X+X#X+X#X`.#X`._.#X_.#X'.$X#X`.`.1X1X+X|.{.{.|.-X#X1X1X1X1X+X1X1X1X1X1X1X1X5X5X1X1X1X1X1X6X1X6X6X6X6X5X2X$X$X1X1X5X1X8X7X4X8X4X2X7X3X3X3X;X;X1X1X3X5X5X2X5X2X2X8X4X6X2XgXfX8XfX8X8X8XfXkXfXgXgX6XfXfXfXgX8X8X8XfXfXfX8X6X8X7X2X8X5X6XuX6X6XkXkXkXkX#Xr.| l j = % $ ; $ # : : 3 $ # # $ $ % % = o % @ % % % O @ . X . . . O @ O O O + @ @ % + @ + O @ @ X X O X @ @ X X X @ X @ X X X @ X o @ X @ X o @ @ o @ o & o o o % o & o % & & o @ & @ @ @ @ @ X o @   o     X o @ X @ @ & & & o X % X X @   O X X 6 j R  .2XzXUXUXwXwXqXpXsXhXlXaXzXsXaXsXpXzXpXlXlXvXvXjXvXvXjXvXjXjXlXhXzXwXzXhXhXqXzXwXzXhXhXsXjXjXzXvXzXlXlXzXzXzXlXhXzXzXzXzXpXzXhXhXpXqXzXqXlXpX8XqXqXpXpXlXqXzXqXzXqXpXhXqXzXzXpXzXpXlXqXpXqXqXqXiX8XqX8XiX8XqXqXpXhXqXpXqXqXqXqX8XpXyXpXiXpXpXyXyXyXyXlXlXyXkXyXiXyXyXyX8XyXyX8XyX7X7X2X3X7X3X3X3X0X9X9X3X;X3X3X;X;XwX;X;X9X;X9X3X,X9X3X7X9X7X7X3X0X5X2X,X3X3X5X;X1X-X1X3X-X1X;X3X3X5X;X;XwXwX}.{.-X-X(.).).-X1X;X{.{.<X<X}.].<X<X<X<X}.<X;X<X=X<X:X=X<X=X<X=X<X:X=X-X<X:X<X=X<X<X}.<X].<X].<X<X<X<X<X<X].",
"E.Q.E.Q.E.H.D.D./.D.L.D.D.D.L.D.H.F.H.D.b.G.F.n.H.G.H.D.H.V.D.C.D.H.Q././././.L./.OX/./.W./.L.W.D.L./.D.D.D.D.E.W././.W._./.W._./.W._.!.W./.!.!././.!.!._.^.^.^./.).^.~.).~.^./.).).).).+X+X+X+X_.+X_._./._./.)._././.!./.Q.Q._._.!._.^.).!.~.~.).).).(.(.).OX+X+X+X+X+X+X#X-X#X).).`.).#X#X#X#X#X+X`.`._.$X`.#X#X`.#X|.#X|.-X-X1X1X-X1X1X1X1X1X1X1X1X1X1X1X1X1X1X$X1X5X6X1X6X1X6X6X2X6X6X2X1X$X6X5X8X5X8X8X7X8X7X1X7X1X2X1X1X1X5X2X1X2X2X3X3X5X6X7X8X8X8X8XfX8X8X8XfX8X6XkX6XfXfX6X8X8X8X8X8X8XfXfX8X8X8X2X8X5X6X7X5X6X6XkXkXkXfX_.%.W z = * = X $ 6 # . 3 6 # $ # @ # * $ % o X o + % O @ O O @ X @ O X X O % O O o @ O % X % @ % o X X % @ O o X + @ % X + X % O % X X X X X @ X @   X & X & % & % o % & % & o % X X X X X X @ @ & o o &   o &   X   X @ o o X & & % o + + + X & $ % @ ; $ k J H.zXUXbXUXpXzXpXqXpXpXaXaXzXzXpXpXpXlXhXvXjXkXvXkXjXkXvXjXkXlXhXjXzXhXzXqXzXjXzXhXzXzXhXzXzXzXzXzXzXzXzXzXzXpXzXzXzXpXzXhXsXsXpXpXhXpXlXpXqXpX8XqXqXhXpXlXzXqXpXhXpXpXqXlXhXpXlXhXpXlXqXpXsXqXlXqXqXpXqXlXpXqXqXpXpX8XpX8XpX8XqXyXiX8XyXpX8XiX8XpXlXkXlXlXkXyX7X8XpXyXpXyXkXyXqXqX2X7X3X7X7X7X9X3X3X3XwX3X9X3X;X9X;XwXwX;XwX;X,X;X7X,X9X3X0X0X7X3X,X3X3X7X3X7X-X1X;X;X3X5X,X3X5X7X;X5X;X;X;X;X[.[.).[.-X-X).{.{.;X{.}.<X<X<X}.<X;X<X;X[.[.[.<X=X<X=X=X=X=X:X:X:X;X=X:X=X<X<X=X<X<X<X<X<X<X].<X<X].].<X<X",
"W.D.W.F.W.W.W.L./.W./.D.W.D.F.W.F.D.F.D.D.D.G.D.G.H.H.H.H.n.H.n.n.H.H./././././.L././././././.L./.L./.D./.W.L.L./.L./.D./.L.W././.W./././.L.Q./.Q.~.Q.~.~.Q.T.^.~.Q.~.~.~.~.^.(.!./._./.W.W.OXW._.W.!./._.(././.(./.)./.)._.+X/._./.~.~./.^.(.).(.(.^.(.^.(.(.(.(.).(.).-X).-X-X#X{.#X+X#X).#X).+X`.+X).#X#X`.`.#X#X#X`.1X{.1X{.-X|.-X{.{.1X-X{.1X1X1X1X-X1X1X|.1X1X1X1X1X1X5X1X1X5X2X5X2X1X6X1X6X5X8X7XuX8X6X7X6X6X6X5X5X7X2X5X8X1X8X2X2X5X7X1X1X8X4X7X8X8X8X8X8X8X6XfX8X8XgX8X8X8XqXfXqXfX8X8X8X7X2X8XlXfX8X8X4XfXkXkX2XfXvXvX`.m.&.C 5 X $ % # : # : $ $ $ 2 6 2 $ $ $ # % % @ X @ X X X X @ % # $ @ % O + O o + + + + O @ X X @ % @ @ @ @ # @ X @ @ % % % % % # $ @ O @ X X X + O O O O O + % % % & @ @ & @ & % @ & % @ @ o o X & & X & o X   X X & X & o   X o   X X X o &   X o X X   + $ t [ G.:XaXtXrXaXuXaXxXcXzX8X4XpXlXhXlXhXhXhXhXjXzXlXlXlXlXlXvXlXsXhXzXwXzXpXzXzXzXpXzXhXpXsXpXqXjXsXsXzXzXzXsXzXzXzXwXsXsXsXzXqXpXpXzXpXhXpXhXpXlXpXlXlXlXpXlXpXlXlXlXkXlXlXpXyXqXpXqXpXzXqXwXzXpXqXqXqXqXiXqXqX7XqX7XqXqX8X8X7XqXiX8X8X8XyXqX8XyXqXyXlXlXlXpXpX8XiXqX8X8XpX8XiX8X8X7X4X7X7X7X7X0X9X9X3X;XwX;XwXwX9X3X0X9X3X7X,X7X,X7X,X7X,X7X7X,X7X3X9X3X,X3X;X5X,X7X,X7X3X,X,XwX;X9X;X<X;X;X;X;X-X;X;X<X}.<X}.}.}.}.<X}.;X.X9X}.}.<X].<X}.<X;X;X<X<X;X:X=X:X:X[.=X=X=X=X;X=X=X=X[.=X=X;X=X=X=X<X].=X[.=X",
"L.W.W.W.W.oXW.W.L.W.L.L.L.D.W.D.n.D.D.D.D.D.D.L.D.G.H.D.n.H.D.n.H.C.Q.H.L.L././.W.L././././.Q.D.L././.L.L.L././././.L.L.L./.L././.L./.D.W.L.H.Q.Q.Q.~.Q.Y.~.~.T.R.T.~.~.~.~./.)././.+XW.@X/./.W._._././././.(.(.OX(.(.OX/.OX)././.(.(./.(./.~.(.(.(.(.(.(.}.}.(.).(.).(.).-X-X).).-X).1X-X`.`.+X+X).).-X`.).`.+X1X`.1X#X#X1X+X-X{.-X{.1X-X-X1X1X-X-X1X{.1X|.+X-X1X@X1X1X5X1X1X7X1X2X5X1X7X1X5X1X5X7X8X6X6X8XyX6X6X7X7X6X5X6X6X6X2X6X1X5X4X2X2X6X6X1X8X8X8X7X2X1X6XfX8X8XfX8X8X8X4X8X7XiX8XiXqXqX8X1X2X8XfX8X8X6XkX6X6XgX6X8XkX8XR._ W e 8 @ 2 6 2 3 3 $ 6 6 $ $ $ $ $ $ $ % $ O + @ + @ @ % X @ @ % @ @ + X   +   + + + + o @ X o o @ @ # # @ @ . X X @ # % $ % @ @ @ # O O O @ X O   +   O   + % & @ % @ @ % @ & @ @ % @ @ X @ X X o X   o X X & o X o   o X X   & X X X o X o o X o X & X + $ 8 G @.z.:XuXaXrXyXVXxXZXvXpXhXjXjXjXhXzXzXhXlXhXzXvXlXlXlXlXhXlXzXzXzXsXhXpXhXpXhXzXsXhXsXhXpXzXsXqXsXqXsXzXzXzXzXsXsXzXwXsXqXzXpXzXpXsXsXpXhXsXpXlXlXpXlXlXlXlXlXlXlXlXlXyXpXhXpXpXhXpXqXzXzXwXpXzXqXqXpX8XqXpX8X8XiX8XiXqXiX8XyX8X7X8X8X8X8XiX8XyXpXlXpXlXyXhXpX8X8XpX8X8X8XpX8X7X7XyX7X7X5X7X3X3X3X9XwX9XwX;XwX0X3X3X3X9X3X3X,X7X,X7XtX7XtX7X7X,X,X3X,X3X7X;X,X7X5X,X;X,X,X;X<X9X<X<X;X<X<X;X;X;X;X{.;X}..X<X.X<X}.}.<X.X}..X}.}..X}.<X}.}.<X<X}.;X].=X=X=X:X[.=X=X=X;X=X=X;X=X=X=X=X=X=X[.=X=X=X=X=X<X",
"W.W./.W.W.W.L.W.L.W.D.H.D.W.F.D.D.D.D.D.D.L.H.G.G.H.n.H.H.H.n.C.D.C.Q.Q.W./.L.W.L.OX/./.L.Q.L./.L./.L.D.D./././.L./.L.W.L.W./.L.OXW.L.W.L.L.W.E.Q.Q.Q.~.~.~.Q.~.^.~.~.~.~./.(._.+X/.W.+XOXW.W.OX+X_._._./.OX).OX(.(.(.).(.OX_._.).(.(.(.~.(.(.).(.).(.(.}.).}.}.(.(.).-X+X).).+X-X`.+X|.#X).+X).).).-X)._.`.`.#X#X1X#X1X1X1X+X|.-X{.{.-X{.-X1X-X1X1X#X1X1X{.{.1X-X1X-X1X5X3X5X2X5X1X7X7X7X1X2X5X7X6X8X7X7X8X6X7X5XyX6X6X6X6X6X2X6X2X1X2X5X2X7X2X1X8X7X8X8X2X7X8X8X8XgXfX8XfXfX8X8X8X8X8XqX8X8X8X8X2X5X8XfX8X6X4XkX1X1XgXkXfXkXgXt.J e - % & & 2 2 2 $ 2 $ $ $ $ 4 $ $ $ % $ # $ + # % # % O + % @ @ @ o @   X X   + O + + @ X X o o % X @ X # . . X X O % + + % # @ # % O % O X O X X   O O   O & @ @ @ & @ @ @ % @ & & & o X X o X o & & X   X &     X X & &   X & o X X X X   % X X X X X o o 6 k P ..S.>XVXxXxXaXaXZXzXzXhXqXjXhXhXhXhXzXjXhXvXvXvXlXvXlXlXlXzXpXzXjXlXlXzXpXsXzXpXpXjXsXsXhXzXsXsXsXsXwXsXsXzXsXsXwXqXzXsXqXsXpXzXhXsXpXpXpXlXpXlXyXpXpXlXpXlXkXlXlXlXpXlXyXpXhXhXpXzXzXqXzXhXqXqXqXqX8XpX8XiXpX8XpXpX8XyXpXpX8XiX8X8XiX8XpX8XqXiX8XpXlXqXyXqXqXiX8XiXiXqX8XqX8XiX7X7X7X7X7X,X0X9X3X3X9XwXwXwX9X3X0X0X;X3X9X7X7X7XtXeX7X7X7X7X7X,X3X0X0X;X,X;X;X,X;X;X;X;X;XwX<X9X;X;X;X;X;X;X;X;X[.<X}.<X].<X<X}.}.9X.X<X.X].].}.}.}.<X.X}.;X<X<X].=X:X=X:X=X=X;X[.;X=X=X;X<X<X=X=X<X=X<X;X[.=X=X=X[.",
"W.W.L.W.W.W.W.L.W./.D.W.D.D.D.D.E.D.D.D.D.D.H.D.H.G.H.H.H.D.H.D.C.Q.H.Q./.L.OXL.W.L.L././.H.Q.H.W.D.L././.L.D.L./././.L.L.L./.D.L.D./.L.L.W.L././.K.Q.Q.~./.~././.~.~./.~._._./._._.+X_.+XOX+X_._._._.OX)._.(.(./.OX(./.(.)._.OX(././././.(.(.(.(.{.).{.).}.{.).-X{.-X(.{.-X).).).-X`.#X).#X).|.).).).).#X+X`.#X#X1X#X#X+X1X-X-X-X-X-X-X{.1X-X1X-X-X-X1X1X1X1X1X1X1X1X5X1X1X3X1X1X7X2X1X1X7X1X3X6X5XuX5XuX8X8X6X6X6X6X6X6X6X6X5X6X7X8X2X2X6X1X6X1X8X2X4X7X7X2X7XfX8X8X8X8XfXyX8X8X8X8X8X8XqXqX7X8X1X8X8XfX6X4X6X2X1X8XvXkXfX2X).%.J e * w 4 $ 6 2 6 6 2 6 $ $ $ $ $ 2 $ $ % % @ % % $ + $ $ $ % % @ @ @ X X         +   o o X X & @ X @ @ O X O . @ O @ % @ % % @ $ # % # O O O O O O   +     X @ @ @ @ % & & o @ & & % @ & X X &   X X o X & o o X o & X X o X X o & X o   X X + X o &   X o o # X w F T z.uXVXZXZXuXyX8XpXjX8XzXjXzXzXzXjXzXlXlXjXlXlXlXlXlXlXhXzXzXsXzXqXzXzXzXhXzXzXsXsXjXsXsXpXsXzXzXsXsXzXsXzXsXsXsXqXsXsXzXpXpXsXhXpXpXzXpXpXlXlXpXlXpXlXlXxXlXlXlXkXlXqXqXpXpXhXjXzXzXhXjXsXpXqXqXpXqXqXpXqXpXqXpXpXpXyX8XqXyXqX8X8XpX8XiX8X8XpX8X8XpX8XyXqXqXqX8X8X8XiX7X7X8X7X7X7X7X7X0X3X3X9X3XwX;XwX3XwX3X0X3X0X7X;X7X,XtX,X7XiX7XiX7X7X0X0X7X3XwX7X;X3X;X3X1X;X;X;X;X;X<X;X<X;X;X<X[.<X[.;X}.<X}.<X}.}.}.;X.XwX.X;X}.}.].}.}.<X<X<X}.}.<X<X=X=XOX=X[.=X=X=X=X=X<X<X<X;X;X;X;X[.=X=X=X<X[.[.=X",
"W.W.W.W.L.W.W.L.D.D.W.D.D.D.D.D.D.D.D.W./.D.H.D.G.G.H.H.H.n.D.H.H.Y.H.Q./.H.W.W.L.W.L.D.L.D.E.D.L.D.D./.L./.L././././././.D./.L.W.D.L.L.L././.OX(.L././././././.(.(./.~.(.(._.).).)._.+X).).(.OX_._./.).+X).OX/.OX/.(.OX(._._._.(.(.)./.).(.).(.).{.).).{.).).{.-X).+X{.+X).+X).1X+X`.+X#X|.#X).).).).).`.#X#X`.#X1X#X#X|.#X-X1X1X1X{.-X{.-X1X{.1X3X|.-X1X-X|.-X1X5X5X3X1X5X1X6X5X1X7X2X8X7X1X1X6X7X7X6XyX6X7X6X7X6X8X6X6X6X6X6X6X6X2X7X6X5X4X8X8X8X5X4X8X4X7X4X8XfX8XfXfXfX8XyX8X8XqX8X8X8X8X8X8X6X8X8X8X6X4X8X2X8XlXlX8X#XU.&.W e - - % * @ & 6 6 6 2 $ $ $ $ $ $ % $ 2 % % $ @ + @ O O O % O @ @ @ X X X   X   +   O X o X X o o @ o O # @ O @ @ O O % % o + % # # $ $ $ # O + O O @ O O   X @ @ @ @ & @ @ & & X & @ & & & & X   & X X o X X X X X X & o & o X X   o X X X X % X X   o o X & @ & @ 2 k ) OXZXFXZXaX7X7XqXpXqXpXhXhXhXzXlXjXlXlXhXlXlXvXjXlXzXzXhXpXhXzXhXpXzXzXhXzXsXzXsXjXsXzXzXsXsXsXzXzXzXzXwXzXzXwXsXpXzXsXhXzXpXpXpXsXhXlXlXpXpXpXlXlXlXxXlXlXpX8XlXyXqXqXqXpXpXwXzXzXwXsXqXqXqXqX8XpXpXqXpXpXpXlX8XaXiXpXyXpX8XpX8X8XpXpX8XiX8X8X7XqX8XqXpX8XqX8XiXqX8XqX7X7X8X7X7X7X7X7X3X0X3X3X9XwXwX9XwX;X9X0X3X7X0X,XtXtX7XtXtX7X0X9X7X0X7X0X7X0X7X;X;X,X;X;X;X;X;X;X;X;X;X<X9X<X<X;X[.[.;X<X}.}.}.}.<X9X.X<X.X<X.X].}.}.<X}.[.<X[.<X<X[.<X=X=X=XK.=X=X=X[.=X=X;X=X=X;X;X<X=X=X=X=X=X[.=X<X[.",
"W.F.W.W.W.D.W.W.W.D.H.D.D.E.D.D./.W.H.D.D.L.G.L.G.H.D.H.Q.H.H.C.Q.H.H.Q./.H.L.OXD.L.W.L.H.D.D.H.D.L.G.W.D.L./.L./.L.D.L.D.L.L.D.L.L.D.W.L.D./.W././.W.+X/.OX@XW._.(.(._./.).).).(.).+X_.)._.)._._._.+X_._.(.(.OX(.(.(.(.OX(.OX(._.(.(.(.(.(.(.}.[.{.-X(.).{.}.{.).+X{.).`.{.).1X).{.-X`.).+X).).+X).+X).#X#X1X#X$X1X1X1X1X-X1X-X{.-X{.-X-X1X{.-X{.-X1X1X1X-X1X1X1X1X1X1X1X7X7X5X4X7X1X7X5X2X1X7X5X6X6XyX6X7X6XyX7X6X6X6X6X5X6X5X6X4X2X2X2X2X8X1X8X1X2X7X5X4X8X8XfX8XfX8XfX8X8XfX8XfX8XqXpX8X8X8X8X8XfX8X8X6X6X8X8XyX8X8X1X'.&.J z 5 - - $ w 2 # 3 6 6 2 $ # # $ $ $ $ $ $ % $ $ X @ @ O @ @ X @ % @ @ @ + X X     X o O X + + X o % o @ + # O % # O # % % $ + % % $ $ $ $ $ $ $ + + + + O O O + % 3 % & & @ @ @ o @ o & @ X & o o & o X X &   o & X o &   X X X & o & X X o   o   X X X &   & X % X @ @ 2 P z.VXsXZXZXpX8XpXzXpXhXpXzXhXjXlXlXlXvXzXzXlXvXlXlXlXzXzXzXpXzXpXhXzXpXsXzXjXsXzXzXzXsXcXzXzXzXzXsXzXzXsXqXsXsXsXsXhXpXsXpXpXpXhXpXpXyXlXqXlXhXyXlXqXlXkXlXlXlXlXlXpXqXpXqXpXzXsXhXzXjXsXsXqXpXqXpXqXpX8XqXpXpXpXpXqX8XpX8XpX8XpXpX8X8XiX8X8X8XyXyX7XqX8XqX8XqX8XyXqXqXyXyXiX7XyX7X7X;X0X9X7XwX3X;XwXwXwXwX3X;X0X,X3X7X7X,XeX7XtX7XtX7X7X7X0X3X0X3X;X7X3X;X3X,X;X;X;X;X;X;X<X.X}.<X<X<X;X;X;X;X<X}.;X<X;X.X9X}.9X}.<X}.}.<X].<X[.[.[.}.}.<X[.=X=X=X=X].<X=X=X].=X=X=X;X;X;X<X;X=X=X=X=X=X=X=X=X",
"oXD.W.D.L.W.D.D.E.E.E.L.Q.D.D.H.W.D.E.L.D./.D.H.D.G.H.H.H.H.H.Q.Q.H.Q.H./.Q.W.oXW.L.L.D.D.H.H.E.L.L.D.L.L./.L./.D.L.D.L.D.L.D./.D.L.D.D.L.W./.L./././.oXOX@XoXOX+X/.(.(./.(._.+X+X_.)._._.^._./.+X_.+X/./.).(.).(.(.(.)./.)._.OX(.(.(.(.(.(.).).(.).{.).).{.|.).-X).).-X`.+X+X#X+X#X+X#X1X).).-X-X).1X-X1X#X#X2X1X#X1X#X#X-X1X-X-X-X1X-X-X{.|.{.-X1X{.1X1X1X1X1X1X1X5X5X1X7X1X1X5X1X5X2X2X7X8X1X6X7X6X8XyX5X8X6X6X6XuX6X6X5X6X6X6X8X8X2X2X8X8X1X2X7X7X1X7X8X7X8X8XfX8XfXfXyXfXkXfXyXkXhX8X8XfX8XfX8XfXfX8X1X8X8XhX8X8X1XY.%._ l - o - * @ 4 @ @ 2 6 6 2 $ # $ $ 2 $ $ $ $ $ $ $ + + # % + O + % O # % O % X X o + X +   + + O + % O % % + % + # + + + % + $ $ + $ $ $ $ $ $ * $ $ + % $ + % + % % % % @ % @ % @ @ % o @ o & o o o X & X X     & o & o   X o X   o & o X X   o   & X X   X & & X & . & & @ k / z.>XaXZXsXpXzXpXpXpXhXlXlXzXzXlXlXlXlXvXlXlXlXlXlXpXzXpXzXzXlXpXpXzXhXzXsXzXzXzXzXzXzXzXsXzXpXzXpXzXzXzXsXqXhXsXsXzXhXpXlXpXpXzXhXqXpXpXlXlXyXkXlXlXxXlXlXfXpXyXhXqXqXzXwXjXwXsXwXhXqXjXqXqXpXqXpXqXpXpXqXpXqXpXpXlXyXpX8XpXpXqXpXlXpXqX7X8X7X8XqXqXpXqXqX8XyX8XiX7X8XiX8X7X7X7X7X9X3X3X,XwX9XwXwXwXwX3X9X9X3X7X7X>X7X7X7X7X7X7X7X7X7X7X0X0X,X7X0X;X7X;X;X;X5X3X;X;X;X<X;X9X<X.X9X{.;X[.{.}.}.<X<X;X.X<X.X9X.X9X.X}.<X[.].}.[.[.<X<X<X<X<X=X[.=X].=X=X].].=X[.=X=X[.=X=X=X=X=X=X<X<X].<X=X[.",
"D.W.W.F.W.W.D.W.L.W.D.E.D.Q.E.D.E./.L.W.L.D.L.H.H.H.H.H.D.H.Q.H.~.Q.H.Q.L.L.W.W././.L.W.Q.D./.L.D.D.L.D.W.L././.L.D.D.L.D.D.L.D.D.D.D.W.L.L./.OXOXL.W.OX/.W.OXW.OXOX+X(.OX/.+X/.).+X).).)./.^._._._._.(._./.OX(.OX/.(.(.OX/._.(.OX)./.).(.(.).(.{.).).{.).).).).).#X#X).-X{.+X|.).1X`.{.#X+X#X).|.-X).1X#X$X1X#X$X1X#X1X1X1X-X1X|.1X;X{.{.-X-X-X{.{.-X1X1X-X1X1X5X1X3X1X5X2X7X4X2X7X8X1X7X2X7X5X5X6X7X8XuX7X6X8X6X7X5X6X6X6X6X5X6X2X8X6X7X2X6X8X8X8X2X8X7X8X4X8XkX8XfX8XfXfXfX8X8XlX8XyXfXlX8XfXfXfX8XfX8X8X8X8X8X8XqX).%.E l e = o = 5 @ 8 $ 6 $ 2 6 $ % @ @ $ $ $ $ $ $ $ $ $ % % $ % % $ $ % % @ + @ % O X + O +   +   + + + + % + + $ + $ + % $ % + $ + $ + $ $ $ ; ; * ; ; $ $ $ $ + + % $ % & % @ @ @ @ @ % X o & o o & o &   o X o X o & X   X X & o & o X X   X X X X o & X X X & &   o X O X & 2 4 N ..F.eXsXGXcXsXqX0XpXpXpXzXzXvXvXlXlXlXlXlXlXlXlXlXzXhXzXhXqXzXzXzXsXzXzXqXsXzXzXzXcXzXzXcXzXzXsXzXzXsXsXhXzXsXsXhXzXpXzXpXzXpXlXpXlXyXlXfXlXlXpXlXxXkXlXlXlXlXlXyXsXqXzXzXzXsXjXsXzXzXqXzXpXqXpXqXpX8XpXpXqXpXyXpXpXqX8XpXpX8XkXpXpX8XyXqXyX8X8X7X8XiXqX8XyXqXqXiXqX7XyX7XiX7X7XyX0X7X0X3X;XwX;X3X9X9XwX3X3X3X9X;X>X7X,XtX,XtX0X,X0X7X;X0X3X7X3X;X7X;X7X;X7X;X;X,X9X;X;X;X<X;X<X<X<X[.<X[.}.<X<X}.<X9X9X.X<X9X.X<X;X[.<X<X[.[.[.<X].}.[.<X<X;X<X=X[.].=XK.].=X=X=X=X=X<X[.=X=X;X[.=X=X[.=X=X",
"t.W.D.W.E.E.L.W.D.D.D.E.E.E.H.E.D.E.W.L.W.G.H.H.D.D.H.H.H.D.Q.E.H.Y.Q.J.Q.L./././.W.L./.D.L.L.Q.D.L.D././././.L./.L.W.L.D.L.D.D.D.Q.L.L././.L.W.L.L.oXW.L.%X/.%XW.@XOX@XOX@X+X_.+X_._./.^.Q.!.Q.!././._._.(././.(.(.OX(.OX/.+XOX).(.(.(.(.(.).(.).).).).).'.).{.1X#X).1X#X).#X+X1X1X+X|.1X`.+X).+X-X`.1X1X#X`.1X#X#X`.1X+X1X-X-X-X-X1X-X{.{.-X{.-X-X|.1X1X1X1X1X7X1X1X1X1X5X1X7X8X7X7X6X2X8X7X2X6X7X6X7X6X7XuX8X6X6X6X5X6X1X5X6X6X2X6X8X8X6X8X1X8X1X7X4X5X8X4X8X8X8XfXfXkXfXlXfXkXfXfXfX6XkX6X8XlXfX8X6X8XfXlXpX8X2X;X,.E l e < o = + * $ $ $ $ 2 2 $ # $ $ $ * 2 $ $ $ $ $ $ $ $ $ $ $ % # % O O % O O @ @ # @ X % + + + + + + + $ $ > + ; > $ + $ ; + > + ; + 8 $ ; * 6 > $ $ * ; $ $ $ $ $ $ % 2 2 $ $ % O # @ + % O o X X o   & o & o X X X & X X X & X & X X     & o & o X o X X o & X & X . & # @ @ 2 w N / 0.>XaXiXUXzXsXiXsXpXqXqXwXkXlXlXvXlXlXlXlXzXpXzXqXqXzXpXzXhXpXhXzXzXzXzXzXzXUXzXzXzXzXzXcXzXpXzXpXlXaXlXpXlXpXpXpXzXpXlXpXlXlXlXlXhXyXlXhXkXkXlXlXlXlXlXlXlXpXlXlXpXlXzXwXzXhXwXzXwXzXsXqXqXqX8XiX8XpX8XqX8XiXpX8X8XpXpX8X8X7X8X8X8XyXqXyXqXyXqX8XpX8X8XqX8X7X7XqXiX7X7X7X7X7X3X,X3X9X3X3X3X9X;XwX9XwX3X9X3X0XtX7XtX,XtXtX7X7X,X,X7X7X3X9X3X7X0X0X0X0X9X;X;X;X;X;X;X;X9X<X<X<X}.<X;X<X[.;X}.;X;X}.}.;X<X}.<X<X[.[.=X<X[.[.=X].;X=X<X<X;X;X<X=X;X=X=X[.[.=X=X[.=X=X=X<X=X=X=X[.].=X=X[.=X",
"W.W.D.W.W.E.E.E././././.L.Q./.Q.W.L.W.H.L./.L.D.G.G.D.H.H.H.H.H.Q.H.H.Q.Q././.L./././.L.W.L.H.W.L./.L././.L././.L./.L.L.L.D.L.D.L.D./.D./.D./.L.W.W././.W.W.%X/.OXOXOX@X@XOX+X+X)././._._.Q.Q./._._._./././.(.(.(.(.(.(.).(._.).(.(._././.).).{.).).).).).).).`.).#X#X).+X).).#X1X#X1X+X+X#X`.-X{.+X{.+X#X`.#X#X2X#X#X#X1X).).1X;X|.{.-X{.-X{.-X1X{.1X1X1X-X1X1X1X1X5X7X7X8X1X1X8X1X4X5X7X7X5X8XyX5XyX5XyX6X6X7X6X5X6X6X6X6X6X1X6X7X2X8X2X8X8X8X8X2X2X7X1X8X7X8X8X8X8XfXfXkXfX8X8XlXlX8XfXfX8X6XfX6X8X2X8X8XfXlX1X(.b.E l a = * * $ = ; % $ $ 2 2 2 $ 2 % 2 * 2 $ 2 $ $ $ $ $ $ $ $ $ % % $ % # $ % % # + + % % + + % + ; + + + + > > ; > > > ; > + > + ; > > + $ 8 $ 8 * $ * 8 $ $ * $ $ > $ 2 $ $ $ $ $ % % % @ % + X O X X   & X X X   X X o o o & o o X o   o & o o X X X   &     & & & &   . & @ @ @ 2 2 d F } z.>XsXVXUXpXqXiXsXsXzXzXlXlXkXlXlXlXhXzXqXlXqXlXpXqXhXpXzXzXpXpXzXzXzXzXzXsXcXzXzXzXzXzXzXzXzXpXzXzXpXzXpXpXzXzXzXzXlXaXlXpXlXyXlXlXkXlXlXlXkXxXlXlXlXlXlXlXlXpXlXpXzXwXzXzXzXwXzXhXqXsXqXsXqXyXiXqXqXiXpXyXpXpXlXlXyXpXqX8X8XiXqX8XyXqXiX8XqXiX8XqXyX8X7XqX7X8X8XyXyX7X5X7X3X0X0X3X3X9X9X3XwXwXwX9X9X3X7X0X,XtX7XtX7XtX7X0X7X7X;X0X0X7X,X0X0X3X9X3XwX;X;X;X;X;X;X;X.X<X.X9X;X;X}.}.;X[.<X[.;X;X;X;X;X}.<X}.=X=X=X[.<X[.[.[.=X;X-X;X;X<X[.;X=X<X=X=X=X=X;X:X<X<X=X;X;X=X=X=X=X=X=X=X=X",
"D.W.W.W.E.E.L.D.Q.L.Q.Q.Q.Q.Q.Q.W.D.L.D.L.D.H.D.G.H.V.H.H.D.D.Q.Q.J.Q.~./.L././.L././.D.D.D./.H.D.L.L./.L.OXOXL./.L././.L.W./.D.L.Q.D././.L./.W./.%X/.%X%XOXOX@XW.+X/.@X+XOXW.OX_.+X_._._._.~.^._._._././.OX(./.(./.).OX)./.)./.(.(.(.(.(.(.(.).).).)./.'.^.'.)._.#X).#X`.#X`.#X#X+X).`.#X{.).1X{.+X#X-X#X#X#X#X#X2X1X+X-X1X-X1X1X{.-X{.{.-X#X{.-X1X|.1X1X1X1X-X1X1X7X1X2X5X7X1X1X7X2X8X7X7X2X7XtX6X6X8X6X6XyX7X6X5X6X6X6X5X5X6X8X4X6X4X6X8X6X2X5X8X8X7X8X8X8X4X8X8X8XfXfX8XkXfXkXfXfXfXkX6XkXgXgX6X8X8X8X8XlXlX-Xv. .J e 0 = > > ; + + O $ $ 2 2 @ % $ $ 2 * $ * $ $ $ % $ $ $ $ $ $ $ $ $ $ $ % + $ % % $ $ $ % $ + $ + > + ; ; ; > ; > > > * $ > * * = ; > ; > * > $ ; 4 4 ; * 8 4 * 4 2 * $ 2 $ $ $ $ $ $ % O + o +   o   X & o X   X   X o   X   &   X X X X o X & o & & o & o   & o X &   @ & # @ @ % @ 2 k P { :XVXsXGX0X9XsXsXcXcXxXlXlXlXvXlXlXlXzXzXpXlXlXpXzXzXpXzXzXzXpXzXzXzXzXzXzXzXcXxXzXzXcXpXzXzXzXzXpXzXzXpXzXpXlXlXpXkXlXlXlXlXlXfXlXlXkXlXlXxXkXlXlXlXlXlXlXpXlXqXzXhXzXzXzXzXzXzXsXpXhXqXqXqXqX8XpXpX8XaXpXlXyXhXyXpX8X8XpXpX8XpX8XpX8XqXyXqX8XqXqX7XyX7X7X8X7X7X7X7X7X7X7X7X9X3X,XwX;X3XwXwXwXwX3X3X9X3X;X7X>X,X7X,XtX7XtX7X,X0X7X3X9X7X0X;X9X3X9XwX;X9X;X;X;X;X;X}.9X9X<X<X}.}.<X[.<X}.<X;X;X;X<X;X<X<X}.;X[.;X=X=X=X=X[.=X=X;X=X<X=X<X=X=X=X=X=X=X<X;X;X;X;X<X;X;X=X;X=X[.=X=X[.=X",
"W.W.W.L./.W.E.W.E.W.Q.D.Q.E.H.D.H.W.E.L.E.L.D.L.H.F.H.H.H.H.Q.H.H.Q.H.Q./.W./.L.W.OXL./.L./.D.H.L.W.L./.L.W././.OXW.L././.L./.L./././.L././.OXOXL./.L.OXW.OX@XW.@XoX@XW.W.OX/.W./._.OX_.(._._./._._.(._._.).(.OXOX(.(./.(././.(.).).(.(.).(.).(.^.(._.).).).).`.`.).`.).#X_.)._.).`.).+X).#X-X).+X-X).|.1X`.#X1X1X#X1X1X#X1X1X-X{.-X{.-X-X{.1X-X{.{.-X-X-X1X1X1X1X7X1X1X7X2X1X5X5X1X7X1X1X2X7X2X6X7X6X7X6X7X5X6X6X7X5X6X6X6X6X5X2X6X8X6X8X4X8X7X4X7X2X2X2X7X2X7X6X8XfX8XfX8X8X8X8X8XfXfXkXgX6XkX8X8XfXgX8X8XhXlXc.| I g 0 0 + + + : + + $ % 2 6 2 $ 2 2 $ $ $ 4 4 $ $ @ @ $ $ $ $ $ $ 2 $ $ $ $ $ $ $ $ $ $ 2 8 8 ; $ > + ; > > > , , > > > , > > > > * > : ; > > > * > 8 * 8 > > ; 8 2 8 $ 4 $ 2 2 2 ; $ $ $ $ + X + @ +   + X X   X X o X X &   X o o & X o & X &   X X   X X X X o X o   o X @ & @ . @ @ X @ $ h G L.sXsXGXiXsXsXsXsXpXzXlXlXvXjXlXhXlXlXqXzXhXpXhXpXhXzXsXhXhXzXzXzXzXzXsXzXcXzXzXzXcXvXcXzXzXzXzXzXzXzXzXzXzXlXzXlXlXlXlXlXyXlXlXkXkXlXkXkXlXxXlXlXlXlXaXaXqXlXqXpXsXhXjXzXzXwXhXwXpXpXqXpXpXpXpXqXpXlXpXpXqXlXpXpXlXpXlX8XlXpXyXlX8XpXpX8XpX8XqX8XqX8XqX7XqX7X7X7X7X5X7X7X0X7X0X3X3X;XwXwX9X;X3XwX9X3X;X3X,X7X>XtX7XiX,X7X7X7X0X3X7X0X;X3X3X3X;X9X;XwX;X;X;X;X;X;X<X9X.X9X;X;X;X;X}.<X<X;X}.<X;X;X;X;X;X9X=X=X=X[.[.=X=X<X=X=X=X=X;X=X=X[.=X[.=X[.=X=X=X;X;X<X-X<X<X=X;X=X=X;X<X=X<X",
"W.W.W./.W.Q.Q.E.Q.E.H.H.E.D.n.Q.W.D.D.D.L.D.G.H.G.D.H.H.H.H.Q.H.H.Q.Q.H.L.Q.L./.L.W.L.L./.D.L.E.D./.D.L.L./././.OXL./.OX/.L./././././././.OXOX/./.OXW.OXOXOXOXOXOXOXOXOXOX/.W.OX+X/.+XW.+X_._._.+X_._.+X/.(.(.(.(./.(./.(./.(./.OX(.).(.).(.)._./.).^._.'.'.`.)._.#X`.`._.#X#X).).`.).#X+X|.1X-X-X`.+X1X#X#X#X`.$X1X1X1X1X1X-X1X{.-X-X{.).{.-X|.{.1X1X|.1X-X1X1X1X5X2X7X2X5X2X3X3X7X5X2X1X2X7X7X7X6X6X5XtX6X6X7X6X6X6X6X6X8X6X6X6X8X4X6X2X8X2X8X8X1X8X8X4X7X7X8X8X8X8X8X6XgX6XfXfXfXkXgXkX$XgX6X6XgX6X2X1X8XlXzX| J a 0 * 8   + O : ; ; $ $ 2 6 2 % 2 $ $ 2 4 $ 2 $ $ $ $ $ $ * $ $ 2 $ 2 $ 4 ; $ $ $ $ 2 2 6 2 8 8 8 8 > > > , > , < > < < w * * < < < > > : > > > * > > > 8 8 8 8 $ 4 2 4 4 2 * * 2 4 $ $ $ $ + + + + + O   + X   X X X   X X X X o & X &   X   X X o X X   X o X X o X X X o @ . @ . . @ & @ X w 0 u.<XsXAXwXVXsXiXsXpXyXkXkXlXvXkXkXlXzXzXzXzXqXlXzXzXhXzXzXzXzXzXzXzXzXzXzXxXzXzXzXzXcXzXzXzXzXzXxXzXzXzXcXzXzXaXlXpXlXlXlXlXlXlXkXlXlXlXlXxXkXlXlXlXlXkXlXlXpXpXpXqXzXzXqXpXzXpXiXqXqXpXqXqXpXpXpXpXpXlXpXpXpXlXyXpXyXhXyXpXpXpXpXlXpX8XpX8XpXqXpX8XiXqX8X7X7X7X8X7X7X7X7X0X0X0X0X9X3XwXwXwX;X3X;X9X3X;X3X>XtX7XtX>XtX7X7X7X0X;X7X0X3X3X,X;X3X;X;X XwX;X}.;X;X9X;X.X9X<X.X<X;X}.;X[.;X;X[.<X<X;X<X<X;X;X9X:X=X:X:X:X=X=X=X=X[.=X=X=X=X=X<X=X[.=X=X=X=X;X=X<X;X<X;X;X=X;X=X<X=X=X<X=X",
"W./.Q.W.W././.Q././.Q.Q.Q.Q.Q.D.E./.D.L.D.D.D.H.H.G.D.H.Q.H.H.Q.Q.Q.H.Q././.L.W.OX/.OXW././.Q.H./.L.L./.W.L.L.OX/././.L.L././.L.L././.OX/./././.W.OX@XOX@X/.W.OX/.W.L././.OXW.OXW.OX_.+X+X_.OXOX_._./._._./.(.(.(.(.(./.(.OX_.(.OX(.(.OX(.)./.^._.^._.).'.).'.`.`._._._._.`._.`.+X`.).#X+X#X`.-X).-X).1X|.#X#X1X$X#X#X1X#X1X1X-X-X-X{.{.-X-X|.-X-X-X-X1X1X5X1X1X5X2X5X2X7X7X7X3X2X5X2X1X8X5X5X4X6X7X7X6X6X6X7X5X5X7X5X6X6X6X6X6X6X2X6X8X8X6X1X8X6X4X7X1X7X8X8X4X8X8X8X8X8X8X8XfXfXfXfXfXfXgX6XgX6X6X6X6X8XlXvXUXE l 1 + > 8 : , : : ; : 6 $ # $ $ 2 * 4 4 4 $ 4 $ $ $ $ $ $ 4 2 8 * 8 2 8 8 4 8 $ $ > ; 8 4 8 w w w w 8 0 w 8 0 8 0 w , 0 0 w < < < w * , > , > > > 8 > > 8 w 8 > 4 8 4 4 8 2 4 * 6 8 $ 8 $ * $ $ + + + + + O + o X o X X o X X X X X o o   & o X o & o & o o & o & & X & X   o @ . 3 & . # @ @ & $ $ { P.iXUXsXdXsXiXiXpXaXvXxXvXkXlXlXhXpXqXpXpXzXqXlXqXzXzXzXzXzXzXzXzXzXsXzXzXzXzXcXzXzXzXzXxXzXzXzXzXzXzXpXlXlXlXlXlXlXlXlXlXlXkXlXlXkXlXkXkXxXlXlXlXlXlXlXpXhXzXpXjXqXqXzXhXhXqXqXwXqXpXqXpXpXqXpXqXpXpXpXlX8XpXqXqXkXpXpX8XlX8XlXpX8XyXqXpXqXqX8XqX7XyXqXqX7X7X7X7X7XyX7XwX3X0X3XwX9XwX9X;XwXwX;X3X;X7X,X>X7X,X7XtX7X,X0X7X7X0X7X7X;X7X9X3X;X;XwX;X;X;X;X;XwX9X.X;X;X<X9X}.;X}.;X<X;X[.;X}.}.;X;X<X;X;X;X<X-X-X=X=X=X=X<X=X;X=X[.=X[.=X=X=X<X;X<X=X;X<X;X-X<X;X<X=X;X=X=X=X[.[.=X[.",
"/.W././.!.W.!.!./.!.Q.Q.Q.Q.Q.Q.W.W.D.D.D.D.L.L.H.G.Q.H.H.Q.Q.H.J.Q.H./././.OXW.OX/.(./.Q.L.L./.L././.L.L./.L././.L././.L.OX/.L././.L./././.OX/./.+XOXOXOX/.OXOX/./././././.@X+X_.+X@XW.W.+XW.W./._./._./.(.(././.(.(.(.).(._.+X).(.).).).(./.(._.^._.)._.'.`.`.#X_.'.$X#X_.#X#X`.`.#X).1X#X{.#X-X).1X{.#X`.#X`.`.1X#X1X1X1X-X-X{.{.{.-X{.1X-X1X-X3X1X1X1X3X3X1X1X5X2X7X5X2X7X2X5X7X5X8X7X2X8X1X5X6X6X6X5X6X7X6X6X7X6X6X6XuX6X8X2X8X2X8X8X4X8X8X4X5X7X2X1X8X7X8X8X8X8X8X8X8XfX8XfXfXfX6XkXgXgXgX6XgX6XfXlXlXvXzX~ l > - > < > 9 ; : : ; 6 $ 2 2 2 2 2 4 8 $ * $ * 6 2 * $ 2 $ 4 8 8 8 4 8 8 8 8 > > 2 4 8 w w w q w q q q 0 0 0 r r 0 0 0 1 1 < w 1 < 0 , , > , > > < 4 > 8 > w 4 8 4 8 8 2 $ 4 2 * $ 8 > $ $ $ $ $ ; + ; + + + @ X X o X X X   o X   X X &   & & o   & X   X X &     & &   & & X . @ . & @ . X X @ $ T u.sXsXVXdXsXiXiXaXlXxXvXvXjXvXkXzXpXhXpXzXpXzXlXzXzXjXzXsXzXzXzXzXzXzXwXzXzXxXvXzXvXxXzXzXzXzXlXzXlXzXzXlXlXlXlXlXlXlXlXlXkXlXlXlXlXkXlXxXkXlXlXlXlXlXlXzXhXpXpXsXqXsXqXpXqXqXwX8XqXqXqXpX8XqXpXpXqXyXaXpXkX8XyXiXpX8XlXpX8XpX8XpXpXpXlXpXqXqXpXyX8XiX8X8XiX8XyX7X7X8XiX0XqX0X0XwX9XwXwX9X3X3X3X,X3X;X3X7X,X7XtX7X,X7X7X7X,X0X7X0X3X;X3X;X;X9X;XwXwX;X;X;XwX.X<X;X}.9X.X;X}.;X;X;X[.;X;X<X[.;X;X<X;X<X<X:X=X:X=X=X:X=X=X[.<X=X=X=X=X;X=X<X;X=X;X<X;X;X<X;X=X;X=X=X=X=X[.=X=X=X<X=X",
"W./.W././././././././.Q.Q.H.H./.H.D.D.D.D.L.L.D.G.G.H.H.H.H.H.Q.Q.C.Q.Q.H.L./.L./.OX/.(././././.OX/.L.W.W.L./.L././.L./.W./.L./.L./././././././.OX/./.OX+X/././.W.OX/./.OX/.+X_.+X_.@X+X+X@XOX_._.!././.)././.(.K./.(.(.+X+X+X+X(.OX(.(.(.)._._.).).).).`.`.#X#X'.$X$X_.'.#X`._.#X+X+X1X{.-X1X-X).-X+X1X+X1X#X#X`.#X#X1X-X#X+X).{.-X-X{.-X{.-X-X1X-X5X1X3X1X3X5X2X3X2X7X2X7X2X7X7X2X8X1X8X7X8X8X7X5X5X7X5X5X6X5X6X5X6X6X6X8X6X6X4X6X6X4X6X6X7X6X8X7X2X7X2X8X8X4X8X8X8X8X8XgXfXfXkXkXfXfX6X6X$X$X2X6X2X6X8XfX4X7XE a > o ; ;   : + : ; $ $ $ 2 8 2 4 8 6 4 8 8 $ 2 $ $ 4 * 6 8 2 8 8 8 8 8 8 8 8 > 8 8 6 w k k k k k d q t e t 0 9 0 u 0 w e w w 1 w w 0 < 8 < < * > > * w < 8 w > 6 4 $ 8 * 8 2 > 2 8 $ $ > $ $ $ * + > + + + + o o X o   X X X X o o & o o & & X X X o & X o & X o X o o &   & & . 2 @ . . & . @ X $ U *.sXdXsXsXdXaXpXaXyXkXfXlXvXlXlXhXzXsXpXlXhXzXpXzXsXzXzXzXzXzXsXzXzXzXsXcXpXzXcXzXzXcXxXlXzXzXxXzXpXzXpXpXzXzXaXpXlXlXlXlXlXlXkXkXlXjXvXlXxXxXlXlXlXlXlXzXzXpXhXqXqXwXhXqXqXqXqX7X8XqXiXpX8XpX8XpXpXpXpXqXqXiXqX8XqXpXpX8XpXpX8X8X8XpX8X8XpXhXqX8XiX8XqXiX8X7X7X7XyXyXiX0X0X0X3XwXwXwX9XwX9X3X9X3X0X7X;X7XtXtX,XtXtXyX7X0X7X0X7X;X7X7X;X9X3X;XwX;X;X;X;X;X;X9X9X}.9X}.9X;X;X;X;X;X;X[.[.<X;X<X;X}.<X;X<X=X<X-X:X=X=X=X;X<X<X=X=X=X=X=X=X;X<X[.=X=X=X=X=X=X;X=X;X<X=X=X=X=X=X].[.=X",
"Q.Q.Q././././././././.L./.L.H.W.D.L.W.D.W.D.L.L.L.L.G.A.H.T.Y.~.~.~.Q.H.H.H.H.L.(.(.OXOX(.OXOXOXL.L.OXW././.L.OXL././././././.OXOXW./.W.OXOXOXOX/./.OX(.).(./.).(./.(.~.(./.).-X+X+X+X+X+XW.W./.).).)././././.(./.K.(.(.(.+X).+X(./._./._./.)._._._._._.'.$X$X`.$X'.'.$X`.#X#X`.`.+X#X|.|.+X).-X{.+X).{.).1X+X|.1X+X+X|.-X1X-X#X-X{.{.{.;X{.-X;X1X-X1X1X1X5X1X2X7X2X7X1X1X7X6X4X1X7X7X2X7X2X7X4X7X2X8X6X5X8X6X6XyXuX8X6XfXuXfX6X6X6X4X2X2X8X4X8X8X7X4X7X7X4X2X3X8X4X4X8XgX8X8X8XkXkXkXgX$XkX$XkX1XfXlXbXvX4X6XY.M p - : < : : : ; + + * 4 $ 2 2 4 2 6 4 8 8 : > $ ; > > 8 8 ; 8 8 8 8 8 w w w w e w q k k k s s j d d d j j d d u q 0 0 e u e w w 1 e w 1 5 1 < 0 < 8 w > w > > 8 8 ; ; $ ; 8 2 $ 4 2 2 * 8 $ 8 ; > $ $ + + + +   O   + +       + X   X       X . X     . X   X X X   & &   o & & . . .   . .   . # 6 q ` P.<XdXAXsXsXiXaXxXxXkXkXlXvXlXzXzXsXzXlXlXaXpXlXpXzXzXzXsXUXwXzXzXsXpXzXzXzXzXzXzXzXzXcXsXlXpXzXpXzXzXcXzXzXlXlXyXpXlXxXkXlXkXlXkXkXlXxXyXkXxXlXvXlXzXzXhXzXqXqXqXqXwXpXwXyXqX8XpXyXqXyXlXpXlXpXlXlXpXqXqXiXpXqXqXiXqXpXyXpX8XqX8XpXlXlXqXlX8XqX8X8XqXyXiXiXyXqXiXtXtX7X7XqX0XwXwXwXwXwXwX3X3X0X3X3X7X7X7X7X7X,X0X7XiX0X,X;X9X7X9X0X7X;XwXwX;X9X9X;X9X;X9X;X;X;X<X9X;X;X;X;X;X}.;X<X<X,X:X,X<X,X<X;X;X=X:X:X=X=X=X:X=X=X;X[.<X[.<X;X[.-X{.=X{.;X=X{.=X[.=X[.=X[.=X(.(.-X=X-X=X=X",
"W.Q./.Q./.Q./.Q.~./././.H./.H.H.W./.W.W.L.W.oXL.L.L.G.H.C.Z.C.~.H.H.H.H.H.Q.Q.~./.K.L./.L.L./.L./././.L.L./././.L./.OXL.OXL./.L.W.L./.L././.W.OX/./._./.(./.~.~.(.~./.(.(.(.(.).+X+X_.+X+X+X+XW.+X_._./.(./././.K./.K.(.(.(.OX+X(.).(.(._.).)._.'.'._.#X'.`.`.#X'._.#X'.#X#X`.+X1X`.-X+X-X-X1X).).).1X`.-X).1X1X#X1X1X-X`.).1X-X-X{.{.{.{.{.-X|.-X3X1X3X1X1X7X1X2X5X7X1X1X7X4X7X2X6X2X4X2X3X4X7X8X7X7X8X6X7X7X6XuX6X8XuXuX6XuXkX6XgX4X2X4X2X2X2X4X4X4X8X7X3X7X7X4X8XgX4X8X8XgX8XkXgXkXkXkXgXkX$X6X8X|.1X`.^.%.J m 1   - : : : : ; + $ $ 2 $ 2 4 4 2 4 6 6 6 > 6 $ 8 8 8 8 ; 8 $ 8 8 w w w w 7 w w e i j j N N N N N N h j j d d k k k e e k e 0 w w 5 e e e e 5 w > w > 0 > 8 0 , > 4 8 ; ; $ 8 8 2 6 * $ $ 4 ; $ $ $ + +   +   +     O X   + O   o X     X       & & X &   X & & X X o o & & o & . . . . . . . . . 6 6 A *.].dXsXsXaXaXyXZXZXxXkXxXlXvXzXzXsXsXlXlXyXlXpXzXwXzXsXzXsXUXsXzXzXzXzXsXzXsXsXsXzXsXzXsXpXsXsXsXsXzXxXcXpXsXaXaXlXaXlXxXlXlXxXxXlXlXkXkXlXlXlXlXlXlXhXsXhXhXzXqXqXqXqXqX8XqXpX8X8XpXqXyXlX8XpXpXpXpXqXiXpX0XiXqXpXqXiXqXiX8XyXpX8XpXfXpX8XlXiXqXiX8XqX8X8XpXyXiXqXiX7XwX7XwX3XwXwXwXwX7XwXwXwX7X7X7X7X7X7X7X7X7X7X7X,X7X7X7X,X7X,X,X9X9X;XwX;XwX;X;X;X;X;X;X<X<X<X;X;X}.;X<X<X<X<X<X:X-X:X-X-X;X[.;X=X=X=X:X:X=X=X-X=X=X=X[.<X[.{.<X=X-X-X=X-X[.=X{.=X{.-X[.[.[.[.=X=X[.=X(.(.",
"Q.E.Q./.Q./.Q././.H.Q.D.Q.L.Q.L./.W.W.L.L.L.L.L.L.L.L.C.J.C.Q.Z.C.C.H.H.H.H.L./.H.L.L.L./.L./.L.OX/.OX/.L.OX/./././.OX/.K././.L.W.OXOX/./././././././././.(.(./.~.~.[.(.(.).+X).+X/.OX+XW.W.@XOX_._./._./.(.(.OX(.K.(.(.(.OXOX(.).(.).(.).(._.)._.#X#X_.$X#X`.#X'.$X`.#X`.#X`.1X+X1X-X1X1X-X+X-X1X-X{.+X`.{.1X+X{.1X{.#X-X1X1X{.{.{.{.-X{.{.-X|.1X5X1X7X5X5X2X7X8X1X1X7X7X1X2X7X7X8X2X7X4X7X7X4X8X8X8X8X8X8XuX8XkXuX6XyXuXfX6X6XfXgX8X6X2X8X7X4X7X4X2X4X4X4X7XwX8X4X8XgXfX8X8XfX6XkXgXkXkXgX$XkX8XvXkXkX4XQ.&.z - -         : : $ + = $ 2 $ 2 4 2 2 8 8 8 ; > > 8 8 8 w 8 8 8 6 4 w w w w w w w e i j l F F Z P Z N V N h h d d d i e k u k u e e e 1 1 1 5 1 5 w < < > * w > w 4 8 * $ $ 4 $ 8 4 2 6 4 2 4 $ $ * $ + + O + + + + O + + + +   + + +   X X   X   X X .   X   X   X   X X o   X X .   . . O . . . & O 2 2 q R u.dXsXVXVXiXyXxXvXvXvXlXlXlXzXzXjXsXaXkXlXpXlXpXpXzXwXzXsXwXsXzXzXsXsXsXzXsXsXzXzXzXzXpXpXzXzXsXzXzXzXzXpXlXpXlXpXlXlXkXfXpXkXkXlXlXlXyXlXlXlXlXlXlXzXzXzXpXqXqXqXpXpXqXpXiXpXqXpXlXqXpXpXpXqXpXqXpXqXqXqXqXqXpXpX8XqXiXqXqX8XpXpXlXyXhX8XpX8X8XyXyXqX8XiX8XqXyXyXyXqXqXqXqXqXwXwX0XwXwX7XwX7X7X7X7X7X7X7X7X7XtX7XiX7X0X,X7X0X7X,X0XwX;X9X;X;XwX;XwX;X;X;X;X<X;X;X;X;X;X;X;X;X<X<X<X:X:X;X-X<X;X[.=X:X=X:X:X=X=X=X=X=X[.=X;X<X[.[.[.-X=X-X=X=X-X=X=X=X=X=X[.=X=XOX=X[.OX[.=X=X",
"/./././._./././.L.Q./.H./.H.H./.L./.L.L./.L.L.L.L.L.J.H.J.H.H.H.H.H.H.H.H.H.K././././././././.OX/.OX/./././././././././.OX/././.OX/.W./././.L./.(.(.(.).).(.{.).(.(.(.).+X(.+X(././._._.+X+XW./._./.)././.(./.(.K.(./.(.(.(.(.(.(._.).).(._._._.#X_._.'.$X_.#X#X$X_.#X#X`.#X#X#X#X1X#X1X1X1X1X-X1X`.1X).`.-X).|.|.-X#X-X1X).-X|.{.1X{.{.1X-X1X1X1X1X1X1X7X2X5X3X1X7X6X1X3X7X2X3X2X7X7X4X7X8X4X4X8X7X8X7X7X6X8X6X6X6XyX6XfXuXkXyX6X6X6X4X4X4X3X2X2X2X7X4XwX7X4X4X8X4X8XfX8XkXkX8XkXgXkXkXkXkXkXkX1XkXlXkX!.%.E z < - , - :   # > * = $ * 4 % 2 2 4 2 2 2 2 8 ; 8 8 8 w w w w w w w q q 7 q q k i d g l m H H H H F Z F Z l h l a a d i i i q e 0 w 1 w e w e 1 w < < > w < w > 8 8 * * > 2 $ * 2 6 4 $ 2 > $ $ $ $ $ ; + + + o + + + + + O + + + O           X     X X X X X X X & o & o X X o o O . & . . . . . . . 2 # 6 s ~ K.dXsXsXaXyXaXaXlXkXxXvXkXzXzXqXzXlXlXlXaXpXzXsXqXUXsXsXzXhXsXhXsXhXzXzXzXhXsXUXzXzXzXzXaXhXzXzXzXzXpXlXlXpXpXlXlXlXlXlXlXyXlXkXlXlXlXlXlXlXvXlXzXzXpXhXzXpXzXpXqXqXpXpXqXqXpXpXpXpXpXqXqXyXqXyXqXiXiXqXiXiXqXpXpXpX8XqXyX8X8XpX8XhXyXhXfXqXqXqX8XiXqXyXiXtXyXiXpXiX7XiX8XiXqXqXwX7XwXwXwX7XwX3X7X7XyX7X7X7X7X0X7X9X7X0X7X0X,X0X,X3X;XwX;X9X;X;X;X9X;X;X<X}.;X<X;X;X;X;X<X;X<X<X<X;X:X:X:X=X[.[.;X=X:X:X:X:X=X;X=X=X;X[.=X[.=X}.<X=X=X=X=X=X[.=X=X-X[.-X=XOX=X=X=X-X=X=X=X-X",
"Q./././././././.Q.E./.H./.H.Q.D.L./.H.L.L.L.H.L.L.L.L.L.L.G.H.H.H.H.H.H.Q.L.Q./././././././.OX/.OX/././././.L.(./.(./././././././././.W././.~./.)./.(.(.(.(.}.[.(.).(.).+X(.+X(.)./.OXOX/.+X_./._./._./.(.OX(.(.(.(./.(./.(././.).)._.).@X_._._.#X+X#X#X#X#X@X$X$X_.`.$X#X#X#X#X#X1X+X1X1X1X#X1X-X1X-X).).|.-X-X#X1X).-X`.-X|.-X`.1X#X1X-X|.1X1X1X1X8X1X5X8X7X5X5X5X5X7X1X7X5X5X7X5X7X7X2X7X3XwX8X8X8X8X7X8X8X8XuXyX6XuXyX8XkX6X6X8X8X2X7X2X7X2X1X8X7X7X7X8X8X4X4X8X8XfXgXfX8XfXkXkXkXkXkXgXkX$X6XkX6X/.&.l z e > * w < $ + ; , * = = * 4 % * 4 4 2 2 4 > 4 8 8 5 k k 5 k w w w w w q s q d c H H J K J G G P G G G H H H n l g a j i d d i e 0 e 1 e 1 1 0 1 < < < < 5 < = 5 < 4 4 4 4 4 4 * 2 4 $ 6 4 2 $ $ $ > $ $ $ + + + + + + + + + O   + X o X   X X       X .   X   &   o X o X   o o o X   &   . O X . X & % @ @ 8 Z X.K.dXsXUXsXsXcXaXxXkXlXlXhXqXzXlXzXlXlXlXsXzXwXsXwXsXsXsXjXsXzXsXzXzXlXlXzXzXzXzXlXlXvXzXvXzXlXlXzXpXzXaXzXpXlXpXyXpXlXfXhXpXlXkXlXlXlXlXlXlXlXzXzXzXpXlXpXpXlXlXpXpXqXpXpXqXlXpXpXqXpXpXqXqXpXqXqXyXpX8XpX8XyXqX8XyXiX8XiX8XiXqX8XpXqXqXpX8X8XqXyXiX7XiX8XiXiXyXyXiXyXiXqXqXqXwX7XwX7X7X7X7X7X7XtXyX7X7X7XiX7X7X7X7X7X9X7X7X9X9X3X9X9X3XwX9X;X;X;X;X;X;X;X;X;X;X;X;X;X<X<X<X,X:X<X:X-X<X<X<X<X}.-X:X:X;X:X:X=X;X=X;X=X=X[.=X[.<X=X=X=X=X:X=X=XOX=X=X:XOX=X=XOX:X=X=X=X=X[.",
"H.L.L.H.Q.L.H./.H.L.H.D.D.Q.E.L.W.L.Q.L.H.L.L.L.L.L.L.K.L.G.G.H.Q.H./.Q./.H.H.H.L.D.D.W.W.W.W././.W./././././.(.OX/.OXOXOXW././.+X/._./././././././.(.(.(.(.(.(.(.(.(.).(.).OX)./.(._.+X+X/.+XOX).+X_.(./.(.(.OXOXK.(.(.(.(.(._.+X+X+X@X_.@X#X+XW.$X#X@X#X#X1X@X$X@X+X'.).`.`.#X`.1X#X1X1X@X1X+X1X).|.1X-X`.1X`.-X|.+X|.-X1X1X#X1X|.|.|.1X1X1X1X5X1X7X6X6X5X6X5X5X5X3X7X2X5X5X3X3X3X2X3X7X2X2X7X7X8X7X2X8X5X6X6X6X8XuXyX6X6XuX6X6X4X6X8X8X6X5X8X2X7X2X8X4X8X8X8X8X8X8X8X8X8X8XfXkXgXkXgX6XkX6XkXkXkX#XW.&.l z - - < w 4 > > : , * * $ * 2 4 4 4 4 8 4 4 8 8 w w 5 k e k 5 k w w w q q d f F K R [ [ ~ ~ T Q R R T R Y J G F l l g j a d d i i e u e e 0 e 1 w < w < < < < < < * 4 = 4 4 4 * 4 = 4 2 $ $ * * $ $ * $ $ $ + + + + + + O +   + + O + o           X X X X O X X @ X &   o & X o & o X X X &     X X & & % @ @ 2 w G u.].iXAXUXUXcXzXlXlXlXlXhXzXqXlXvXlXlXlXwXhXzXsXwXUXUXwXzXsXsXzXzXzXlXlXlXzXlXzXlXvXzXzXlXlXlXlXpXzXpXlXpXlXzXlXlXpXpXlXpXlXlXhXlXhXlXlXlXzXzXhXhXpXzXpXpXpXpXpXpXqXpXlXpXpXpXlXlXpXpX8XiXpXqXpXlXlXkXqX8XpXpX8X8X8XqXqXqXpXpX8XqXqXpX8X8XpXiX8XyXpXyXyX7XyXyXpXiXyXqX0XiXqXqX7X7X7X7X7X7X7XyX7X7X7X7X7X7X7X7XiX0X0X0X7X0X,X,X9X9X;X3X9X9X;X;X<XwX<X<X9X;X9X;X;X;X;X;X;X;X;X<X-X;X<X<X;X<X}.<X}.-X<X-X:X<X-X;X:X;X=X;X=X<X[.[.=X:X@X>X+X+X+X:X:X=X+X=X+X=X@X:XOXOX[.=X(.=X",
"H.L.Q.H.L.Q.D.H.D.H.W.Q./.D.Q.D.Q.J.H.J.J.L.L.G.L.G.L.L.K.L.L.L.L.L.H.L./.L./.D.D.E.W.W.Q.W.W.!./.Q.W.L./././.Q._.OX_./._./._./._._._./._./.(._.~./././.~.K.K.J.OX)./.OX/.+X(.)./.(.(././.).+X_._.+X)./.(.(./.OX(.(.OX(.(._.OX).#X#X#X#X#X@X#X+X@X#X@X+X#X@X#X>X#X#X_.+X+X#X+X1X+X1X#X1X#X#X#X#X`.+X+X1X1X-X1X1X-X1X|.-X|.).1X+X#X1X|.#X#X1X#X1X1X5X6X7X7X8X7X5X3X5X5X7X7X5X7X3X3X5X3X5X3X3X7X3X7X2X7X8X1X7X8X5X6X6X6X6X6X6XyX6X1X5X8X8X8X8X8X4X2X6X8X8X8X8X8X8X8XqXgX4X6X8X6X6XfXfX$X6X6X6XkXkX$X$X#Xn._ l 5 o 5 * * * 8 > 4 8 > 4 * 4 4 * 4 4 8 8 4 8 5 w 0 q k k k k k w k w w k j h Z K T `  .{ { { [ [ Q ~ Q T Y L J H n l h g j a a i i i u e 0 0 1 1 < < < < 5 < * > < < * 5 4 4 5 4 4 4 4 $ * $ $ * * $ $ * $ $ $ = $ $ + + + % + X + o X   X X X   X X   X X X X X X X o X & o &   o o X   & o o   X X @ & X @ @ % % N { P.dXsXsXzXUXhXxXlXlXkXlXkXlXlXvXlXhXhXzXsXzXhXUXUXzXsXzXzXzXhXlXlXvXlXlXlXlXvXlXlXvXlXvXzXkXvXlXzXlXpXzXpXzXzXlXpXlXpXpXlXhXsXjXzXjXlXzXhXlXlXpXlXpXpXpXpXpXsX8XpX8XiXqXpXpXqXlXqXpXqXqXpXsXhXfXlXkXlXlXpX8XpX8XiX8XpXqXiXqX8X8XpX8XpXpXpXpXpXpXiXyXyXyXyXiXyXyXiXiXyX0XyXtX7X7X7XyX7XyXtXyXtX7XyXyX7XtX0X7XyXiX7XiX7X9X7X0X,X3X9X9X9X;X9X<XwX9X9XwX<X;X;X;X9X;X;X;X,X;X<X;X<X[.;X;X<X}.;X}.<X<X,X-X<X;X;X<X;X=X=X=X;X;X<X<X<X:X:X:X:X:X:X:XOXOX:X:X:X:X:X:X:X=X[.[.=X[.",
"L.H./.L.H.L./.H./.D.H.D.D.Q.E.H.~.H.J.K.K.L.G.G.L.L.G.K.L.L.L.D.G.G.L.L.D./.D.L././././._._.W.+XE./.Q.Q.E./././.+X).+X).+X+X_._.+X)._._./._._./.(.(.(./././././.+X(.).(./.(./.(./.(._.+X(.+XOX).+X)./.OX/.(.(.(.(./.OX(.(.+X/._.W._.@X@X#XW.@X+X@X@X@X#X@X>X@X#X-X+X+X).).+X).+X#X@X#X#X#X#X#X#X1X1X).-X+X1X-X1X`.|.-X`.-X`.-X1X X$X$X#X#X1X$X1X1X5X5X6XyX6X6X>X>X3X5X7X7X5X3X5X3X;X5X3X;X7X3X5X2X7X2X1X4X5X1X8X6X7X6X6X6XuX6X6X1X2X1X6X8X8X6X8X7X8X2X5X8X8X7X8X8X4XfX8X8X8X6X6XkXfX6X6XgX6X6XgXkXkX$Xr.W z z 5 w 5 * w 8 8 $ $ 8 * 4 4 4 * 4 4 4 w w 4 w w q e k k 5 5 k w 5 k k j Z F H G T ` } } } ~ [ ~ [ [ Q T R L L J m l g h a j a a d a u u u u 1 1 < 1 < < 1 < 5 < * 5 5 * 4 5 4 4 4 4 $ * $ > $ $ $ * $ + + + + + + $ + + % O + @ X X o o X o & X X   O X X X   X X X X X o   o & &   X & o   & & & @ @ & X @ % @ 2 j ` j.<XsXsXAXsXpXvXkXlXkXfXlXfXlXzXzXzXzXzXqXqXzXsXwXzXzXzXzXsXzXlXlXkXlXlXvXlXlXlXlXlXlXvXlXvXlXlXpXlXpXpXlXpXpXlXlXpXkXlXqXzXhXvXjXzXzXzXhXpXlXpXpXpXpXpXpXpXpXpXqXpXqXpX8XpXpXpXpXpXpXqXpXhXzXlXkXkX8X8X8X8X8X8X8XiX8XiXqXiXqXpXpXlXqXpXlXaXlXpX8XyX8XyXyXyXpXyXyXyXyX7XyX7X7XyX7X7X7X7XtX7XtX7X7X7X7X7X0XiXiX0XiX0X0X7X7X9X,X9X9X9X3XwX9X9X;X9X<XwX9X0X;X9X;X;X,X;X;X;X,X;X-X<X<X<X;X;X;X;X<X;X:X<X;X;X:X-X<X=X;X<X=X;X<X;X;X:X:X:X:X:X:X:X:X:XOXoX:XOX:XOX:X=X=X=X=X=X",
"H.L.L.H.H.H./.H./.H.H.D.Q./.E.Q.L.J.J.G.J.Z.G.J.L.L.L.L.G.L.oXD.D.F.L.L.L.W.OX/.+X+XW.@X_._.+X_.!.!./.Q./././.K.(././._.)._.)._.)./.).)././././.(./.(./.(./.OX/.(.OX/././.OX(.)./.(.+X/.+X+X).+X+X(.).(.(.(./.L.(.(.OXOX_.OX).+X@X#X#X@X#X@X#X@X@X#X@X-X@X5X@X-X+X+XOX).(.OX+X+X@X1X5X1X$X#X#X1X#X-X1X@X1X1X1X-X+X1X|.1X|.{.|.`.#X2X$X$X1X1X$X$X1X5X5X6X6XyXtXyXyX5XtXtX8X5X8X5X7X5X7X1X3X-X1X-X3X1X1X1X2X5X5X1X1X6X6X6XyX6X7X6X5X1X8X8X6X8X8X8X6X8X8X5XyX6X8X6XwXfXgX4X8X4X8XgX6XfX6X6X6X6X6XuXkX6XW.%.z e k = 5 4 w 4 * 8 8 4 4 4 8 4 4 w w 4 e w w e 5 w k e k z k z k k k k j F I Y / / / _ @.X.{ } } { { [ ~ Q R L L J J m C n l a a d e i a i u u 0 0 1 1 e 1 1 5 5 1 < 5 5 * * 4 5 5 4 4 * ; $ * $ * $ $ $ $ $ $ $ $ % $ + $ + % + X X X X X o X X X o X O   X X X   X   & X & o o o o   & & o & o & o @ % & % @ & @ % w v ! P.9XsXiXUXsXaXkXkXlXkXkXlXkXxXkXlXlXlXkXpXqXhXsXzXzXzXzXxXxXlXvXlXlXlXvXkXvXlXlXvXkXvXlXvXlXzXpXzXqXzXqXzXzXhXsXwXwXsXzXqXzXhXhXzXzXzXzXhXzXsXzXwXwXsXzXsXqXiXpXpXpXqXsXjXqXpXqXqXsXhXpXpXpXkX8XkX8XiX8XqXwX8XiXiXyXqXqXpXpXyXpXqXpXlXpXpXyXaXyXxXuXyXaXaXuXiXyXyXtXyXtXyXyXtXtXtX7X7XtX7XyXyX7XyX7XiXqXtXiXiX0X7XiX,X7X,X0X9X9X0X0X,X0X,X0X;X7X9X9X;X0X;X0X0X9X;X;X;X;X<X<X;X<X;X;X;X<X;X;X;X<X;X<X:X;X;X;X;X=X:X;X;X<X,X:X:X,X:X:X:X:X:X:X:XoX:X].].:X:X=X=X=X=X=X=X",
"L.H.L.L.H.L.L.H.H./.Q.L.H.E./.H.L.J.J.G.J.J.L.L.K.L.L.H.L.L././.L.L.L./.OXW.L./././.!.W._._.W.W././././.~./.(.K.(.(.(.(./.)._.(._.).)./._./././.(.(./.(./././.OX+X_.).(.)./._.OX(./.(.).(.-X+X+X+X+X+X(./.(.(.(.OX).(.)._.(./.+X#XW.W.@XW.@XW.#X+X@X@X-X@X>X>X5X+X-XOXOX+X).+X#X#X1X$X$X1X$X$X1X@X1X-X#X1X-X1X#X|.1X1X{.|.1X{.1X#X`.#X|.$X1X1X1X5X1X5X5XtX6X6XtX5XyX5X5X5X7X5X5X7X1X2X5X5X3X3X3X5X1X7X1X1X3X2X5X5X5X6X8X6XyX6X6X2X7X6X8X8X8X8X6X7X6X6X8X6X8X8X8X8X4X8X4X6X8X8X8XfXfX6X6X6X6XkXkXxXkX#XX.e 5 5 4 * 8 4 * 4 4 8 8 8 w 4 8 w * w w e w w e k k e j j j j k z k k k h P Y R / / .._ ..@.{ { } } } ~ [ ~ E E E L J J J m l g a d a a i i u u e 0 1 1 1 e 1 1 < 5 w 5 * 5 5 4 * 4 4 4 * $ * $ ; $ * $ $ = $ % % $ $ % $ $ $ O X + o O + X X X X   X X X X X O X X X   X   o X X & o & o X o   &   o o o & @ X & X @ 4 s K P.9XsXiXsXiXaXyXlXkXkXlXkXlXvXkXlXlXpXlXqXpXsXpXzXcXzXzXcXxXvXlXlXlXlXvXlXlXkXvXvXlXlXkXlXlXlXzXpXzXpXzXpXlXzXzXzXzXhXsXhXsXqXzXhXhXzXhXpXpXsXwXzXsXsXqXsXqXpXqXpXqXsXqXsXsXpXsXpXqXsXqXpXqXpXlXpXqX8X8X8X0X8XqX8XqXpXpXpXpXqXpXpXpXpXpXpXpXyXaXyXaXaXkXyXaXyXyXyXtX7XyXtXtXtXyXtXyXyXtXtX7XiX7X8XiX7XiXiX7XqXiX9X7X0X,X0X,X,X9X,X9X9X,X0X,X9X,X,X,X,X,X9X,X,X;X;X;X}.<X}.;X}.;X;X<X;X;X;X;X:X;X,X;X;X;X:X<X;X<X;X<X<X-X<X-X,X>XrX:X:X:X=X:X:X:X:X:X:X=X:X=X=X:X=X=X<X",
"H.L./.Q.L.Q.Q.L./.H.Q.L.L.E././.J.K.J.J.J.J.J.H.J.H.L.L.K.L.L.oXoXW.OXL.W.OXL.@X/././././.W./././.Q.Q./.J.~.K.K.(./.(./.~.)._././././.~.(./.(./._.(././.(./.OX/.+X_.+X/.+X/.)././.(.OX_.).(.[.).).OX(.(.(.(.(.(.OX(.+X(.OX+X_.).W._._._.@X+X+X@X+X+X+X+X+X-X-X-X-X@X-X+X+X-X-X#X#X-X#X1X@X@X$X#X#X1X+X1X@X1X).-X|.-X`.1X{.|.|.{.1X`.`.1X1X#X1X#X5X5X5X6X6XyX8XuXyX6X7X6X6X5X5X5X1X5X1X1X1X1X5X1X3X1X1X1X1X2X1X1X1X5X6X6X6XyX6X8X1X1X7X8X8X7X8X6X1X8X8X5X6X8X6X8X8X8X4X4X8X8X6XfXfX6XkX6XgXgXfXkXxXkX$XE e 5 = 4 8 4 8 4 2 8 4 2 4 8 4 8 4 w w w w w e e e k k z z l z j k k j j F P / / ) } 0._ ..X.@.{ @.} } } } ~ ~ ~ ~ E W J J F n l l d z d e d u e 1 0 w 5 e 5 1 5 5 < < w < * * 5 * 4 * * * * + > * $ * $ = % $ * = $ = % $ $ % $ + @ @ o @ % X + X X X X   X X   X X X X & o   o   o & o & o &   & o @ @ % & o @ @ % X 2 7 v N.9XdXsXsXsXpXlXkXlXkXkXlXvXkXvXlXlXlXlXqXzXzXzXzXlXxXlXvXxXvXlXvXlXlXlXlXlXlXvXkXvXlXvXxXlXlXzXqXqXpXzXzXzXsXwXsXzXsXqXzXzXhXhXzXzXqXzXpXhXsXsXwXUXsXqXqXsXqXpXpXpXsXsXsXzXsXqXsXqXqXsXsXqXpXqXlX8XpX8XqX0XqXqXiXqXqXsXpXpXpXpXpXaXaXpXaXyXxXaXkXaXaXuXaXyXyXqXiX7XtXtXtXtXtXtXtX5X7X7X7X7X7X7X7X7XiXqX7XiXiX7XiX,X7X7X,X9X0X,X0X0X9X,X,X9X,X0X9X,X7X7X,X0X9X,X;X;X;X;X;X;X}.;X}.;X<X;X;X;X;X;X;X;X;X;X;X,X<X-X<X-X-X:X,X:X,X:X<X:X:X:X:X=X:X=X:X:XOX:X<X=X<X=X;X=X[.",
"/.H.H.L.H.L.H./.L.Q.L.H.Q.L.H.L.J.G.G.J.H.H.J.H.Q.J././.L.L.L.L.W.L./.OXOXoXW.L.L././.W.L.W.Q./.Q.Q.Q.L.H.J.J.J.K.K.J.(././.(._.^.(.(.(.(./.)./.OX/.OX/./.OX_._.OX+X/.+X/.+X/.OX(.)./.OX(.).(.).+X).+X(.OX(.OXK.(.(.(.(.)._.+X_._.@X_.+X_._._._.+X).+X+X+X-X@X-X-X+X+X+X+X@X#X-X@X#X@X@X1X$X#X@X@X-X#X+X1X+X).1X+X1X{.{.|.{.{.|.).#X#X1X#X-X#X>X1X>X6X6XuX7X6X7X6XuXuX6X6X5X5X$X1X5X1X5X6X7X2X7X3X2X5X3X7X1X7X1X1X2X6X6X6X6X6X8X6X7X1X8X8X7X8X8X8X6X8X8X6XfX8X8XfX8XfX8XgX6X8X8XyX6X6X6X6XkXkXkXkX$X+XC e 5 % 4 * 2 $ * 4 2 4 $ 8 4 8 4 w > 8 0 w w e k k j k N j j l j z j V z I / ) ......_ 0.@.X.@.{ { @.{ } } } [ } ~ ) E W J J J l l d a e d e e e e w 1 w 1 5 5 w < 5 5 < 5 * < * * = * * = * * = * = $ = = $ % = * % % % % $ % + + % X X X X @ X X % X X O X X O   .   X   X X o o & o o o & o   X & X X % & % o % % & # 6 y u.<X9XUX9XsX8XiXaXyXkXvXkXvXvXvXkXlXhXpXzXqXzXjXzXzXzXzXlXxXlXlXvXlXlXlXxXlXlXlXkXlXlXlXlXlXzXpXzXlXhXqXzXpXzXzXwXwXhXsXsXqXpXpXqXpXpXpXpXpXwXsXUXwXsXqXsXqXpXqXpXqXqXzXqXqXqXpXpXzXqXsXsXsXpXpXiXiXqXqXqX0XiX7XqXiXpXiXqXqXpXpXpXpXpXlXyXaXxXyXxXuXaXxXyXaXiXpXiX7X7XyXtXyXyXyXyX7XyXwX7X7X7XyXiX8X7X7XiX7XiX7X0X0X,X0X0X9X0X9X9X,X0X9X9X7X,X0X;X,X0X;X7X,X;X7X;X;X;X;X}.}.<X<X}.<X}.;X<X}.;X;X<X-X;X;X;X;X;X;X,X:X<X,X<X-X<X:X,X<X-X<X:X=X:X:X].:X:X:X<X=X=X=X=X;X<X",
"/.H.Q.H./.L.Q.L.L./.H./.H./.H.L.J.L.K.J.J.H.H./.~.~./.L.L./.oX/.L.oX/./.L.W.L.W./.L.L./.L.W./.Q.Q.Q.Q.H.K.J.L.].J.].K.(.(./.^./.~.K.(./.(.).(.)._.OX/.+X+XW.@X+XW.@XW.+XOX_.OX)./.).(.(.).(.(.[.OX).OX(.(.(.OX(.(.(.OX+X)._._.+X/._./.).!.).+X_.).).OX(.+X+X#X@X-X-X@X-X-X+X1X@X@X1X@X#X@X#X@X#X1X#X#X-X).#X).-X{.1X).1X|.{.|.|.-X-X-X|.-X-X1X#X5X5X6X5XuX6XuX5X5X7X6X6XuX$XuX5X1X5X5X6X5X6X6X2X5X3X3X3X4X1X2X5X1X1X8X6X6X8X6X8X7X1X7X7X8X8X6X7X8X6X8X6X8X6XkX6XfX8XfX8X8X8X8XgX6XgX6X6XgXfXkXlX8X`.m.l e w o > $ ; 4 2 2 * 2 $ 2 6 4 6 8 8 8 8 w 0 k e k j j z g h l l j j V H T ) ..X._ r.w._ X.0.......+...{ } } } } _ _ E I I J C V l j z d a d e e e w w e e e 5 5 5 5 < w < * > = * = $ $ = = + $ * $ % = % = % $ % % 2 2 $ $ $ % % @ @ % X @ @ @ X X X X . .   X X   o & &   & % X   & & & o X & X   X X % @ 2 @ X @ @ $ : q O.].;XsXiXsXyXpXyXyXvXxXvXxXkXvXkXlXUXwXzXzXzXsXzXzXvXxXvXxXlXlXlXlXlXlXlXxXlXlXlXvXzXlXlXzXsXjXqXzXpXhXzXzXUXwXsXUXwXsXqXsXpXqXpXqXqXqXpXpXwXsXsXsX9XUXUXwX0XpXsXqXsXqXsXsXsXsXwXsXzXqXsXwXpXpXpXqXwXiX0X0XpX0XqX0XqXiXsXpXyXpXpXaXaXyXxXyXyXyXxXyXkXxXaXkXpXqX0XqXtX7XtXtXuXtXyX7X7XqXwX7X7X7XtX7X7X7XiX7XtX0X7X7X0X,X9X7X9X9X9X9X,X,X0X9X,X0X7X9X,X7X5X,X,X9X;X;X;X;X;X;X}.<X}.<X;X<X<X<X-X;X;X;X;X;X9X,X,X<X,X-X,X,X:X:X<X<X;X<X=X;X<X<X:X;X=X=X=X<X=X<X=X;X<X;X=X",
"H./.L.K./.H.H./.H./.L.H.L.L.L.L.L.L.L.L.Q.~.~.~./.~.Q./.OXL.W.D.OXW.oXOXOXoX/././.OXW.OX/.L.L././.Q.Q.L.J.J.].J.K.J.J.J.~.(./.(.(.~.~.(.(.(././.)._.OX_.+XW.@XW.+X+X@X+XW.OX_././.OX(.(.(.).(.}.(.OX(.(.OX(.(.OXOX).)./.+X+X)._._./.).)._.).).).).).).+X{.).+X+X@X+X-X+X@X-X1X@X@X1X1X-X5X-X1X@X@X@X-X@X+X+X1X).`.+X{.|.|.|.{.-X-X{.{.-X-X1X-X1X5X5X5X5XuX6X6X5X6XuXuX6X6X6X6X6X6X6X6X6X2X8X5X8X2X3X1X2X5X7X1X2X6X1X6X1X6X6X6X5X5X7X8X7X8X6X7X6X6X7X6X8X8XgX6X6X8X8X8XgXgX8X8X8X$XkX6XfXkXkXkXlX#XY.+.a w 5 o < ; ; ; 8 8 6 * 4 2 4 2 8 8 8 8 , w 0 k e z k k N g z j j l V J I ) ..X.X.r.w.r.0.0.0.0.0.+...@...} [ ^ | } E E I W I C C V l z k e e k e e w e 5 e 5 5 e 5 w 5 < 4 , > > * = ; ; > + * = = = * * = $ % * 4 % = % $ $ $ % + @ X O o o X o @ X @ o X X O X X X X X o X   o o o o X   &   &   X & X % & @ & & & & % ; 9 Q P.].iXsXsXiXpXkXaXxXlXkXvXvXlXlXlXzXsXjXzXzXzXzXzXzXlXzXlXlXlXlXlXlXaXlXzXlXvXzXlXlXzXzXzXzXzXzXqXhXsXhXsXwXUXzXwXzXzXhXzXpXlXpXpXpXpXqXsXsXwXsXwXwXwX9XwXpXiX0XqXsXsX0XsXsXqXsXsXsXsXzXwXpXsXsX0X0XsXwX0X0XsX0X0X0XqXpX0XpXaXiXlXaXaXyXaXyXaXaXyXyXyXuXyX8XqXqX7XyX7XtXyXtXyX7X7X7X7X7X7X7X7X7X7XiX7X7XiX0X0X7X9X7X7X0XdX0X0XdX0XiX9X7X9X0X,X,X7X0X;X7X7X7X;X9X3X;X;X;X}.;X}.;X}.}.;X<X<X;X;X;X;X;X;X,X;X;X;X,X,X>X:X:X,X;X<X<X-X;X;X<X<X=X=X=X=X<X<X<X=X=X=X=X<X=X",
"/././.Q./.H./.L.K.H.L.H.H.K.L.K.K.K.L.J.J./.H./._.~././.W.L.L.OX/./.oXW./.W.oX/.OXL.OXL.OXL./.L./.Q./.J.J.L.J.].J.J.J.K.~.(.~.(.~.(.(.[./.(._.OX+X+X_.+XW.#X_.+XW.+X+XW.+X_.OX+X(.OX(.(.(./.(.~.(.(./.(.(.OXOX(.OX(.(.OX_._.+X_._.(._.(.(.).(.+X).{.).`.).1X_.$X#X+X@X1X#X@X+X+X1X@X-X5X>X#X-X#X5X-X@X#X+X`.).+X).{.{.{.{.|.|.{.{.-X{.-X-X-X>X-X5X5X5X6X5X6XuXuX6XuX6X6XkX$X6X6X6X6X6X6X8X6X8X2X2X3X2X7X4X1X7X1X1X8X6X1X6X1X6X5X6X5X8X7X7X6X7X6X8X8X6XuX8XfX6X6X8X8XfX8XfX8XfX8X6XgXkXgX6XgXkXkX~.x.W e > > + > ; $ ; 6 8 $ $ 6 2 2 2 6 6 > 8 > 0 0 k d j k j j j g a g V J R ) ..X.0.0._ t.0.0.q.0.0...X.0.X.{ } } } E _ ) W I I C J C C z z j z k e e z e k e e 5 5 e w 5 e * w < > : : : ; ; = > $ = $ = = $ * * * % 4 % % $ $ $ $ # + @ @ X @ X X X @ X X X X X X X X   X   & o o X o & o   & o X X & X X X @ & @ & & & & % $ 9 Z *.P.9XsXiXiXpXxXaXkXxXxXvXlXlXhXzXjXzXzXzXzXzXhXzXvXlXlXlXlXlXlXpXlXlXlXlXzXzXlXzXxXlXzXzXzXjXjXzXsXwXsXjXUXwXjXsXsXsXsXqXpXpXpXpXqXpXpXzXwXUXUX9XUXwX9XUX0XsXpXpX0XqXzXqXqXqXsXwXqXwXsXsXsX0XiXiX0X0XiXiX0X0XqXsXpXiXwXpXiXiXpXpXyXpXyXyXuXaXuXyXuXaXyXyXiXqXqX7X7X7XiX7XtXtX7XyX7X7X7XwXqX7XyX7X7XiX7XiXiX,X9X7X0X7X0X9XiX9X9X9XdX0X9X9X0X,X9X7X,X3X,X;X;X,X;X;X3X;X;X;X}.}.;X;X<X;X;X;X=X;X;X;X;X;X<X7X,X,X,X>X,X:X:X;X<X;X;X[.=X<X<X[.[.<X=X[.[.[.[.=X=X<X=X].=X",
"/.Q./.H././.H././.Q.L.K.H.L.L.K.L.L.K.L./.Q./.~./._./././././.L./.L.W.@X@XL.+XOXL.OXOXL.L.(.K./.J.~./.J.L.J.].].J.K.K.J.K.~.(.(.K.(.J.(.(.(.OX/./._.+XW.@XW.#X+X@X_.W.+X/.+X+XW.)././._.~.(.(.)./.(.(.(.(.(.(.OX(./.+X)._.+X).).(.).(.(.).).).).#X).-X+X+X#X$X@X+X@X#X+X-X+X#X+X@X#X5X@X1X5X@X5X$X-X1X-X#X-X+X{.{.{.-X{.|.{.{.{.1X-X;X-X-X1X1X>X5X5X5X5X6X5X5X6XuX6X6XuXuX6XkXuXkX6X8X6X6X6X6X2X5X2X3X3X2X2X6X1X8X1X6X6X1X6X2X1X7X7X6X8X8X6X6X7X6X7X6X6X6XyX6XfX8XfXfX8XkXkX6XgXkX6X6X6X6XkX8XkXQ.%.J a = > + + ; ; ; 8 8 > 2 6 $ $ 6 $ 8 > 8 8 w 0 e k k j k j l j d j F I ) _ ..X.X.0.0.0.r.r.0.0.0.0.+.X...{ } } ) ) ) _ I W I J J C V z z z k z e j k e 5 k 5 e e 5 5 w 5 w w 8 , , - : - + ; = = * $ * $ = % % * $ $ % = $ $ $ $ % + X % X % @ @ o @ X @ X X X X X X   o       & o   o X & o &   & X X X X   X $ X & . & 3 # 6 t +.l.=XGXiXpXpXyXaXxXxXxXxXzXzXhXzXzXhXjXzXzXzXzXzXzXzXlXlXlXkXaXlXpXlXlXzXzXvXzXvXxXzXzXvXsXzXzXqXzXzXhXzXwXzXsXzXwXsXsXpXpXzXqXqXpXqXsXqXUXwXwXwXUXwXwXwXpXwXqXpXsXsXqXsXzXzXsXsXsXsXsXsX9XsX0XiXsXsX0XsXqXqX0XiXqXiXqXqXiXyXiXyXpXyXaXyXyXyXyXyXyXyXyX7X8XwX7XqX7XyXyXtXyXtX7X7X0X7X3X0X7X7X7X7X7X7XqX7X7X0X7X7X0XeX0X9XiX9XdX9X7X9XiX,X9X9X7X,X7X,X7X;X;X,X,X9X;X;X;X;X;X;X;X;X<X;X;X9X;X;X;X;X7X;X,X,X:X,X,X,X>X,X:X:X;X<X<X;X<X<X<X<X<X[.=X=X<X[.<X=X=X=X=X<X=X",
"Q.Q./.^./.Q.Q.Q.Q.K.J.J.J.H.K.H.L.L.H.D.L.H./.Q.H.L././././.L././././.(./.OX@XW.L.OXL./.K././.K.H.J.J.J.J.].K.].J.].K.].J.(.].(.(.OX-X+X{.(.)./.OX+X/._._././.E././.OX/.(./.(./.(././.OX+X/.OX(.(./.(.(.).+X+X+X+X).+X+X_./.).OX_.).+X+X(.).[.).).).#X#X$X_.$X@X#X#X@X+XW.@X$X@X_.#X#X+X#X#X#X#X-X-X1X-X+X-X+X{.-X{.{.).{.}.{.{.}.{.|.;X1X>X@X5X#X5X$X@X$X5X6XuX6X5X7X7X6X7X6X6XuX6X6X5X5X5X6X6X7X2X1X2X2X5X1X6X7X8X6X8X2X8X6X8X8X8X8X5X8X6X8X6X6X8X8X6X6XfXfX8X8X8X8XkXkX$X$XgXkXkXkX$X$XbXbXkXm.%.W a = - 0 * 8 8 2 6 6 $ 3 $ 6 2 $ 8 8 8 8 w w w w q k k d l j d V l G ~ | +.r.+.0.X.r.r.r.q.0.r.r._ r.r.0._ ..X...{ ) E I W I I C C V j j e e k e e k z z 5 k 5 5 e 5 < 5 - > < * > > = - : - : : -   : :   + + + + + $ $ % @ $ @ 2 $ % @ @ # @ @ @ @ @ @ & % o o X   o               X X @ & o & o o & & @ @ @ @ @ @ @ @ @ & O : K  .=XiXsXsXpXcXcXvXyXyXkXvXjXvXzXzXzXzXzXjXzXvXjXzXjXlXvXzXlXlXlXzXxXvXzXxXxXxXlXaXlXlXaXzXzXjXsXhXqXzXzXqXzXwXzXhXwXzXzXjXzXqXwXsXzXsXwXUXsXwXsXUXwX9XUXsXwXwXwXUXwXsXwXsXwXsX9XsXwXsX9XsXsXsX9XiXsXiX0XsXsX0XsXqXsX0XiXtXiXiXiXaXpXyX8XkXyXkXyXlXyXyXiXqX0XqX0X7X0XyXyXyXyXtXyXtXiXiXiXiXiXyX8X8XyXyXtXiX7XdX7X7X7X7X0XiX9X9XdX0X9X0X,X0X0X7X9X9X7X,X7X,X,X9X,X9X,X9X<X,X,X;X,X;X,X<X<X;X;X;X3X3X,X;X;X,X:X<X<X:X:X:X,X:X:X=X:X=X=X=X=X<X<X=X=X=X=X].].[.<X[.<X=X",
"_./._./.Q.~./.~.H.Q./.H.H.J.K.H.L.L.L.L.L.L.L.L.L.W.L./././././././././.W.OXL.OXOXOXOXOX/./.J.J.K.L.H.K.K.J.K.].(.].].J.].].].].(.OX(.OX+XOX(.OX(._.)././._.Q./././././.(.(._.+X/.).(.).(.(._././.(.(././.+X).+X+X#X_.OX(.(.(./.(.+X_.+XOX).).).+X).#X#X@X$X$X$X+X+X_.@X$X@X@X$X#X#X#X#X#X$X#X#X#X-X+X-X-X-X{.-X-X).[.-X{.{.-X{.|.{.;X|.5X1X5X5X@X@X5X5XuX6XuX6X,X7X7X7XtX6X6X6X6X6X6X5X5X6X6X8X1X7X7X1X5X2X2X7X2X1X2X2X8X6X4X6X8X8X6X8X6X8X6XfX8X6X6X6X6X6X6X6X8XyX6XkXkX6XkX$XgXgXkX$XkXkXZXkX%.^ z w = = 8 8 8 6 6 2 2 2 6 $ 8 $ 8 2 $ 8 8 8 w w w d i e d h j z V V I { X.o.O.+.+.0.0.0.0.0.0.0.w.r.w._ _ w.@...X.} ) E E I E I I C V z j z e e e k k k k k e 5 e 5 5 < < 5 5 < * * ; > : - : - - : - - : - + + + + $ + + % @ @ % 2 2 @ @ @ % @ @ % @ @ @ @ @ @ X o X               X X @ o % o % o & @ % @ @ @ @ & 3 & 3 @ & : 6 H @.G.eXiXcXxXxXcXvXaXkXxXzXzXjXvXjXvXjXzXzXjXzXjXzXjXzXjXlXaXxXlXaXaXxXzXxXxXlXlXlXlXaXlXzXhXzXjXzXqXqXqXzXqXsXhXsXsXzXwXzXqXhXhXzXwXjXsXwXsXsXjX9XwXUXwXwXwXUXUXwXsXwXUXwXsXsXsXsXsX9XsXsX9XsXsXiXsXsXsXsX0XsXsXsX9X9XsXiXiXpXaXaXpXiXyXyXyX8XpXiXyXqXqX0X0XiXqXqXqX8X8XaXyXiXtXyXtXtXtXyXyXpXiXiX7XqX7X8XiX7X7X7X,X7X7X,XiX9X9X0X,X,X9X0X9X0X7X7X7X7X,X,X,X,X9X,X9X<X9X,X,X,X<X<X<X<X9X;X;X;X;X;X;X;X:X>X,X,X<X<X:X:X:X:X:X<X:X:X<X:X=X:X=X=X<X=X].=X<X[.].<X[.[.",
"^./.!./.~././.H./.Q.J.H.J.H.H.L.D.L./.D.L.L././.H./././././././.(.~././.OXW.oX+XW.OX(.L.K.K.J.J.J.J.J./.K.K.K.~.(.].(.].(.].(.(.OX(.+XOX(.+X(.(./.)./.)./.(./././././.)./.).(./.+X(.+X/.+X/.).(./.(./.(.+X_._.+X).+X).).).(.(.(.(.+X).+X).(.-X[.).#X+X#X$X$X$X@X#X@X#X@X_.$X#X@X@X_.$X#X#X#X#X#X-X-X-X@X+X-X).).-X-X-X{.-X-X-X;X|.{.-X1X-X3X5X6X5X5X%X6X5XuX6X7X7X7X7X7X7X6X6X6X8X6X6X6X5X5X7X7X2X1X1X7X3X3X1X1X2X5X8X1X6X4X6X4X5X8X8X6X7X6XyX6X6X6X8XfXfX6X6X8X8XyXyXkX6X$XgX6X$XgXkXkXkXkX$X%XE M 5 = = o * $ * 6 8 6 6 6 3 6 6 $ 8 * 2 6 8 8 w q q t i e j h j j H J E X.+.o.O.r.+.0.0.0.0.0.r.w.r._ 0.0.0.0...+.X..._ E E W E I I C V l z j d z k e k k k k 5 e 5 1 5 5 w < < - < - - + - , - - - - : -   - + = + + + $ + $ # @ $ % $ @ @ @ % @ O % @ @ @ & X X X                     X X & & % o & % % & @ & @ & 3 & @ 3 & & # $ Z ~ g.;XiXcXcXcXcXvXkXxXkXvXjXvXjXvXzXvXzXzXjXzXjXzXlXjXkXxXlXpXlXlXlXlXlXlXpXpXlXyXlXzXlXzXzXzXqXsXhXjXpXwXzXjXzXjXsXzXwXsXhXlXqXsXwXzXzXUXwXwXwX9XUXwXwXwXzXwXwXwXsX9XwXzXsXsXwXwXsXsXwXsX0X0XsXpXiXpXpX0XiXiXiXsXiXiXiXiXiXiXpXyXpXyXyXyXyXpXyXyXpXyXqX0X0X0X0XiX7X8XiXyXyXiXyXiXtXtXiXyXqX8XyX7XiXyX0XiX7XiX7X0X,X9XiX9X9X9X9X,X9X,X,XiX9X7X,X0X,X3X0X,X,X9X;X9X,X9X;X9X<X<X,X<X,X<X;X;X3X;X3X,X-X;X,X;X,X,X-X:X;X:X:X:X<X:X:X:X=X=X<X:X=X<X=X<X<X<X].[.<X<X[.[.",
"/.^.(././.~././.H.H.H.H.G.H.H.H./.L.L.L.W.L.D./.L.D./.L./././.Q./.H./.W.OXoXOXW.OXoXK./.L.K.K.G.H.J.K.J.J.~.K.K.J.[.K.(.[.~.[.(.).OX_.).).(._.)././._./._.)._./.).(.(./.(./.(./.)./.(.).OX).(./.OX)./.(./.)._.)._._./.(.(./.(.OX+XOX-X(.+X{.).).-X+X1X$X%X$X$X@X_.@X#XW.@X@X_.$X#X@X_.#X#X1X@X1X#X1X-X-X-X#X-X-X`.{.-X-X1X;X2X2X3X;X1X3X1X5X5X5X5X5X5XuX6X5XuX>X5X5X7X8X7X6X8X6X6X6X6X5X5X6X6X6X7X1X8X1X7X2X7X2X5X1X2X8X1X8X2X6X8X8X8X5X8X8X6X6X6XfX6X6XkX8X6X8XyXuX6XfXkX6X6X6XkXkXgXkXkXbX$XW.W z = - = o $ 4 6 6 2 6 6 6 7 6 2 6 $ 6 8 4 8 w w w k d d d h l l l J I [ O.+.$.+.r.r.O.0.0.0.r.0.r.r.0._ 0.0._ X.X.X.X.| ) E E I I I C C l z z z d a d z 5 k 5 e 5 5 1 1 1 1 5 - < < - > - : - - : , - - -   : + > + + $ + $ % % $ 2 @ % % % @ @ # % @ @ @ X @ X @ X   X             X X X o @ & o % & % & @ @ & @ @ @ @ & 3 & & O O f Y @.(.aXcXcXpXxXxXxXxXyXkXlXkXvXjXzXjXjXhXlXjXzXjXlXvXvXlXzXlXlXpXpXkXpXlXpXlXpXpXlXlXlXzXjXzXzXhXzXsXqXzXqXzXwXsXsXzXzXzXhXpXlXwXzXzXwXwXUXwXUXwXwXUX9XwXwXwXsXwXwXUXwXsXwXwXsXsXwXwXsXsXsXsX0XiXpXiXiXiXqXiXiX0XiXiXqXqXiXiXiXpXpXpXyXkX8XaXlXlXiXpXiX0X0XiXqXqXqXiX8XyXiXyXyXiXtXtXiXiXyXiX7XyX0X7XyX7X0X7X0X7XiX7X9X9X9X9X,X9X,X,X0X,X9X7X0X,X7X,X,X,X0X,X,X9X,X<X;X9X,X;X,X;X,X;X;X,X;X,X;X;X;X;X;X;X;X:X<X<X:X<X<X:X<X:X:X:X;X=X=X<X=X<X=X[.=X=X=X].].].=X].",
"(././.(.~.K.~.H.H.Q.H.H.C.H.H.H.D.L./.L./.L.L./.W./.L.W./.W.W././.Q././.L.W.@XOX/.OXoX/.K.K.G.K.K.J.J.K.J./.J.(.(.(.(.(.(.[.(._._.+X).OX/.).+X_./.)./.+X_.+X_.+X(.(.(././.(./.(.(.+X(.).).OX).(.)././._._.)._.+X_./.OX/./.(.(.(.+X+X(.-X+X{.[.(.-X1X1X#X@X$X$X$X$X@X%X_.$X$X$X_.@X#X1X@X-X-X1X#X@X1X@X#X-X1X1X@X1X-X#X-X1X1X2X1X3X|.3X1X5X1X5X6X5X5XuX5X6X,X6X6X7X5X7X7X8X7X6X7X6X7X5X6X8X6X6X7X7X6X2X4X8X1X8X5X4X5X2X5X6X6X6X6X8X8X6X8X8X8X6XfX8X6XkX6XfX8X6X6XfX6X8XkXfX$X6XgXkXgXgXgXkXkX$XW.E l - = > + 8 ; $ 6 6 6 6 6 7 : 6 $ 6 6 6 8 8 8 w q s k k j h V h h G R { O.$.g.O.%.0.r.O.0.0.r.t._ 0.0.0.0.0._ +.+.X.X.| } _ I ) W W C F l l l a a a e e e e e 5 1 5 1 1 1 1 5 < - < < < - - < - < , - :   : - = + ; ; $ + $ + % # % % # # @ % % O @ @ @ @ @ @ X X X X o           o   X X X X o & o & & o o o @ @ @ & @ @ & & & . X 8 g Y b.iXcXcXzXlXxXvXxXkXjXvXkXvXkXvXvXjXzXlXkXvXkXjXvXkXlXlXlXyXpXlXyXlXpX8XlXpXlXlXlXzXzXzXzXhXzXlXpXzXhXzXzXzXsXzXsXjXpXzXzXpXsXjXjXqXwXUXwXwXsXwXwXUXwXsXwXwXwXwXUXwXwXsXwXUXwXsX9XwXwXsXpXsXqXiXiXqXiX8XyXqXqXiXiXiX0XiXiXpXpXiXpXpXaXpXpXpXyXpXiXiXqXqX0XpX8XyXiXyXiXyXiXyXtXyXiX0X7XiXiX7XiX7X7X0X7XtX7X9XiXiX9X0X9X9X,X9X9X,X,X,X0X9X0X,X7X,X,X7X9X;X9X;X9X;X9XwX9X;X;X9X;X;X;X<X3X;X3X;X,X;X-X<X-X;X<X;X,X:X;X:X<X:X<X:X<X=X<X=X=X<X=X=X<X].].=X[.[.].<X=X",
"(.~.~.(.K.~.K.Q.H.H.H.H.H.G.G.H.Q.L.L.W.H./.W.Q./.E.W./.W.H.Q.W.Q.Q.Q./.L./.oXW.OXW.L.OXK.K.K.J.J.L.K.J.K.J.K.~.(.(.(.).(.).(.)._.#X_._.)._./.)._./._.(./.)./.+X(.)./.+X+X/.(._.+X/.).OX(.+X/.+X_.+X+X/./.+X_.).+X+X).(.OX(.(.K.+X+X-X+X[.[.).}.{.-X@X1X5X@X$X@X$X$X$X$X@X$X@X$X#X-X@X#X@X1X-X-X1X@X1X-X#X@X1X1X+X1X5X1X2X5X5X1X X1X1X1X1X1X5X5XuX$X$X5X5X5X>X5X5X>X5X5X5X8X8X6X5X5X6X6X6X7X6X7X8X1X7X7X7X7X6X6X2X8X6X6X8X2X8X6X8X8X6X8X8X6X8X8X6X8XfX8X6XfXfX6XyX8X6XfXgXgXgXkXgX$XgXkXvXbXkXt.W J < * > $ 8 ; 6 ; 3 6 6 6 6 6 6 6 6 6 6 8 8 9 q q q k k j h F F F J ~  .>.r.h.0.%.r.O.&.O.0.0.w.r.0.r.0.0.0.r.0.+.+.X.| _ E E I I I W C l l l z a e a u a 1 e 1 e 1 e e 5 1 1 1 1 < - - - < - : : - : - - - : + > + + $ % + % $ % # O @ % $ @ @ O % # % O % O @ o X +       X O     O o   @ @ o o & % o & @ & @ & & @ & @ & @ X . X # 8 d O.-XsXxXlXpXlXxXvXlXkXvXkXjXjXvXjXvXvXkXvXjXjXvXvXjXlXaXlXlXlXaXlXpXlXpXpXlXzXlXzXzXzXzXlXzXlXzXzXpXsXwXzXwXjXsXzXsXzXzXpXzXsXsXsXsXUXwXUXwXwXwXwXwXwXwXwXwXwXwX9XwXwXwXsXwXsXwXsXsXwXsXpXpXpXiXyXpXpXiXiXyXpXqX8XpXiXiXiXqXpX8XpXlXpXpXpXpXlXpXiXyXiXiX0X0XiXyX8XiXpX8XyXyXiXiXiXtXiX7X7X0XiX7XtX0X0X0X9XiX0X9XiX9XiX9X0XiX,X0X9X9X0X,X,X9X0X,X7X;X3X9X9X9X;X9X9X9X;X9X9X;X;X;X;X9X3X,X;X;X3X,X,X;X<X;X:X:X:X<X<X;X:X:X:X,X,X:X:X<X:X=X<X=X=X=X<X[.<X].[.].].",
"J.K./.K.L./.H.H.L.L.G.H.H.G.H.H.L.W.E.L./.W.L.W./.W.D.D.D.W.H.L./.Q.Q./././.W.oXOX/.K.K.L.K.J.J.K.K.L.J.K.K./.K./.(.+X_.+X+X).)._._._._._._.(._._./._._.+X).OX).(.+X).(./.(.(./.(.).OX).+X(.OX(.+X_.).).)._.+X).+X).).(.(.OXK.OX+XOX{.OX(.(.(.(.{.-X+X-X#X#X@X$X$X$X$XW.$X$X@X@X#X-X#X-X-X-X-X@X>X#X@X1X5X@X5X#X1X5X1X2X1X1X5X1X2X|.1X1X#X1X6X5X5X$X>XuX5X5X,X1X1X1X5X5X1X7X6X5X5X5X5X7X7X5X7X6X7X8X8X5X8X6X6X7X6X6X6X8X6X8X8X6X8X8X8X8X8X8XfX8X6X6X6XkXkX6X8X6X8X8X8XfX6XgXgXgXgX$XgXvXbXvXW.&.J l < * * > 8 # $ : 6 : : 6 6 6 6 : 6 6 6 9 q q q 7 k 7 t j N H H H Y [ +.g.O.g.O.O.O.0.r.0.$.r.t.r.0._ 0.0.0.0.r.X.X.X.X._ ) W W I W C W l l l l a e a e u e 1 1 e 1 w 1 5 5 1 5 - < 1 < < - 1 < - - - : - :   > + ; + $ + + + # % @ % @ O @ # O % % O O % @ % o O X   +   + X +   o     X X   o & o o @ X @ o @ @ @ @ & @ & @   & # O 8 8 | [.pXsXzXaXpXlXvXlXkXjXkXvXvXvXkXkXjXvXkXkXvXkXkXkXkXpXlXzXlXlXpXlXlXpXlXlXlXzXzXzXzXzXzXzXzXhXzXhXzXwXzXzXzXsXsXzXzXzXzXpXsXhXsXzXwXUXwXwXUXwXwXwXwXwXwXwX9XwXwXwXsXwXwXwX0XsX0XsXsXsXsXqXqXiX8XiXpXyXyXpXiX8XiX8X0XqXqXqXyXiXiXiXlXpXaXaXaXpXyXyXpXiXpXiXqXiXyXqXiXqXqXtXiX7XyXiX7XiX7XtXqXtX7X0X9X,XiX0XiX0X0X9X9XiX0XiX0X0X9X7X,X0X,X7X,X7X,X9X3X9X;X9X9X;X3X9X;X3X;X;X3X;X;X;X;X5X;X5X>X,X-X;X<X-X<X;X;X:X:X,X<X,X<X-X:X=X:X=X<X=X=X=X].[.<X<X<X[.[.[.[.",
"K.K.K.J.J.K.K.L./.L.L.L.Q./.H.L.D.D././.W./.W.Q.W.H./.E.D./.W.Q.E.Q./.H.W.L.OX/./.+XoXK.K.].J.J.K.K.K.K./.J././.(.(.).+X).).+X_._._.@X_./._._._.(.+X).+X).OX).OX)./.+X(.).(././.+XOX_.OX).OX).).).+X+X_.+X+X#X+X+X+XOXOX(.(.K.(.OX+XOX+X(.{.[.(.(.-X-X).5X@X%X$X@X$X$X@X$X@X$X$X>X#X-X-X1X-X-X1X1X@X1X@X1X5X1X1X1X1X1X5X7X1X1X2X2X2X#X#X$X1X@X2X%X5X@X>X>X1X5X5X-X5X5X5X6X5X5X5X2X5X5X6X6X6XtX6X2X7X8X8X4X7X8X7X7X8X8X6X8X6X6XfXuX8X8X8X6XyX6XkX8XfX8X8XfX6XkX6XfX8X8XfX6X6XkXkXkXgXkXbXbXkXt.W z l * + * $ 8 O : $ # 6 : 3 6 6 2 6 6 6 6 6 q 7 q k q 9 k j V H J H R { O.g.O.O.r.O.O.O.r.r.0.r.r.0.r.0.0.r.0.&.r.0.&.+.| } ) E E W C W C M l z z e a u u 1 1 1 1 e e e 1 1 < 1 1 1 < - < < 1 - , - - : - - : - + = ; $ $ + % + O $ + @ + % @ % % @ O o @ O O + % + + o O +   + O +   + X       & o & o o & X & X @ % & @ % & & & . % O ; 8 { OXiXaXzXaXyXlXvXlXkXkXkXkXvXkXvXvXvXjXvXkXkXvXkXkXlXlXpXlXlXzXlXpXzXlXlXlXlXzXjXzXzXzXzXlXlXzXzXpXsXzXsXjXsXjXsXzXsXcXzXzXhXsXhXzXsXwXwXUXwXwX9XwXwXwXsXwXUXwXwXwXwXwXsX9XwXsXsXqXzXqXpXpXpXyXpX8XpXpXpXpXpXpXyXiXpXiXiXqXpXyXpXpXaXpXlXaXaXyXpXpXiXqXpXiXyXiXiXyXyXyXiX7X7XqXtXyXiX7XqX7X,X0X0X,X,X0X9X0XiXiX9XiXiX9XiX9XiX0X0XdX0X,X9X,X9X;X;X,X9X9X3X;X;X3X9X9X9X9X3X;X;X;X9X,X,X,X,X;X,X;X;X,X<X<X<X=X;X;X<X:X:X,X<X:X<X<X<X=X=X<X=X=X<X[.[.].[.].[.<X=X",
"L.L.L.K.J.K.L./.K.J.L.H././.H.L.W./.E.E./.W.L.W./.E.L.W.H.W./.Q.Q.H.Q.L./.OXOXOX@XL.oXOXL.K.K.K.L./.L.K.K.K././.).(.).+X_.+X#X_._._.+X_.+X_.).+X+X_._.OXOX).(.+X/./.(.OX(.(./.(.(.+X+X(.+X(.+X(./.+X).+X).#X#X+X#X+X+X).(.(.(.=X(.@X-X-X).(.{.(.{.-X-X@X@X5X@X$X@X$X$X$X$X$X#X1X#X5X-X@X1X-X-X-X-X@X1X#X5X5X5X@X1X#X1X$X$X1X1X$X1X#X#X`.#X+X#X5X2X5X#X5X1X>X1X5X5X5X6X5X8X5X6X5X8X6X5X7X8X6X7XuX8X6X7X6XyX6X8X6X6X8XuX6X6X6X6XfX8X8X8X8XkX8X8XfX8XfXkXyXfXfX6XkXfXyXfXfX6X6X6XfX$XgXkXbXbXgX&.C z w = = * 4 6 ; : : : : 3 6 : 6 : 6 6 6 9 q 7 7 d k s 7 k N V P Y R [  .O.O.g.g.0.O.0.$.$.r.r.h.r.w.t.r.r.0.r.r._ 0._ _ .._ E W I W C W J l l l z a a a u u 1 1 1 w 1 e 1 e 1 1 5 5 - 1 < - - 1 - , - : - : - : : - : - $ $ + + O X O % + + O o + + % O + + + + X   +     X o + X X   + O O   + o o   o X o X X & o @ & o @ @ & & & % @ % e G L.-XpXpXsXqXqXlXlXkXlXlXvXkXkXkXkXjXkXkXvXfXlXlXqX8XpXlXpXzXhXzXzXzXzXzXzXzXzXvXzXzXxXlXzXlXlXpXzXzXzXpXpXzXzXzXUXpXxXxXaXpXsXpXsXUXwXsXsXwXsXsXwXwXwXwXwX9XwXUX9XwXsXwXsXwXsXwXsXpXpXpXpXpXyXpXpXpX8XyX8X7X8XyX7X0X7XqXpXpXpXpXiXiXaXaXiXaXiXiXyXiXaXyXiXiXyXiX8XqXiXiXiXqXyX7XiX7XiXyX0XtX0XtX,XiXiX0XiXiX0XiXiX0XiXiX0XiX9X9X7X9X0X,X9X,X9X9X,X;X9X;X;X0X;X0X;X;X0X;X;X;X7X;X;X,X,X,X;X,X;X;X=X;X;X;X<X;X;X<X,X:X<X;X,X:X;X<X:X<X}.<X}.<X}.<X].<X[.[.;X[.",
"/.K.(.(./.K./.L.K./.H.L.H.L.H./.L.E.W.L.W.Q.W.Q.E./.W.D./.L.W.L.L.Q./.L./.L././.OX/.OX/.K.K.K.K.K.K.K.(./.K./.L.(./._.+X+X).+X_._.+X_._._._./.)./.).OX).).+X(.+X(.(.(.).(.+X(.+XOX).(.-X(.-X(.+X(.(.+X_.+X+X).+X+X#X+X+XOX-XOX(.+X@X+X-X{.{.).{.{.-X-X1X5X@X@X#X$X$XuX$X$X5X@X@X1X@X-X1X-X-X-X-X@X1X>X>X5X#X1X5X5X5X$X1X1X$X5X1X2X1X#X#X#X#X$X$X%X5X5X@X#X1X5X1X6X2X5X8X5X6X7X7X5X7X6X7X6XyX7X8XuX7X6X7X6X7X6X8X8XuX6X6X6XyX6XyXkX8X8XyX8X8XyX6XfX8X6XkXfXkXfXfXfX8X8X8X6X6X6X6XkX$XkXkXbXkX&.z 5 5 = * * * ; ; : 3 : 3 : : 6 6 6 6 6 7 q 7 q q s 8 k w B N P / T Q } +.>.0.0.*.r.O.O.r.0.$.u.%.0.r.r.r.0.r.r.r.r.r._ r.| _ E E I I I C J C l z z a a e u u u 1 1 e 1 w e 0 w 1 1 < < < 1 - 1 - , - : - - : : - - : : : $ * + $ + % O +   + + O + X + X O + O +   O + X +   X X X o X X   + +   X @ X X X & & X X X X X & @ @ % @ & + X @ 8 l h./.,XpXzXlXiXlXlXlXkXkXlXvXjXvXlXvXkXvXjXkXkXlXzXlXlXqXlXzXlXzXzXzXUXbXjXzXzXzXzXzXzXvXlXlXzXlXpXzXsXzXpXsXzXzXzXxXxXaXzXpXlXzXpXwXUXwXwXwXwXwXwXwXwXwX9XwXwXwXwXwX0XqX0XsXwXpXwXqXpXyXpXpXpXpXyXpXiXiX7X7X7X7X7X7XqXiXqXsX0XqXsXpXiXaXiXiXyXaXiXiXyXiXyXiXqXiXiXiXpXiXqXqXyXyX7XiXiX7XiX7X7X7X7X7XqXiX9X9XiX0X0X0XdX9XiX9X0X9X7X,X,X0X7X9X7X,X,X9X;X9X,X;X9X9X0X,X,X;X9X9X;X5X;X5X,X3X;X-X-X;X;X,X;X:X,X;X<X;X:X<X,X<X:X:X<X;X=X<X<X<X<X<X<X}.<X<X[.=X[.=X",
"L.L.L.L.K.L.L./.L.L././.L.L.K./.W./.W./.L.W./.W./.L.D././.L./././.Q./.Q.OXL.oXL.oXOXK.K.L./.K.H.K.K.(.L./.K./.OXOX/.OX/.+X+X_.+X_.)._.(._.)././.(.).+X/.(./.(.(.(.(.+X(.(.+X).OX).OX).OX+XOX).(.(.+X(.+X).+X_.+X#X+X+X+X).OX).OX+X#X+X@X+X+X{.{.-X-X1X>X@X5X1X@X@X$X$X$X%X$X#X5X@X1X-X@X-X-X1X-X>X@X-X>X@X>X#X@X@X1X#X5X2X$X$X1X#X2X`.$X@X$XuX5X5X$X@X5X1X1X1X1X1X5X5X5X5X6X3X5X5X7X7X6X8XuX8X6X7X6X6XyXyX6X7X8X8X6X6X6XyXfX6XkX8X8XyXfX8XyXfXfX6XkX6XkXfXkXkX8X8XfXfX6X6X6X6XfXkXkXkXbXbXkX&.5 = = = = 4 * $ ; # : : # : : 6 ; 8 : 6 9 q q q q k w k k k C P ) } ..@.O.#.$.O.r.g.0.0.0.$.r.r.0.r.0.0.r.r.r.r.r.r.r.&._ { _ E I J W C I H l l j a a a e u 1 1 e < e e 5 5 1 5 w 1 5 < - > > < > - - - - - - - - ; ; > ; $ $ $ + + + + + + + +     + X X   + + + +     + o O @ + o O + X +     + X o   X X   o X @ X & o o & % & @ & @ @ @ $ k X.V.-XpXcXzXlXpXqXlXhXhXlXkXlXlXkXlXlXlXlXvXlXhXhXlXlXzXlXlXzXzXzXzXzXzXzXzXvXzXzXvXzXxXzXaXlXzXpXzXhXsXzXsXzXpXzXzXpXpXzXzXsXpXqXUXwXUXwXsXwXsXwX9XwX9XwXwXwX9XwXpXpXqXpXwXqXsXsXaXpXpXpXpXaXpXpXyXyX8XyX7X7XyX7X8XqXqXqX0XiXiXiXsXiXiXaXaXiXyXaXaXyXaXpXpXiXpXiXpXiXpXiXqX7XiXiX8XyXyX7X7X7X7X7X,XyX7XiX7XiXiX0XiXqXiX0XiXiX9X9X9X,X,X9X,X0X,X9X;X,X7X7X7X,X7X7X7X,X,X,X;X7X;X;X,X,X,X5X,X-X;X:X-X,X<X;X;X;X;X<X<X<X[.<X;X;X=X;X<X;X<X].].}.}.<X[.<X[.;X;X",
"L.H.D.H./.H.L.G.H./.L.L.L.L.K././././.W./././.L././././.D././.L./.K.K.K.L.L./.OXL.OXK.K.K.K.K.K.K./.L.K.K./.L././.+XOX+X/._.OX/./.+X(./././././././.(./.(.(.+X(.OX(.(.+X+X(.+X(.(.OX(.+X(.).(.OX(.(.(.OX)._.+X).).).)._./.).(.(.).+X#X#X-X{.-X-X-X).-X1X@X#X%X$X5X%X@X@X#X5X@X#X1X@X1X>X@X1X-X-X>X>X@X@X>X@X>X1X@X5X5X1X$X5X1X$X#X1X#X1X6X$X6XuX@X5X$X$X@X1X#X5X1X6X6X2X5X5X5X5X7X5X6X7X7X8X8XuX6XtX6X6X5X7X6XuX6X7X6XfXuX6XkX6X8X8X8X8X8X8XkX6XfX8XkX8XfX6X6XkX6XkXyXfXfX8X6XkXkX$XgXkXGXgX&.5 5 4 4 = > 8 8 $ # # # 6 # : : 6 6 6 6 q k s s q k 7 s k B V / ..@.@.@.0.u.0.0.r.r.r.0.r.0.r.O.r.r.r.t._ _ r.0.&.r.r._ _ | _ I I J J J C C C l l z z e a z u e e e 1 5 e 5 e 1 e w 1 1 5 < > - - : : - : : - : : + - ; + $ $ $ $ ; $ + + + : + + X     + +   + + O +   + O o @ @ @ % X + +   +   & o X   X X X X @ % % o & % & % @ & % @ % % e T l.(.cXUXzXlXqXpXqXhXlXhXlXlXjXvXkXvXlXlXkXlXzXjXzXlXzXzXzXlXlXzXvXzXzXUXzXzXzXzXxXlXlXzXlXzXlXaXzXzXhXzXzXpXzXsXzXpXzXsXpXpXzXpXsXsXwXsXwXsXwXwXsXwXwXwXwXwX9XUXqXpXpXyXsXsXqXhXpXlXpXyXlXpXpXpXyXqXiX8X7XyXqX7X7X7X0XpXqXqXsX0XiXsXaXiXaXaXaXaXyXlXaXyXiXpX0XpXiXpXiXiXiXqX8XqX8X7X7XqXyX7X7X7X7X0X7X7X,X0X7X0X7XiX0XiX0X,X7X9X9X7X,X9X9X,X9X0X9X3X,X0X9X7X0X,X,X7X7X7X,X;X,X,X>X,X:X,X,X,X;X:X<X;X;X<X<X<X;X;X;X<X;X<X:X;X<X<X<X}.<X}.<X<X<X}.<X{.;X{.[.",
"/././.OX/./././.L.D.D.L.L.L.(./.L./././././.OXL./.L./.L./.L.OX/.(.K.OXK.oXW.OXL././.L./.K.K.K.~./.K./.(.(.L.OXOX/.OX(.OXOXOX/.OXOX(.(.(././.(.L.(.(./.(.(.(./.(.(.=X(.-X(.=X(.+X(.OX(.(.(.OXOX(.(.(.OX(.).OX).+X+X)._._._._.+X/._.#X#X#X`.-X{.-X-X-X#X1X@X$X@X@X$X>X@X#X5X@X1X1X1X@X#X-X1X@X1X+X>X>X@X>X>X@X>X>X5X-X#X5X1X5X#X5X1X#X1X1X5X5XuX6XuX$X$X@X$X#X$X$X$X$X5X6X5X1X5X>X7X5X5X7X8X8XuX8X6XyX5X7X6X8X8X8XuX8X6XuX6XyX6XyX8XyX6XfX8X8XkXfXfX6XkXkXkX6XfX6XkXkXkXkXkXkX6XyXkXuXkXbXGXbX&.5 * 5 = 5 * 4 $ > : $ # : ; 6 > : 8 8 8 0 t d k k k k k B V C / ..+.q.O.u.g.0.0.u.u.r.r.0.r.r.r.$.r.0.0.r.0.r.r.0.r._ _ _ _ ) W I J J J l C l l z j e k z e e e e e 5 e 5 e w w e e 1 4 < * * > > - : : - , : - : - ; + + + ; $ * > + > + + + + + + +   +   + + +   +   + +   + @ + @ + X +   + +   O O   X   o X o X o & % & % & X @ @ @ % @ 4 V >.~.vXUXzXzXwXzXsXwXhXpXzXjXzXqXlXzXlXlXzXzXjXzXzXzXzXzXzXzXzXjXzXjXbXjXzXlXzXzXzXlXxXzXlXxXpXzXpXlXzXpXpXhXsXpXzXpXhXhXsXzXsXsXsXsXwXUXsXwXsXsXsXwXqXwXUXwXUXwXpXpXyXaXaXyXaXlXpXpXpXpXaXpXpXpXiX8XiX8XiX8XyXqXwXqXwXqX0X0XsXiXsXsXdXsXaXaXaXVXyXaXaXaXaXiXiXpXiXiXqXiXqXiX8XqXyX7X8XyX8X7X7X7X7X7X7X7X7X7X7XiXiXyX0XqX0XiX0X,X;X7X9X,X9X9X9X,XeX,XtXtX7XtXtX0XeX,X7X,XtX>X>X>X7X7X>X>X,X>X;X;X<X;X;X<X;X;X[.;X;X<X[.<X<X<X<X;X<X<X}.<X[.<X<X<X=X;X;X{.;X",
"_./._././.L./.L././.L./.L.(.L.(././.OX/./././././././././.L./.K.K.].K.K.OXOXOXoXOXOXoX/././.Q.K.K././.L./././.L.OX(.OXOXOX/.OX(.K.(.(.K.K./.(././.(.(.(./.(.(.(.+X(.+X(.+X(.(.(./.OX(.+XOX(.(.(.OX(.[.OX(.OX+X).+X_.+X+X+X).).+X#X#X@X_.-X1X1X1X-X).1X+X@X@X$X@X@X#X5X@X@X#X@X+X@X#X-X#X+X1X+X-X>X>X>X-X-X-X5X5X-X5X5X1X5X#X5X1X1X#X5X$X5X6X6X6X$X6X$X5X1X1X1X1X6X$X$X5X5X5X5X3X3X5X7X7X7X7X8XyX7X6X7X6XyX7X6XuX8X8X6X8X6XyX6XkX6X8X8X8XyXfXfXyXyXkXkX8XfXfXfXkXkXyXyXkXkX6XkXkX6XkXkXbXLXgX&.z 5 5 * * * * 8 8 $ : $ 6 : 6 6 8 8 > 8 9 t k d k k k k N C I ) ..@.O.0.g.g.0.r.r.r.g.0.S.u.z.r.r.r.r.t.0.r.r.r.&.r.r._ _ _ W ) I J m J m F l l j j z z e e e e e e e 5 e w 5 5 w e w w < * * $ > - - - - - - , : ; + ; + + + ; + > + + + + + + + + + + + + +   +   + + + + + @ + @ + X + + +     O O   O   X X X X @ o @ o % & % & % @ & % & o e +.c.UXzXpXcXwXzXqXqXpXhXqXzXqXzXjXlXhXlXzXzXzXzXjXzXjXzXzXzXzXvXzXzXzXzXzXlXvXzXlXzXzXlXzXlXzXzXlXaXzXzXzXsXpXzXsXjXpXsXwXwXsXwXwXsXsXwX0XsXsXwXpXqXsXqX9XsXsXsXlXyXlXlXlXlXkXyXaXpXpXaXzXpXpXaXaXpXiXyXiXyXiXqXpXqXqXqXpXpXiXdXiXsXVXdXyXVXaXdXaXaXyXtXiXpXiXiXiXiXqXqXqXqX7X8X7X7X7X7XuX7X8XyX7XyX7X7X7XyX7X7X7XqXiXiX0X7X9X0X9X,X;X9X9X9X,X9XeXtXeXeX,XtXtXeXuXeXtX>X>X>XeX>X:X>X,X>X-X,X;X,X;X;X;X;X;X<X;X;X<X<X<X<X<X}.<X;X;X<X<X}.;X;X}.<X-X{.=X=X=X",
"/.W./.W./.W.W.L./.L.L.L.L.L.K.OXOX/././.OX/././.OXL.L./.K.OXK.K.].].K.K.K.OXOXOXL.oXOXOX(./././.L.OX(.L.OXL.L.(.L.OXK.OXOXK.OXOXK.OX(.K.(.K.K.(./.(./.(.(.OX+X(.(.(.(.+X(.+X(.(.(.(.).(.(.OX(.(.=X].OX=XOX).+X_._.#X+X_._.+X#X+X@X_.).`.#X1X-X).1X+X+X#X@X$X$X@X#X-X@X@X@X-X-X@X1X@X1X+X1X#X1X-X>X>X:X=X>X>X>X>X-X5X@X5X1X5X1X1X@X1X5X5X5X5XuX$XuX$X$X5X$X2X$X2X$X$X2X5X5X1X1X5X,X1X5X7X7X8X8XyX6XyX6X8X6X5X8X6X8X8X6XyX6X6X6X6X8X8X8XyX8XyXfXkXkX6XkXfXkXfXgXfXfXkXkX6XuXuXuXkX%X$XuXkXbXgXW 5 5 5 5 * 4 4 * 8 6 ; 6 ; 6 : 6 , 6 8 8 w q k k d k w B N P ) _ X.0.O.u.g.u.0.0.u.r.S.0.0.t.r.r.u.r.q.t.r.r.r.r.0.&.&._ _ I I I I J J m n l V z z z z e z z e e z e 5 e 5 e 5 e e w 5 < * > > * > : : < : : : - - + + + + + + $ > + + + + - : + + + +   +   + + + +   +   + % O @ + + @ O O   + + O O O   +   X o o o o o o % & % @ % & % o & o 8 } x.UXUXpXUX3XpXwXqXzXwXhXhXzXjXjXzXhXzXzXhXhXzXzXzXzXzXjXzXzXzXzXzXzXzXzXzXlXzXlXxXxXxXxXzXxXzXpXpXpXzXzXpXzXpXqXsXzXsXzXsXwXsXsXsXsXwX0XqXqXsXqXsXwXsXzXwXsXsXkXxXxXxXxXkXlXxXaXpXpXpXiXpXpXiXpXiXiXpXiXpXpXiXqXqXpXwXqXqXdXsXiXsXsXiXaXdXaXaXaXuXyXaXyXpXiXiX0XiX0X0X7X7X8X7X8XuX8X6XtX7X8X7X8X7X7XyX7X8XiX8XiXiXiXqXtX7X0X9X,X9X9X,X9X<X,XeXtXtXeXtXtXeXtXtXeXtXuXeXeX>XeX>X,X>X>X>X;X,X<X<X;X;X<X;X;X<X;X;X9X<X<X<X<X<X<X;X;X<X<X<X[.[.[.;X[.;X;X-X{.",
"+X_._.OX/././.W./.L./.L./.L./.L././.OX/.OX/./.OX/./.OXK.K.K.OXOXK.K.K.OXK.oXOXK.OXOXL.K.(.(.(.(./.L./.OX/.L.OXL.K.OXOXOX=XOXOXOXOX].K.OXK.[.(.OX(.(.(.(.).(.(.(.(.+X+X(.OX(.OX(.(.(.OXOX(.(.(.K.OX=X[.(.OX).).+X+X_._.+X#X_.#X_.#X#X+X+X#X).`.).-X1X1X@X@X$X$X5X@X@X-X@X-X@X@X-X#X-X+X1X@X+X1X@X>X>X+X:X-X@X5X5X@X-X>X1X5X#X5X1X-X1X5X$X5X$XuX$X5X6X6X$X2X1X2X2X$X1X$X$X5X1X5X;X5X5X5X7X8XuX8XyX7X6X7XuX8X7X6X6XyXuXfX6X6XyX6XyX6X8X8X6X8X8XkX8X6XfX6XfXkXuXkXkXuXuXfXyXkXuXkXkX6X6XkXZXbXgX&.z * 5 * 5 * 4 8 8 > ; 6 ; > 6 > : 8 8 8 0 w k d d k k j V I q.0.0.u.o.*.u.r.0.r.S.u.t.S.t.z.z.z.r.t.r.t.t.r.r.r.r.r._ _ W I I I C l m C n m l l j j j j e e z z e e z 5 e 5 e 5 k w 5 < * > * > > < - - - - - :   - + + + + > > $ + + ; + :   + - + + +           +   + + X + % + % O + % + o +   O   O O   O X X o & o o % & % % @ % & @ % & % 4 { b.GXUXzXUX3XqXqXwXwXhXwXzXqXzXqXwXsXhXwXzXzXjXsXjXjXzXzXzXzXzXzXvXzXjXzXzXzXzXpXlXlXxXzXxXzXzXaXpXzXsXzXzXzXsXsXzXqXwXzXwXsXwXsXwXsXsXsXsXsXqXsXsXzXhXsXsXUXwXxXaXyXkXxXxXxXaXpXpXpXpXaXpXzXaXzXpXpXpXpXiXpXpXhXsXqX0X0XsXiXsXsXsXiXiXaXaXuXrXaXyXaXyXiXiXiXiXiX0XiXqXtXqX7X7X8X6X7X7X6X6XyX8X7XyXqX7XyXiX7XyX7XtX0XiXiX0X,X0X0X,X9X0X9X,X9X,X,XeXuXeXtXtXtXeXtXtXeX5XeXeXeX>X>X>X>XeX,X<X9X9X;X;X;X;X<X;X;X;X;X;X;X}.<X}.;X;X<X}.;X<X<X[.<X;X[.;X[.=X;X",
"W././././.L././.L./.L.L./.L.L././.L././.W./.OX/././.OXL.OXK.K.OXOXK.OXOXOXK.OXOXK.K.OXK.OXL.OXK.OXK./.K.K.L.OXL.OXOX+XOX+X=X+XOXOXK.OXOXOXOXK.OXOX(.(.OX(.(.(.OX).OX(.(.(.(.(./.(./.(.+X+X(.+X(.=X).=X(.).).(.).+XW.%X+X@X@X+X_.#X@X#X+X-X#X-X1X+X1X1X@X5X$X5X@X5X@X@X%X1X#X-X@X@X-X@X-X>X+X@X@X+X-X+X+X-X-X-X-X@X-X5X5X5X5X5X@X1X5X1X1X-X5X6X6X5X5X2X5X2X1X5X2X5X5X6X6X6X6X6X7X7X5X7XuXyXiX8XyX8XyX8X8XyX6X8XuX6X8X6X6X6XyX6XyX6X6XuXkX6XfX8X8XkX8XyXkXfXkXkXkXkXkX6X6X6X6X6XuX6X#XvXzXGXvX^ z 4 = 4 = 4 * 4 4 8 ; ; 8 8 : 8 9 9 8 w q k k d d k j j G ) ..+.0.O.u.g.u.u.0.0.t.t.t.t.t.S.q.r.S.z.z.t.t.r.t.r.r.&.X._ E R J J J H m n l l z j z e j e j e z e e z e e 5 1 5 5 5 w w > > - ; ; = - > > - + - + + + : + :   : : + : - -   :   +   -         +   + + O + X O o % o X X X + + + X + + O + @ O X + @ o X + o X X o X @ % % & % % & 4 ) h.IXUXjXwXwX4X7X7X8XqXhXlXhXpXhXsXhXpXlXpXlXlXzXlXzXzXzXzXzXzXzXzXzXhXzXzXzXzXlXpXlXlXlXpXzXzXpXpXpXlXpXzXsXpXzXwXsXsXwXsXsXqXsXsXsXwXsXwXsXsXsXwXqXpXwXpXpXzXaXpXlXyXaXaXxXxXpXpXzXzXaXaXaXyXaXyXyXaXlXpXlXpXhXwXzXwXsXzXsXjXsXqXiXiXiXaXtXVXkXaXaXuXyXtXiXdXiXiXiXyXyX7X7X7X7X7X7X8X7X7X7X7X7X7X7X7X7X7XiX7X0X0XwXiXqX0X0X7X<X,X0X9X0X,XdX,XtX7XtX7XtX,XtX7X,X7X,X,X>X,X,X:X,X;X>X,X,X>X;X-X,X;X<X;X<X<X;X;X;X<X<X<X<X<X;X9X;X;X;X;X<X;X;X<X<X}.[.<X[.",
"W./.W./.L././.L.L.K./.H.L././.L././.OX/.OX/._.OX/././.L.L.K.K.K.OXK.K.K.OX].OXL.OXK.OXK.L.K.L.(.K.L.K.L.K.OXL.OX(.OX+XOXOX+X+X(.OXOXOXK.L.OXoX_.OXOX(.(.(.+X(./.+X(.(.+X(.(.(.(.(.+X).(.OX).(.+X+XOX).}.~.}.).(.OX@X@X@X@X@X@X_.+X_.+X).+X#X#X@X+X@X@X5X5X@X5X@X@X@X@X$X@X@X@X-X1X+X-X@X+X-X-X+X#X+X1X@X>X@X-X>X>X-X5X-X5X#X$X5X1X1X1X1X3X2X7X7X1X1X7X1X1X7X4X5X6X6X6X5X7X6X7X6X6XyX7X8X7XyXiXyXyX8XyXyX8XyX8X8XyX6XyX6XyX6X6X6X6XyX6XkXfXyXfXkXkXfXkXkXuXkXkXuXkX6XuX6X6X6XuX6X5X5XkXyXZXyXE e = * 4 = 4 4 4 > 8 ; ; 6 6 8 6 8 6 6 8 8 q k s k j N V P ..+.O.0.r.0.g.z.r.r.S.S.oXS.S.oXS.t.S.t.h.g.r.r.r.&.&.r.&.| | E L J M H n l g l l d d a e e z e e k e z e e 5 5 e w 1 w 5 < > > > ; > > > + > + > : - ; + - -   - -   -   + : :   -         -         o   o X o X + % o   X X o @ o + o + + + O + % o X + X X X o X X   o % % X o o & 4 T g.GXUXzXqXpXyX8X8XqXlXhXlXhXzXzXhXpXpXqXpXpXzXzXpXhXzXzXzXzXvXvXzXzXlXlXzXzXzXlXlXlXpXlXpXpXlXqXpXlXpXpXpXpXzXqXsXsXqXpXpX0XqXsXsXzXsXsXsX0XsXsXsXqXsXsXpXpXpXlXpXaXaXyXaXaXxXpXpXlXpXxXxXaXxXxXaXaXxXaXyXhXpXwXwXwXzXqXsXsXqXpXpXpXsXaXaXaXdXaXyXaXdXtXtXeXtXiXiXiXiXyXtXyX7XyX7X7XyXyX7XyXqXtX7X,X7X0XiX7XiX7X0X7X0X0X7X0X0X,X,X,X9XdX,X9X,X7X,XtX,X,XtX7XeX,X7X,X,X>X,X:X,X5X,X>X,X;X>X;X,X;X,X;X;X;X;X{.<X<X;X<X}.<X}.;X;X;X;X;X;X;X}.}.;X<X<X<X;X;X",
"/./.D.L.L././.L.L.L.L.L.L.H./././.L.L./.OX/.W.OXOX/./.OXK.K.L.L.OX(.L.OXK.OXOXOXOXK.OXL.L.OX/.OXOXL.(.OXL./.OX/./.@X+XOX+X+XOXOXL.OXOXK./.K./.OX(./.OX+X).(.+X(.(.+X).(.(.(.(./.(.(.OX(.(.+X+X(.+X+X).(.}.(.(.+XW.@X@X@X@X@X@X+X+X_.).+X+X).-X@X1X@X5X@X5X5X#X5X@X$X@X1X5X@X5X@X@X>X-X+X-X+X+X-X@X#X-X-X-X-X>X-X-X5X5X>X5X5X$X1X5X1X-X1X1X5X2X7X8X1X7X1X7X1X7X6X6X6X6X8X6X5X7X8X6X6X7X7X8XyXiXyXyXyXyX8X8X8X8X6X6XyXkX6X6X6XyX6X6XkX6XyX8XfXfX8X6X6XkX6XuXkXZXuXkX6XkX6XkXkX6X6X1X8X8XyXlX-X_ w = - = 4 * 8 8 8 ; ; ; > 8 > 8 8 w w q s d d j j N G Y / X.0.0.g.g.u.z.z.z.z.t.S.S.S.F.t.F.S.oXt.F.z.t.r.r.r.r.r.r.X.} E W J J H J m l l l a d d z k z e z e e k e 5 5 e 5 5 5 1 1 1 < > > > - > > = - > > - + - - : : : : + + + +     - -   +     : +   +   o     o o X X X   &   X   @ X + o X % + % + + O + O % O % X X X   X % % % @ @ & & 4 T g.GXpXzXqXlX8X8XqXyXlXlXlXhXqXhXsXhXsXlXpXaXzXlXlXzXzXzXzXzXvXUXzXzXlXlXzXzXzXlXlXzXpXlXlXpXlXpXpXpXzXsXsXsXhXsXqXsXqXwXsX0XsXwXsXsXwXsXsX0XsXwXsXsXqXpXpXpXzXaXpXaXpXpXaXaXpXpXzXpXzXZXyXxXaXaXaXxXyXpXlXlXpXwXzXsXwXqXsXqXsXiXpXiXpXaXiXiXiXyXyXaXtX7XiXiXeXiXiXiXtX7XtXyXyX7XtXyX7XyX7XyX7X7X0X,X7X7X0X0X0XqX0X0X7X0X7X7X7X9X,XeX,X,XiX,X7XeX,X7XtX7XtX,X7X7X,X,X,X,X,X,X,X,X,X5X,X>X,X;X,X;X;X<X;X<X;X;X;X<X<X;X].<X<X;X;X;X;X<X;X;X;X;X}.;X<X[.[.<X",
"W.H./.L.L.L.L.K.K.L.K.L.L./.L./.L./.L././././.L./././.L.L.K.K.L.L./.OX/.K.L.OXL.OXOXW.OX/.OX/./.OXOXOXL.OXOX/.OX/.OX+X+X+X+X+XOXOXOXOXOXOX/.OX/.OXOX(.(.OX(.+X(.OX/.(.(./.(./.(.(.(.).OX(.+X(.+XOX(.(.}.(.).(.).OXOX@X@X@X@X+X#X).+X).#X`.+X+X@X@X1X#X>X@X@X#X@X@X5X@X%X@X@X@X@X5X@X-X-X+X-X+X+X+X+X+X#X@X-X@X@X>X>X-X1X@X5X5X1X1X1X1X5X1X3X5X2X1X8X5X8X8X8X7X8X8X6X7XuXyX6X8XuX7X7X6X8X7X8X7X8XyXfX8XyXyXuX8XyXkXyXyX6XkX6X6XkX6XuX6XfX6XkX8XfX8XkXyXfXkXuXkXuXkXkXuX6XuX6XkX6X5XlXuX8XlX_.E 5 % % = 4 8 > 8 ; 6 ; ; 6 : 6 8 8 q 8 w w t s j N G R ) { +.0.0.g.g.h.z.z.z.z.S.W.oXt.t.oXt.F.t.oXz.z.r.r.r.0.X.X._ _ E I J F n l l l a j a e e e e e k e e 5 5 e z e e e e 1 5 e 5 w > < > > < > > > > > > > > > : - -   - : + +   - :       +         +         + X X X X   o & & & X   X X X o + $ + $ + % + + + O + @ X   X & & & % @ & o & = E *.GXsXzXpXlX8XkXqXlXkXlXhXhXhXzXhXzXhXpXaXzXzXlXpXlXzXzXzXvXzXzXvXzXzXzXhXzXhXzXzXzXlXlXpXlXqXpXlXlXpXhXhXsXpXsXsXqXqXsXqXsXqXsXsXsX0X0XsX0XwXsXwXwXsXpXpXpXsXpXpXaXaXzXaXlXaXlXpXlXpXyXxXaXaXxXaXaXxXzXpXzXpXzXzXwXzXsXqXzXqXpXiXpXiXiXiXaXiXyXyXtXtXtXtXeXiXeXiX,X0XiXyXtXyXiXqXyXiX0XtX0XiX9X7XiX9X9X,XiX9X0X,XqX0X7X0X9X,X,X,XeX7XdX,X9X,X7XtXtX7XdX7X,XdX>X,X:X<X:X,X:X,X7X7X,X7X,X,X<X-X,X;X;X<X;X<X;X9X}.<X<X<X].<X;X<X<X<X;X;X<X;X;X<X}.;X;X;X[.",
"/.L.L.L.L.L.L.L.L.].P.L.L.L.L.L.OXL.K.K.K.OX/././.OXL./.L.L.L./././.L.L././././.OX/.OX/.OX/./.OX/.OXOX/././.OX/.OX+X+X+X+X#X@X/./.@XOX/.W.OX/.OXOX)./.(.(._.OX_.(.(.(.(.OX(.OX(.(.OXOX/.(.OX(.(.OX+X}.(.).(.).{.OX+X@X@X@X#X1X@X+X+X).+X#X-X#X#X1X@X#X@X#X#X@X@X@X5X@X@X@X@X@X@X@X5X1X@X-X+X-X@X-X@X#X+X-X@X-X-X5X5X-X>X5X5X5X$X>X1X1X7X1X5X1X5X5X1X7X2X1X8X7X8X8X7X6X6X8X6XyX6X5X6X8X7X7X8X8X7XyX8X8XuX8X8X8X8XuXyXfXfXfXkX6X6XkXyX6X6XkX6XgX8XkXkXuXkXkXkXkXuXkX6XkXkXkX6XkXuX6XxX8XyXiXQ.E w = = * * * 8 $ ; ; ; 6 6 8 > 8 8 q w w q k d h F I ` } X.0.u.%.r.z.z.z.z.S.S.t.t.t.F.t.oXoXt.t.q.z.z.h.r.0.+.X..._ _ ) I I J V l l g j a a d e e e e e e e e e e e e e e e 5 < w 1 w < = - < * < > > = > = > = + + > + + + + + + :   :   O       -           X   X X X   & X & o & & X & X X X o % + % + % + + % % + O O o X X   o & % % & %   - T o.GXpXzXzXlXyXkXyXlXlXlXhXpXhXhXzXzXzXzXpXzXpXzXlXlXzXzXzXzXUXlXzXzXzXzXlXqXlXlXzXpXlXlXpXpXpXpXpXzXsXsXsXpXsXsXpXqXsXsXqXqXzXqXsXsXsXwX0X0XsXsXqXsXwXqXpXpXpXpXpXaXzXxXpXsXaXpXpXpXpXpXzXaXxXxXaXaXlXpXpXlXpXzXsXsXsXsXsX0XsXiXsX0XsX9XsXsXdXiXyXyXtXiXtXeX0XeXtXiXtXtXiXyXpXiXiXiXqXiX0X0X0X7X0XiX,X9X9X7XdX0X7XwXqX7X0X7X,X0X7X7XeX,X7X,XdXeX7XtX7X7X,XtX,X,X,X:X-X:X:X,X,X7X,X7X,X,X,X;X<X<X;X;X;X;X<X;X;X;X<X<X<X;X[.<X[.}.<X;X;X<X<X;X;X[.;X;X[.;X",
"/./.L.G./.L.L.L.L.L.K.L.L.L.K.K.OXOXK.OXL.OXK.W./././.OXOX/././.L./././././.OX/.OX/.W.OX/.OXOXOXOXOX/.OXOXOXOX+X_._.+X+X+X+X+X+XOX/.+XW.OX@X+X_.OXOX+XOX).OX+X(.+X(.(.+X).(.(.).OX_.).(./.(.OX).OX(.).).}.).).(.+X+X%X@X>X@X@X#X+X#X1X@X@X1X5X@X@X#X>X5X>X@X#X+X@X@X@X$X5X@X-X-X@X@X-X@X-X-X@X-X1X@X#X5X1X5X>X1X@X>X1X@X#X#X5X5X#X1X1X1X2X1X7X1X1X1X1X5X1X1X1X1X6X6X6X7X6X7X5X8X5XyX7X8X7XyX8XuX8XuX8X7X6XuX6X6X8X8X8XyX6XuXkXyXkXuXfXfXfXyX8X8XgX6X6X6XkXuXkXuXyX6X6XkX8XyX6XkXyXyXkXpXyXb.J 5 = * * 4 8 ; ; $ 6 ; ; 8 8 8 8 e q 7 s k j j H I / } ..+.r.0.$.g.r.g.z.r.t.t.S.S.F.t.t.t.t.oXS.t.z.z.g.r.0.0._ _ _ ) ) R I J H l l a j a z e a d e e e e e e e e w e w < w 1 w 1 w < < 5 w - * 5 > > > > > ; ; > + + : - + + + +   +     o   + X   : O   o   & o X   X X o &   & o   & o   o X X @ O + + + % + $ + $ + + X X X X % o = o & % & & Y +.GXsXzXzXlXlXaXkXlXlXlXlXzXlXhXzXzXzXzXzXzXzXzXzXlXlXvXzXzXzXzXzXzXlXzXzXzXpXlXlXlXlXlXlXpXlXzXhXpXhXhXpXhXqXpXhXzXpXsXzXsXqXsX0X0XwXqXsXsX0XqXsXqXpXpXpXpXsXaXlXaXaXaXaXxXpXpXhXpXpXyXaXaXaXaXxXaXlXpXpXqXqX0XwXwXwXwXwXsXwXiXiXiXiXiX9XiXiXyXiXtXiXtX0XiXdXiXtXiXtXtXyXiXiXiXiX0XiXiX9XiX0XiX9X9X9X,X9X,X0X7X0X0X0XqX0XiXqX0X0XdX,X,XdXeX7X7X7XtXeX,X7X7X,X,X,X7X,X5X,X,X,X7X,X,X5X,X;X;X,X;X<X<X;X;X;X<X9X<X;X;X;X<X=X;X;X9X<X;X;X<X<X<X;X<X;X;X;X;X",
"L./.K.L.L.L.L.L.J.L.P.K.L.L.K.L.K.K.OXK.K.OX/.OX/./.L./.OXW.OX/.L./././././.W.OXOXW.OX/.+X/.+X/.+X/.OX_._.OX_.+X+X@X@X#X@X_.#X_.@X@XW.+XOX+X@X+X_.+X_.)._.+X_.(.+X(.(.+XOX).OX(.(.(.(.(.(.(.(.(.(.).(.}.(.).{.OX+X@X%X@X%X@X@X@X1X@X1X1X1X-X5X1X1X@X1X@X1X+X@X@X@X$X@X1X@X@X@X#X-X-X-X-X-X1X>X#X5X#X1X>X5X5X5X5X>X1X>X#X-X>X5X5X>X-X5X5X5X5X3X-X-X5X3X-X1X>X5X5X6X7X5X8XuX7X7X6X7X8X8XyXuXuX8X8X8X8X6XyX7X6X6X5XuX8X6XyX6XkXkX6X6XkXyXyX6X6X8X8XkX$X6XkXuXkXuXkX6X6X6X6X6XkX6X6XlX8XxXyX5Xh.l = = 4 * 8 8 ; ; ; 6 : 6 9 8 8 0 q w w 8 k d d F Y [ { @.+.r.g.0.g.g.0.0.z.S.S.t.t.t.t.t.t.t.t.t.r.0.+.X....._ / I I C V N d d k e e < * w w < w * e e 5 k e w e w e w w e < w w < w * * 5 * < < - - > - > > - : - + + O + +   + o o X : + O X @ X O O O   @ & o &   X   X X   X   X X   o o & & X X X o O % + $ $ $ + % + + % % X = & = o X = & & R o.GXcXcXxXvXlXyXlXkXpXlXhXlXlXzXsXzXzXzXzXzXpXzXlXzXzXjXzXlXzXzXlXzXzXlXlXpXhXaXaXlXlXaXpXlXpXzXpXzXpXzXpXsXpXqXsXsXjXqXzXsXsXzXsXsXsXsXqXsXqXpXpXpXpXpXpXpXzXaXiXxXsXsXxXxXpXpXqXpXpXyXyXaXaXaXaXpXpXpXpXpXqXiX0XiXwX9XwX0XsXqXiXiXiXsXiX9XiXiXiX0X7XiX0XqXiXiXiXpXiXiXiXiXaXqXiXiXiX9XdX7X,XdX9X9X9X,X9X9X0X7X0XqX0X0X0XqXiXiXiX7X7XiXtXtXtXiX7XiX7XtX,X,X,X7XtX7X,X,X,X7X,X,X,X,X>X>X,X;X;X;X<X<X;X<X;X;X;X;X9X9X<X<X<X:X=X;X;X;X;X;X;X<X<X;X<X<X;X<X",
"(.OXK.K.L.L.L.K.oXK.K.L.L.L.L.L.G.K.L.L.L.L.L.L.OXL.W.OX/.OX/.OXW././././.OXOX_._.OX_.OX_.+X+X+XOX+X+XW.OX+X_.+X_.+X_.+X+X#X#X_.W.@X@X+XW.@X@X_._.+X+X_.OX_.).OX(.OX).(.+XOX).+X+X(.(./.(./.).OXOXOX).(.}.[.).).@X1X%X5X@X$X#X+X+X#X+X1X#X1X@X5X@X1X@X5X@X@X+X+X@X5X@X%X@X$X-X@X@X@X@X-X>X@X5X>X-X@X5X@X-X>X5X5X5X5X5X>X1X@X5X5X1X5X5X5X5X5X>X1X5X5X5X5X5X5X1X5X1X5X5X5X6X5X6X7XuX8XuX8X8X8X8XyXuX8X7X6X5X6X7X5X6X6X6X6X6XyX6XkXyXuX6XyX8XyX8X8XyX6XuXkXkXuXkXuXuX6XyXfXyX6XyX6XlX$XlXuX-X$.e o % = * 8 8 6 6 : : 6 8 9 8 8 w k k q q d j h P T ..X...0.0.r.r.r.z.z.r.t.t.t.W.oXt.oXt.oXt.t.q.t.0.0.+..._ / / I P V V k w w w w w < 5 w 1 5 w w < w 5 w w w 5 w 0 e w * 5 w * < 5 w < - * < - 5 > > > - > - ; > + + + + + O     O +   + % O % @ + +   O o & & & & X X & o & X & o X o & &   o X     X O O + $ $ + $ % + + + + + % & % % & * % & R O.GXcXcXyXlXyXkXaXyXkXpXlXzXlXzXjXzXzXzXzXcXzXzXzXzXvXzXzXzXzXlXzXhXzXzXpXzXlXlXlXlXpXlXlXpXzXzXpXqXzXpXsXqXpXsXqXsXsXqXsXqXsXsXwXqXsX0XsX0XsXpXpXqXpXpXqXsXpXpXpXaXaXxXpXaXpXqXpXqXqXpXyXaXyXyXxXaXpXpXiXqXqXwXwX0X0XwXsX0XsXiX0XiXiX9X9XiX0X0XiXiXqXiX7XiXiXpXiXiXiXiXiXiXiXiX0X0X9X9X0X9X9X0X9X9X9X9X9X,X9X0X0X0XpX0XpXpXiXiXqXiXiXtX0XiX0XtXeX7XtX7XtX,X7XdX7X,X,X,X,X:X,X,X,X>X,X,X-X,X-X}.;X<X;X;X;X9X;X9X9X<X9X;X<X;X;X;X;X<X;X;X}.;X;X;X;X;X<X;X",
"L.L./.K.K.K.K.L.K.K.P.K.L.L.K.K.K.K.oXL.L.L.K.K.L./.L./.OXOX_.OXOX/._.OX_./.W.OXOX_.W.OX+XW.+X/._.+X/./././.+XW._.W.+X+X@X_.#X@X@X@X@X@X@XW.@X+X+X+X+X+X_.+X).OXOX+X(.(.(.+X(.(.+X(.(././.(./.(./.(.).).{.}.).OX+X@X@X@X%X#X@X+X+X`.#X@X1X@X-X1X1X@X5X@X@X+X@X#X@X@X#X@X5X@X>X@X-X@X1X-X@X5X1X>X5X5X@X1X5X>X@X5X5X5X5X@X1X5X>X5X1X>X1X5X1X7X5X7X5X7X5X7X6X6X7X5X1X5X5X8X5X8X7XuX6XyXyX8XyXfXyXyX8XuX8X6X7X6X6X6XyX7X6XuXyXfX6XyXyX8X8XyXyX8X8X8XkX8X8XyXuXyXkXuXyX6XyXuX8X8X6X6XyX6XlX8X1X%.k = = = 4 4 6 : 9 6 6 : 6 6 8 8 w e t q i j h H I / X...X.+.0.r.h.r.r.z.t.S.t.r.t.S.t.t.t.t.t.t.t.0.0.+.} / / P P V B N k k 4 4 4 * = < = w < < w 4 w 4 w w * w w w w w 0 0 0 0 * w > = < < - * * < > - > - + = + + + + + + % O X X + % % # @ % @ @ o @ @ & @ & & @ o o X   X o o X   X X X   X X X @ X X X X o + $ $ $ $ + $ $ + O o o $ * = % o & T $.GXGXzX8XvXyXkXkXZXuXkXvXlXlXpXlXzXpXlXzXzXpXzXzXzXlXzXzXlXlXzXzXlXzXlXzXhXqXpXlXlXaXlXlXzXpXqXpXpXpXlXlXpXpXpXzXpXzXqXpXpXzXsXwXqXsXqXqXsXqXpXqXpXwXpXqXpXpXsXpXsXxXxXaXaXpXpXlXpXpXyXyXyXaXaXyXyXaXyXpXpXqXwX0XwX0XsX0X0X0XwXsX9XsX9X9X9XsX0X0X0X0XwX0X0XsX9XsX9XsXiXiXeXtX9X9X9X9XdX0XiX9X9XdX0X9X9X0X9X0X9X7X0X0XqXiXiXiXqXiXtXyXtX7XtX5X,X,X7XtX7X,X,X7X,X7X,X,X,X:X,X,X5X,X,X7X,X>X<X;X;X;X;X<X;X;X9X<X<X,XdX<X<X9X<X,X;X:X,X;X;X,X,X;X<X;X;X=X-X",
"OX/.K.K.K.L.oXK.K.K.K.K.K.L.K.L.K.].K.L.L.oXK.K.L.OXOX/././._.W._./.OXW.+X/.+X/._./.+X_./.OX_.+XOXW.OX_./.W._.OX+X+X@X#X#X#XW.#X_._.#X#X@X#X_.+XW.+X).+X+X).+X/.).OX(.+X(.(.(.+X/.(.(.(.(.(.(.(.(.OX(.(.(.}.{.+X+X@X5X%X@X@X#X@X+X+X-X#X-X1X#X@X#X-X@X1X1X@X-X@X@X@X@X@X$X@X@X1X@X>X@X-X-X-X>X5X5X-X5X>X1X5X5X1X$X5X5X1X@X5X#X>X>X1X5X5X5X5X5X7X5X3X7X5X7X7X5X7X6X5X6X5X7X6X6X7XuX8X8XuX8XyX8XyX8X8X8X7X5X6X5X7X6X6X6X8X6XyX6X6XyXuXyX8X8X8X8X8XyX8XyXyXkX6XyXyXyX6X6XyXkX8X6XyXyX6XvXiX7Xh.j * 4 4 8 8 6 6 : 6 : : : 6 8 w 0 d q q d N G Y ) } ..X.X.+.O.0.0.0.+.0.r.t.z.t.r..._ 0.r.q._ 6._ 0...[ / P P N j k k w 4 4 4 2 4 * < w w < 5 > 4 < < > = 4 * * 8 8 8 w 8 0 8 > * * * > * 5 < 5 - = > > ; - > + = + + + % + + o + @ % # @ # % # @ @ % & @ @ @ o @ X @ X o X X & X X X X o X X X X   X o   X X + $ $ $ * > $ + $ + % o o % o o o   & T O.GXUXvXiXvXyXuXkXuXZXkXvXxXlXzXzXzXhXsXpXzXlXlXlXlXzXlXzXzXzXzXlXlXzXzXhXzXzXlXpXlXlXlXzXpXzXpXzXzXpXpXsXpXpXlXpXlXpXpXpXpXsXsXsXsXqXsXsX0X0XpXsXpXpXqXpXpXpXpXaXaXaXpXaXpXxXpXpXqXpXaXyXaXaXaXaXaXyXaX8XpXqX0XpXpXwXsX0X0XwX9XwX9X9X9XsX9X0X0X0X0X0X9X9X0X0X0XwXiX9XdXiXiXdX9XsX9X9X0X0XiXiX0X9X9X9X9XdX9X9X0X7XwX0X0XqXiXiX7X7XtXtXtXtX,X,X7X7X,X7XtX,X7X,X,X,X,X,X,X-X:X;X,X>X,X,X5X,X;X;X;X<X;X<X;X;X;X<X<X9X<X<X<X<X<X<X;X,X;X;X<X<X-X;X;X:X;X;X<X",
"/.L.K.K.K.K.L.oXL.K.K.K.K.oXL.K.K.K.K.K.K.K.K.K.OX/.OX/./.OXOX/.W.+X/./.W._.OX+XOXW.+X/.+X+X+X_._.OXOX/./.+X+X/._._.W.#X@X_.#X!.$XW.#XW._.#XW.+X+X+X_._.OX_.).(./.(.).(.+X+X(.OX(.(.(./.(.(.(.OXOX+X).(.}.).(.).@X@X@X@X@X@X@X+X1X+X1X-X5X#X@X5X-X1X@X@X#X-X@X+X@X5X@X5X5X@X>X+X@X-X-X@X-X5X>X@X>X#X-X5X@X5X5X5X5X5X5X5X1X>X>X5X5X5X5X>X5X5X5X5X5X5X7X7X5XtX7X5X1X7X7X7X6X7X8X6X8X8XyX8XyX8X8XuX8XuXuX8X6X7XyX6XuX6X6XyX6X6X6X8X6XyXuX8X8X8X4X8X8XyX8X8XuXuXyXuXyX8X8X8XkX6X6X6XyXkXvXcXyXb.h 0 * * 4 8 3 6 : : : : : 6 8 8 e e w w k l Y ) } { %.+.O.0.r.r.r.r.S.t.F.F.F.t.r._ _ _ 0..._ _ _ q.....` U P N s k k w w 6 4 w 5 8 = 5 * > * = = = * * $ * * * > 8 * 8 8 8 w < * * > - > > - - > < - > > > ; = + + % + o X X @ X % @ @ % % + @ O % X @ @ X @ & @ o X X X X X X X o o X X X o X X o X o o X X + + $ $ * $ $ + $ % O + o   o o o   & ~ $.GXUXZXyXvXyXuXZXkXuXZXxXkXxXzXhXpXzXlXzXzXzXzXlXlXlXzXzXzXlXzXzXzXzXzXzXzXlXlXlXlXxXxXzXzXzXzXzXzXzXzXpXzXpXpXzXpXzXpXpXpXpXsXhXwXsX0XsXqXsXpXpXpXwXpXqXpXpXpXcXaXpXaXaXaXzXqXlXyXqXuXaXuXaXaXyXyXaXyXpXqXqX0X0X0XpXwXwXsXsXsX9X9XwXwX9X0X0XwX9X0X0XsXwXwXsXiXiXiXiXiXiXiXiXsXdXdX9X9XsXdXiX0X0X9XdXdX0XiX0X0X0X7XqX7XqXtXiX7XtXtXtX7X7X5XtX7X7XtXtXtX,X,X,X,X,X,X>X:X,X,X<X-X,X,X,X,X,X,X;X;X<X;X;X;X;X;X9X,X<X9X<X9XdX;X,X,X<X,X>X,X:X-X,X;X:X:X-X;X",
"OXOX/.OXK.K.K.OX].].oX].K.OXOXK.K.K.K.K.K.K.OXK.OXK.K.OXOXW.OX_.+X/.+X/./.OX_./.+X+X/.+X+X_.+X/.+X/.+X+X+X_.+X+X+X_.@X+X#X_.@X@X@X$XW.@X@XW.+X+X_.OX/.OX).OX(.(.(.(.(.(.(.(.).(.(.+X(.(./.+X).(.+X(.{.~.).(.{.-X+X@X@X@X@X#X+X_.+X#X@X1X@X1X1X5X#X@X5X@X@X@X@X#X@X$X@X%X%X#X@X@X@X#X-X@X-X@X1X-X>X>X-X5X5X5X#X5X@X5X#X5X>X5X5X>X5X>X5X>X5X7X>X7X5X7X7X5X5X5XtX5X7X5X7X5X7X5X6XyX8XyX8X6XyX8XyX6X8X8X6X7X7X6X5X6X8X8X6X6XkX6XyX6X6XyX8XyX8X8X8X7X8X8XyX6XkXkXuXuXyX7X7XuXyX6X6X6X6XlXcXsXyXF.l w * $ 4 > : : : : 6 : 6 6 w w e e q w k N Y [ } } +.X.0.0.r.r.0.r.+.r.r.0.X._ ) _ / ) I _ _ 0./ / U H Z d k 7 7 2 7 6 2 2 2 % $ $ * = - * = + = o + = $ $ * * $ $ * > > 8 > > * * * > * = = > - = > - - = = = + + % o X X X X @ X % # # @ @ @ @ @ @ @ X @ @ @ @ & X o   X o X X   X   X X X   X X   X X X % + $ + $ $ > $ $ $ $ + -     o + $   & [ g.IXGXxXyXZXaXZXkXZXZXkXxXxXkXzXpXzXpXlXpXpXlXqXzXzXzXlXlXzXzXzXzXzXzXzXzXlXzXlXzXlXzXzXxXzXzXzXzXzXzXzXzXsXpXzXpXlXpXzXpXsXhXsXpXsXsXqXsXqXpXwXpXpXpXpXpXzXsXpXpXaXxXzXaXaXsXpXqXaXyXyXyXyXyXuXxXaXyXpXqXiX8XqX0XqX0XqXsX9X0XsXwX9XsX9XwX9XwX0X9X0X0X9X9XwX9XqXqXiXiXiXdXsXdXsX9XsX9X9XdX9XsXdXiXiX0X0X9XiXiX0X0X0X0X0X0X7X7X7X7X5X7XyXtX7XtXeXtX,X7X7XeX7X7X>X,X,X,X,X,X:X-X-X,X,X7X,X7X<X;X;X;X<X;X<X;X<X<X<X,X<X,X<X<X<X,X,X,X,X:X,X;X,X:X:X;X:X,X:X",
"/.L./.L.K.K.K.K.K.].K.OXK.OXOXL.K.OXK.oX].oX=XOXOXK./.OX/.OX/./././.OXOX/.OXOX/./.+XOX_.OX_.+X+XOXOX+X/.+XOX+X+X+X+X+X+X+X_.+X+XW.W.@X_.@XW.+X_.+X(.+X(.(.(.(.OX+X(.(.(.).(.OX(.).OX).(.(.(.+X(.+X(.).(.).}.{.+X+X@X%X@X@X@X+X@X-X+X1X#X1X1X@X1X1X@X1X@X1X@X-X#X@X@X@X$X$X@X+X@X>X@X-X-X-X5X-X@X-X5X-X5X5X@X5X$X5X5X5X5X5X>X5X7X5X5X5X5X5X>X5X5X5X5XtX5XtX5X5X5X7X5X5X5X5X7X6X6X6X7X6XuX8X8X6XyX6X7XyX6X7X6X7X6X8X8X6X6XyX6X6XyXyXyX8XyX8X8X8X8X8X8XyX6XuXuXuXyXyX7X8X8XkXkX6X6X8XkXvXxX,XG.h 8 % = > ; 6 ; : 7 6 7 7 9 y 9 w e q e q V R } ..| X.O.r.r.r.0.r.r.X.O.r.0.X._ / ) / I ) / ] / / U P Z v s k 7 7 8 6 2 2 $ $ + o + = * = = = = $ + + + + $ $ > * $ > * * w 8 w * * - > > > - ; - > - ; - + + + + + o X X X X @ X % O % X % @ @ @ X @ @ X @ X X @ X X o X O X X X o X X o o X o o O X o @ % O + $ $ $ > $ $ $ $ $ + o   o o + +   & } k.IXbXaXyXZXvXkXZXZXkXxXlXaXlXhXlXpXzXpXzXpXpXlXqXzXpXzXzXzXlXzXzXzXlXzXzXzXzXzXlXvXzXlXvXzXxXzXzXzXzXsXsXqXzXpXzXlXlXpXpXpXpXqXpXsXqXqXpXpXpXsXpXpXzXsXqXzXzXsXzXxXaXaXaXaXpXpXqXpXqXaXyXaXaXyXaXyXpX8X8XqXpX7XqXiXqXsXwXsXwXwXsXwXwXwX0XwX0X0X0X9XsXwX9XwX9XiX0XiXiXiXiXiXsXsXsX9X9XiX0XiX0XiXiXiXiXiXiXiXpXwX0X0X0XqX7X7XtX5X7XtX7XtX7XyX5XtX7X7XtX,X7X7X,X7X,X,X>X,X:X,X,X,X,X,X5X3X9X;X9X<X;X;X;X;X;X;X;X<X<X<X,X<X,X,X,X,X,X,X,X,X,X,X,X,X:X,X-X,X",
"/.OXOX/.K.OXK.K.K.K.K.K.K.K.K.L.OXK.(.OXOX].K.K.K.K.K.OX/./././.OX/./././././.OXOX/.OXOXOX+XOXOX_.OXOX/.+X+X+X+X_.@X+X+X+X+XW.+X$X@X_.@XW.+X+X+X/.OX(.(.OX(.(./.OX).-X(.OX(.(.(.OX(.OX(.(.OX(.+X+X-X[.(.).}.).+XOX@X@X@X+X@X@X+X`.+X+X-X@X1X1X@X@X1X@X#X@X@X@X@X@X5X@X5X5X@X-X@X@X-X@X5X-X@X5X>X>X-X-X5X5X5X$X5X$X6X5X6X5X5X>XtX5X>X,X5X7X5X5X5X7X>X5X7X5X5X>X7X5X5X7X3X5X5X5X5X7X6X6X8X5X8X6X6X6X7X6X7X5XyX6X7X7X6X8X6X6XkXfXyXuXkXuX6X7XyX8X8X8X8X8XyXyXyXuXyXyX7X6XyXyXuX6X6X6XyXxXcX5Xl.d > % $ $ 8 : 6 : : : : : : 9 8 w w e q k F R [ ..X.+.r.r.r.r.r.r.r.0.X.} ) _ _ ) / / ) _ ) ) / I P Z j q 6 6 6 6 6 6 6 2 $ * ; - = = o + - % = $ = + + + = $ $ $ $ $ * > > > > > > > > = = + : - - ; - > - + - + + o X & o X X @ @ @ @ @ @ @ X @ @ X @ @ X @ % @ @ O X o X X o X X o X O   O X   X X o O + % + + $ $ > > $ $ > $ +       o + + o & } c.GXGXxXuXZXxXkXVXuXZXxXxXlXpXzXpXzXqXlXpXpXzXqXzXpXhXhXzXlXzXvXjXlXzXlXzXzXlXzXxXzXzXzXzXpXzXsXzXzXzXzXzXzXpXlXpXlXpXhXpXzXhXsXhXpXzXpXzXsXsXpXpXpXqXzXzXsXpXaXpXpXaXaXzXxXpXlXpXpXpXyXyXuXaXaXyXpXyXiXpXqX8XqXqXqXpXqXsXwXwXwX9XsX0X0XwX0XiXsXwXwX9XsXwXsX9X0XiXiXiXdXaXiXiXdXdXsXdX9XiXiXdX0X0X0XdXiX0X0XqX0X0X0X7X0X0X9X7X7X7XyXyXyX7X7XtXyXtXiXtXiX,X,XtX,X,X,X,X,X,X-X,X>X,X7X,X9X9X;X;X;X;X9X;X;X;X}.<XdX,X<X<X,X,X,X,X,X,X,X,X<X<X:X;X,X;X:X,X,X",
"OX/.OX/.OXOXL.K.oXK.K.K.OXK.K.OX(.K.OXK.=XK.K.].L.L.K.L./.L.L.OX/.OX/./.OX/./././.OX/./.OX/.+X/.OXOXOX+XOXOX+XOX+X+X+X+X_.+X_.+X$X@X@X_.+X+X+X+X+XOX(.-X=X(.OX(.-X(.).+X+X(.(.).+X(.).OXOX).(.+X+X[.).{.}.(.).-X@X@X@X@X@X@X+X_.`.+X#X+X1X+X@X#X-X#X5X@X-X@X+X#X@X@X@X@X@X%X@X>X@X5X-X5X>X5X5X5X@X>X1X@X1X5X$X5X5X5X5X5X5X7X5X5X5X5X5X5X5X>X>X5X5X5X7X5X5X5X5X5X3X5X3X5X5X1X5X1X1X6X5X6X6XuX6X6X6XuX8X6X7X6XuX6X6X8X6X8XyXyXfXuX6XyX8X8X8X8X8X8X7X8X6XyXyXuXkXyXyX7X8XyXfX6X6X6XfXyXyXGXtXz.w * o = > 8 6 6 : : : : : : w w w e w k j J T ) | X.+.0.%.0.0.+.X.+.r.X._ ) ) ) ) _ I / / I C V N Z s s 7 : 6 6 6 3 # # O + + + + - o o o + + o o o + + + $ $ $ * $ 8 * * * * < > > > + + : - : : + - + ; + o o + o X o X @ X X @ @ @ X X @ X @ X X X X X X X @ X O X o X o X o o X X O X O o X X o O % + + $ $ > $ $ > $ > $ $ $ +   o o o + + X X [ k.GXGXxXyXxXxXkXZXZXkXxXvXzXzXqXzXpXzXlXlXlXaXlXlXlXlXzXzXlXzXzXlXzXzXzXzXlXzXlXzXxXlXzXzXzXzXzXzXzXzXzXhXsXpXlXlXpXlXpXpXhXsXqXpXsXqXpXsXpXzXpXzXsXsXsXhXpXpXpXpXcXaXaXaXaXpXlXpXlXpXyXaXxXyXaXaXyXpXpXpXiXqXqXqXqXqXqXqXwXsXwXsXwXsXsXwXwXwX9X9XwXwX9XwXsXwXiXiXiXiXiXiXdXdXsX9X9X9X9XiXiXiXiXiXiXqXiXqXiXqX0X7X0X7X7X0X0X7X7XyXyXtXtXyXyX7XtXtX7X7XtX,X7X,X7X,X,X>X-X,X:X:X,X,X,X7X9X;X9X<X;X9X;X<X;X;X<X<X,X<X<X:X<X,X,X9X,X,X,X,X9X<X;X<X:X,X,X:X-X",
"W.OX/.OXOXL.OXK.K.K.K.K.L.K.OXK.K.OXK.=XK.K.K.K.oXL.L.K.L.OXL./.OXOXK./.OX/.OX/.OX/./.OX/.OX/.OXOX/./.OX/.+X+X+X@X+X+X).+X+X+X+X@XW.#X@XOXOX+X+X/.+XOX).OXOX(.+XOX(.+X(.+X+X+X-X(.+XOX).(.).+X(.OX+X-X).+X{.).(.OX@XOX@X@X+X@X+X+X+X).+X#X+X-X-X@X>X-X@X@X@X-X+X+X#X@X-X@X1X-X@X5X@X-X5X5X5X>X5X1X>X>X5X5X$X5X@X$X5X5X5X5XuX7X7X5X,X5X5X5X5X5X5X,XuX5XuX7X5X5X>X>X1X,X5X>X1X5X1X5X5X5X7X6X7X6X7X7X6X6X7X6X7X8X8XuX8X6XuX6X6X6X6XyXyX8XyX8X8X8X8X7X6XyXkXuXaXkXyXyX7X7XuXkX6X6X6XkX8XkXGXyXb.8 % o $ 8 8 9 6 6 3 7 : : 7 w w w * d j G R ) [ } | +.r.r.r.r.0.0.+.} ......) ) / ) ) / P P P N j k q 9 6 6 : 3 6 6 : ; # + ; + > = + - + = = + + = o + $ $ $ * $ $ * * * * * * > 8 > ; - : - + : - : - + - + + + +   X X @ @ @ @ X X % o @ X o X X X @ X X X o % + X X X o X   o X o X o X o X X X + + + % $ $ $ $ $ 8 8 $ $ > * + - o o o o o o + ) j.JXGXZXuXZXxXZXuXZXZXxXxXzXzXlXlXpXqXpXpXpXlXpXqXlXpXlXzXlXzXjXzXlXpXlXlXvXzXxXvXlXzXzXlXpXpXlXpXhXzXsXsXzXzXpXlXlXzXpXzXpXhXsXpXhXsXlXpXzXsXsXqXzXzXzXsXzXpXxXpXaXaXpXxXaXzXsXlXlXpXaXyXaXaXyXaXaXpXpXpXqXlXqXqXqXpXqXpXwXsXwXwXsXwXwXsX0X9XwX9X9XsXwX9X9XwXqXiXiXiXdXiXeXdX9X9X9X9X0XiX0XiX0X0X0XiX7XiX7XdX0X7X0X0X9X7X7X7XiX7XtXyXyXyXyXtXtXtXiXtX7X,X,X,X>X,X,X,X,X;X,X;X7X,X7X,X9X;X9X;X;X;X<X;X<X<X;X;X<X<X<X<X<XdX,XtX9XdX,X,X;X;X<X;X,X-X:X;X,X",
"_.+X+X/.L./././.OXL.L.L.OXL.K.K.OXOXK.K.K.L.K.K.oXL.K.oXK.L.(.K.OXL.OXK.OX/.OX/.OX/.OXOXOX/.OX(./.OX(.OXOXOXOX+X@X+X+X+X).+X+X@X_.OXOX(.OXOX/.+X+XOXOXOXOXOXOX+XOX_._.+X+X+X+XOXOX/.OX+X/.OXOX+XOX+X-X-X+X+XOX(./.OXOXOXOXOX+X+X+X+X+X(.+X-X-X>X@X-X-X+X+X+X=X+X+X>X@X>X>X@X5X5X1X5X5X5X6X5X5X5X5X@X$X5X5XuX5X5X5X6X5XuX7X5X5X5X5X7X5XtX5X5XtX5X5X5X7X5X5X5X5X5X5X5XuX>X>X5X>X1X>X5X6X5XuX6X6X5X6XuXyX6XyX6XuX6X6XyX8X6X8X6X8X8X6X8XuX8X8X6XuX8XuX8X8XlXyXyXyXyXyX7X8X8X8X8XyX6XyX6XZXGXxX/.* 4 # % 6 6 6 : 6 3 : : : 7 0 w < e e l I E _ | } &.%.r.r.0.0.0._ 0.] ....` ) ..[ [ E Y F h j j k k w w 6 2 : : : O O     : O :     + + : + + : $ ; + > + = + $ = + 4 * * * * * $ > ; > ; ; + + + : # : + :     O O O   % X X o @ % X @ X X @ X X X X   X   X   X X + X X @ X + X + X X O o O + X + + + + ; + ; + + > + > + > : + : + o   o +   X $ E z.IXUXzXaXaXxXkXZXuXaXxXxXpXcXpXlXsXlXpXxXzXlXlXkXkXlXvXlXlXvXlXzXvXlXlXvXlXlXzXxXvXzXxXxXpXpXpXxXzXzXaXzXxXpXxXzXlXaXaXaXlXlXaXpXlXcXvXcXvXpXsXsXzXzXzXsXcXsXlXaXaXkXxXaXxXaXlXpXpXaXaXVXkXVXkXxXyXaXyXpX8XqXpXpXqXpXqXiXpXqXqXqX0XiXqXsXiXsXwX9XwXsX0X0X0XsXpXiXiXdXdX9X9XiXdX9XiX9XiXiXiXiX0XiX0X9X0X0X0X3X0X9X0XiXiXiXiXiX0XiX0X0X0X0X0X0XiX,X7X,X,X9X9X,X,X,X,X;X,X;X9X,X,X7X,X;X,X;X;X;X=X;X,X<X;X:X:X=X,X<X<X,X<X,X;X,X<X,X,X9X9X;X9X<X;X:X<X;X<X",
"/./.W.W.OX/./.L./././.L.D.L.K.K.K.K.K.K.L.K.K.K.K.K.K.K.K.K.K.K.K.K.K.OXOXK.OXK.L.OX(./.OX/.OXOX(.(.OXOXOXOX+XOX-X+X+X+X+X+X+X+XOX+XOXOXOXOXOXOXOX+XOX).(.OXOXOXOX+X+X+X+X+X+X+X/.+XOX/./.+XOX+X+X+X+X@X+XOXOXOXOX+X/.OXOX+XOXOX+X+XOX+XOX+X+X-X-X-X+X-X+X-X+X>X-X-X-X-X>X1X5X5X5X#X@X5X$X5X$X$X$XuX$X6X5X$X6X6X5X5X5X7X5X5X5X>X5X5X5X5X7X5XyX5X5X7X6X5X5XuX5X5X5XtX5X5X5X5X5X>X5X5X5XyX6X7XuX5XyXfXuXuX6XyX8X8XuX8X6X8X6XkX6X8XuX8X8X8X8XuX8X8XuX8XyXyXkXyXyX8XqX8XqX7X8X8X6X6X6X6XZXGXZX_.e e @ % $ $ 3 7 : 6 3 : : 6 8 = 5 w j F R E } } _ X.0.%.&.r.r._ X._ _ .._ _ ` } [ ~ T K m g g i i q q w 8 * : - O :   : : O   :   - O O O + + + + + + + $ + = $ $ = * * * 4 * * * $ > $ > + ; : : + : : O O O O O . . O + X @ O o X X X o X @ o X X X o   o o   o X X @ % X X @ o X X o O     o +   + + + + > + > > + > ; > + : -   + o   +     O > [ z.IXbXxXyXuXxXuXZXkXZXxXaXxXaXsXsXpXzXlXlXlXlXxXlXxXvXlXlXvXlXlXvXzXvXvXlXvXlXzXxXxXxXxXzXaXzXaXzXxXcXsXcXcXsXaXzXlXaXlXlXlXxXxXpXzXcXcXcXxXcXzXsXsXzXzXzXxXcXaXxXaXaXyXlXaXxXpXxXpXxXkXxXxXxXxXxXxXaXlXpXqXiX8XiXyXqXqXpXqXiXiXpX0XpXqXpX0XqXsXsX0X0XsX0XiX9XiXiXiXiX0X0XdX9X9XsXiX9XiXiXiXiXiX0X0X0X0X9X9X0X9XiX0XiXiX0XiXiXiX0XiX0XiX9X0X9X,X,XeX7X7X,X;X,X0X;X;X;X9X;X;X9X7X;X,X3X3X;X<X,X,X;X<X,X,X,X<X<X,X;X:X;X,X,X,X,X<X,X9X;X;X;X;X;X<X,X;X;X,X",
"/._.W.OX/./././.L./.L./.L.K.K.L.K.K.oX(./.K.K.K.(.OXK.OXK.OXOXOXL.OXL.OXOXOX(././.OXOX/.OXOX/.OXOXOXOXOX+X+XOX+X+X+X).+X+X@X+X+X+X/.OX+XOXOX+XOXOXOXOXOXOX(.+X).OX_.+X+X+X+X/.+X+X/./.OXOXOX+XOX(.+X+X>X-X+X+XOX+XOXOX+XOX@XOX+X-X+X+XOX+X+X-X-X>X+X+X-X@X-X+X-X+X+X@X>X@X-X@X@X@X1X$X5X$X5X$X5X5X$X5X$X$X5X5X5X5X5X5X5X5X5X5X5X>X>X5X7XtX5X5X5XuX5X5X5X6X6X5X7X7XtX5X7X>X5X5X5X5X5X5XuXuXyX6X6X6XyX6XyXyX6X8X8X8X8X8X6X8X8X8X8X8XuXuX8X8X7X7X6X8XuX8XyXyX8XkXyXiX8X8X7X8X8XuXkXgXkXvXGXGX$XC e % O $ 6 6 6 3 6 7 : 6 : 8 > 1 e l L E E | | | X.&.&.r.0._ 0..._ ..........} } [ L H l h a d e k w w 8 * : :   : :   : O - : :   + : + + + + : + + + + + + = = $ 4 = * * * * * $ + > + ; : + + O : O O . O   O O X O @ X @ o X o X @ @ X & o X X X & o   +       % X + X % @ X + X X   +   + +   + + ; + + + ; + ; > > + > - - O + +   + +     ; [ l.IXGXZXaXaXxXkXkXkXkXxXxXaXaXpXzXpXzXlXzXlXlXlXvXlXlXxXlXlXlXvXlXlXzXjXvXlXzXxXxXzXxXzXxXzXaXaXzXzXcXcXcXcXpXzXlXxXlXxXlXxXxXxXvXcXzXvXxXxXpXsXsXzXsXzXcXpXcXaXlXaXxXxXaXyXxXaXaXxXaXZXuXZXkXaXxXyXyXzX8XpXqXqXqX8XpXpXiXqXqX0XpXsXqX0XpXsX0XsXwX0XsXqXsXsXsXiXiXiX9XiXdXdXdX9XdXsXiXiX0XiXiX0X0X0X0X9X9X3X9X0XiX0X0X9XsXiXiXsX9XiXiXiX9X0X9XeX0X,XdXiX,X7X,X;X,X;X;X;X3X9X3X;X0X3X,X3X,X,X,X,X<X,X,X,X,X,X<X,X:X:X<X<X,X,X,X;X;X;X9X9X<X;X;X;X<X,X:X<X",
"W././._./././././././.L.OXL.L.K.OX(.K.L./.oXK.OXK.K.OXK.OXK.OXK.OX(.OX/.OX/.OXOXOX/.OX/././.+X/.OXL./.+X(.OX+X-X+X+X-X@X+X+X+X+X+X@X+X+X+X-XOX+X+XOX+XOXOXOXOXOX_.+X+X+X@X+XOX+X/.+XOXOX/.OX/.+XOX+X+X>X+X-XOX+X+X@X+X+XOX+X+X+XOX+X+X+X+X-X@X@X@X1X-X@X+X@X-X@X1X@X1X@X+X1X#X-X1X@X1X$X5X@X5X$X$X5X$X5X$X5X5X5X5X5X5X5X5X7X5X5X5X7X5X5X>X5X5X7X5X,X6X6X5X7XuX5X6X>X5X5X7X5X5X5X7X>X6X6X7X6XuX7XfXuXyX6XuXyXuX8X8X8X8X8X6XyX8X8X8X8X8X8X8X8XuXyX8X8XyX8XyXyXpX8X7XqXyXqX8X8X8X6XgXvXvXGXGX5X_ e % + # $ 6 6 2 7 7 : 6 6 6 > w k H Y E [ | | | X.X.0.X.X.X...X._ _ .._ _ { } } E L H h d g i k q < w , $ - : :     :   O       : O # + O + + + + + + $ + $ $ % = % = * * * * $ * $ + ; + + O + :   :   :   O O O O X o @ X @ o % X X X X X X o   X X o     X   O X X @ @ X + + X o X +     + O + + + + + + + + > + > ; > : , <           + . + : [ l.PXGXxXuXkXxXkXZXkXZXxXaXxXxXcXsXzXzXlXzXlXlXlXxXxXxXxXlXlXlXlXlXvXlXvXzXvXzXlXxXxXzXxXxXlXzXzXcXcXcXcXcXcXcXvXaXxXlXaXzXxXxXcXxXvXcXxXcXzXxXzXqXpXsXzXsXcXzXzXpXlXaXaXxXxXxXxXlXaXxXaXaXaXxXxXaXxXaXaXpXpXqXpXpXpXqXqXqX8XiXpXqXsX0XsX0XqXsX0XsXsXqXsX0X9XsX0X0XiXdXiXiX9XsXiX0X9XiXiXiXiX9X,X0X9X9X0X0X9X0X0X9XdX0X9X9XiXqXiXiX0X0X0XiXiXiX,XtXtX0XtXdX9X,X,X0X9X;X;X9X;X0X7X;X7X0X,X3X9X;X;X;X,X,X,X:X<X,X<X;X=X:X<X,X<X;X<X;X;X;X;X;X<X<X;X;X<X;X;X",
"OXW././.W././././.W.L.L.L.K.(.L.L.K.K.OXL.OXOXL.OXK.OXK.K.K.K.OXOX/.OX+X/.OXOX+X/.OX_.OX_.+X_.+XOX/.+X/.+X+X+X+XOX+X-X+X-X=X@X-X+X-X=X+X-X=X+XOX+XOXOX/.OXOXOX/.OX_.).+X_.+X_.+X/.+XOX/.OX/.OX+X+X+X+X+X+X>X+X+X+X+X+X+X+X+X+X+X+X+X+X+X+X-X+X1X@X>X1X@X#X@X#X5X$X@X$X@X@X@X#X@X@X#X5X#X@X5X@X1X5X$X5X@X@X5X5X5X5X5X5X5X5X>X5X5X5X5X>X5X5X5X5X5X5X7X6X5X5X6X6X5X7X5X5X7X5X7X5X5X5XuX6XtX6X8XyXuXuX6XuXkXyX6XyX6XyXuX8X8X7X8X8X8X8XuX8X8XyX6X8X8XuX8XuX8X8XyXyX8X8XpX8X8XyX8XkX6X6XvXgXGXGXkX| j $ % % $ $ 6 6 6 : : 7 : 6 9 0 e H L E [ { | | &.r.&.&._ _ X._ X.X._ 0.X.| } _ E J F l a j d e 0 w < < + + -   :   : + O :   :   + O % $ # # O $ $ + % + % $ $ $ = % = 4 % 4 = $ + + ; + + + + O O O O O   O O X X X X X + @ @ X X o X X @ X X X X X X     o   O % O X o @ O + X X o o   O + + X + O + O + + ; + + : > > > , + +       O O   O : { B.LXGXZXyXkXZXkXkXkXkXxXxXxXzXcXcXzXzXpXzXlXzXxXpXxXzXlXaXlXpXzXzXlXzXzXzXzXzXxXxXlXaXzXxXxXzXxXcXcXcXcXcXcXcXxXxXzXaXlXxXxXxXvXcXxXxXxXxXzXpXqXqXzXzXpXzXsXpXaXlXaXaXaXaXxXxXaXlXaXxXaXxXVXkXxXxXxXpXpXpXqXqXpXpXqXpXqXiXqXqXqXiXsXqXqX0X0XiX0XsX0X0XsX0XiXsXiX0XdXiXiXsX9XiXiXiXdXiXdXiX9X0X9X0X9X0X0X9X3X9X9X0X0XdX0XiX9X0XiXiXiXiXiX0XiX0XiX,XiXiXtXdX7X0X9X;X0X;X9X;X9X;X3X9X7X0X3X,X;X,X;X,X<X<X;X:X<X:X:X<X:X<X<X<X;X;X<X,X;X9X;X;X<X;X<X;X<X;X;X",
"W.+X/.+X+X_.OX/.K.OXL.OX/.L.L.OXK.K.K.K.L.K.K.K.L.K.L.K.K.OXOXK./.OXOX/.+X+X/./.+XOX+X_._.OX_.@X+X+XOX+X(.+X+X+X-X+X+X-X+X-X-X>X:X-X+X-XOX+X=X+XOX(.(.OX(./.OXOX+X+X+X+X+X+X+X+X+X+X/.OXOXOX/./.OXOX+XOX=X+X+X+X+X+X+X=X=X+X-X+X+X-X-X+X-X@X-X-X1X#X@X#X#X1X$X$X$X$X$X$X#X#X1X$X1X@X#X$X#X5X1X@X@X1X$X5X#X5X5X#X5X@X5X5X5X5X#X>X>X>X1X5X>X5X5X5X5X5X5XuXuX7XuXtX6X,XuX5X7X5X5XyX7X5X7X6XuXuX8X6X6XyXyX6X8XuX6XyX6X8X6X8X8X8X8XyX8X8X8X8XuX7X8XuX8X8X8X8X8XyXyXyXiX8X8XyX8XyX6XfX6XkXkXZXZXkXX.k * $ $ % 6 6 6 6 : 7 : 7 6 9 r a H E Q [ | X.X.X._ r._ r.X._ X._ _ _ _ X.X._ E ) I F g l j d k q w 1 < - - : :   : : + O       : # O # O + $ % $ @ % + % $ % $ % = = = 4 2 = = * > - ; + + +   : O O     O   X O X o @ o @ X X o X @ o X X X X o X   + O X   X   X X @ X X % X o O X O   +     O % %   o + + + ; + < > > > > >     + +   O   O O { U.IXZXxXxXZXyXZXkXZXkXkXxXlXxXxXzXcXzXzXzXlXlXxXvXzXxXlXaXaXlXlXlXzXzXzXzXzXzXxXlXxXlXlXxXxXxXcXzXcXcXcXcXcXcXxXxXlXxXxXlXxXzXxXxXxXzXaXlXlXaXsXsXwXsXzXpXpXzXlXaXaXlXlXaXxXyXxXaXaXxXxXaXaXaXaXaXxXpXpXpXqXpXqXpXpX8XqXiX7XiXsXqXiXqXqXiX0XqX0XqX0X0XqX0X9X0X0XiXdXiXiXiXdXiXiXiXiXiX0X9X9X9X7X9X7X9X9X0X9X0XiX9X7X0X9X0XdX0X0XiX0XiXiXiX0XiXeXiXiX,X0XeX9X,X,X0X0X0X9X3X;X0X,X3X;X9X9X3X9X7X,X,X,X,X,X<X,X,X,X:X-X<X,X,X<X,X;X9X;X;X;X;X;X;X,X,X,X,X;X",
"/.+X+X+X/.OXOX/././././.L.OXOXL.K.K.OXOXOXOXL.L.K.L.K.OXK.K.K.K.OX/./.+X+X_.OX+X+X+X_.+X+X@X_.+X+X+X_.+X+X+X+X-X-X-X-X-X-X+X:X+X-X+X=X+X=X+X+XOX+XOXOXOXOX/.OXOX+X+X+X#X+X+X+X+XOXOXOXOX/.+XOXOX+XOX(.OX+X+X+X+X+X+X+X+X@X-X+X+X>X=X+X-X@X@X#X@X#X@X$X$X$X2X$X$X$X$X$X$X$X1X$X$X@X5X$X5X5X1X5X5X@X5X#X5X@X1X1X@X#X5X1X5X-X5X5X>X1X>X5X>X5X5X5X>X5X7X5X5X7X6XyX5XtX5XtX5XtX5XuX7X5XyX7XuX8XuXyXyX6XuXuX6XyX6XuX7X8X6X8X8X8X8X8X8X7X8X7XuX8X8XyX6X8XyX7XuX7XyXyXyXpXqXyX8X8XkXuXkX6XuXvXbXZXvX&.z w 4 = % 6 6 : 7 : : 7 : 6 q i g J T [ E { X.X.&.r._ _ _ _ &.&._ _ X.&.X.X._ ) I I H l l l j e 0 1 1 < > : :   :   : :   O     - @ % # % # % % # @ o O % % $ $ 2 = % 4 = * * * * ; = > + + :   + + O +   o   X o O X o @ o X % @ X X X @ X o o X X         X   O X % + X o O o O X X + +     + + % + +     + + + + : > > > < , + O O O O   O . O X.V.IXvXkXVXkXyXZXkXkXkXxXxXxXvXcXcXvXzXpXzXaXaXxXlXaXzXaXzXzXpXpXzXzXzXzXzXzXzXzXlXlXxXzXxXcXcXxXcXcXcXsXcXcXcXzXlXlXlXlXaXzXlXzXlXlXlXpXlXyXlXsXqXsXsXpXzXpXaXaXlXlXaXaXxXaXlXxXaXxXlXxXaXZXZXZXaXxXpXpXlXlX8XlXpXpXqXiXqXqX7X0XpX0XwX0X0X0X0X0X0XqX0X0XiXiX0XiXiXsXiXsXdXiXiXtXdXeX7X,X0X,X,X,X0X9X7X0X9X9X0X,X0X7X9X9X0X0X9XiX0X0X0X9X0XdX0X9XtXeXiX,XiX7X9X,X0X9X0X9X;X9X9X,X,X0X7X,X0X,X,X0X,X,X,X,X<X;X<X,X<X,X,X,X,X<X,X<X;X,X9X;X9X;X;X,X,X,X<X,X",
"_._.+X+X+XOX/.L.OX/.OXL./.L./.OXOXK.K.K.K.K.L.K.K.OXL.OXK.OXK.OXOX/.+XW.+XOX_.+X@X+X#X@X@X_.#X_.@X+X/.+X).+X@X@X>X@X-X>X:X=X+X=X+X>X+X-X+XOX+XOXOXOX(./.OXOX/.OX+X+X+X@X#X@X+X+X+X_.+X/.OX/./.+X/.(./.OXOX+X+X=X+XOX+X+X+X+X-X>X+X-X>X@X-X-X+X+X1X#X@X#X#X%X$X$X$X$X$X$X$X$X%X$X1X$X@X5X@X5X@X1X5X#X>X#X5X#X>X-X>X-X5X>X5X5X-X1X@X5X>X1X>X>X5X5X5X5XuX6XtX6X6XtX5XtX6XtX5XtX6X7XtXyX6X6X8X8XyXyXyXyX6XyX8XuX8X6XyX8X7X8X8X8X7X7X7XuX8X7X7X7X7X7X8X7X8X7X8X8X8XpX8XiX8XyX8X8X6XfX6X6XZXZXGXZXt.z q 4 = = 3 : : : 7 7 : 7 6 w i n L Q [ ~ { | | X.t._ r._ &._ &.r.&.X.r.%.&._ _ I W J l C l j a e e 1 < - : - -     : O :       O # % @ # % # % % @ @ % # $ $ $ $ 2 = = 4 * 4 * * > > > : + -   + + + + + O + X % o X X O X @ X O X @ X X @ & X X X o o   O   o   @ X @ X @ % X + o X     X + +   O +   O + + + > + > > > > < ; +   O O   .   O O +.l.JXZXxXZXkXZXkXxXvXxXkXvXxXxXzXcXxXzXzXzXzXlXzXaXzXaXzXzXpXzXzXxXlXzXcXcXvXzXxXxXlXaXzXcXpXcXcXpXcXcXcXcXsXcXxXlXaXkXaXlXlXaXxXxXyXaXlXyXlXaXwXsXqXzXpXlXaXpXlXaXaXxXxXyXxXaXaXxXxXaXaXxXaXaXxXaXxXzXpXpXpXpXqXpXpXpXiX8XqX7X0X0X0X0X0X0X0X0X0XsX0X0X0XqX9XiX0X0XdXsXiXiXdXdXiXtXiXiX,X,X;X,X9X0X;X9X9X3X0X9XiX9X9X9X7X,X0X9X,XiX9X0XdX0X0XiX,X,XiX,X0X,X9X;X0X,X9X0X0X0X;X;X;X3X;X3X3X,X;X9X<X;X<X:X=X=X=X:X<X,X<X<X,X,X,X;X,X9X9X;X9X;X;X;X9X9X,X,X,X",
"@XOX+XOX+X+XOX/.L./././.L.OXL./.OXK.K.(.OXL.OXK.OXOXL.OXOXOXK.OX/.+X+XOXW.+XW.+X_.@X_.@X#X+X+X_._.+X+X+X+X@X+X+X/.+XOXOXOXOXOX(.=X+X+X+X+XOXOX+X(.(.OXOX(.OX+X).+X+X+X+X+X#X+X+X+X+XOXOX/.OXOX/././.OXOXOXOX+X/.OXOXOX+XOX+X-X+X+X-X-X@X-X-X#X+X@X+X#X#X$X6X$X#X$X$X6X$X6X$X$X$X6X5X5X@X#X5X1X@X-X@X@X1X-X-X@X1X-X@X-X>X#X>X5X@X-X-X5X>X5X5X>X5X5X5X6X5X6X7X5X6XyXtX6XtXuX7X7XtX5XyX6XtXuX8XyX8XyXkXyXuX6XyX6X6XyX7X8XyX8X7X7X8X7X7X7X7X8X8X8X5X7X5X5X7X8XyX7XuX7XqX7X8X8X8X6XyXkX6XkXZXGXaXr.J k w 4 % % 4 2 2 6 7 : 7 : 9 i F W _ _ &._ _ &.&.&._ &._ &._ t.&.&.r.&.r._ _ _ W E I J C l j a e 1 1 1 , : - + + : : + O +   % X O @ @ @ @ @ @ @ X @ # # # $ $ $ 4 * * * * * * < > > * > $ * + + o   + +   + o X o X @ o @ @ @ X @ X & X X X X X X     X     X + X @ X @ @ + o X X +   X O     o + % o   X   + + + < : > > , < O :   : O O O   O @.=XcXcXcXZXZXvXxXxXkXxXkXkXxXvXvXxXzXvXzXpXpXsXaXzXzXaXzXaXpXpXpXzXzXzXzXzXzXlXxXzXzXaXzXxXzXcXcXcXcXcXcXsXxXcXaXlXaXkXlXaXyXlXlXlXaXaXyXlXyXpXsXqXwXsXsXsXpXpXxXxXaXxXaXxXxXxXxXyXaXxXxXxXZXkXaXxXaXaXpXpXhXyXpXqXpXpXqXqXiXqXpXiX0XiXiXqXqXiXpX0X0X0XsXsX0X0X0XiXdXiXdXsXiXiX,XiXiXeX7XdX0XiX0X,X0X0X0X0X9X3X,X7X9X9X0X,X0X,X0X9X0X0X9XiX9X9XiXtX7XiXeX,X0X,X,X9X;X;X;X0X9X3X;X;X,X3X0X,X,X;X,X;X;X=X=X=X=X=X=X<X<X:X<X,X,X0X9X;X9X;X;X;X9X;X;X,X<X,X,X",
"+X+X+X+X(./.OX/./././.L.L././.L.L.OXK.L.L.OXK.OXOXK.OXK.OXK.L.OXOX+X_.+X_.+X+X_.@X_.#X+X@X_.#X#X#X+X_.+X+X+X+X+X+XOX+XOXOX(.OX(.+XOXOXOXOXOX+XOXOXOXOXOXOXOXOXOX/.+X+X+X_.@X+X+X+XOX+X/.OXOX/.OXOXOXOX+X+XOX+X+XOX+X+XOX+X+X+X-X+X-X+X-X#X-X@X@X@X#X$X@X$X@X$X$X$X$X$X$X$X$X$X$X$X$X5X5X>X-X-X@X-X-X-X@X@X-X@X-X-X@X1X-X>X1X>X#X-X@X@X1X>X5X5X5X5X5X5X6X5XuXuX7X5XyX5XtXyXtXyX6XyX5X7XuX8XuX8XuX6XuX6XyXuX6X5X6X7X8X7X8XqX7XwX7X5X6X8X7X7X5X7X7X7X5X7X6XyX7XyX8XqX8XyX7X8X8X6XfXkX6XyXvXvXyXt.I k w = % % 4 8 6 6 6 7 : : , i n W W _ _ &._ &._ t.&._ &.&.&._ &.&.&.r.&.r._ _ E I J H V l l d e u 1 1 - - :   + : + + +   O X o % % % # O % @ # @ @ @ % $ $ % % * * 5 * w 5 w * * * * = $ + + + o + + + +   o & X X X X X X X X X X @ X X X o X X X X   X   +   X % o + @ @ X X X O + + + + X   X X   X + + + + + < > > > > < +     O     O : s +.=XGXVXGXaXxXZXaXyXkXxXkXaXlXlXvXvXzXlXzXzXzXcXlXaXxXpXpXzXlXpXlXzXzXzXzXzXzXzXxXxXxXlXpXxXxXxXpXcXcXpXpXcXzXpXlXaXlXaXyXpXlXyXaXlXpXkXlXaXlXaXsXsXsXsXzXqXzXpXpXlXzXaXlXaXxXxXxXxXaXaXxXxXVXaXxXaXxXaXpXpXpXqXqXpX8XpX8XiXqXiX0XqX0XqX0X0XiXqXqXqX0XsXqX0X9XsXiX9XiXiX9X9X0XdXiX,XeX0XdX7X0X,X9X0X9X0X9X9X0X9X0X9X9X7X,X9X,X0X0XiX9XiXiX0X0X0X7XdXdXtX0XeX7X9X0X0X0X;X;X;X,X;X;X3X;X0X3X3X,X,X,X;X:X:X<X=X=X=X=X:X;X,X,X,X,X9X9X9X;X9X9X;X;X<X;X;X;X;X<X",
"/.+X/./.OXOX/./.L.OX/././././.OXOXL.(.OXOXL.OXK.L.OXL.OXOXL.OXOXOX_.OX_.+X+X+X+X_.+X_.#X#X#X@X+X@X+X+X+XOX+X+X+XOX+X+XOXOX+X(.OXOXOXOXOX(.+X+XOX+XOX+XOXOX+XOX+X+X+X+X#X+X+X+X+X+XOX+X/.+X/./.OX+X+X+X+X-X+X+X+X+X+XOX+XOX+X+X+X+X-X@X-X-X@X>X+X+X@X#X#X#X$X$X@X$X$X$X$X$X$X$X$X$X5X5X#X5X@X1X>X@X-X-X>X-X@X-X-X@X1X@X5X@X1X5X>X@X>X>X5X>X5X5X5X5X5XtX6X7X6X6XtX5X7XtX6X7X5X7XuX5X7X6XyXuX8XuX7X6XuX6X6X6XuX7X5X7XyX8X7X7X7X7X7X7X7X7X5X7X6X7X5X7X7X7X7X7XqX8XiXiX8XiX7X8X8X6X8X6XuXkXxXvXyXh.I e w = o 2 4 4 7 7 6 6 6 7 9 p n W &.&._ W &._ &._ &._ &.&.&.t.&.&.&.&.&.&.&._ _ E I I J I J l d 1 1 - < - : ; > -   : + + @ % % o % $ % % % % + + % # # # $ % $ = 4 4 e e w w * > > w * - o o - % o o o o   X X   X o @ X & X X X & X X X @ % O o X     o O   + O X @ O + o X + X o + + +   O           O + + ; + > + > > > < + + . +   & O 9 H l.3XGXGXZXZXZXGXcXpXsXUXZXZXvXvXcXcXzXzXzXzXzXzXzXpXcXzXxXzXlXpXlXzXlXlXzXzXzXzXzXxXxXzXxXvXzXcXxXcXzXpXaXzXaXcXaXlXaXlXkXpXaXkXlXlXlXaXyXlXpXpXsXqXsXwXpXpXpXpXaXlXxXaXaXxXxXxXaXaXxXxXxXxXxXZXaXaXxXkXpXpXqXqXqXiXiXqXqX8XiXqX0X0X0XqX0X0X0X0X0XqXsXqXiXqX0XiX0XsX0XdXiXiX9XiX,XiXiX,XdXiX0XiX0X9X0X9X0X3X9X3X0X9X9X7X0X,X0X,X0X9XiXiXiX0X9XiXeXiX,X9XtXiX9X,X9X,X;X9X,X;X;X9X;X5X0X;X9X7X,X;X,X;X,X,X<X<X:X:X:X<X<X;X<X,X,X9X;X9X9X;X;X<X;X;X,X;X;X;X;X",
"OXOXOX+X/./.OX/.OX/.OX/.OX/.OX/./.OXL.OXL.OXK.OXOXK.OXK.OXOXL.OXOX/.+XOX+X/.W.+X+X_.@X#X_.@X#X#X_.+X+XOX).+X+X(.+X+XOX/.OXOX+XOXOXOX(.OXOXOX=XOX=X+X(.+XOX+XOX+X/._.+X+X+X+X+X+X+X+X+XOX/.OX+XOX+XOX+X+X+X-X@X-X+X+X+XOX+XOX+XOX-X+X-X-X@X-X+X+X+X#X-X#X@X@X5X$X$X$X$X$X$XuX$X%X1X@X>X#X>X1X>X-X-X-X>X#X>X#X>X-X>X1X-X>X5X5X5X5X1X-X5X-X5X>X7X5X7X7X5XuX5XuX6X7XyX5X,XuXyX>X6X7X5XuX5X6X8X8XyXuXuXfX6XuX6X6X5X6X7X7XqX8XqX7XqX7X7X5X7X5X7X7X7X5X7X7X7X8XyX7XyX8X8XqX8X8X8X8XuX8X6XfXxXxXvXyXr.J k 4 % o 2 4 4 2 6 6 y 7 : : t l W W W &._ _ &._ &._ &.&.&.&.&.&.&.&.X.| _ _ _ I E E E E E I J z e 1 < , - : > > : : ; + % O % % % $ o o + + % O % + $ # $ % $ $ * 8 w w e e w e e e e < + + o + - o o =   o     o & & X X @ X X @ o X X X % O + % o + O     + X @ X o % X @ X X X X   + + +   O X X X X + + + +   < + > > > , + ;   : O   . 9 H +.u.j.l.P.F.>XZXiXpXsX9XyXaXyX7XvXxXpXzXlXpXpXpXxXxXxXcXcXxXzXzXzXzXzXvXzXzXzXzXzXcXxXvXzXxXcXcXpXpXcXxXcXpXpXpXlXlXlXpXaXlXpXaXaXzXyXlXaXlXlXpXqXzXsXsXsXpXzXpXaXlXaXlXaXyXlXaXaXxXaXaXkXaXxXxXZXaXaXyXpXpXpX8X8XpX8XyXiXqX8XqX0XqX0XqX0X0X0XqX0XiX0X0XiX0X9XsXiXiXiXiXdXiXdXiXiXtX,XiX7XeX9X,X9X7X0X,X9X0X9X9X0X9X7XdX,X0X,X,X0XiX0XiX0XiXiX0X0XeXiXtXeX,X0X9X0X,X9X3X9X;X;X3X3X,X,X3X0X;X0X,X;X,X,X<X<X<X<X<X,X:X,X:X,X,X<X,X9X;X;X;X9X;X9X;X<X<X<X:X;X",
"/.OX_.OXOX/./././.OX/././.OXOX/./.OX/.OXK.OXOX/./.OX/.OX/.OXL.OXOX/.OX+X_.OX_.OX@X_.+X+X+X_.+X@X+XOX+XOXOX+XOX/./.+XOX+X+XOX+XOX+XOXOXOX+X=X-X+X+XOX+X(.+XOXOXOX+X+X+X+X+X+X+XOX+XOX/.+XOX/./.+XOX+X+X+X+X:XOX+X+X+X+XOXOX+X+X+X+X+X:X+X-X+X-X-X-X+X+X>X1X#X>X5X$X$X5X@X5X5X5X#X#X#X>X#X-X5X@X5X1X:X-X>X-X>X>X#X1X>X@X1X>X5X5X5X5X>X5X>X5X5X5X5XyX5X6XuX7X6XuX5X5X5X5XtX5X5X6X>X7X5X5XuX7XuXyXyXkX6XuX8XtX8X6X5X7X7X8X7X7XwX0X7X5X7X7X7X7X7X7X7X7X7X7XyX7X7XyXqXiX8X8X7XyX6X6XfX6XkXxXxXZXvXx.J q 8 % % 4 4 4 2 6 7 9 6 ; 8 e a C E _ | &._ &.&.&._ &._ _ t.&.&.&.| | | X..._ _ ) ) _ ) | E W m z a 1 < > * + + $ ; $ % % $ % # o + o + + + O + % + # + : + ; ; w w w e e e e e e a e 1 > + o - o o + + o o X   X o & o X X X X X X X X @ + + % + + + + + +   + O o O O @ o o o X X     X O + + X X o O   + + + + < + ; > : > + >   + +   O ; j F H V Z G ) r.<XAXGXGXUXsXbXcXyXlXaXpXlXzXpXpXlXlXxXxXxXvXxXzXzXlXlXvXlXlXlXvXzXcXvXvXcXvXZXcXcXcXpXxXpXcXpXxXpXxXxXaXlXaXkXlXyXaXkXaXlXaXlXxXaXpXzXsXsXzXhXsXzXlXaXlXyXyXaXxXaXxXaXxXaXVXxXxXxXxXaXaXpXpXpXqXpXqXpX8XqXqXtX0X7XqXpXqX0X0X0X0X0X0XqXsX0XqX9X0X0X0XiXiXiXdX0XdX9X,XiX,XiXeX7X0X0X,X0X9X9X0X9X3X9X,XiX0X9X,X7X,X9XiX9XiX0XiX9XiX9X,XiXeXiX0XiX,X0X,X9X3X,X3X;X;X;X,X;X7X;X3X9X,X0X9X,X,X,X,X:X,X<X<X,X:X,X,X<X<X;X;X9X;X;X;X<X;X;X;X<X;X:X,X",
"+X+XOXOXOX/./.OXOXOX/.OX/././.OXOXL./.L./././.OXOX(.OX/.OX/./.OX/.OXOX/.OX+XOX+X!.+X+X+X+X+X+XW.(.OXOXOXOX/.+XOX+XOX+XOX_.OX+X).OX+X+XOX(.+XOX-XOX-X=X+XOXOX(.+X/./._.+X+XW.OX_.OX_.OXOXOX+XOX+X+X+X=X+X+X+XOX+X+X+XOX+X+X+X+X+X+X-X+X>X@X>X+X+X@X-X+X+X@X-X>X1X1X@X$X5X$X@X#X1X@X-X@X>X1X@X>X-X>X-X5X-X>X1X>X>X-X>X5X5X5X>X6X>X1X5X>X5X7X5X7X5XyXyX8X8X6XyX6XtX7X5X5XtX5XtX7X5X7X5X6XtXuX8X6XyX6XkXyXuXuX6XyX7X7X7X7X7X7X7X;X7X7X7X7X7X7X7X7X7X8X7X7X8X7XyXyX7X7XqX8X8X8X8X6XyXyX6XkXvXZXxXF.R d 6 @ $ 4 4 4 2 6 6 9 6 ; > e l W W _ } W &.&.&.&.&.&.&.&._ t._ | | _ | | | | _ _ X.| _ _ _ I l a e e 4 w 4 * $ $ $ $ # % % % % + - + + + + + + + + + O + + ; > w w w e e e d j d e e w - = + + = = = o o o o o X   & @ X X X X o @ @ o @ O + + % + O     O O   % O @ % % @ X & X         X + + + +     +   +     + + ; > - > ; -   = + X O X ; q 8 2 2 w h [ G.dXUXUXUXiXaXiX,XxXlXlXvXzXzXpXzXxXlXvXvXzXvXvXlXzXvXlXzXlXvXlXlXxXvXzXcXcXzXcXcXzXcXcXpXzXsXpXaXaXlXlXlXlXaXaXlXlXaXlXlXaXlXlXaXzXsXsXpXzXsXzXpXpXaXaXaXxXaXkXxXyXxXaXxXkXaXkXVXaXlXyXaXpX8XpXqXiX8XiX8X0XqXqXqX0X0X0X0X0X0X0X0X0X0X0XwXiXiX0XsXiXiXiXdXiXdX7XiXiX,XiX,X,XdX,X9X,X0X3X0X0X;X9X9X9X,X,X0X0X9X0X,X9X0X0XiX9XiX0X0XdX,X7X,XdX7X0X9X9X7X9X9X9X9X0X;X3X9X0X7X0X;X9X,X,X<X,X,X:X<X<X-X,X;X,X<X<X<X<X;X<X<X9X;X;X;X;X;X<X=X;X<X<X",
"OX+X+X/.OXOXOXL./.L.OX/./.OXOX/./.OXOX/.L.OX(./.OX(.(.OXOX/.OXOXOX/.OX/.OX+X+XOXOX+X_.OX_.OX/.OX(.OXOX(.OXOX/.OX/.+X+X+X+X+X+X+X+X-XOX+XOX+XOX+X+X+XOXOX(.OXOXOXOX_.+XOX+X+XOXOX+X/.OXOX/.OX+XOXOX+X+X+X+XOX+XOX+XOXOX+XOX+X+X-X+X-X+X>X-X+X+X+X-X-X+X+X+X-X>X#X5X#X#X5X5X#X5X@X-X@X-X1X1X>X>X-X>X>X,X>X-X>X1X>X>X5X5X5X5X5X5X6X>X>X5X5X5X5XtX7XyXuX8XuXtX7XuX6X5X5XtX5XyXtX5X,XuX5XuX6X8XyXuXyXyX6XuX8X8XuX6X5X7X7XwX7XwX7X7X7X7X7X8X7X7X7X8X7XyX7XiX7X7XyX7XyX8X7X8X8X8X6XkX6X6X6XyXZXvXxX/.X.h 8 @ $ 4 4 2 2 2 6 6 8 ; 8 e d J E | | &._ &.&.&.&._ &._ &._ _ | } } _ | _ ..X._ _ _ E E E I l z e w w 8 8 8 2 $ $ $ $ % % % % o o o + o + O + + + + O # : ; ; 8 * * e d d a l z a e w = = = - = o = $ = o o o X o o @ X X @ X @ @ o @ + % + @ + X X o + X   o % @ + + X @ X   X X &       O   o @   + +   X   + >   ; > + > - o + =     + . O 3 # & & X 2 N R <XUXGXAXsXZXcXpXxXzXaXlXzXzXpXvXkXxXvXxXvXxXlXlXkXlXvXlXzXlXlXvXxXxXcXzXcXvXxXzXcXzXcXcXxXcXaXzXxXlXxXaXaXaXpXlXaXpXlXaXlXxXaXlXzXsXpXzXzXzXzXsXaXzXaXaXaXxXxXxXxXxXyXxXaXaXVXaXaXyXyXaXpXyXqXpXpXqXqXpXiXqXqXiX0XiXqX0X9X0XiXqX0XqX0XsX0X9X0XiXiXiXiXiX,XiXdX,XeXdX7XiXiXdX7X0X0X0X9X,X0X9X3X0X,X,X9X,X9X0X0X0X9X0XdX9X0XdX0X,X7X,XeXiXiXeX,XiX9X9X9X0X0X0X0X9X7X3X;X3X;X7X,X,X,X,X,X<X<X:X<X,X,X:X<X,X<X,X<X[.9X;X<X;X;X9X;X;X;X<X:X;X;X",
"+XOXOX+X+X/.OXOXOX/././././././.OXOX(.OX/.OXL./.OXOXOXOXOXOXOXOX/.OX/.OX/.OX/.OX+X+XOX+X+X+X/././.OXOX/.OX/.OX+X+X/.+X_.+X+X+X+X+XOXOXOXOX(.OXOXOXOXOXOXOX(.(././.+X_.+X+X_./.+XOX+XOX_.+XOX/.+X+X+X-X+X+X+X+X+XOXOXOX+XOX+X+X-X+X+X-X@X@X=X-X+X>X=X=X+X=X-X>X:X-X@X>X#X>X>X-X@X1X-X-X@X-X-X@X-X5X-X-X>X5X5X@X5X1X@X5X5X5X5X5X5X5X5X5X5X5X7X6XuXtX7XuX8XuX6X8X7XtX5X5XyX7X5X6XuX7X6X7X6X6X6X6X5XkXuX6XuX6X6X7X>XyX7X7X7X7X0X7X7X8X7X7XyXyX7XyX7X7XiX7X7XyX7XqX7XiX8XqXuX8X8XuX6X6X$XkXxXxXxX>Xb.Z w @ # 2 8 4 8 6 6 9 6 * > e d I W | } _ &._ &._ &.&.&.&.&._ _ } ^ | | | } | X...X.X.| } | | ) J l e w 8 4 $ # $ $ % % % % + % + o o o o + + + + + : O # # $ $ * = w d z d d l l d e w w = = o o + = = + - o o o X o @ @ X O X + + @ % @ O % + + + + X     X X @ + @ X % X X o & &           & +   + O + + O + + ; + , : - < >   o =     $ O O . # . & & & @ 7 M.9XGXGXiXsXpXiXpXpXzXzXlXaXzXlXxXlXlXvXlXvXlXvXvXvXlXlXlXvXvXvXxXcXcXxXcXcXcXxXcXxXcXpXcXpXzXsXzXxXlXxXlXlXlXyXkXaXlXlXxXlXlXxXzXsXzXsXsXsXzXcXxXxXlXxXaXxXxXxXyXaXaXxXxXkXkXaXaXyXlXyXpXlXpXqXyXqXpX8XpXiXqXqXpXqXiXqXsXqX0XiX0X0XqX0X0XiXiX9X9XiXiXdXiX,X7XdX,X7XeX,X,X7X9X,X9X,X,X0X;X0X9X,X,X0X,X0X,X0X9X0X,X0X7X0X9X7X,X0X,X9X0X0X,X0X9X0X,X9X0X0X0X0X9X0X9X9X,X;X3X;X;X;X,X,X,X<X-X,X<X:X<X:X,X<X;X,X<X<X<X<X;X;X<X;X<X;X;X;X,X;X<X",
"+X+X+X/.OX/.+XOX/./.OX/.OXOX+XOXOXOX/.OX/.OXOX/.OXOXOX=XOX].OXOXOXOXOX(.OXOXOXOXOX=XOXOXOX/._.+X(.OX(./.+X+X+X@X!.#X+X_.OXOXOXOX).+X+X/.OX(.K.(.K.OXOXOXOX/./.OX/./.OX_.(.OX).+XOX+X(.+XOX_.+X(.OXOX_.OX+X+X/.+X+XOX+X+XOX+X=X+X+X=X+X:X-X-X+X=X=X=X=XOX=X=X:X:X=X-X>X>X+X>X@X-X-X>X-X>X>X-X>X1X-X-X-X>X>X>X1X@X-X>X5X1X>X@X5X5X>X#X>X>X5X>X7X6X7X8X7X8XtX6X5XyXyX7X7X7XyX7XyX5XyXyXyXuXuX6XuX6X6XkX$X6XuX6XuX5XtX5X7X7X7X7X7X3X6XuXuX,XtXtXiXaXeXtXyXtXyXuXyXiXyXlXyX8X6XyXyX6X6X6X6XuXlXyX8X7XY q 8 # X 6 2 2 8 6 $ 6 $ 8 q j I ) | X.| _ &.&.&.&.W ^ &.W _ ^ | W _ _ ) E } | X.%.+.r.r.O.X.T C N N k 5 5 % 4 3 % % % % % % % % % % % % % o @ . : O O : # % % w = e z H J L E L J z a * < = * * * * * $ = % X @ o X + @ @ @ X O @ O O # # $ $ $ % % O X   X & % o O X   X X X X O O @ X   &       O O O       + + + + > > + > - - - - :   # # # . : : . . : . @.<XGXUXiX9XsXsX0XsXUXsXsXUXzXqXxXxXxXvXkXvXlXvXlXzXzXzXvXlXvXxXcXxXxXxXxXcXcXxXxXxXcXxXcXcXaXZXcXzXcXzXxXcXxXpXpXaXpXpXaXpXpXpXqXzXsXzXsXzXsXzXpXpXaXaXlXaXaXyXvXxXpXaXxXyXaXVXkXkXuXkXxXyXkXkXkXaXpXpXyXpXiXpX8X8XiXqX7XiX0XiXiXiXiXiX0XiX9XiXiXdX0X9X0X0X7X,X0X,X,X9X9X,X0X,X9X7X0X,X0X,X,X0X0X;X;X0X9X0X0X,XdX7XtXdX,XdX7X,X9X;X9X3X9X7X9XiX9XiX9X9X9X3X9X;X;X9X;X9X;X;X9X;X9X<X9X<X,X,X:X:X,X<X<X,X;X<X;X<X;X,X:X;X;X,X<X;X;X<X;X<X,X",
"+XOX+XOXOX/./.+X/./././.OX_./.+X/.OXOX/./././.OXOXK.OXOXOXOX=XOXK.OXK.OXOX=X].=X=XOXOXOXOX+X/.+XOXOXOXOXOX_.+X+X@XW.+X+X+XOXOX+X+X+XOXOXOXOXOXK.OXOX/./././.+XOXOXOX/.OX+X+XOXOX+X+X+XOX+XOX+X+XOXOXOX+XOXOXOXOX/.+XOX+X+X+X+X+X-X+X=X-X:X=X:X=X=X+X=X=X=X=X=X=X-X-X-X-X-X>X>X-X5X-X@X1X1X>X@X5X+X=X-X-X-X-X-X-X>X5X5X>X5X5X>X5X5X5X5X5X5X5X5X7XyXuX7XuXyXtXyXtX7XqX7X7X7X7X7XtXuX6X6X6X6XuX6X6XkX$XfXuX6XuXuX7XuX7X5X7X7X4XwX3XuXuX7X7X7XtXyXyXyXtXtXyXyXyXyXyX7XaXlX8X6XyX8X6X$X$X6XyXkXkXlXcX} N w 6 $ 2 2 w * 8 2 w 4 w w d I E X.&.X.&.&.| &._ &.&.&.^ ^ _ ^ _ ) ^ ) ) } | X.r.0.r.z.z.r._ I C V 5 k 4 % 4 4 % % % % % % % % % % % % o X X   : O O # $ 2 2 * w e J E E ^ | R J H a e * o o * * * * * * + + @ % @ % % X @ @ X @ X O O % $ $ @ % % + o % & o X X X X .   X     X O O + O O O +   O O O     + + + + ; = $ > =   - -   -   O O O # 6 # . . . . Q P.IXGXGXiXpX0XiX0XsXsXsXwXzXzXkXvXvXxXxXlXvXlXlXlXzXvXxXxXxXvXxXcXxXxXcXxXxXxXxXaXZXcXsXcXcXsXcXcXxXxXsXpXcXzXpXpXxXzXxXzXcXpXzXsXsXwXsXzXzXzXzXpXxXaXkXxXlXaXpXpXsXpXaXaXZXyXkXZXZXxXkXxXkXyXlXlXkXpXlXyXyXpXiXyXiXyXqXiXiX7XiX0X0XdXiX9XdX9X9XiX0X9XiX7X7X9X,X9X0X7X0XiX,X9X,X,X9X0X9X0X9X,X;X9X0X;X,X,X0X9X0X9X0X,XiX7XdXdX0X9X9X9X9X9X9X0X9X9X0X9X9X3X;X9X9X;X9X;X;X;X;X;X<X<X<X<X:X,XeX<X,X<X,X<X;X:X:X;X;X<X,X<X<X;X;X:X<X,X,X;X;X",
"+XOX/.OXOXOXOX/./.L./.OXOXOXOX+XOX+XOX/.OXOXL.L.K.OXK.OXOX=XK.=XK.OXOXOXOXoXOX].OX=XOXOX+XOX+X+X+XOXOXOXOX+X/.+X+X+X+X+X+X+X=X+X+X+X+XOXOX/.K.OXOXOXOX(.OX/.OX_./.+X/.OX+X(.+X+X+X+X+X+X@X+X+X+XOXOX+XOX+X/.OX_./.OXOXOXOX+X+X+X-X+X-X:X-X+X=X=X:X=XOXOXOX=X=X=X-X-X1X>X>X-X>X>X5X>X>X1X-X-X>X-X>X>X>X5X,X>X5X>X>X5X5X5X5X5X5X7X5X5X5X5X5X7X7XuX6XtXuX7X7XyX5XyX7X7X5X7X5X5X7X6XuX6XuX5X6XuX6XuX6XkX6XuXuX7X5XtX5X7X7X7X8X7X7X4X$XuXuXuXyXyXyXyXyXyXyXyXaXyXyXuX8XpXyXyXyXkXuX$X$X$X6X8X8XyXvXGX| G 4 % 4 o = w 4 8 4 w 4 k w k L E | | &.&.| &.&.&.&.^ _ _ W _ E W E E E E } { 0.S.G.L.OXoXF.0./ C V 5 4 4 % % % % % % % % % % % % % % o O O O O . O # 6 2 2 6 e e V E X.o.+.o.X.{ E e e 4 w = * > > * * $ * + % % % + + @ X X @ X X @ O $ $ $ # % % $ + % @ X X X X X   & & X @ X + $ $ $ # % ;   O + X       O + + - > + + > - - -     : + O # 3 # 3 : # . . -.p.IXUXGXqXpXsXiXsXsXsXzXlXzXlXxXxXlXvXvXlXvXvXjXvXlXlXxXvXxXxXcXZXvXZXcXZXxXZXxXcXxXcXZXxXxXcXcXcXcXcXcXzXxXxXlXpXzXaXzXpXpXcXsXqXsXsXsXsXzXzXpXxXaXxXxXxXaXlXpXlXpXzXaXaXaXaXZXkXxXkXlXkXlXpXyXaXpXpXiXpXyXpXiXyX7X7X7XiXiX8XpXiX0XiXiX9X9X9X9X9XdX9X7X0X7X7X0X0X0X9X,X0X,X0X0X9X,XiX0X,X0X9X0X9X9X9X0X0X,X0X0XiXtXiXiX7XdXiX0X0X9X9XdX0XdXtXiXiX,X9X;XwX9X;X;X;X9X3X9X;X9X<X,X,X<X,X,X:X,X<X,X;X;X;X<X;X;X<X:X<X;X;X<X,X;X,X<X,X<X,X<X",
"OXOX_.OX/.OX/.OX/.OXOX/././.OX/./.OXOXOX/./.(./.OXK.OXOX=XOX=XOXOXOXOXK.].].:XOXOX].+X=XOX+X+X+X+XOXOXOXOX_.OX_.@XOX+X+X+X+X:X+XOX+X+X+XOXOXOXOXOXK.OX/.OXOX/.OX/.OX+X/.+X+XOX+X@X-X+X+X+X+XOX+XOX/./.OXOXOXOXOX+X/.OX_.@XOX+X-X@X=X-X+X=X:X+X=X=X+X=XOXOXOX=X=X@X>X>X-X>X5X>X1X-X5X>X>X5X>X5X>X:X,X,X,X,X7X>X5X5X,X5X5X5X5X7X6X5X6X5XtX5X5X5X7X5XyX7XyX7XuXyXyX5X,X,X7X5X5X5X7X>X6X5XuX6XuXuX6XuX$XkX6X6XuXuX5XuX5X7X7X8X4X7X8XkXuX6XkX7X6XyXyXyX8XuX7X6XkXuX6X7XyXkXyX6XyXkX6X5X5X6X6X6XkXvXGX%._ 5 = w o = 4 4 8 4 e 4 e e j I W _ | _ _ &.&.&.&._ &.W ^ ^ W _ E E E T ) | O.r.K.OXOXD.t.+.I C k 5 5 2 2 3 % % % % 3 % % 2 % 4 % % % + X O O O : O O # 6 6 w d l I X.r.h.z.h.%.+.) d 4 = 4 % + + > * $ > $ + + + $ % % + @ X X @ X @ @ % $ $ $ $ $ $ % % @ X   X X   X .   X O + ; : > 8 > ; ; + O + +   X   + + + + = > = > -   - -       O . : . . 6 # . 2 ! *.PXUXcXiXiXZXiXsXsXiXaXzXvXlXxXvXxXxXlXvXlXlXvXzXlXvXvXxXxXZXxXvXcXcXxXxXcXcXcXxXxXZXcXsXcXsXxXzXcXpXxXzXpXlXaXzXpXcXxXcXxXcXwXsXsXzXqXsXsXsXzXcXxXaXxXaXxXaXpXiXpXaXxXuXZXZXaXVXxXkXaXlXpXpXpXpXpXyXpXyXqXyX8XiXqXyX7XyX7XiXpXiXpXqX0XiX0X9X9X0X,X7X9XiXiX0X7XdX,XiX9X0X0X9X7X9X9X0X0XiX9X9X0X;X3X9X0X,X0X0X0X9XiXdXiXiXiXiX9X0X0X0XiXiXeXdXeX9XdX7X9X9X9X9X9X;X;X;X;X;X;X9X<X<X,X<X:X,X:X;X:X<X<X,X<X;X<X;X=X;X<X;X;X<X;X,X;X;X,X;X,X",
"/.OXOX(.OX/.OX/./.OXK./././.OX(.OX/.OX/./.(./.OXK.K.OXOXOXOXOX=XOXOXOX].OX:X].:X=X=XOX=X+X=X+X+XOX].OXOX(.+X@XOX_.+X+X-XOX-X=X-X+X+X+XOXOXOXOXOXOXOX(.OXOX/.+X+X+XOX+XOX+X+X+X+X+X-X+X+XOX+XOX+X+X/.OX/./.OX_.OXOXOX+XOX+X+X+X-X=X-X+X>X+X-X+X+X+X=X+XOXOX+X+X:X1X@X5X>X5X>X5X>X>X5X>X5X,X>X-X,X:X=X:X:X-X-X:X-X>X>X5X5X5X1X>X5X>X5X7X5X7X5X5X5XtXuX7X8XtX6XtXtX5X7X3X,X,X3X5X5X5X5X>X5X5XuX6XuXkX$X6X6XuX6X6XuXuX6X6X8X8X6X8X6X6XuXkX$XkXuXuXkX6X6XuX6XkXkXkXkXyXyX8XyX8X6XkX6X6X5X$X5X5XuXvXGX@XD.I e 5 % 5 % 4 5 * 5 5 e e l I W W &.&.&.&.&.&._ ^ _ _ E W W W I J J I ~ @.$.@XVXZX%Xr._ I N 5 % % % @ @ & @ 3 @ @ % @ 2 $ 4 = % $ + @ X O O # . O # $ 4 w k F I } $.b.l.S.b.r.r.} I k 5 2 2 * ; > ; + + + $ o $ % % % X o X o o @ o % % $ $ 8 8 $ % O O X @ X   X   &   X O $ ; ; 8 9 9 9 8 > : $ # O X   + -   + + ; > - > - :       O   O . . . & 2 # @ 2 K -.PXGXGXUXuXyXaXaXaXyXaXxXvXxXxXxXxXxXvXzXlXvXlXzXvXlXvXlXvXxXcXxXvXxXcXvXcXxXcXxXcXcXcXcXaXxXpXpXcXpXlXpXaXlXlXlXpXxXxXaXzXpXsXqXsXsXsXhXsXzXcXzXxXxXxXlXaXlXpXpXpXpXaXaXxXaXxXVXsXsXaXpXpXpXpXpX8XpXiXiXiX7XiX8X7XyX7X8XyX7XiXiXyXqXqX0X9X0X9X9X7X9X9XiXiX7X0X0X9X0X0X0X,X0X9X9XiX0X0X0X9X0X0X0X9X;X9X0X,X9XiXiXiXtXiXiXiXiX0X0XiX9XdXiXtXtXtXdXiX,X9X;X9X9X9X;X9X9X;X,X;X9X,X;X,X<X,X<X,X:X;X;X-X<X<X;X;X;X=X<X;X<X,X,X<X,X;X,X<X,X<X",
"OXOXOX=X(.OXOXK.OXK.OXOXOXOX/.OXL././.OXOXOXOXOXL.OXK.OXOXOX=XK.OX].OXOX].K.OX:XK.K.=XOXOX+XOX=XK.OXOXK.OXOXOX+X+XOXOXOX+X=X=X=XOX+X+XOXOX=X=XOX=XOX(.OX/.OX+X/.OX_._.+X+X+X-X+X+X+X+X+X).+X+X(.OXOX+XOX+XOXOX+XOXOXOX+X+X+X+X+X-X:X-X-X=X+X=X+X+X+XOX+X+X=X@X>X>X5X5X5X5X5X1X5X-X>X,X,X5X5X;X:X<X;X:X=X=X:X-X:X-X>X1X>X>X>X5X1X5X5X5X5XuX>X5X5X5X7XtX6X7XyX6XtX7X5X5X5X5X5X>X5X>X5X>X5X>X5XeX6X6XkX6XuX8XuXuX7X5X5X6X8X8X8X8X6X6X6XgXkXkX6XkXkX6XkX6XkXuX6XuXkXkXyXyX8XfXyX6XkXkX6X1X1X6X8XlXlX6X$X_ z 5 - 5 4 5 * 4 w 4 k d z C W W _ _ | _ &.&.^ _ ^ W W I W J J H J J E @.+.F.%Xt.q.I N 5 % % % % % @ @ @ @ @ @ @ % % 2 2 2 4 2 $ % O X O X # # : # % 2 q N T ) +.z.F.F.F.z.F.z...R k 5 2 5 ; * + > + ; = + + + % % + % o o % & & o @ $ $ 6 8 8 ; # X X X X X X O X X X X O $ $ 8 w w q w 8 8 + $ $ O O   O     : - > > : - - - -       O O : . . . 3 . & @ U =.PXIXbXUXyXxXaXaXaXkXaXxXZXkXxXvXlXvXzXlXvXzXzXlXlXzXlXvXxXvXcXZXZXcXcXZXZXcXZXaXZXxXcXsXcXaXpXcXxXpXaXpXpXpXaXaXzXzXzXxXzXaXzXsXpXpXzXsXpXzXcXxXaXxXxXyXaXaXiXqXpXiXyXaXaXaXaXaXsXsXpXiXsXpXpXiXiXpXyX8XiXyXiXyXyX7X7XiX7XyX8XyX8XiXiX0X0XiX9X,X9XiX7X9X0XiXiX9X9XiXdX0XiX0XiX0X9XiXiX9XiX9X;X0X0X0X0X0X0X0X0X9XiXiXiXiXaXiXiXsX9XsXdXiXdXdXeXeXeXeX9X9X9X;X;X9X;X;X,X,X<X,X;X,X<X<X,X,X<X,X<X<X<X<X<X,X,X<X;X:X;X;X<X;X<X;X;X;X;X<X;X",
"OXOXOXK.K.K.OXK.L.OXOXK.K.OXOXOXOXOX/.OX/.OXOX/.OXOXOXOXOXOXK.OX=X=XK.].OXOX:X].:X=XOX=XOX=XOXOXOXK.OXK.OXOX=X=XOXOX-X=X=XOX=X=X+XOXOX+XOXOX=XK.OX(.OXOX+X/.+XOXOX+X+XOX+X+X+X-X+X+XOX+X+X+X+X+X+XOXOX+XOX+X+XOX+X+X-X+X=X+XOX+X+X+X>X>X+X+X+X+X+X+X+X+X@X@X1X5X$X#X1X5X5X@X5X-X5X5X,X,X,X,X,X,X;X<X<X<X<X-X,X-X>X-X>X>X#X>X5X5X5X5X7X5X5X6X5X5X5XtX5X5X7X5X7X6X,X7X7X3X>X5X>X5X5X>X5XeX5XeXeX6XuX6X6X6X6X6X6X6X6X6X6XuX6X6X8X6X$XkX6XkX6XkX6X6XkXkXkXkXkXuXkXuXyX8XkXyX6X6XyX6XyX6X5X6X6X8XyXvXkX#X%.C 5 5 = - * 5 = e 5 w e d J W ^ _ W &.&.&.| _ E _ E I C I L R R L Q [ { { [ ) I C V z k 5 % % % % @ @ . @ & @ 3 3 @ 2 2 4 4 2 2 $ # X . . . # $ $ # $ k H ..+.r.z.z.F.S.z.S.S...C 5 2 5 4 > ; + + + + o o % % o o o % o o o o & o @ % $ 4 8 8 $ % # X . @ X X X X X X O O ; 8 8 q w q 9 8 8 $ $ $ + X O +   : - : : - - , : :   :   O   O 6 . . . . & 3 @ U u.IXGXcXxXxXxXVXvXkXVXuXZXxXkXxXxXvXzXlXzXlXzXzXzXlXlXzXvXxXxXcXcXcXzXcXcXcXcXcXcXcXcXcXcXpXcXxXpXpXcXpXlXpXaXpXpXpXpXxXpXpXzXsXhXlXpXzXsXzXzXpXxXxXaXaXyXaXpXpXpXpXyXaXiXaXVXaXaXiXsXiXsX0XiXiXiXiXiXiX8XyX0X8XiX8X7X8X8X8X7X8XyXuX8XqXyXiX0X0XiXiX9XdX0XtXqXiX0XiX0XiX0XdX0X0X0XiX0X0XiX0XiX0X9X0X9X,X0XiX9X0X9XdXiXiXiXiXiX9XsX9XiXiXiXdXtXeXeXeXdX9X,X9X9X,X,X,X,X9X;X,X;X<X<X,X;X,X;X,X:X;X<X,X,X;X,X,X;X;X<X,X:X<X;X<X,X<X<X=X;X:X",
"OXOX=X(.OXOXK.OXOXL.K.OXK.K.K.K.K.(.OX/.OXK.OXL.OXK.(.K.K.OXOXOXK.OXOX=X:X].OX:X:XK.=X=XOX=XK.OXOXK.K.=XK.OXOX=XOXOXOX=XOX=XOXOXOXOX(.OXOX=XOXOX=XOXOXOXOXOX/._.+X(.+X@X+X-X@X+X-X+X+X-X-X@X-X+X+X+X+X+X+XOX+X+X>X-X+X@X=X+X-X+X>X-X-X+X>X+X+XOX-X+X+X+X#X#X$X5X5X@X$X@X5X1X@X>X>X5X5X7X7X,X,X-X<X<X<X=X=X=X:X:X-X-X5X1X@X5X@X5X5X>X5XyXyX7XtXyX5X5X5X5XuX5X5X7X5X7X5X5X7X5X7X7X,X7X>X>XeX5X,X>XuX6X6X7XuX6XuX5X5X6X6X6XkXkX6X6XkX6XkXkXuX6XfXuXuXkXuXkXkXkXkXkX8XuX8XlXkXkXfX6X6X6X5X7X8X8XiXxXkX'.!._ z 5 - o * 5 * e 4 e w e C E _ _ &._ _ &.&._ _ E W I I C L L L R R T Y G k 8 3 2 5 k k 5 4 % % & & @ & @ @ & & @ 2 2 4 8 4 8 $ $ O X . X . . $ ; # $ k G 0.r.z.z.S.z.S.b.F.D.S.I V k k 3 $ ; + + + + +   X o o o % o o o % o % o X + $ 8 $ 2 $ $ # . X .   O O O O X O O $ : 8 w w 9 8 8 8 6 $ $ O O + +   + + : - : - < - : -         : # & & . @ . 2 @ Z -.JXGXcXZXaXuXZXxXxXVXkXZXZXkXxXxXxXlXzXvXzXzXlXzXlXvXcXvXxXcXvXvXcXcXvXcXcXzXcXcXcXcXcXaXcXpXcXzXxXpXaXlXpXaXzXpXpXxXzXpXxXpXzXsXsXzXzXzXsXcXzXaXxXlXaXaXaXpXaXqXpXpXaXaXaXaXVXaXsXiXsXdXsXqXiXiXqXiXqXiXyX8XyX7X8XyX7XuXyX8X8X8X8XyX7X7XiXiX,X0X9X7X0X9X0X,X0XiX9XiX0XiX0XiX0XdX0XiXiXiX9X0X;X0X9X3X0X9X0X0XiXiXtXiXiXiXiXiXiX9XdXdXdXdXiXdXeXeXeXeXeX9X9X9X;X9X,X9X<X;X,X<X,X;X,X;X;X<X<X,X;X;X,X;X<X,X,X,X;X,X<X;X;X,X;X;X<X=X;X;X:X",
"OX=X=XOXOXK.OXK.K.OXOXOXK.OXK.=XK.OXOXOXK.OXK.OX(.OXOX(.OX(.OXOX=XOXOXOXOXOXOX/.=XOX=X=XOX(.K.K.K.OXOXK.K.=XoXOXOXK.K.=X=X(.=XOXOXOX=XOX=XOX=XK.OX=XOXOXOXOX+XOX/.+X+X+X+X+X-X+X-X@X-X>X1X+X-X+XOX+X/./.(.+X@X+X+X-X+X+X+X+XOX+X+X-X>X-X>X+X+X+X+X+X+X#X@X#X1X#X#X@X5X#X5X5X>X1X7X5X5X>X,X>X,X:X:X:X:X<X-X<X-X,X-X>X1X>X@X1X>X5X>X5X5X5X5X7X5XtXyX>X5X5X5X>X>X5X3X5X5X7X7X3X7X>X7X>XtX,XuX,X>XyXtX6X6X7XuX6X6X8X5X5X6X8XyXkX6XyXuX7X6X6XuXuXyXyXkXuXyXyXkXuXkXkXyXuX6XfXfXkX6XkX5X6X8XyX6X+X(./.).).L.m.h e = * 8 * * 8 8 8 w i J _ &.&.&.&._ _ &._ _ W _ C C _ R H J G H F w w 2 % k 5 I I I C 5 % 2 % & @ & . . . # # $ $ 2 6 8 8 2 2 # # . . X . # 6 $ 2 d J +.r.z.z.t.t.t.t.oXF.r.X.5 z 5 2 > + + : + + + + + o X X   X o o X X o o % % $ ; 2 ; % + @ . & X . X X   O O + % ; ; 8 8 8 8 ; $ $ $ # $ + +   + :   :   - - : - + -   +     :   X # X X & @ @ @ z _ bXLXbXZXkXkXaXxXuXZXaXkXZXZXxXxXxXlXaXlXzXzXzXzXlXzXzXxXxXxXxXcXxXzXxXxXxXzXzXcXcXxXcXaXcXcXpXcXzXpXxXpXzXpXpXzXpXxXpXxXlXpXpXpXpXzXlXpXzXxXpXaXaXpXaXpXaXpXiXiXpXpXaXsXaXaXpXiXiXiXsXiXdXsXiXpX0X0XiXqX8XiXyXqX7X5X7X5X6X6X6X8XuX8XpX8XiXiXqX0X,XiXiX9XiXiX9X0X7X0X9X9XiXiX0XiXiXsX9XiXiX9X0X0X9X0X9X0X9X0XiX0XiXiXiXiXiXiX,XiXeXiXdXtXNXdXdXrXdXtXdXeXeXeX,X9X<X<X<X,X9X;X<X;X;X;X<X<X<X<X=X=X-X<X<X-X<X;X,X<X,X<X;X;X,X;X<X;X;X;X<X",
":X=XK.OXK.OXK.OXOXK.K.OXOXK.OXK.OXK.K.OXK.OXOXK.OX/.OXOX/.OXOXOXOXK.=X(.OXOXOXOXOX=XOX=XOX=XK.=XOXK.K.=XOXK.].OX=X=XOXK.OX=XOXOXOXOXOXOXOX=XOX=X=XOXOXOXOX(.OX+X(.+X/.+X+X+X+X-X+X-X-X@X-X@X+X+X+XOXOXOX/.OXOX+X-X+X+X-X+X-X-X+X+X+X-X-X+X+X>X+X+X+X+X#X#X@X#X5X$X6X5X$X1X@X1X@X5X7X5X5X-X>X-X-X-X<X=X:X:X-X:X-X>X-X1X>X5X-X5X-X5X>X,X5X7X5XyX5X5XtX5X>X>X5X5X>X5X7X7X5X7X7X7X7X7XeX5XeXuX7XtXtX5X7X6X6X8X8X6X6X5X6X6X8X6XuXyX6X6X7XyXyX8XyXyXyXyXyXyXyXkXZXuXkXkXyXkXkX6XuX6X6XkX6X8X6X+XH.G.H.x.z.m.b.J j w * w > 8 8 8 8 w k C } &.| _ &.&.&.&._ _ W W C C C W J G V V j w 4 w F / R X.t.0.I 5 % % % & % X @ 3 # # # # 2 6 6 8 8 8 ; # # . . # X % $ $ 8 j Y X.0.r.z.r.t.s.t.S.F.r._ C k 5 5 > > > - + + + - + + + o o X o o % + o o % % % % $ $ $ # X X X X   & . X X O + + ; ; 8 8 8 ; ; $ $ $ $ $ O O +   : - + - : - - : > +             O X X @ & @ @ 2 z _ GXbXFXZXZXkXZXaXZXaXaXZXZXuXxXxXaXlXaXlXzXzXzXzXxXzXxXcXxXxXcXvXxXxXzXvXxXcXxXzXxXzXzXpXpXzXcXpXaXzXpXxXpXxXxXpXxXpXzXpXaXlXhXzXhXpXlXpXpXpXcXpXpXaXaXpXaXpXpXpXpXaXaXiXaXNXsXiXaXiXdXsXsXiXpXiXpXiXiXiXiXyX8XuX7X7X5X7X>X7XuX8XyXpXiXqXiXiX9X0X0X0X0XiX0XqX0XeXdX0X0XiXiX0X9XiXiX0X0XiXiX0X9X0X3X0X0X9X,X0X9XiXiXeXiXeX9XiXiX,XdXeXtXdXyXtXtXtXtXtXdXeX,XeX,X,X<X,X<X<X,X,X;X;X<X<X<X<X;X;X;X<X<X<X<X<X,X<X,X;X;X,X,X<X<X,X,X<X,X<X,X",
"=XOX=XK.OXK.K.OXK.OXK.K.oXOXK.].K.OXK.OXOXOXK.OXOX/.+X(.+XOX+XOXOXOXOXOXOXOXOXOXOX+XOXOXOX=X=XOXOXOXOXOXOXOX=X].K.].=XOXOXOXOXOX=XOXOX=X=XK.K.=X=X=XOXOXOX/.+X_.OXOX+X+X+X+X+X>X@X-X+X-X@X+X-X+X+X/.OX/.OX+XOX+X+X+X+X@X-X@X-X+X+X:X-X@X>X+X+X+X-X+X+X+X@X#X@X1X5X@X5X1X5X5X5X5X>X5X5X>X5X-X-X>X:X-X-X=X-X:X>X-X-X@X>X5X1X>X5X@X5X5X5X5X5XtX5XtX5X5X5X5X5X5X7X5X7X7X7X7X7X7X5XtX5X7XuXuX>X7XuX5XuX7X6X7X8X8X6X7X6X2X7XuX8XuXuXyX7XyX7XyXyXyXpXyXyXyXaXyXuXkXkXuXkXkXkXuXkX6X$X6X6X6XuX5X_.z.%.+.h.c.V.x.I l u + w > 0 , 8 8 q i H | X.X.&.X.&._ &._ _ W _ C C W I H C h d k 4 4 V +.z.z./.OXW./ 5 % o o @ % & X # # # . # 6 8 8 8 8 > $ $ $ # . # @ # $ 8 w n E X.+.0.r.r.t.r.r.t.t.r.I C k 5 5 * > ; + - + o   o o     X + % o % % % % @ % O O $ $ % # # X @ X & X   X X O O + ; ; ; > ; > $ $ $ # # + + # + +   :   + : - : - - + + + :   :   . O X . @ @ @ $ k P FXJXGXbXZXkXkXVXxXxXVXZXkXZXxXaXaXpXlXlXzXzXlXzXzXpXzXaXaXcXxXzXzXlXzXzXzXcXzXaXzXpXpXpXzXsXpXpXcXpXpXcXcXpXaXzXzXpXpXsXzXaXpXpXpXpXpXlXlXaXxXpXaXaXsXaXsXpXaXsXaXiXaXaXaXaXaXdXVXiXsXsX9XiXpXiXiXqXpXiX8XqXyX7X7X6X7X7X7X8XyX8X8XiXsX0XqX9X0XdXdX0X0X,X7X0XiX0X,X9X9X0X0XiX0XiXiXiXsX0X0X9X0X9X0X9X7X0X0X0XiX0XtXiX7XeXiXtX,X9XeXdXdXrXeXeXdXdXrXrXdXeXiX,X,X<X,X,X,X<X,X,X<X<X<X;X;X<X<X}.<X<X-X<X;X,X<X;X;X;X<X<X;X,X;X,X,X;X;X,X,X",
"=X=XOXOXK.=XK.OXOXK.OXOXOX].OXOXOXOX=XOX+XOXOX=XOXOXOXOXOX+X/.+XOX(.OX+XOX(.+X+XOXOXOXOXOXK.=XOXOXOXOXOX=XK.].OXOX].K.=XOXK.OXOXOX=X=XK.=X=XOX=XK.=XOXOXOX+X+X+X+X_.OX+X+X+X+X@X+X+X-X+X-X+X+X+XOX+XOX+X(.OX+X+X+X=X+X-X+X-X@X-X+X+X+X>X-X+X-X+X@X-X1X@X-X-X@X5X$X5X$X5X5X5X5X5X5X5X-X5X>X-X@X-X-X-X-X-X@X-X5X5X5X5X5X>X5X>X5X5X>X5X5X5X5X5X7X5XtX5X7X5X6X7XuX7X7X7X7X7X7X7XyX5X7XuX6XuXyXuX7X7X7X5X7X6X8X5X8X7X8X6X8X7XyX7XuXtXeX7XtXiXiXyXiXyXyXyXuXyXaXkXuXkXuX6X6X6XkX6XkX$XyX6X1X/.m.%.| ) Y J L H d w * @ 0 0 8 9 8 , w i J _ | | _ &.&.X.&.&._ _ _ C W C J F J l j d k j X.:XuXaXuX$X%XX.5 - % % o % % @ # # . . # # $ 6 > 6 $ $ 3 # # # # # $ 8 8 e F E _ X.O.r.r.r.r.r.r.t.r._ C z 5 5 - - - o o o o         + X X X O $ % + # % + % + O % # # # X & @   &   . @ O O + % $ $ $ ; $ $ + O # + # + + + +   - - :   : - : + + + + +   : : . O X X @ @ # $ 7 P ZXbXJXbXZXvXZXuXxXaXkXyXZXuXxXxXzXxXpXlXlXzXzXlXzXzXxXzXxXcXxXxXzXzXzXzXpXzXzXzXzXzXzXsXpXzXxXzXpXxXzXpXxXpXpXxXpXxXxXpXzXaXpXpXzXpXpXpXpXpXpXpXaXpXiXaXaXsXzXpXsXiXaXaXaXaXaXaXiXpX0X0XsX0XiXyXpXiX8XyXiXyXiX7X8X7X7X7X8X8XyXpXyXpXiX9XsXsXiX0XiX0XiX9XiX0X0X9XiX0XdX0XiX9XiX0XiXiX9X9X9XiX9X3X9X0X9X9X0X9X,X0X9X,XdX0X7XdX9XeXeXtXeXeXeXeXdXtXtXdX,XeX9X,X,X,X,X:X,X,X<X,X;X,X;X<X;X;X;X<X:X;X<X<X,X;X,X,X<X,X;X,X<X<X;X<X;X<X,X<X;X",
"OXOXOXK.K.OXOXOXOXK.OXOXOXOXK.OXK.=XOX=X=XOX(.OX+XOX+XOXOX+X/.+XOXOXOX_.OX+X_./.+X+X+XOX=XOXK.=XOXOXOX/.OX].].=XoXK.=XOXOXOXOXOX=X:X=XOX=XOX:X].=XK.OXOXOX+X+X+X+X(./.+X+X+X+X+X-X+X+X+X+X+X+X+X+XOXOX+XOX+X+X+X>X+X+X-X+X>X@X-X-X>X@X-X-X-X+X+X-X+X>X+X-X@X-X-X5X5X$X@X5X5X5X>X5X5X-X5X@X-X-X-X-X@X-X1X>X5X>X5X5X5X>X5X5X-X5X>X5X5X5X5X7XtX5XtX7X>XtXtX5XtXtX7X7X7X7X7X7X7XuX6XuX6XuX6XuX6XuXuX7X6X7X7X8X7X4X2X8X8X7X7XtXtXeXtXtXtXiXtXyXpXyXaXyXyXyXaXkXkXuXkX8X6X6X6X6XfXuXkXlX5XE.r.X.| | | R J l e w < w , w 0 w 0 < w w e J E { X.+.&.X.&.&._ _ _ _ C C W C z C l k e k j +.aXcXZXuX+X5Xt.V 5 = % o o % $ . # O # # $ 6 6 $ $ + # # # 3 $ 2 2 2 w w k l I / | X.r.r.r.r.&.r.&._ &.z C z 5 * = - = o           O       O O @ O @ X X % X % @ X % @ % @ @ o & X & X X O O O O O O + O O + X O O + + + + + : + + + > : - : - = $ % +   : : : O O   O . O # # 5 V VXGXGXbXbXkXlXVXsXaXyXxXxXaXxXaXzXpXpXlXzXzXlXzXzXzXpXcXxXpXxXlXlXlXlXlXlXzXzXzXzXzXsXzXzXzXcXpXcXpXpXpXxXpXxXpXcXpXzXaXxXpXhXpXpXpXqXpXpXpXpXpXaXpXaXiXaXpXsXpXsXpXaXaXyXaXaXtXaXpXiXiXpXqXyXpXqXyXpXyXiXiX7XqX7X7X7X7XiXiXiXqXpXiXiXqXiXdX9XiX0XiX9X0XiX7XiX0XiX,X0X9XiX0XiX0XiX0XiX9XdX0X9X0X0X9X0X,X0X0X9XiXeXiX9XtXiXdX,X,X9XeXdX,XeXeXeXtXeXeXeX,X,X9X,XeX:X,X,X<X<X9X<X,X;X9X;X;X;X;X;X<X;X<X,X<X,X;X;X;X;X:X;X;X<X;X;X,X;X,X,X",
"=X+XOXOXOXK.L.OXOXOX(.(.(.OX(.OXOXOX=XOXOXOXOXOXOXOXOXOX+XOXOXOX(.OXOXOX_._.+XOX/._.OXOXOXOXOXK.OXOX+XOXOXOXOXOXOXK.K.OXOX/.+X(.(.oX].:X].:X].:XOXK.OXOX+X_.+X+XOX+X+X+X+XOX(.+X+X+X+X+X+X(.+X+X+X+X+X+X-X+X+X+X-X+X-X+X-X@X-X-X+X+X@X-X@X-X+X+X@X-X+X-X-X>X1X>X-X5X5X5X@X5X5X5X>X5X5X-X5X-X@X1X5X1X@X#X@X#X5X5X5X>X5X5X@X5X>X1X-X>X;X>X>X5X,X5X5X>X7X5XtX7X5X7X5X7X7X7X7X7X6X7X6XuXkXuX6XuXkXkX6X7X7X6X7X4X6X8X8X8X7XtXuXeXuXeXtXiXiXtXyXyXyXyXyXyXyX6XkXkXkXuXfXkX6X6X6X6XfXkXfX+Xm.&.| | | +.[ R l i w w = * e w w w w e e a L ~ | | &.X.&.X.&.&.&.&._ _ W _ I C I C C V z C ) -XpX7XL.+X1Xz.J e = % & @ X @ # O . # # # # # $ $ O O # # # : 2 2 8 w t d m J E ..X.r.&.r.r.&.t.X._ t.z C z 5 * - - = + - - o O   O   O O   O . X X X X X X @ @ X X o o o o & X X X   X   X X X O X X O O O O O O + O + O + + + + + + - : + : $ * $ % :       O O : O   O # # 7 N aXGXJXZXZXkXxXaXaXaXVXlXaXxXxXaXpXzXpXaXlXzXzXpXzXzXcXcXxXcXxXlXzXpXaXlXaXzXzXzXpXpXzXpXpXpXzXcXpXxXaXzXpXzXpXpXpXzXpXzXpXxXzXhXlXqXpXpXpXyXpXpXiXaXaXaXsXaXsXsXsXsXVXdXaXaXdXaXyXyXsXqXqXpXpXpXpXyX8XpX8X8XyX7XyX7X7X7X7XiXiXiXiXiXiXdX0X9X9X9X9XiXiX7X0X,X9X9X0X0X7XiX0XiXiXiX0X9X7X0X0X9X3X9X7X0X9X0X9X0X0X9X7XdXtXiX,X7X9X0XiX,X,XeXeXeXeXeXdX9X,X0X9X,X<XeX,X,X,X,X,X<X,X<X;X;X;X;X;X<X;X=X<X;X;X,X;X,X<X<X;X,X,X:X<X;X<X;X<X;X;X",
"+X=XOXOX(.OX(.OXOXOXOXOXOX(.OX=XK.=XOX].OXK.OXOXOXOX+X(./.+XOXOX+XOX+X_.+X@X_.+X+X+X(.+XOXOXOXK.OXOXOXOXOX].K.OXOXK.OXOXOXOXOX(.(.].OX].].=X:X].K.=X/.OXOX+X+X+X+XOX+XOX+X+X+X+X+X+X+X(.OX+XOX+X@X-X+X@X-X-X-X-X@X-X+X-X-X@X-X@X+X@X-X1X+X+X+X=X-X-X+X=X-X:X>X:X-X5X1X@X1X>X5X1X5X5X5X5X5X#X>X#X#X#X@X$X1X$X5X1X1X-X5X-X-X-X>X>X-X>X>X5X5X>X5X>X5X7X5XtX7X5X7X7X,X7X7X5X7X7XtX5XkXuXuXkXkXuXuX6X7X7X5X7X2X7X8X7X8X7XtX7XrXdXdXdXtXtXiXyXtXyXyXkXkXuXuXkXkX$XkX6X6X6X6X6X6X6X6XkX$X_.m.%.&. .+.X.^ E l l e l e e e e e e e e e j J E {  .&.&.%.%.&.&.&._ &._ _ _ _ ) _ W I C V C X.H.:X-XQ.7X@XH._ z 5 * = %   X # # # O X # O $ O O O X # # 3 3 # 2 6 w k h F J ) | X.+.%.r.&.&.r.&._ _ C C z z 5 * * - -   +     + O O O O . . & . & .   X & X X @ X X o & @ X X   X .   X X X O X   X X X O O + O O + + + + + ; + = $ + + > > $ % + :     :     :   : :   O # 6 h uXGXGXbXvXxXxXlXaXsXaXsXaXaXaXxXpXzXlXzXzXzXpXlXpXzXxXpXxXsXxXzXzXzXzXzXzXzXzXzXlXsXpXzXpXsXpXxXcXpXxXpXxXpXpXcXpXxXpXxXzXpXpXlXlXlXhXqXpXpXpXpXiXiXiXpXsXsXsXsXsXsXaXaXaXaXVXyXyXaXpXyXiXqXpXyXpX8XyXyXiXyXiX7X7X7X7XiX0X0XiXiXiXiX0XdX9X9X9X9X9X9XiXiX0XtXiX,XiX9X0X0XiX0XiX9X9X0X9X0X0X0X9X0X0X9X0X9X0X9X0X0X,XiXiXdXiXeX9X9X9X9XdX,X,X,XeXdX,X,X,X,X,X,X,X,X,X,X<X,X,X,X<X;X;X;X<X;X[.;X;X<X:X;X<X;X;X<X,X:X;X<X;X;X,X<X<X<X;X;X;X",
"+XOXOXOXOX(.OX(.OXOXOXOXOXOXOXOXOXK.=XOXOX=XOX(.OXOX).OXOXOX/././.OX_.+XW.+X+X_.+X+X@XOXOXOXOXK.OXOXK.OXOXOXOX=XK.OXK.K.OX(.OXOXK.K.K.K.=XoX].OXOXOXOXOX/.+X+X+X+X_.OX).OX(.+XOX+X+X+X+X+X(.+X+X+X+X-X>X-X@X>X@X-X>X>X@X@X-X+X-X-X-X-X@X>X+X=X+X+X>X>X-X-X-X-X>X-X@X>X5X-X5X>X#X5X6X5X@X@X5X#X$X@X6X5X$X@X5X#X@X5X@X-X5X5X>X1X>X-X-X-X-X>X5X>X5X>X5X7X>XtX7X5X>X5X,X7X7X5X7X5X5XuX6XkX6XkXuXkXkX6X5X6X7X8X7X2X8X7X7X7XtXyXtXdXtXiXiX7XyXtXtXuXyXuX6X6XkXkXkX6X6X6X6XuX6X6XkXkXkX8X@Xm.X.| X.+.o.X.| F n e a w e e e e e e e d a G T [ | $.r.%.r.t.t.&.t.t.t.t.t.t.t.W.t.t.X.) | r.h.x./.H.+XD.H.%.I C d 4 4 % @ $ O @ . . X O + O   X . . # $ 2 3 6 4 8 d l H I | | &.%.&.r.r.t.&.t.&.W C C z z - - = =   -   O       : .   . O # X @ X & X X X % o X X @ o & X X X X   & .   . O X X O X O + + + + O + + O + + : - + + > ; - + = $ + + + O .       : . O O O # 9 j eXGXGXZXZXxXxXxXaXaXsXsXaXaXcXxXxXpXlXpXzXzXzXzXzXzXzXcXxXxXcXzXxXxXvXzXxXvXcXzXcXzXzXzXcXcXcXpXpXxXpXzXpXxXxXpXzXpXxXpXpXcXzXpXpXpXpXpXpXpXpXpXaXpXaXaXiXsX0XsXiXqXaXaXdXaXyXyXyXaXyXpXyXpXyXyXpXpXyXiX8XyXpXiX7XiXtX7XiXtXiXqXiX0X0X9X9X9XiX9X0XiX0X7XiXqXiX0X9X0X9X0XdXiX0XiX0XiX,X9X0X0X0X9X0X,X0X0X9X7XiXiXiXiXtXiXiXiX0XiX9XiXiX,XiXdXeX,X9X,X9X9X,X,X,XeX,X,X<X,X,X<X9X9X;X;X9X;X;X;X=X=X;X=X<X;X<X;X-X<X<X;X<X=X;X:X=X;X=X:X<X",
"=XOXOXOXOX[.OXK.OXK.K.K.OXK.K.OXOXOX=XOXOXOX+X=XOXOX(.OXOX(.+X(.OX+X+X+X+X+XOX+XOX+X/.OX/.OXL.OXOXK.OXOXK.OXK.OXK.K.OXOXoXOXOXOXOX].].oXK.=XOX=XK.OX(.OX@X+X+X(.+X+X@X(.+X/.OX_.OX+X+X+X(.+X+X@X+X+X=X+X+X-X-X@X-X-X-X>X-X+X+X+X-X+X-X+X+X>X+X+X+X-X@X-X>X-X+X+X-X>X@X-X5X-X>X5X@X1X>X@X$X5X1X5X5X5X5X#X-X1X>X1X5X-X5X-X1X>X>X>X>X@X-X5X5X5X5X5X7X7X>X7XtX7XeX5X7X7X7X7X6X7XuX6X7XuXyX6X6X6XkXuXyX6X8X6X8X8X7X7X0XwX7XiXtXtXdXtXaXdXtXtXdXuXeXyXyX7X7XfX6XkX6X6X6XyX2X1X6X6XkXvXkXW.%.V V z V V C l l V l j z j z j l d e d j l F I _ _ r.t.r.r.t.t.W.t.W.t.t.t.t.t.t.t.&._ _ _ t.t.t.t.t.t.t.r.X.I V k 4 4 $ + + + ; $ + # ; ; @   X $ 2 # 2 @ 2 4 w k l l L ) &.t.t.&.&.&.&.t.t.t.&._ W C C 5 e - 1 - = o o   o o     O X O X X X X X @ X X @ X @ & o X X & X X @ @ . . & . . X . @ . . O # # O : # # + O + + $ $ $ $ * $ * * * * $ + o X O . O : O O # # X X 9 F sXGXGXZXvXZXuXZXkXZXuXZXkXkXaXkXlXaXlXzXzXlXzXzXhXlXzXzXxXxXvXvXxXvXxXvXxXxXxXzXcXcXZXcXxXcXcXcXsXzXpXpXpXsXxXpXaXpXpXaXzXpXsXaXzXpXpXpXlXyXlXpXaXpXpXsXsXsXsXsXpXpXiXsXiXiXsXaXpXyXyXyXaXxXaXyXaXiXyXyXtXyXtXiX7XtXtX7XeXtX0XiX7XdX7XdX0XtXiX0XiXdX9XiX0X0X0X9X0X9X9X9XwX9X9X9X0XwX0X0X3X0X0X3X0X3X0X0X0X0X0XiXtX7XiX7XtXtX,XeX9XeXeXeX,XeXtXeX,XeXeX,X,X,X,X9X,X,X,X,XdX<X,X,X,X<X,X:X:X;X<X;X[.;X<X<X[.;X}.<X<X<X;X;X;X<X;X<X;X<X;X",
"OXOX=X(.OXOXOX=XK.K.OXK.OXK.OXK.OXOXOXOX=XOXOX+XOXOXOXOXOXOX(.OX+X/./.+XOX+X+X/.OXOXOX/.OX/./.OXK.OXK.=XOXK.K.K.K.K.K.].K.(.=XoXK.OXK.=X=XK.OXOX+XOX+XOX+X+X+X+X+X+X(.+XOXOX+X/.+X+X+X+X+X+X+X+X+X:X+X-X>X-X-X-X+X@X>X-X-X>X=X-X@X-X-X+X+X-X+X>X+X+X-X5X1X-X>X+X1X@X1X>X#X>X1X5X1X>X5X5X5X5X5X@X5X5X@X>X@X@X-X@X>X-X>X>X>X>X,X5X-X5X>X5X>X5X>X5XtX>X7X5X,X7X,XtX7X7X5X7X7X5X7X6XuX6XuX6XuXkXuX6XkX6X6XuX7X7X7X2XwX0XtX7XtXyXuXuXiXuXiXtXyXdXtXeX7X7X7XuX6XgXkXgX6X8X6X5X6X6XfXZXkX/.r.l z w k e k q e j z d z d l l l j d d d h l I _ &.r.r.r.r.t.t.t.t.W.%X$Xt.%Xt.t.t.&.&.&.&.%.t.t.&.t.&.X._ / P j 4 4 2 % + $ + + + + O O + X   O % $ @ @ 2 w w d z C I E | &.&.%.t.t.t.t.t.&.&.&._ W C z z 5 5 5 - = - o o   o o X     X X o @ o @ @ o o X X X X X X . X X . X . X @ X . X X @ . X # # O # + O $ # $ $ % $ $ * * 2 $ * 2 ; * $ + + +   O   O # O O # O X X w H sXGXJXGXkXZXZXZXZXuXZXkXZXuXyXZXaXlXlXzXlXlXlXlXzXzXzXzXcXxXvXvXxXZXvXxXvXZXZXcXcXcXvXxXxXsXcXpXcXpXpXaXpXpXpXzXpXxXpXcXpXaXpXpXpXpXaXpXpXlXyXlXiXpXpXpXpXsXsXsXsXiXiXsXiXaXsXiXaXyXyXyXkXyXyXaXyXaXpXyXyXtXtX7XtXeXtXtXtXtXeXdXiXtXiXiXtXqXqXiXqXqXiX0X9X9X9X0X0X9X9X9X9X9XwX0X0X0X0X0X7X0X0X0X0X0X0X0X7X0XtX0XiXiXtXiXeXdX7XdXdX,X,XdXeX9X,XdXdX,XeX9X,XeX,X,X,X,X,X,X,X,X9X,X,X<X;X<X<X:X=X;X<X[.[.;X<X<X<X<X}.<X<X<X<X;X;X;X;X;X<X",
"=XOX=XOXOXOXOXK.K.=XK.OXK.OXK.K.K.OXOXOXOX=X+X=X=XOX+XOX+XOXOX+XOX+XOXOX+X+XOXOXOX/.L.OX/.OX/.K.OXOXK.K.K.OXOXK.K.OXoXK.K.OX].].].K.OXK.OXOXOXOXOXOX@X+X+X+X+X+X+XOX+XOX_.OX+X+X>X-X>X+X+XOXOX+X+X=X+X=X+X-X-X-X-X-X>X-X>X+X-X+X-X+X@X+X-X+X+X@X>X+X>X-X>X-X+X+X-X>X5X>X>X5X1X5X5X1X5X$X5X@X1X5X5X1X-X#X>X1X>X5X5X5X>X5X5X5X5X>X>X5X5X5X>X5X5X5X5X5XtXtXeX7X7XtX7X7X7X7X7X7XuX8X6XuXkX6X6XkXkXuXuXkX6X6X8X3X7XwX0X7XtXqXtXtXuXaXtXtXtXtXtXtXtXtX7XyXyX8X6XfX6X6X6X8X6X2XgXgXkXZXvX+Xt.l k % = % w 0 e d l l l C C m J l l d j h F I _ _ r.r.t.t.t.t.t.W.W.$X%X$XW.D.W.t.&.&._ &.%.&.&.&.&.) I I C V j q 8 8 > * ; ; + O O O : O + ; ; > 2 $ 2 8 k k V H I W | &.t.t.t.&.t.t.&.U.&.t.&._ W C V z 5 1 5 - = = + + o +       X   o X o @ o o @ @ @ X X @ X X X X X X . X . X . . . . # . # @ # O O + # + $ $ $ $ $ $ 2 2 $ 4 * 2 4 * = % + +   O O . : # O $ O X % q G UXGXJXZXZXZXZXuXkXZXkXkXkXZXaXaXkXxXlXzXzXlXlXlXzXxXvXzXxXxXvXvXxXvXvXvXvXlXvXxXcXcXcXcXcXxXcXcXxXsXaXxXpXaXaXpXsXzXaXpXpXpXsXpXaXpXyXlXaXyXlXaXaXpXpXpXsXsXsXsXsXiXiXiXiXaXaXiXaXaXyXyXyXxXyXyXyXaXyXyXyXtX7XtX7X,XtXeX,XtXtX9X0XiX0XiX7XiXtXiX0XiX0X0X0X0X9XiX9X9XwXiX9XiX0X9X0X0X0XqX0XwX0X3X7X9X0X3X0X7X7X0X,XiXiX,XtXeXeX,XeXeXeX,X,XeXdX,X,XdX,X,XeX,XdXdX,X,XdX,XdX,X,X,XdX,X,X:X,X,X<X;X;X<X<X}.}.<X[.<X;X<X;X<X;X;X9X9X;X;X;X",
"OXOXOXOXOXOXOX=XOXK.OXK.OXK.OXOXOXOXOX=XOXOXOX+X+XOXOX+XOX+X+XOX+XOX+X+XOXOXOX(.OX/.OX(.OX(.OX(.OXK.OXOXOXOXK.OXK.OX(.OXOXK.].OX].=XOXK.K.OXK.K.K.OXOX+X).(.OXOX_.OX/./.OX+X+X+X5X1X-X@X+X(.+X+X+X+X+X-X+X>X-X-X+X>X+X>X-X>X-X-X+X-X+X-X+X+X-X>X+X>X@X-X@X>X+X>X5X-X@X1X5X>X>X@X>X5X5X5X5X5X$X5X5X@X5X-X@X5X5X5X5X5X5X5X,X7X5X>X5X5X5X5X7X5XtX7XtX7X5X7X7X7XeX7X7X7X4X7X7X6X8XuXuX6XkXuXuXuX6XfXfX6XuX6X7X7X7X7X0X7X,X7XyXtXyXtXtXtXuXiXtXtXiXyXyXuX7X7X6XuX6XkX8XfX8X6XfXgXvXZXvX#Xt.z 5 % % @ = 4 e d z l l n l J J l l l l l m I W _ r.r.t.t.t.W.W.t.W.W.t.$XW.D.W.t.t.&._ &.&.&.&.&.} I J C j j e 4 * % + + + +   O O O       + % # @ @ 2 k N V J R E } &.%.t.t.t.&.U.t.t.t.&.&.&._ W C z z 5 e 5 - * = = + o       X     X % X o @ X o o X @ @ X X X X X X @ # . @ X @ X . . # # X # O O # O % $ # $ $ 2 ; $ $ * 4 4 6 * * $ + o     . . O . # # X # # X @ i R GXGXGXZXZXuXZXkXZXkXkXZXxXkXxXxXxXkXzXlXzXlXlXlXzXlXxXxXxXxXxXxXxXxXvXvXlXvXxXzXvXxXaXzXcXxXcXaXzXpXpXpXpXpXpXzXaXpXpXzXaXcXpXsXlXaXpXpXpXlXlXyXpXpXpXpXpXsXiXsXpXiXsXiXiXiXiXaXiXaXxXxXyXkXaXyXaXyXpXyXtXyXtXyX,XiX7XeXtXeX0XdX9X0XiX7XiX7XqXiXiX0XiXiXdX0XiX9X0X9X9X9X9XwX0X0X0X0X0X,XqX0X0X0X0XqX0X0X0X0X0X7XiXtXtX7XtXiX,XeX,XeX,XeX9XeXeXeXiX,XeXdX,XdX,X,X,X9X,X,X,X0XdX0X<X,X<X,X<X;X;X<X;X=X;X<X<X;X;X;X;X<X;X;X;X;X;X;X;X9X9X",
"OXOXOXOXOXOXOXOX(.OXOXOXOX(.OX(.OXOXOX=XOXOX=XOXOXOXOXK.OXOXOXOX+XOXOX+XOXOXOXOXOXK.OXOXOXK.K.OXK.OXOXK.].].OX].K.OXOXK.OXK.K.OXoXOX=XK.OXK.K.OX/.OX+X+XOX/.+X+XOX/.OXOX).-X+X@X@X1X-X@X+X+XOX+X>X+X+X=X-X-X@X@X-X-X>X@X1X>X@X@X>X+X@X-X+X+X+X-X@X-X-X@X-X@X-X-X>X1X>X@X-X5X5X5X5X5X5X5X5X@X5X@X#X@X5X1X$X5X5X6X5X7X5X5X6X>X5XtX7X7X5X7X5X7X5X5X5XtX5XtX7X,XtX7X7X7X7X7X7X7X5XyX6XuX6XuX6XuXkXuX6X6X7X6X4X2X7X7X7X7X7X0XtXtXtXtXyXtXyXtXtXyXiXyXiXyX7X8X8X8X8X8X8XyX8X5XgXkXkXZXvX#Xt.e 5 o % o % e e l l l V C C J M J C l l l J J E } r.t.t.t.t.W.t.W.W.W.W.%X%XW.W.W.t.t.&._ _ ^ E ) E W l l e e 5 4 o + - + +       - : +   + + + + 2 2 k N I / } | X.&.r.x.t.%.t.%.t.t.&.t.t.&.&._ C C j z z 1 5 - - 1 = + o + O X   X X o X % X X X % X @ % X @ X @ X O @ O # @ O O # O X # # # X # # # # O # $ # $ ; 2 $ $ 4 $ 8 4 * 4 $ = o +     O X O O # O O O @ @ O z W GXGXJXZXZXZXkXZXkXZXxXcXzXlXxXxXzXxXzXlXzXlXzXlXlXzXzXxXxXxXxXvXzXlXvXzXzXvXzXzXzXzXzXzXzXzXxXpXaXcXzXpXpXpXxXpXaXpXcXpXaXpXsXpXaXpXlXyXlXyXpXaXlXpXaXpXpXpXaXiXpXiXiXiXiXiXaXiXpXaXaXxXkXyXaXyXyXyXyXyXiXyXiX,X0X7XeX,X,X7X,X9X0X9X0XiXyXiXiXiXqXiXiXiXdX9X9X9X9X0X9X0X9X0X9XsX0X0XiXqX0X0X7X0X0X7X0XiX0XtXiXtXiX7XtX,XdX,X,X,X,XeXdX,XeXdXtXdX,XeX,XeXdX,XdX,X,X9X,X,XdX,X9X,XeX,X,X,X,X<X;X;X;X<X<X<X;X<X;X;X;X;X;X;X;X9X9X;X9X;X9X",
"=XOX=XK.K.=XOXOX=XOXOXK.OXOXOXOX[.OXOXOX=XOXOX=XOXK.OX=X].OXOXK.=X=X=X=XOX=XOXOXOXK.OXK.OXOXOXOXOXK.=X=XOXOXoXOXK.OXK.OXK.OXOXK.=XOXK.OXOX=XOXOXOX(.OXOXOX/.OX/.+X(.+X).OX@X-X1X>X+X-X+X+X).).+X+X+X-X@X+X-X-X-X@X-X>X1X@X>X-X-X-X@X-X+X+X-X+X>X-X-X@X>X-X5X>X5X-X5X5X>X5X>X5X-X5X5X6X5X5X5X>X#X#X5X5X$X5X5X5X5X6X5X5XyX5XuX6X5X5X6XuX7XuX5X7XuX>X5X7X7X>XtX,X7X7X7X7X5X6X5XyX5X6XyXyX8X6XkXuX6XuX8X6X7X5X7X7X7X5X7X7X,XtXyXuXuXuXtXtXyXyXtXyXtXtXyX7XyXyX8XuX8X8X8X8X5XfX6XkXZXxX#Xh.k - o % o * e l H J J J J J l C C F m C F C J E } r.t.r.t.t.t.W.W.W.W.%Xt.%Xt.%Xt.t.t.t._ E W W W W l l z a e e 5 > - > - - + +   + + + + + ; $ ; 6 k N I ....O.%.%.t.m.m.t.t.t.t.t.t.U.&.t.t._ _ I C z k e 5 e - 5 - = + + + +   X   o   o % % o % o @ + O % + O @ O X X # . @ # O O # # # # # # # # # # % $ # $ $ $ $ $ $ $ 4 $ $ 8 2 > + + + o O   O   . # O . O O X $ n &.LXGXbXbXZXZXZXkXZXkXvXzXpXsXzXxXxXzXzXzXzXzXzXzXzXlXxXzXxXxXvXlXzXvXlXvXlXvXzXlXzXzXzXpXzXpXzXaXpXpXaXaXpXzXaXpXpXzXaXpXpXzXpXsXsXpXpXpXaXyXyXlXaXlXpXpXpXpXiXpXiXpXiXpXiXpXiXiXaXyXxXyXkXxXkXxXaXyXpXyXyXyXiXyXtX,X,XiXdX0XdX7X0X0XqXiXiXqXyXiXiXiXiXiXiXiX9X9X9X0X0X9X9XiX9X0X0X9X0X0X0XiX0X0X0X0X7X7XiXiXiX,X,XtX7XiX7XtXeXdXeX,XeXiXiXeXdXeXiXeXdXdX7XeX,X9X,X,X,X9X0X,X,XdX,X,X,X,X,X,X;X;X;X<X;X;X;X;X;X;X;X;X;X;X;X;X;X9X;X;X;X",
"OX=X=XOX(.OXK.=X(.OXOXOXOXOXOXOXOXOXOXOXOXOX=XOXOX=X=XOX=XOXOX:XK.=XOX].=XOX=X=XOX=X=X].OXOXOXK.=XOX=XOX=XK.OX(.K.K.K.OXOXK.K.OX(.OXOXOXOXOX=X+XOX+X+XOXOX).+X/.OX+X+X).+X@X@X-X+X+X+X+XOXOX+X-X+X=X+X-X-X@X-X@X@X-X-X>X>X1X@X5X-X-X+X+X+X-X+X-X-X@X#X-X-X-X1X>X@X5X5X>X>X5X5X5X5X5X5X5X5X5X5X5X@X$X$X5X5X$X5X5X6X6X6X5X5X5X5X6X7X5X5X5X7X7X5X5X5X7X7X>X,X5X5XeX7X5X7X5X7X5X5XtXuX8XuXuXuXuXuX6X8X8X7X2X2X7X2X7X7X7X5XtXyXtXtXyXtXyXtXuXuXyXtXyXyXyX8XiXyXyX8XyXyXkX7X6X8X6XkXbXvX$Xt.5 % o % % $ d J R W J J J C J C C C m C l J I I [ _ t.t.t.t.%XW.t.W.W.W.W.t.t.t.t.W.t.t.&._ ^ W W W l l z e 5 5 = - - - - +   : : : + + + X   O ; w k P R X.+.r.r.t.m.U.t.'.%.4.t.t.U.t.t.t.t.&._ C C l e 5 5 1 1 - - - = + + + O +   X o o X + o + X X o o @ O X O X O O O O O O # + # + + + # + # + # + + # # + + # $ $ $ $ $ * $ > > * = + + X     . O . # O & O @ X % n ^ JXGXbXZXZXkXxXZXxXvXvXaXzXpXxXxXvXxXxXzXzXlXzXlXxXxXzXxXxXxXlXlXvXzXzXzXzXzXpXlXzXzXzXpXpXpXzXpXpXpXaXpXaXsXzXpXcXaXzXpXcXaXsXpXpXpXaXpXkXlXkXaXpXlXaXaXiXpXpXiXiX7XiXiXiXiXiXpXpXaXaXxXaXkXkXyXyXyXyXyXiXyXiX7XiX0XiX9XdX,X9X9X,X0X7XiXiXqXpXiXiXiXiXiXiXdX9X9X0X9X9X0XiX9X0XsXqXiX0XiXiXiXiXiX0XdXiXiXiXiX,X7XeXiXeX7X,X,X,X,X,XiX9XeX9XiXdX0XdX7X,XiX,XdX,X,XdX<X,X,X,X,X,X,X,X,X<XdX,X,X9X;X9X<X;X;X;X;X,X;X9X<X9X<X;X<X;X9X;X9X;X",
"=XOX+XK.=XOXOXOXOXOXOXOX(.OXOXOXOXOXOXOX=XOX=X+XOX=XOX=XOX=XOX].OXOX=XOX=X=X=XOX=X+X=XOX=XOXOXOX=XK.K.OXOXOX=XK.OXK.OXOXK.OXOX(.OXOXK.=X=X+X+X=X-XOXOX+X+X@X+XOX+X+X-X+X@X-X5X>X+X+X+XOX+X+X+X@X@X+X+X+X@X-X-X-X-X@X>X#X-X5X-X-X-X@X-X+X=X@X-X@X-X-X-X@X>X@X5X5X>X1X>X1X>X5X5X5X5X6X5X5X5X$X#X5X6X5X$X5X5X6X@X5XuXuX5X5X6X5X5X5X5XtXtX5X>X5X5X7X5X>X5X>X7X,X7X>X5X3X5X5X5X,X7X5X8XuX8XuXuXfXfXuX8X5X7X5X3X7X3X7X5X7X7X7XtXtXtXyXyXuXyXuXyXtXyXtXyXyXiX8XiXyXaXpXyXkXyX6X6X6XyXvXvX#Xt.5 - o - % e H [ X.| | _ W C J m J l C l l H I R E _ t.t.t.t.t.t.W.W.%XW./.$X%X$X$XW.$XW.t.&.&.| W W M l l z e e w - < - - - - < - + + + : ; > 8 q j F I ..+.r.r.t.m.D.U.t.%.U.t.U.t.t.t.t.t.t._ _ I C V a e 1 5 - - < * + ; + + + + O o o + o X O o o + X + + X O X O O O + O O # # ; + $ # # $ % + # + # # + + # + $ O % * $ $ $ $ $ $ 4 * = + O O O .   . # O X O @ X $ F  .LXGXGXZXvXZXxXxXZXxXvXcXpXpXzXcXzXxXxXvXzXlXxXzXxXlXxXzXlXaXlXvXlXlXzXlXzXzXpXlXpXzXzXzXpXpXpXlXaXpXaXpXpXpXpXaXpXpXpXaXpXpXpXsXpXxXaXyXlXyXlXkXaXlXlXpXlXiXyXiXyXiXiXiXiXpXiXpXpXpXaXyXxXkXaXaXyXyXyXyXyXiX7XiXqXdX9X0X0X0X,X9X,X0XiXqXyXiXiXiXpXiXiXiXiXiXwXiX9X0X0X0XiXiX0X9XiXiXiXiXiX0X0XiXiXiXiXiXeXiXtXdX0X,X,XdXiX,X,XdXdX,XiX0XdXiX,XiX,XdX9X,X9X,X,X,X,X,X,X,XeX,X,X,X<X,X<X<X,X,X<X9X;X;X<X<X<X9X,X<X,X<X;X9X,X<X9X<X<X9X;X",
"OX=XK.=XOXOXK.K.+XOXOXOX+X/.+X+X(.OXOX-XOX=XOXOX=X=XOX=X].OX:X:X=X:X:X:X=X:X-X:X-X-X:X-X-X=X+X=XOXOX=XOX=XK.OXOXK.OXOXK.(.OXOXOXOXOXOXOXOXOX+XOXOX+X+X+X=X>X>X@X+X+X+X=X+X>X-X-X+X+X+X+X+X+X+XOX-X+X-X+X+X+X>X+X@X1X-X5X5X>X5X>X1X-X-X-X+X-X-X@X+X-X-X@X-X5X>X#X>X5X5X>X5X5X5X@X5X5X5X5X$X5X5X5X$X5X5X6X5X6X5X5X6XuX6X5XyX5X5X5X5X7X5X>X>X5X5X5X7X>X5X>X>X>X,X,X5X3X>X5X3X,X5X5X5X7X5XtX6XuXyXuX7X2X7X2X7X5X8X7X5X6X7X5XtXyXtXtXyXyXyXuXyXuXyX7XyXyXyXiXyX7X7X7XyXuXlX5X8XyX7XbXxXzXx.e = & = - j E x.r.%.| | _ J J l C l l l J J I E ) | %.t.r.z.D.D.D.D.W.W.W.t.$X%Xt.W.W.W.t.&.&.| _ W l l l z l z u 1 < - 1 < < < < 0 8 e e 0 0 i F Y ) X.u.F.t.S.D.W.D.E.I.'.%.t.U.%.U.U.t.t.%.&.W C C l z e 1 1 5 > > = > + + +   O O +   X o o + + @ + X + @ O O + O # + O % % + $ $ # + + + + + + + + + + # + + ; # + $ $ + $ * ; * > $ = = + o     . X . O O . X O % $ G +.IXGXGXbXZXxXxXxXkXxXlXxXxXcXxXvXxXzXxXxXxXxXxXxXxXxXlXxXxXvXlXzXzXxXzXlXlXzXzXzXzXsXzXzXpXpXpXsXxXpXaXpXcXpXpXaXpXpXpXaXpXpXcXpXzXaXaXlXkXaXkXyXlXyXaXpXpXaXiXqXiXqXiXiXiXpXpXiXqXsXpXpXpXpXyXyXyXyXyXyXiX8XqXsX0X9XiXiX9X9X0X0X0X0XqX0XsXiXiXaXiXpXiXiXdXiX0X,XiX0X0XiXiXiX0X0XiXiXsXsX9X9XeXtXtXiXiXtXiXiXiX,XeX7X,XtX,XeX0XdX7XdXdXdX0X,XdXiX9X,X,X,X,XdXdX,X,X9XdX<X,X,X,X,X,X<X<X,X,XeX<X;X<X;X;X<X:X;X<X;X<X;X,X,X,X;X;X9X<X9X,X",
"=XOX=XOX=XK.OXOX+XOXOXOX(.OX+XOX+X+X+XOX=X+X=XOXOX=X=XOX=X:X].OX=X].=X=X:X=X=X=X-X:X=X-X=X=X+XOXOX].=XK.OXOXOXOXOXK.OXOX/.OX/.OXOXOXOXOX=X+XOX=XOX+X+X+X+X+X@X-X=X+X+X+X+X+X+X>X+X-X+X>X-X-X+XOX+X+X+X+X+X-X+X+X+X-X-X5X5X1X5X5X>X-X@X@X+X@X-X-X-X@X-X@X-X-X-X>X5X5X5X5X5X>X5X5X1X5X5X5X5X5X1X5X5X$X$X6X5X$X$X5X6X5X5X6X5X5X5X5X5X5X5X5X5X5X7XtX5X7X7X>X,X5X,X5X5X1X5X5X3X5X5X5X7X5XuX5XuXtX6X6X1X7X7X5X5X7X1X5X5X7X5XtX5XtX7XyXtXuXyXyXuXyXyXyXyXyX7X7X7XyXiX7X7X6XyX1X7X7XyXGXcXiXz.e 5 - % o C E D.h.r.+.| _ J l l J J F C J G L R E | +.%.r.t.D.D.D./.W.OX/.%XW.W.W.W.W.W.F.t.t.%.| ^ W W W l z z z z e 1 1 e e u u e e k k d l J E X.O.z.n.F.F.F.D.W.D.m.I.U.'.t.'.%.U.W.%.&.&.&.W C C l z e 1 5 * > ; + + + + + + +   o +   o o + + o o X @ + + + O + O O O O O + # + + # + ; : O # + # $ # + # $ + + $ + $ $ $ $ $ * $ > * $ + O X   X . O . O X X @ $ $ K +.IXGXGXbXvXxXZXvXxXxXlXaXcXcXzXxXzXxXxXxXxXkXxXaXxXxXaXxXzXzXxXlXzXzXxXlXzXpXpXpXzXpXzXsXzXzXcXpXpXcXpXcXpXaXpXaXzXpXpXpXpXpXpXpXpXpXlXyXaXkXaXkXlXaXpXpXpXpXpXpXiXiXpXpXiXiXiXpXpXsXiXpXpXpXaXyXyXyXtXyXyXiX0XqX0XsXwXiXwX9X9X0X0X0X0X0X0XsXiXiXiXpXiXiXtXdXiXiX9XiX9X9XiXiXdXiX9XiX9X0X0XdXaXdXtXdXaXiXiXtX,XiX,XdX9X,XiXiXeX9X,X0X7XdX7XdX,X,X,X,X,X,X,X,X,X,X,X,X,X,X,X<X,X,X<X,X,X,X,X,X<X9X;X9X,X,X;X=X<X;X;X,X<X,X;X9X9X;X;X;X<X",
"=XOXOX=XOXOXOXOX+XOX).OX(.+X+X+X=X+X-X+X=XOX=XOX=X:XK.=X=X].=X<X:X].=X=X=X=X=X-X=X=X-X-XOX+XOX+X:XOXOX].=XOX=XOX(.OX/./.OX/.OX/.+XOXOX+X+X+X+X+X+X+X+X+X=X+X-X+X+X+XOX+XOX+X+X+X+X:X-X+X+X+X+X+XOX+XOX+X+X+X+X+X-X+X@X1X@X-X1X-X-X>X@X-X-X@X+X-X+X@X-X-X>X#X5X>X1X>X>X5X5X>X5X-X5X5X@X5X@X5X1X@X@X5X$X5X$X6XuX5X5X5X5X5X5X5X5X1X5X5X5X5X5X7X5X5X,X7X>X5X,X>X5X,X7X7X7X8X7X7X7XtX6XtXyXuXtX6X7XtX7X7X3X5X5X5X5X5X5XuXtX5XyX7XyXyXtXyXtXuXyXuXyXuXyXyX7X7X7X8XiX7X>X5X8X5X5XyX7XGXZX8Xr.l 5 - - & H | H.h.h.%.X._ J J l C H J H G H J R ) } X.O.r.t.z.F.D.L././.W.$XW.W.%XW.W.W.L.W.t.t.&._ W W M C J J l z m z m e a z z j z V z l H R } O.r.b.F.L.F.D.L.L.E.n.n.t.t.'.t.t.t.%.U.&.&.&.W W C z z e e < * > - + + O + +   o + o @ o     + o +   + + + + O O +   + + + + + + + : + + + + + + + + + + + + + + + + + > $ + * * > > * * = + +   X . . . O . X X X O $ M  .IXGXGXbXvXlXZXkXxXkXlXxXxXcXxXxXaXlXxXxXkXaXxXxXaXkXlXxXaXlXxXzXxXzXxXpXlXaXpXpXpXzXzXcXsXcXzXxXzXaXpXpXpXpXaXpXpXpXzXaXpXlXpXpXpXxXlXxXlXkXlXaXkXaXpXpXpXpXpXqXpX0X0XqXiX0XpXqXqXiXqXiX8XiXyXtXyXyXtXyXtXiX0X0X0XqX0X0X0X9X0X9X9X0XiXqXqXiXiXtXiXiXiXiXiXiXiXiXiXiXiXiXiXiXiXiXdXsXiXiXiXdXiXdXdXdXrXiXiXiXdX,X,X,X,XeX9X,X,X0X9XiX9X0X9X7X<X<X<X,X<X;X,X<X<X:X<X,X,X,X<X,X:X,X,X<X,X<X,X,X,X,X9X<X<X,X<X,X<X,X,X,X,X,X,X<X<X9X9X<X,X",
"OX=X].OXOX(.OXOX+X+XOX+X+X+X+X+X+X-X+X=X+X=XK.OX(.oXOX].].=X].].OXOX=XK.OX=X+X=XOX+X+X+X+X+X+XOXK.OX].:XK.=XOXOXOXOX/.OX/./.+XOX+X+X+XOX+X+X+X+X+XOXOX+X+X+X+X+XOX+X+XOX+XOX+X+X+X+X+X-X@X=X+X+X+X+X+X+X-X+X+X-X+X@X-X-X-X@X@X-X-X@X-X-X+X-X-X@X-X-X@X1X-X-X-X@X@X-X5X>X-X5X1X>X#X>X5X5X$X1X5X@X5X$X@X5X%X5X5X5X5X5X5X5X5X>X5X>X5X5X>X5X5X>X5X5X5X5X5X,X5X7X>X7X7X5X7X5X5X7X7X6XtX5X5XuXuXtXuXyXwX3X7X7X7X5X5X5XuX6XuX7X7X7X7X7XyXuXtXyXyXyX8X8XyXyX8X7X7X7X7X8XyX6XyX5X5X7X5XcXbX5X%.l - 5 - o J | /.z.m.m.%.| l l z l V H m F J I E ) } | +.r.x.z.b.D.D.W.W./.$XW././.W.%X@XW.$XW.D.t.&.&.^ W W W J m l z l z z z l l C H C C I W | &.t.S.F.L.L.L.L.W./.D.D.I.!.t.t.U.U.U.U.%.&.&.&.W C C z z e 1 w < , > > + + O   + o X o +   + o o o O + X +     + O O + O + O + + + + + + + > + ; + + + + + O : + + + ; + ; + + > ; * > ; * * + + .       . . X . X @ O % M &.IXGXGXZXvXvXvXZXvXvXzXcXzXcXpXlXxXlXxXkXVXaXZXxXxXaXaXlXlXxXlXxXxXxXxXzXaXxXiXlXpXaXxXsXcXsXxXpXaXzXpXaXpXpXpXpXpXaXpXaXaXpXaXpXpXpXkXkXlXlXkXlXkXxXkXaXpXpXlXpXpXqX0X0X0XqX0XpXiX0XqXqX8X8XyXtXtXtXyXtXyXtX0X0X0XwXsXwXqXqX0X9XwX0X0X0X0XpXyXiXtXiXaXdXiXdXiXtXiXiXiXiXiXiXsXiXsXiXdXiXiXiXiXrXaXtXdXdXdXdX,X,X9X,X,X,X,X9X9X,X9X,X0X,X9X9X,X;X,X;X;X,X;X;X,X,X<X,X,X,X7XdX,X,X,X,X,X9X,X,X,X9X,X9XdX,X,X,X,X,X,X,X,X<XdXdX9X;X<X9X,X",
"=X=XK.=XOXOXOX+X+XOX+X+X+X+X+X+X>X-X-X-XOXOX=XK.K.].=XK.=X].].&X].:XOX=XOXOXOXOX+XOX+X+X+X).+X).OX=XK.=XOXOX=XOXOXL.OX/./.+X+X/.+XOX+X+X+X+X+X+X+X+X-X@X+XOX+X+X+X+XOXOX+XOX=X+X>X+X-X+X+X-XOX+X-X+X+X-X+X-X-X@X@X@X-X+X-X+X-X+X@X#X-X@X-X@X-X-X>X+X-X@X@X-X@X>X1X-X>X#X5X-X>X5X5X>X5X5X#X5X5X1X5X#X@X-X1X5X5X5X>X5X1X>X5X5X5X,X>X5X5X>X>X5X5X5X7X5X5X5X,X7X,X7X7X5X7X7X7X7X7X7X5X5XyXuXuX7XuX5X7X3X3X7X5X5X5XuX7XuXyX7X7X7X7X7XtXtXtXyXuXyXuXyX7XyX7X7X5XyXyXiXyXuXyXuX7XtX;XcXcX,X%.d o 5 - z | x.qX(.(./.z.| W C l F G J Y Y J I E [ } | +.%.g.z.z.m.b.D././.W.W./.@X/.%XW.W.W.W.W.I.%.&.&._ | ^ E E W J J J J M J C C W _ _ | | %.h.z.F.L.L.L.W.oXL.H.Q.Y.E.W.t.W.t.W.U.t.t.%.%.%.&.W l m z e e 1 < > > > : + O +     + o o + o o + o +   + + +   O +   + O + O + + + + + + + + > + + + + + + + + $ + : = ; + > + > > > > * * = + +     . . X . . O X @ X + H | GXGXGXbXvXvXvXvXvXvXxXvXxXxXzXlXlXxXxXaXkXZXaXxXaXyXxXxXaXlXxXxXaXxXaXxXaXlXaXaXaXcXsXsXaXaXaXlXaXpXpXpXpXpXpXpXpXaXaXpXpXpXpXpXyXlXxXaXlXxXxXyXlXyXpXpXyXaXyXpXqXiXiXqX0X7X0XiXiXqX7X7X8X7XtXaXeXtX7XyXiX8XwX0XqXqXwXpXwXwX9XwX0X0X0XiXiXiX7XiXtXiXdXdXaXiXiXyXiXiXiXiXiXiXsXiXdXiXsXdXdXdXuXtXeXdXeXeXdXeXeXeX,X,X,X,X9X,X,X,X,X0X9X9X9X9X,X,X<X;X<X,X<X9X<X,X,X<X,X,X,X,XdX,X,XdX,XdX,XdXdX,X9X,XeX9X,X,X,X,X,X,X,X9X,X,X<X<X,X,X,X",
"=XOX=XOX+X=X+X=X+X@X+X+X#X@X+X+X>X+X-X+X+X=XOXK.K.OXK.=X].:X=X].OX].=XK.OXOXOXOXOX+X+X-X+X+X+X+XOX].:X].=X=XOXOXOXOX(.OX+XOX_.+X+X+X+X+X+X-X+X-X-X-X+X+X+X+XOX-X+X=X=X+XOXOX+X+X+X=X=X+XOX+X+X=X+X@X-X-X>X@X-X1X-X-X-X+X+X+X+X+X-X-X-X-X-X@X+X+X@X1X-X>X1X>X1X-X@X>X5X>X>X5X5X5X5X5X5X#X5X5X@X5X@X5X1X-X1X5X5X>X5X5X>X5X>X,X5X5X5X>X5X-X1X>X>X5X>X5X,X>X5X,X7X7X7X7X7X7X6X7X5X5XyXtXtXtXyX7XtX7X3X0X7X3X5X3X6X5X6X7XuX7XyX6X7X7XtXtXtXtXtXyX7XyXyX6X6X7X7X7X8XiXuX7XuX7X7XyX,XGXGX7Xx.e & o - C X.r./.$.&.| W l e w 8 8 d c Z K Y Y T ) ) | +.%.r.t.m.z.m.D.H./.@XW.OXW.OX/././.D.W.E.t.%.&.&._ _ E E E W W J W J W W W _ _ _ &.&.%.t.t.D.D.L.L.L.L.@XW././.Q.W.W.W.W.W.U.t.t.t.t.%.%.&.W M l l e e e 1 8 > + +   + O + + o + o o + o       + X O + O + O O O +   + + + + + + + > + + + + ; + + : + + + + + + ; + + = $ > $ > * * + + X   X       O O O O X @ % m { IXGXGXbXzXvXvXvXvXkXvXkXzXlXzXlXzXaXxXxXaXZXZXZXZXkXxXxXlXlXxXaXaXxXxXaXVXkXxXaXaXaXaXaXaXiXaXpXpXpXaXpXaXaXzXaXpXpXlXpXaXpXpXaXlXaXlXkXlXkXkXlXkXlXkXlXpXpXlX8XpXqX7X0X0X0XqXqX0X0XqXiX8XiXyXtXtXtXiXiX7XiXqXqX0XqXpXwXwXwX9X0X0X0X0XqXiXqXtXtXtXtXuXdXdXiXiXiXiXpXsXiXiXsXdXiXiXiX9X9XiXiXVXdXdXtXiXeXtX,X9X,X,X,X,X,X,X,X,X9X,X0X0X,X,X0X9X,X,X;X<X;X,X,X,X,X<X<X,X<X<X,X,X,X,X9X0X,XiX,X9X,X,XeXdX,X,X9X,XeX9X,XeX<X,X,X<X<X:X,X<X",
"OXOX=X=X=X=XOXOXOX+X-X-X-X-X#X+X@X-X-X-X=X=XK.=XOX].OX=X:X=X].=X:XOX=X=X=X=XOXOXOX+X@X@X@X#X+X+X:XOX=XOXOXOXOX=X+XOXOX+X/.OX+X+X+X+X+X+X+X+X+X+X+X-X+X-X-X@X-X-X>X+X=X+X=X+X+X-X+XOX+XOXOXOX+X-X+X-X-X@X@X#X@X-X1X@X+X-X+X+X+X-X+X@X>X-X@X-X+X+X-X>X1X-X-X@X@X-X5X-X5X>X5X5X5X>X1X5X5X@X1X5X5X1X5X-X-X@X-X-X>X5X1X>X-X5X>X5X>X5X5X>X>X1X-X5X>X5X7X>X5X7X7X,X>XyX7X7X7X7X7XyXtXuXyX7XuXyXtXuXyX7X,X,X3X7X5X5X7X5XuXuX8X8X5X7X7X7XtXtXtXyXuXyXuXyXuX7X6X7XyX7XiXyX5X5XuX>X7XyXtXZXsXpXV.< - o - _ n.m.D.| E I l w * * w 0 d Z U T Y Y E ) } | X.+.%.r.h.h.z.D.H.L././.OXOXOXOXoXW.L.W.W.W.%.&.&.&.^ } | E E E E W W W E E _ _ &.&.t.x.F.F.D././.@X/.@XOXL.L./.!.W.W.$XW.t.W.t.t.U.U.%.&.&.W W m z u a e 0 < > ; + + O   + o o o + + o + o o     + + O +     + O O + + O + : + + + ; + > + + ; + + + + $ + $ + $ + ; + = + $ * $ > * + + + + X O O . . # O # X # @ n [ GXGXGXbXzXzXkXvXkXvXxXxXkXaXxXzXlXvXZXZXxXxXZXZXxXxXxXkXxXzXaXaXZXaXaXxXxXVXaXaXaXaXaXaXaXaXaXpXpXaXpXpXpXzXpXaXaXpXaXpXpXpXpXlXyXxXkXaXkXlXlXkXlXkXaXpXlXpXpX8X8XqXqX0X7X0XiX0XiXqXqXiXqXiXiXdXiXiXiXiX8XiXqX7XqXwXwXpX0XwXwX0X0X0X0XqXqXiXtXtXeXtXdXVXdXtXyXiXiXiXiXiXiXiXiXiXiX9XdX0XdXiXdXdXtXdXeXeXeXeX,XeX,XdX9X,X9X,X,X,X9X9X9X,X0X,X,X<X,X;X<X<X9X9X,X,X,X,X:X:X<X,X,X,X,X,X,XdX,X,X,X,XdX9X,X9X,X,X,X,X,X,X,X,X<X:X9X;X<X<X<X",
"OX=X=XOXOX+X+X+X+X+X@X-X#X@X+X+X-X@X@X-X-X+X:XOXK.].].oXoX=X=X=XOX:XOX=XOXOXOXOXOX+X+X+X+X+X+X+XOX:XOX=X=X=X=XOX+X+XOXOX+X+X+X+X+X+XOX+X+X+X>X+X-X+X-X@X-X-X@X>X+X>X+X=X+X+X+X=X+XOXOXOX+X(.OX+X+X+X+X+X-X-X-X@X5X>X-X+X+X+X@X+X-X>X1X@X>X-X-X+X>X#X@X>X-X-X-X@X-X>X5X5X5X5X5X6X>X5X@X1X@X1X@X@X5X#X#X-X@X@X5X1X@X>X-X>X-X-X-X5X@X1X>X@X5X>X5X5X>X5X>X7X>X>X7XtXyX7XyX7XyX7X7XyXyX7XuXtXtX5XyX7X3X3X7X3X7X7X6XuXuXuXuX7XtX7X7X,XeXiXtXtXyXtXyXyX6XyXyXyXyXyXpX8XyXyXpXuX5XtX7XGXcXpXH.4 - - 5 &.Q.x.r.I H z e = o o o + 9 h K Y R R R E } ..X.&.%.r.h.x.z.n.D.G.(./.OX/.@XW.OXL./.D.t.t.%.&.&.^ _ | _ _ E E E W E _ _ _ _ &.r.%.&.t.m.m.D.W.oXW.L.OX@XOXD.H.W.W.W.W.t.t.W.W.&.U.U.%.&.&.^ W M z z e e e 1 > ; + O + +   + o o = + +   o   o +   + + O + + O + +   + + + + + + + + + + ; + + + ; + + + : : + + ; + + + > * > > + + = + o X   O O . O # # @ O @ O h [ GXGXGXUXzXbXvXvXvXvXxXxXaXaXxXxXxXxXxXxXZXZXkXZXZXaXxXxXxXxXkXaXZXaXxXxXaXaXaXaXVXaXaXpXVXaXpXiXpXpXpXzXpXpXaXlXpXpXpXpXaXaXaXlXlXaXlXkXxXkXkXpXkXaXlXyXpXpXpXpXiX8X7X0XqX9XqX0X0X0XqX8XqXiXiXaXtXtXiXyXiXiXiXqXiXqXqXqXwXwXwX0X0X0X0XqXiX7XyX7XtXuXeXyXiXeXiXiXyXiXiXiXiXiXiXiXdX0X9XdXiXdXtXiXrXdXeXeXeXeXdXiX,X<X,X,X,X,X,X9X9X,X,X9X,X9X;X;X;X<X-X<X,X7XiXdX,X,X,X,X,X,X<X<X,XdX,X,X<X,X,X,X,X,X,X,X,XeX,X,X<X,X:X<X,X<X<X<X<X,X:X",
"=X=X=X=X=XOX+X+X+X1X@X+X-X+X+X+X+X+X@X+X+X=X=X=X].:X].=X=X=X=X=X-X=X+X=XOXOXOX(.OXOX+X+X-X+XOXOX-X+XOX=X=X-X:X=X=X=X=X+X=X+X+XOXOX+X+X+X-X+X+X+X+X-X+X+X-X@X-X-X-X@X-X+X+X-X+X-X+X+X+X-X+X+X-X+X+X+X+X-X@X-X>X#X-X-X1X-X-X@X@X-X-X-X1X>X@X-X@X1X@X-X@X-X1X1X>X-X-X1X>X>X5X5X5X>X@X5X@X-X>X@X-X1X@X#X#X#X5X5X6X$X$X@X5X#X@X5X5X1X5X1X>X5X5X,X5X5X5X,X,X5X7X5X7X,XtX5XtXtX7XyX7XyXuXyXiXyXyX8X8XuX7X5X7X6X6XuXtX6X7X7X7X7XtX7X,XeXdXeXiXyXuXyXyX5XyXyXiX8XyXpXyXiXyX8XuX8X7XyXaXxXZXvXkX= = w F x.X.E J j e 8 $ + > $ > 8 $ H ~ ~ T R E ~ } ^ | +.%.r.h.x.m.F.D.L.OXW.OXOXOX@X/.OXOXD.F.t.t.%.%.&.&._ _ _ _ _ &._ &._ &.&.r.r.t.t.t.t.t.t.W.W.%XL.%XD./.L.@X@X@XOXOXL.D.F.t.t.t.t.t.D.t.t.&.W M l z a z 1 - - - + + + + + o o o = % + o   + +     + + + +   O + + + + + + + + + + - : + + + + > : >   + O + + + ; + > + > > > > > * * + + O # O O O : O : O X % + p ! GXGXGXZXvXvXvXkXvXxXvXxXZXsXxXxXkXZXkXaXZXkXZXZXZXyXxXxXaXZXaXaXxXaXaXaXcXsXaXsXsXaXaXsXsXaXsXaXiXsXaXaXpXpXpXpXpXsXzXpXzXpXzXlXkXvXkXkXxXkX8XyXlXpXpXaXpXpXyXyX8XyX8X7XyX7X7XiXiXiXpXiXpXiXdXsXsXsXsX9XpXpX9XqX7X7X0X0X0XqX0X0X0XqX0XqX7X7XpXyXtXtX7XeXtXtX7X,X0X0X0X0XiXiX9X0XiXeXiX0XiXdXdXdXuXtXeXeXeX,XeX,XdX,XiX,XdX9XtX9X,X9XeX0X,XdXeX9XdX:X<X,X<XdX9XdX,X,X,X,XeX,X,XeX,X<X,X<X,X,X,X,X,XeX,XdX,X,X,X,X,X<X:X<X,X<X:X<X<X;X;X",
"K.OXOXOX+XOX+X+X+X+X@X-X+X+XOXOX+X+X+X+X+XOX=XOXOX].:X=X=X=XOX-X=X=XOXOXOXOXOXOX(.OX+X>X+X-XOXOX+X+XOXOX+X-X=X=X+X=X+X-X+X+X+X+X+X-X+X-X@X+X+X+X+X+X+X+X+X-X-X@X-X#X@X-X-X@X-X@X+X+X@X+X+X-X+X>X+X-X-X+X-X+X+X+X-X@X@X@X1X-X1X@X5X@X1X@X5X-X-X+X-X@X-X1X>X@X@X5X@X>X>X5X5X>X-X5X1X>X>X1X#X>X1X@X5X#X5X@X@X5X$X5X5X1X$X5X1X$X@X5X@X>X>X>X>X5X5X,X>X5X5X5X,X5X7X5XtX7X5X7X7XuXuXyXyXyXyXyXuXuXuX6X6XuX6XuX7X7X5X7X7X7XtXeX,XeX7X,XeXeXtXtXtXtXtX5XyXyX8XyX8XiX8X8X7XuX7X7X8XyXaXxXGXZXZXk 5 z R Q.| J l q * + X X X @ X + + F T } E E R E E [ X.%.r.%.t.z.F.D.E./.@XOX@XW.+XoXOXOXL.D.F.z.t.%.%.&.&.&._ &.&._ _ &._ _ _ &.&.&.r.&.&.t.t.t.t.D.L.L.+XoXW.OXL.L.L.OXOXOXD.F.S.W.D.D.t.W.t.t.&.^ W z 1 1 e e < - > > > $ + + - o o o + O + +   + + O +     + + + + + + +   + + + : + O + + + + ; + - + : + - + + + + + + ; > ; > + ; * = + % O O . O . # O $ + O + X p ! GXGXGXGXvXvXvXvXxXxXxXaXxXxXxXxXZXxXZXZXxXZXxXkXaXZXxXVXkXkXaXxXaXxXcXaXaXaXaXaXaXsXsXiXiXsXsXiXsXiXiXaXsXpXsXpXpXpXpXpXzXlXlXvXxXxXxXlXlXlXpXyXaXkXpXpXpXpXpXpXiXqXyX8XqXtX8XiXiXiXpXiXpXiXdXUXsXdXsXsXpXsXwXwXqXqXqXqXqXqX7XqXqX7X7X7X7XyXiXyXyX,XtX5X7XtXeX0X7X9X9X0XiX0X0XiX0XiXtXdXiXtXdXuXdXrXeXeX,XeXeXdX,X9X,X9X0XeX9X,XdX,X9XdX,X,X9X,X<X,X,X,X9X,X,X,X,X,X,X,X9X9X,X,X,X,X:X,X,X,X,X9X,X,X,X,X,X,X,X,X:X;X,X<X,X,X;X;X,X;X<X",
"=XOX=X(.OX+XOX+X+X+X+X+X+X+XOXOX_.+X+X+XOXOX=X=X:X:X:XOX=XK.=XOXOX=XOX=X=XOXOXOXOX+X=X+X>X+XOXOX-X+XOXOX+X=X=XOX:X=X+X=X=X>X+X+X-X-X-X@X+X+X+X+XOX+X+X+X+X+X+X+X-X+X+X-X+X+X+X-X+X+X+X-X+X+X+X+X>X+X+X+X+X+X+X+X+XOX+X-X@X1X5X-X>X@X-X>X@X-X-X+X-X-X@X@X>X-X-X-X-X>X>X5X-X1X>X-X5X5X5X5X5X$X1X@X5X5X#X5X@X5X5X5X5X@X5X1X5X1X5X#X-X-X-X-X>X>X>X>X5X,X5X,X>X7X7X5XyX5X5X7X5X5XyX7XyX8X8XuXyX5X5XyX6X6X6X5X6X5XuX,XeX5XtX7XiX7X,X,XeXtXtXtXtXtX5X7X7XyX7XyXyXqX7XiX7X8XuX8X7XuXaXlXlXvXkXe 4 d I C.R F e * % X   O $ $ + $ * H } +.~ ~ E R ~ }  .&.$.r.x.t.z.D.D./.W.@XW.%X/.L.@XoXL.L.F.m.r.%.%.%.&.&.X._ &._ &.&.&.r.r.r.r.t.t.t.t.W.t.t.F.D.F./.OX/.%XoXK.L././.L.F.m.z.t.t.S.m.F.D.n.n.%.&.^ l 1 5 1 1 w < > - * + + + o o o o o +   + + O + O X o   O   +   + + + +     : + + + + + - : + + + + + + + + + + > > + + ; + > > > * $ + X X   . O . O . # + X + X r K UXGXGXbXvXvXkXvXxXxXxXaXxXxXxXxXxXxXaXkXZXxXZXaXZXyXxXkXZXaXxXxXZXaXaXcXxXsXaXaXpXaXiXaXaXiXiXaXiXaXaXiXsXiXpXsXpXpXpXzXpXlXvXxXlXlXxXlXxXyXyXpXyXlXyXpXpXlXlXyXpXyXyXiX8XyXiXiXpXpXpXiXqXiXUX9XUX9X9XsX0X0X0XqX0X0XqX0XsXwX0X0XqX0X0X0X0X7X0X7X7X7X>XtX>X5XwX,X9X;X0X0X0XiX9XdXiXeX7XdX7XdXdXdXdXtXeXeXeX,XeX,XeX,X,XiXiX,XeX,X,XeX,X,X,X<X,X,X,X,X,X,X,XdX,X,X,X<X,XdX,XiX,X<X<X,X,X,X,X,X,X,X,X9X,X,X,X,X<X:X<X:X:X,X,X,X;X;X;X9X9X",
"=XOXOXOX+XOX+X+X+X+X+X+X+XOX+XOX+X+XOXOX+X=XOX=XOX=X=X=X=XOXOXOX+XOXOX=X(.OXOXOX+X+X+X-X-XOX+XOX+XOXOXOXOXOX=XOX=X=X:X=X-X+X+X+X+X+X+X+X+X+XOX/.(.+X+XOX+X+X-X@X-X@X-X+X-X+X+X+XOX+X+X).-X+X+X+X+X+X+X+X+XOX+XOX+X).+X@X-X-X>X5X-X-X#X>X1X>X-X@X+X-X-X-X#X-X@X5X-X>X#X-X5X>X>X5X5X5X-X5X5X5X5X5X5X>X5X5X5X5X5X>X5X-X>X5X@X>X>X5X>X-X5X>X1X>X5X5X5X7X5X5X7X5X7X,X>X7X5X5X7XyXtXtX7XuX7X8XtX6XtX5X5XeXtX5X5XtX5X7X7XyX7XtX7XdXtX7X,XeXeXtX7XuXyX5X7X7XyX7XyX7XyX7X8XuX8X7X8X8XyXzXbXGXZXJ e j Y $.J l w + X   O # + ; O $ % l E | } ~ R E E } | X.$.%.r.x.m.D.L.W.@XW.oX/././.L.W.L.D.F.x.t.t.&.&.r.&.r.X.&.X.&.&.r.&.&.&.r.&.&.r.t.t.t.t.F.W.oXOXL.L.L.OX@XOXL.L.G.F.b.z.t.t.t.z.D.Q.Q._.%.&.^ z 5 e e 5 w > > * > ; > + +   o +   O   O   +   O + O + + + + O + + + + + + - + + : + + : - + + ; - + + + + + + : + + : - + ; + > * $ + X X X   O . #   O X . $ + a Y GXbXGXbXkXxXkXvXxXkXxXxXaXxXkXZXkXVXaXZXxXxXZXkXkXZXxXxXkXxXaXaXxXxXxXxXxXaXaXaXsXaXsXaXaXsXsXaXsXsXaXpXpXaXsXzXpXpXpXhXpXzXlXxXxXlXkXxXkXlXpXkXpXyXpXpXyXpXpXpXpXiXiXiXpXqXpXpXpXiXiXpXiXiX9X9X9X9XiX0X0XqX0X0X0XqX0XiX0XiXqX9X7X0XqX0X7XiX7XtX,X,XeX>XtX,X,X0X;X9X,X0X,X9XiX0X0XiXiXiXtXiXtXtXrXdXeXeXeXeXeXdX,X9X,XdX,X9XdX,X,X9X,X,X,X,X,X,X,X<X,X,X,X,X<X,X,X,X<X,X,X,X,X,X,X,X<X,X,X,X,XdXeX9X,X<X,X<X:X<X;X:X<X,X<X,X<X,X,X,X,X",
"OX+X+X+X+X-XOX+X+X+XOX-X=X+XOXOX_.+XOX+XOXOXOXOX=X=XOXOXOX(.OX(.OXOXOX+XOXOX=XOX=X=X=X=X=X+X+XOXOX@XOX(.OXOX=X=X+X=X+X:X>X+X+X>X+X+X+X+XOX+X(.+XOX+X+X+X+X+X+X-X-X@X-X@X@X+X+X+X(.+X+X+XOX+X+X+X+X+X+X+X+X+X+X+X+X+X-X-X@X-X#X-X1X@X>X#X>X>X1X>X-X-X1X-X@X-X@X-X-X5X-X>X@X1X1X5X5X5X5X5X5X6X$XuX5X5X5X5X5X1X>X>X5X,X-X-X-X5X>X5X>X5X>X5X-X5X>X5X7X>X,XuX5X7X>XtX>X7X6XuX>XyX5XyX7X5XtX7XuX7X7X5X5X5X5XtX5X7X5X5XtXtX7XyXyX,XuXtXtX,XtXtXtXuX7X5XuX8XyX7XiX8XyX8X8X8X6X7X8X8X8XpXpXGXGX:.l j J E l k * + O . O . . O   O o j J } ^ E E E [ } | X.%.%.r.r.z.D.D./.W././.W.oXW.L.L.D.D.F.z.t.r.r.%._ r.&.&.&.X.&.X.&.&.r.&.&.r.r.&.t.t.x.m.F.D./.K.%XOX=X:X>X:XOXF.$.$.$.$.r.t.m.m.#X6XkXkX).%.&.W e z 5 1 5 5 - = > $ $ + + O o O   + O +   + + + O + + + +   + O + + + + + + + + + + ; + + + + + : + + + + + + - ; ; + + + > + ; % $ %   X . X . O #     X & $ $ l ~ GXGXGXzX8XyXvXvXxXkXxXxXaXaXZXZXaXaXZXkXZXZXZXkXZXyXyXkXVXxXxXxXxXxXcXxXxXxXxXsXaXxXaXaXaXsXsXsXsXsXsXsXpXsXlXpXpXpXzXpXzXpXxXxXkXxXxXkXxXlXaXyXpXpXyXpXpXyXaXpXpXyXpXpXaXpXpXpXpXiXiXiXiXqXUX9X9XUX9XUXwX9X0X0X9X0XsX0XsX9X0X0X0X0X7X0X7X9X7X9XtX,X7X,X7X,X9X,X;X;X0X0X9X0X9XiXdXiXdXiXdXtXeXeXeXeXeXeXeX,X,XdX,X7XdX,X9XeX0X,X,X,X,X9X,X,X,X,X<X,X:X,X,X,X,X,X,X,X<X,X:X,X<X,X<X:X,X,X,X,X,X<X,X,X,X<X-X<X=X;X:X<X,X<X,X,X<X;X;X,XdX",
"+X=X+X=X+X+X+X+X-X+X+XOXOX=X=X=X+XOX+XOX+X=X=XOXOX+X=XOXOX+X+XOX+X=X+XOX+X=XOX=X=X+X=X@X+X+X+XOXOX+X+XOXOXK.K.=X=X=X+X=X=X+X-X+X-X+X+X+XOX+X+X+X+X+X).+X+X-X+X+X+X@X-X1X+X+XOXOX(.OX(.OX+X/.OX+X(.+X+X+X+X+X-X-X+X+X+X+X-X-X@X-X@X>X-X5X>X1X@X>X5X@X>X-X-X-X@X-X-X@X@X1X-X>X5X@X5X5X5X5X5X$X5X6X5X,X,X,X>X,X-X>X-X>X>X>X,X-X>X,X>X5X,X7X7X7XtX>X5X7X5X7XtX5X5X7XyX5XtX5X6X5XtX7X6XtX5XtX7X7X7X7XtX7X5X7X,XuXtX7X5XtX7XtXtX7X7X7XtXtX,XuX7XuX7XyX7XuX8XyX8XyX7XiX6X8X8X6X5X8X7X8XpXGXUXh.d e n E h q $ O O . O O X ; @ ; 8 g J { E ~ T ~ ^ ~ | | +.&.%.r.m.F.D.D.L.W.oXW.W.L.W.L.D.D.F.m.t.t.%.r.r.&.r.&.&.r.&.&.r.t.r.t.t.&.t.t.t.t.t.t.t.z.z.S.z.z.z.z.r.r.+.[ R ) [ X.$.z.F.H.+X5XkXgXY.&.^ W z 5 - 1 < < * < > > ; + + + O O   O   + + + + + + +   + O +   + +   O + O + + + + + + + + + + + + + + + ; + ; + + + : - ; $ > > = % o X   X O O O # . .   & + $ H { IXGXGXbXlXlXvXkXkXZXxXaXxXxXaXkXuXZXkXxXaXkXyXZXZXaXZXxXxXkXxXxXxXxXZXxXaXcXxXxXcXsXcXaXcXaXZXsXsXsXcXcXsXcXpXzXpXpXhXpXpXzXlXkXxXlXlXxXlXaXlXyX8XiX8XqXyXpXpXpXpXiXyXpXiXpXiXpXpXiXpXqXiXiXwX9X9XwX9XwX9XwX0X0XsX9X9XsXiXsX0X0X0X9XdX9X0XdX0X0XdXtXiXdX9X0X9X7X0X;X;X9X0X9XiX0X7XtXiX7X7XiXeXeXeXeXeXeXdXtXeXtXdX,X9XiX,XdXdX,X,X9X,X,X,X,X,X,X,X,X,X,X,X,X,X,X,X,X,X,X:X<X,X<X<X,X:X,X<X,X,XdX9X,X,X<X<X:X<X:X;X;X<X;X:X,X:X;X<X<X<X",
"+X+X-X+X-X+X+X+X+XOXOXOXOXOXOX:XOX=XOX+X+X+X+X=X=X+X+X@X+X-X+X+X+X+X-X+X=X+XOX=XOX=X=X+X=X-X+X-X+X+X-X+XOXOXOXOX=XOX=X+X>X-X+X+X+X+X+X+X+X+X+X+X+X+X+X+X-X@X-X+X+X-X1X-X-X+X+X/.+X+X+X+X+X+X+X+X-X@X@X-X@X1X@X-X+X-X+X+X+X-X-X+X-X-X5X-X5X>X1X-X>X@X>X@X-X-X-X@X-X5X-X1X-X5X5X5X$X5X@X$X5X$XuX5X5X,X5X>X5X>X5X>X>X5X>X1X>X5X5X>X5X5X5X5X,X5XtX7X7X5X,X5X5XtXtX5XyX5X7X7XtX5X7XtXeX7X7X7XtXtX,XtXtX,XtXtX7X7XtX7XyX7XyXyXyXtXtXyXtXeXyXtXyXyX8XyX8XuXyXyXiX8XyX8X7X8X8X2X7X4X7XqXbXGXzXV.a < H ~ g q > # O O O ; & $ X + * d F } ~ ~ T E [ ~ } | +.X.%.r.x.z.D.D.D.W.W.L.D.L.D.D.D.F.F.S.t.h.r.%.r.&.&.0.r.&.r.0.&.X.&.X.&.r.&.0.%.%.t.r.r.0.z.z.S.z.z.r.0.O.{ [ R R ) | r.F.@XyXkXZXZXZX2Xm.&.W z 1 - 5 1 5 < w > > ; + O O # + + + + + + + + + + + +   +   +   + + O + + + + + + - : + + +   + + + : + + + + + ; + + + + > > $ = + + X X O O O O #   . X & + o M 1.PXGXZXvXkXkXZXkXxXxXxXvXxXxXZXyXxXxXkXVXZXkXZXkXuXxXkXkXaXxXxXxXvXxXxXxXxXxXxXxXxXxXpXcXaXaXsXcXsXcXsXcXcXsXcXxXpXpXpXpXpXpXlXlXkXxXaXlXxXlXpXpXaX8XiXyXpXpXyXiXyXpXiXyXiXpXsXpXiXqXiXqXiXqX9X9X9XwXwX9X9X9XwXwX9X0X9XdXdXdX9XdXiX9X0X0X0X9X9X9X7X9X9X9X9X,X9X9X9X0X0X;X0XiX0X0XiXdXtX0XdXiXeXeXeXeXeXeXeXdXdX,X0X9XdXiX9X7XiX,XiX,XdX,X,X<X,X<X<X,X,X<X<X,X,X,X,X,X,X<X<X:X:X<X:X<X<X,X,X,X,X,X,X<X,X:X:X<X<X-X:X,X,X:X<X:X:X<X:X;X,X",
"-X>X+X>X@X-X>X-X=X=XOXOXK.=XK.K.OXOXOX=X=X+X-X+X@X+X-X-X@X#X>X1X+X+X-X+X+X=X:X=X=X=X+X=X=X+X:X-X+X-X+X=XOXK.=X:XK.=X+X=X+X=X+X+X+X+X(.OX(.+XOX+X+X+X-X+X+X@X-X-X+X-X@X-X@X+X(.OX+X+X+X+X+X+X+X+X>X1X>X1X>X-X@X-X+X+X+X-X+X@X@X-X-X-X@X5X@X5X>X5X>X1X1X-X@X-X@X-X5X-X@X@X-X@X1X@X5X5X5X6X5X6X5X5X>X1X>X5X-X5X-X5X5X5X>X>X5X-X>X5X>X5X,X5X5X7X5X7X,X7X7X5XtX5X7XtXyXyXyXuX7XtX7XtX7XtXtXtXeX7XtX7X7XtX7XtXeX7XtXtX6XtX7XuXtXyX6XtXtX7XuXtXyXuXyXyXyXyXiX8XiX8XiXiX2X6X8X8X8X7X4XwXqXUXpX~.l > n R h r $ O O O O # . : O $ * d l } E E E ~ E E | | X.&.%.r.t.m.D.D.W.D.D.W.D.D.D.D.D.F.t.t.x.t.r.&.r.r.r.r._ X.r.&.r.r.r.r.r.X.0.&.%.t.t.t.r.z.r.u.j.u.0.+.X.{ } E Y R / } 0.F.@XuXuXZXxXkX).%._ l z 5 5 5 e w * * > > ; + : O O : + X +   + + + + O + O + + o O +   + + O + O + + : + + + ; + + + + + ; + > + + + ; > + + $ $ ; > $ + % o O O O O O # . : @   + X L 5.PXGXvXvXkXkXkXvXxXvXxXaXxXxXkXZXZXkXxXxXuXaXaXZXxXxXVXkXaXxXxXxXvXxXxXcXxXxXxXaXaXxXaXaXaXaXcXsXsXzXVXsXsXsXpXsXsXlXpXzXhXpXkXxXxXlXlXlXaXxXaXpXqXiX8XiXyXpXpXpXpX8XpXpXpXpXpXiXiXiX0XiXiX0XwX9XwX9X9XwXwX9X9X9X0X0X0XsXsXdXdX0X0X9XdXdX9X9X9X9XdX9X0XdX9X9X,X3X9X;X0X0X0X0X0XdX7XiXdXiXeXiXeXeXeXeXeXtXeXeXiXdXiXeX7XdXiXdXiXiX,XdX,XdX,X,X,X:X<X,X,X<X,X<X:X<X:X<X<X,X,X<X,X<X<X,X<X,X,X,X<X,X,X,X,X<X;X:X<X:X<X<X<X,X:X<X<X:X,X;X,X",
"@X-X+X>X+X+X-X=X-X=X+XOXOX=XOX=X-X-X-X>X-X-X+X+X1X5X1X1X@X5X$X@X>X@X@X@X-X-X=X(.].OX:X].OXOXOXOX+X+X=X+X=X=XOX=XK.=X:X=X+XOXOX+X+XOXOX+XOXOX+X+X-X-X+X+X+X-X+X-X1X-X-X1X@X-X+X+X+XOX+X+XOX).+X-X@X@X+X-X-X+X-X@X+X+X-X+X+X@X-X@X@X-X-X-X>X-X>X-X+X-X+X-X-X-X>X-X-X5X-X5X@X1X>X5X5X5X5X5X5X5X5X5X5X5X5X5X5X5X6X5X6X5X7X5XuX7X5X5X5X>X7X>X>X7X>X7X5XtX5XtX7XtX5XtXyXyXtXyX7XtXtX7XtX7XtXiXtXiXiXiXtX,XtX7XtXtXyX7XyX5XyXuX5X6X6X5XuX7XyXuXtXyXuX8XuX8XyXuXqXyX8XyX8X8X8X8X8X8X8X7XpXzXUX5Xm j l E F d % X # # : $ # ; $ 8 i i F ~ R T T E W E E | +.&.%.r.t.m.m.D.W.W.D.D.W.D.W.D.W.t.D.F.z.t.r.t.r.r.r._ &.r.X.r.&.r.&.0.r.X.r.r.r.&.O.%.+.0...+.+.+.X.} / T [ } ..) ..0.r.oX%XuX%XuX%Xt.t._ C z z z - 1 5 < < w * > ; + : # # # + + + + + ; + + + + + + + + + + + + O + + % + $ + $ + $ $ + $ $ + + + $ + $ $ $ $ + $ $ * * > 8 = % o X X X O O :   # # # O & %  .Z.IXGXjXUX XjXvXkXxXZXvXxXxXaXZXxXZXaXaXkXxXxXVXkXxXxXZXkXkXkXaXxXxXcXcXxXxXaXcXxXsXxXaXaXcXsXsXsXsXsXpXaXpXsXpXpXsXpXzXpXpXhXxXlXxXaXxXaXaXpXpXyX8X7XyX7XiXiXpXiXiXiXiXpXsXsXiXpXqXiXsXiXiX9XwX9XwX9XwX9X.XwX9X0X9XiXdXiXdXdXiXdX0X9X,X9X9X9X9X9X9X,X9X9X9X9X;X0X0X;X,X,X,XiX0X0XiXtXiXiXdXiXdXaXrXdXuXdXeXeX,XdXdX9X,XdXiXdXdXiXiX,XdXdX,XiX,X,X,X,X,X,X,X<X<X<X,X,X,X<X<X<X<X;X:X;X:X,X<X,X,X,X,X,X,X,X<X<X<X,X-X,X<X,X<X<X;X,X,X<X,X",
"+X+X-X+X-X:X=X>X:X=X=X=XOX=X=XOX-X=X-X>X-X@X@X-X@X5X@X5X@X#X@X#X#X-X>X#X-XOXOX=XOX:XOXOX:XOXOXOX+XOXOXOXOXOX=XOX=X=X+X+X+X=X+XOX=X+X+X+X@X=X+X+X>X+X-X@X-X@X-X+X@X-X-X@X-X@X+X+X+X+X+XOX+X+XOX+X-X-X+X+X+X+X-X>X-X@X+X-X-X-X-X>X-X+X>X>X-X>X+X-X-X-X>X-X@X-X>X+X@X5X5X-X1X>X#X>X5X5X5X$X$X5X$X1X5X1X5X5X5X5X5X5X5X5X5X6X5X5X6X>X5X>X5X5X7X5X7X5XtX5X7XtX5XtXtX7XtXyXyXtX7XtX7XtXtXtX0XtXdXiXtXdXtXtX,XtX7X,X7XtX7X7X5X7XuX7X6X7XyXtX5XtXuX7X8XuXyXyX7X7XiX7XiX8XyX8X8X8X8X7X7X8XaXzXGX4XE R L [ H h = % $ O ; # % ; ; ; 8 k l J L I L W R E E | | X.X.r.t.z.F.b.t.D.D.D.F.W.L.W.W.D.F.t.m.z.S.r.r.&.r.r.0.r.r.X.0.&.r._ &.0.X.&.X.X...| ..} ) ) } ....[ ) ) [ ) ..0.r.S.L.%X%X%X%X%Xt.t._ I C C z z z - 5 * = < > * > $ + $ # + + + + + + + + + + + : + + +   + % + % O + O $ + $ + $ % $ $ $ $ + + $ % $ + $ $ $ $ $ $ $ ; 8 8 = $ + X o O O # O . . &   + X $ =.=XIXGXzXUX3XvXvXvXZXkXvXxXxXaXaXZXxXZXkXVXxXxXyXaXxXxXZXkXxXVXxXxXxXxXxXxXcXxXcXcXcXaXxXsXxXaXsXsXVXsXsXpXpXsXpXpXpXpXpXpXhXsXaXlXaXlXlXlXlXaXpXpXpXiX7X8XiX8X8XiXyXiX0X0XpXiXiXiXsXiX9XiXiXiX9XwX;XwX9XwX9XwX9X9X0X9XiXiXVXiXiXdX9X9X9X9X9XiX9X9X9X9X9X9X9X9X0X0X;X9X0X9X0X9X0XiXdXiXiX7XiX,XiXrXtXdXrXdXeXeXdXeX7XeX0XiX,X7XiXdXiXdX9X7X0XdXeX,X9X,X,X,X,X,X<X,X:X,X<X,X,X:X:X,X<X:X;X<X,X,X,X,X,X<X<X:X,X:X:X,X<X,X,X<X,X,X<X,X,X<X<X",
"+X+X+X-X>X-X>X:X-X=X=X=X=X+X=X=X+XOX:X=X@X-X-X+X5X$X5X@X5X#X5X1X#X1X@X-X+X=X=XK.K.].OX=XK.OXOXOXOX+XOXOX(.=XOXOX=XOX=X+X>X+X+X>X>X+X-X+X+X+X@X-X-X@X-X-X-X@X+X-X-X+X-X-X-X#X>X1X+X+X+X+X+XOX+X+X-X+X+X-X+X-X@X-X@X5X-X-X-X@X+X>X-X>X>X-X-X>X>X+X>X>X+X+X-X>X=X+X-X>X-X>X>X#X>X1X5X6X5X>X5X>X5X@X5X@X@X1X$X@X@X1X2X%X5X5X5X6X5X5X7X7X5X7XuX7X5XtX5X7XtX5X5XtX5X7XyX7XyX7X7X7XtXtX,X7XtX0X,XtXtXtX,X7XtX,X>XtX7XtX7XuX7X5X7X8X7X7X5XtXuXuXyXyXuX8XyX6X7XyX8X8XiXiXpXyXfXyX7X8XyX7X7XaXxX7X%.| I E J l o = $ + + O $ 9 8 8 d h H G J J J L R R E } | | X.%.r.x.m.x.D.E.E.I.E.W.W.D.D.D.F.D.F.F.S.r.r.0.r.r.0.&.r.&._ 0.r._ X.&.X.X.X.| { ..) / } ..+.0.0.0.O.r.%.r.r.z.S.S.F.oXoXoXt.t.r.r.I C C C z z - 1 * * = > > > ; + + + + + + + + + + + + + + + + + + + + + + % + @ % # + $ + O % + + + % + + + $ + + $ $ $ $ $ $ $ * ; 8 $ $ % % @ + O # + : ; # . O : 8 q M.9XGXGXpXzXzXzXkXxXvXxXxXxXxXaXkXZXuXkXZXkXkXZXkXZXZXkXVXxXZXkXxXxXxXxXcXsXcXsXaXZXaXaXsXaXsXsXaXsXsXsXaXaXpXiXpXqXpXpXpXpXpXpXaXlXkXaXzXaXpXxXlXiXyX8X7XiXiXiXiXiXqX7XqXiXiX0XsXiXiXiXsX0X9X9XwX9X9X9X9XwX9X9X9X9X0XiXdXiXiXdXiX9XiX9XdX9X7XdX0XdXiX,X9X9X9X9X9X3X;X0X0X9X0X0XiXiXiXiXiX7XtXdXdXaXdXtXaXdXdXdXtXdXtX9XdX0X0XdX0XdX0X7XeX9X,XiX,X9X9X,X,X<X,X:X,X,X,X,X,X<X<X:X<X:X<X,X:X,X<X<X,X,X<X,X,X,X<X,X:X<X:X,X,X,X:X,X,X,X,X:X,X",
">X-X>X-X-X-X:X-X:X=X-X-XOX=X=X+X+X=X+X+X+X+X+X@X@X#X$X5X6X5X@X5X5X@X5X#X>X=XOX=X=XK.=XK.=XOXOX+X+XOX+XOXOXOXOX=XOX=X+X=X-X-X>X+X>X+X+X+X+X-X-X+X>X1X>X@X-X-X@X>X@X@X5X@X1X>X-X@X-X-X-X+X+X+X+X+X-X-X+X+X@X-X-X-X-X-X>X@X-X@X-X+X-X+X+X-X>X+X+X>X+X-X-X>X+X+X-X>X-X>X-X-X>X>X5X>X>X5X5X5X>X1X1X@X5X5X$X5X5X1X5X@X5X>X5X6X6XuX6XtXuX7XtX>X7X7XtX7X7X>X5X7X7X7X5XtXtX,X,XtXeX,X7X,X,XiX7XdX7X,X,XtX7X,X,X7X7X7X>X7X5X7XuXyX7XuXuXyXuX7XyXyXyXyXuX6X8XyXyX8XiXyXiXpXpXiXyXyXyX7XyXyXpXcXxXyXQ.h.E _ I j o = = $ $ $ $ > ; 8 d h l F J M J L L E E E | | &.%.t.m.t.z.m.W.t.E.D.W.W.W.W.D.D.F.F.t.r.t.r.r.r.&.r.&.0.0.r.r._ r.X.X.X.X._ ) ) E / ) [ X.r.S.G.F.F.F.b.z.F.S.t.t.t.0.t.r.t.t.r.r.I C C z z z 5 1 < - + = + $ ; + + + + + O +   + + + + + + + + + + + + + O % + + + % + $ @ + + O + % + % $ + + $ $ + * $ > $ $ $ ; * * 8 = = $ + + O O : O O # . O $ 8 n ].sXGXGXzXlXzXvXkXxXvXxXxXkXkXZXZXaXxXxXaXuXZXyXaXxXyXZXkXvXkXZXcXcXZXsXxXcXcXsXsXsXsXsXaXsXsXsXsXaXaXiXpXiXiXpXpXpXwXpXqXpXpXhXyXlXyXpXpXpXpXpXpXpXpXiXyXqXiXiXpXpXiXyX0X7XqXiXiXpXqXiX9X9XsXwX9XwX9X9X9XwX9XwX9XwX9X0XdXiXrXaXdXiXdX9X7XdX9X9X,X9X0X9X3X9X9X9X0X9X0X0X;X0X0X0XdX0XiXiXiXiXdX7XrXaXdXdXeXiXtXiXiX,X9XeX9XeXdXiXdX0X,XdX9XiX,XdXdX7XdX,X,X,X,X<X,X<X<X,X:X,X<X,X,X<X,X<X<X,X,X,X,X,X,X,X:X<X,X,X,X<X,X<X<X,X,X,X,X:X:XeX:X",
"-X-X:X:X-X=X:X:X:X:X=X=X=X+X=X+X+X+X).+X+X#X+X#X@X5X1X5X5X5X5X5X$X1X#X-X+X+X=XOX].:XoX].OX=X+X+X+X+X=X+X=X=XOX=XOX=X-X+X@X>X#X-X+X-X+X-X-X-X>X+X-X>X-X>X-X-X+X>X>X#X>X1X1X-X1X+X5X>X-X#X@X-X@X+X@X-X:X+X+X=X>X@X>X1X>X+X>X+X>X-X+X=X-X=X:X+X=X=X+X:X-X:X>X=X>X+X-X-X-X,X-X>X1X,X5X7X>X5X5X>X-X>X5X5X5X5X5X-X>X5X5X5X6XtX5XyXyX5X7X5XtX7X5XtX5X7X5X,XtX>X>X7XtX,X,X,X,X,X,X7X,X7X7X,XtX,X7XeX,X,X>XtX7X5X>X5XtX>X5XtX5X5XtX7XyXyXuXuXyXyXyXkXuX6XyXyXyXyXyXiXqXiXaXyXaXyXyXyXtXyXuXZXkX6X#XD._ _ W z = - = * 4 w 8 * * q g j j n J J G L Y W E } _ | X.r.r.r.t.r.U.U.I.E.m.W.W.W.W.D.F.F.F.t.F.S.r.r.0.r.0._ r.X.X.0.X.X.0.X.X.| X.+.X.| ..) X.0.r.P.@X>XiXZXpXyX+X+XOXL.D.z.r.0.w.0._ I C z V l 1 1 5 - 5 - ; + * ; + + + + + o O +   + + + + O ; + + + + + + + O + + + + $ + % + % O + O + + + $ $ + % + + $ $ > $ $ 8 * $ > 8 * * $ % @ + O + O O O O ; , c =.9XUXUXUXzXqXvXyXkXvXxXvXkXaXaXZXkXVXaXZXyXxXkXZXxXxXZXxXxXxXxXxXsXZXaXsXsXsXVXcXVXsXsXsXsXsXdXVXsXiXsXsXiXaXpXiXqXiXqXpXpXpXpXqXlXaXpXyXpXpXpXpXiXpX8XiXpXiXiXpXpXpXiXiXqXiXqXiXiXiXiX0X9X0XdX0X0X0X9X0X0X0X0X0XwX9XiX9XiXdXdXtXtXtXiXeX,XiX0X0XiX0X0X0X9X;X;X3X9X9X0X;X9X0X9X0XiX0XdXiXiXtXeX0XrXaXdXaXiXtXiXiXdXtX9XeX0XeX9X,XdX9X,XiX,XdX0XdXiX9X,X,X,X,X,X<X,X<X:X,X,X;X,X<X,X<X:X,X,X,X<X,X<X,X<X,X,X,X,X,X,X,X<X,X<X,X,X,XrX<XeX,X,X",
",X:X-X=X:X=X=X[.=X:X=X=X+X+X+X+XOXOX+X+X#X+X#X#X#X$X$X$X#X-X@X1X#X#X@X@X+X=X=X=X].:X=X=X=X+X=X=X:X+X+X+X=X+X=X=X=X=X=X>X-X-X>X-X>X>X-X>X-X@X-X>X>X>X+X-X+X-X+X-X-X>X#X>X>X-X@X-X@X1X5X>X1X-X-X+X@X=X+X+X+X-X-X-X-X>X-X>X>X-X+X-X=X>X-X@X-X-X-X+X-X-X=X-X=X-X>X=X=X=X:X-X:X>X,X5X5X>X5X>X>X5X5X5X,X6X5X5X5X5X7X5X5X5X>X7XtX7X7XyX7XtXtX5X7X7XtX>X7X5X5X7XtX5X7X5X,X,X9X,X,X,XdX,XeX7XdX7X,X7X7X7XtX5X7X>X7X7X5X7XyX5XyXtXyXyXtXyXuXyXuXkXkXuXkXuXyXyXyX8XiX7XiXyXdXaXyXyXyXtXuXtX6XuXuXuXuX@X| ) C l - 5 = 4 = w 8 , 8 d l j h G J H H J J L R E E _ X.&.%.r.%.t.%.m.t.t.D.W.W.W.W.D.W.W.F.F.t.t.r.0.r.r.r.r.X.0.r._ X.X.X.X...) E E E R I ) ) X.oXOXOXOX+XOXF.r.%.&.| ) ) E / T _ / / C l d l z z 1 - 1 - 1 = = + + + + o + o + +   O     O   + + + + + + : + + % + % + $ + % + @ + + X % + % O + + $ % % $ ; $ $ $ * $ ; 8 $ $ * * $ + @ O # # : O # # 9 s [ UXUXUXsXUXzXyXlXyXvXkXkXxXxXaXxXxXxXZXkXkXZXuXZXyXuXZXuXxXxXaXZXZXxXsXaXsXsXsXsXsXsXsXsXsXsXaXsXsXaXsXaXiXpXiXpXiXpXiXqXpXqXhXzXpXpXpXpXpXyXpXpXaXyXpXaXiXiXpXpXpXpXpXpXpXiXiXiXiXiXiX9XiX0X9X0X0X0XiX0X0X9X0X9X0XiX9X0X0XtXdXaXrXiXeXtXeX,XiXiX,XiX0X,X0X9X3X9X9X;X0X9X0X9X3X,X0X9X0XiXtXdXiXtXiXaXdXdXrXdXdXeXdXtXdXiX9XdX,XeX0X,X7XdX,XdX7XdX7XeX0X,XdX9X,X,X,X:X,X;X<X,X:X,X,X,X,X,X<X,X<X,X<X<X<X,X,X,X,X,X9X9X<X,X<X<X,X<XeX<XeX<X,X:X",
"-X:X:X:X=X=X].=X=X=X=X=X=X+X+X+X+X+X+X+X+X@X@X$X$X@X#X1X@X1X@X-X+X@X@X+X@XOXK.=X].].=XOX=X:X-X+X+X+X+X=X=X=X=X+X:X-X-X-X-X-X@X-X-X>X-X@X>X-X-X>X-X+X@X-X+X=X-X-X+X+X-X-X@X-X-X@X-X+X@X-X>X@X>X+X-X-X+X-X=X+X-X>X+X=X+X+X+X>X-X-X+X-X=X>X>X=X:X+X:X-X:X+X=X>X-X=X-X:X-X:X-X,X,X-X,X5X,X>X,X5X,X7X>X,X,X,X,X7X,X,X,X,X7X7X,XeX7X,X5XtX7X7XuX7X>XtX5X,X7X5XtX>X5XeX9X,X,X,XdX,X,XeX,X7X7X7X7XeXeX7X7X5X5XtX>XtXtX7XyX7XyX7X7XyXyXyX8XuXyXuXuXyXyXyXyXkXkXpX8XiXiXtXyXrXtXdXuXaXyXtXZXuXkXZXZXZXt.W C C 5 z = w 4 * ; 8 w k d k d h F n m J H J W E | | X.r.&.%.%.%.t.t.U.t.t.W.W.t.D.W.F.F.F.m.z.z.r.0.&.r.0._ 0.X._ X......._ ) ) E I I I / ) +.r.r.S.F.t.D./.D.h._ W J l N V G I P P I C l z z z - - - 5 1 - > ; + + + o + o o o X     O X o O   +   + + + + + + % O + $ $ O % + @ + + % + + % $ $ + $ + + $ $ $ 4 ; * $ * 8 * 8 > * $ + O O O O X O . & 8 d { GXGXsXsXpXzXyXyXlXvXxXxXxXxXvXxXvXZXxXZXyXZXkXyXZXZXaXZXkXaXxXaXxXsXsXaXsXsXsXsXsXsXsXdXsXsXsXsXsXsXiXiXsXpXpXiXpXiXiXpXpXsXsXsXwXzXpXpXyXpXaXpXpXpXpXiXpXpXpXpXiXpXsXiXiXqXiXiXiXiXiX0X,X0X9X9XdXiX,XiX0X0X0X9X0X9X0X0XdXtXtXaXuXeXeXtXtXiX,XiXiXiXdX0X9X0X0X;X3X;X9X;X;X,X9X,X9X,X0XiXiXiXiXiXdXtXdXdXtXdXuXdXeXeXiXeX9XdX0XdX7X0XeX,XdXdX9XiX9XdX,XdX9X,X,X,X,X,X<X,X:X<X<X,X,X,X,X,X;X,X<X,X,X:X,X<X:X<XdX,X9X,X,X,X,X:X,X,X,X,X,X,X:XeX",
"=X=X].<X:X=X=X:X=X:XOX+X+XOX).+X@X+X+X+X#X#X$X5X#X#X>X@X>X+X=X+X+X).OX+X=X=XOX=X=X=X=X=X:X-X>X-X-X>X+X>X-X-X:X=X=X-X>X>X-X>X-X-X-X+X-X-X-X+X-X+X-X>X-X=X+X:X+X+X).+X+X@X@X1X@X1X+X+X-X@X-X+X+X+X-X+X=X+X+X>X:X+X-X+X-X-X=X+X+X>X=X=X+X=X+X=X-X=X+X=X-X-X-X=X@X-X=X:X:X-X;X>X>X,X>X,X>X7X5X,X7X7X,X>X>X,X<X,X,X,X,X,X,X,X,X,X>X,XeX7XtX>X,X7X5X5X7X5X>X7X5X7X5X7X,X<XdXdX,X7XeX7XiXiX,XtX7XtX5X,X6XtX5XyX5X5X6XtX7XtXtXtXyXtXyXyXyXyXyXuXkXuXkX6XkXyXyXyXiX8XyXyXaXyXtXdXuXuXtXyXkXuXkXZXGXZXt.C C W z C e j e e e h c d i 0 q i a l l J J J R E } | X.&.r.%.%.r.t.U.t.t.t.D.W.t.W.F.F.W.F.F.z.r.0.r.0._ _ r._ X.X._ _ _ ) ) T I I P C J I ) 0.z.t.z.r.X.{ | } I m l l a d l F F J C C C m z m e z - 1 - 5 - - - + = + + o o o o   o       +   +   O   O   + + + O O + + $ % + + + @ + + % + + $ $ % + $ + $ + * ; * ; > 2 $ 6 * 8 * + + O . .   . : # . w g @.GXUXiXpX7XpXzXkXvXvXkXxXxXxXxXxXxXZXxXyXZXaXyXZXyXkXaXaXaXaXaXaXaXsXsXiXaXsXdXsXsXsXsXsXsXsXiXsXiXsXsXsXpXaXaXpXpXpXpXqXpXqXzXzXzXlXaXpXpXpXpXpXpXiXpXpXpXpXpXpXiXpXsXiXpX0XsXiXsXiXqX0X9X9X9X9XiXiXiXdX9X0X0X0X0X0X9X0XiXiXrXdXdXeXiXeXdXeXiXiXiX0X0X0X0X9X;X9X;X9X;X9X3X,X9X7X0X,X0XdXiXiXiXiXiXaXrXdXdXdXeX,XeXiXdXiX,X,XiX,XdXdX,X0X,X,X,XiXeXiX,X,X,X,X9X,X<X:X,X<X:X,X,X<X,X,X<X,X,X:X,X<X,X:X:X<X<X,X,X,X,XdXdX,X<X:X,X<X,X,X,X,X,X:X",
":X&X<X=X<X<X].*X].<X<X].:X-X-X+X+X#X+X#X@X-X-X1X@X-X>X@X:X-X=X+X+X-X+X-X+X=X=X=X].:X:X=X=X=X=X=X-X-X=X-X:X-X-X:X-X-X-X-X-X-X1X-X-X+X+X-X[.-X=X-X-X+X:X=X+X=X+X=X@X-X-X-X@X>X#X@X#X@X-X-X-X+X+X+X+X-X+X-X+X-X>X-X>X5X-X@X@X>X5X5X>X>X@X-X-X=X@X+X+X>X+X-X>X-X@X-X-X:X-X-X;X,X,X,X,X5X,X,X7X,X,X,X;X,X,X:X,X,X,X,X>X,X,X,X-X,X,X,X,X,X,X,X,X,X5X5X7X5X5X7X,XtXeX7XeXdX,XiX,X,XtX7XtX7XuX6XtXuX6X7XtXtX5XyXtX6XtX5XyXtXyXtXyX7XuX7XuX6XyXuX8XuXyXyXuXyXlXyXyXuXaXaXtXiXtX,XtXtXyXuXyXuXkXZXZXkXt.C C C z W z z a g H K H x t t q k d j n J J I R T } | X.%.r.r.r.t.t.t.x.x.m.n.D.D.W.D.L.L.F.F.z.t.r.r.r.+.X.+...| | } _ ) E E W I J I J I E _ X.r.&._ | I I C d e e e w q q q p f F n n m l z z e < < > > > > + > + X   X O + O O     O O   O       O O O O O O + @ + % $ + $ o $ + % + + $ $ + o + + + ; + > + $ + * 8 2 $ $ 8 2 $ % * @ & 6 & : . . . : s L k.sXUXsXwXqXpXqXlXkXkXkXkXaXxXxXxXcXkXZXkXkXZXaXxXZXaXZXaXaXxXaXaXaXsXsXsXsXaXsXsXsXsXsXsXsXsXiXsXiXsXsXaXaXiXsXiXaXsXwXsXsX0XsXzXzX0XsXsXsXsX0X0XsX0XsX0XsXsX9X0XsXiXsX0XiXiXsX0XiX0X0XiXiX9XtX,XiXiX,XiXiXiX,XtX9XiXiXeXiXaXrXyXdXiX,XdX7X,XtX7X0X0X0X9X3X9X;X9X;X;X3X9X;X9X;X0X9X0X9XeX,XdX,X,XdXeXeXdXrXtXtXiXdX7XeXdXiX9X,X9X,X,X,XdX,X,XiX9X7X<X9X;X;X<X;X;X<X<X,X<X<X-X<X<X;X,X,X;X,X;X<X,X<X;X;X<X;X<X9X<X9X9X<X,X,X,X,X<X<X,X,X<X,X:X",
":X].<X&X*X<X<X<X].<X<X<X=X=X-X+X@X+X+X+X+X1X-X-X>X-X>X-X-X-X=X-X@X@X-X+X=X+X=X=X].=X].=XOX:X:X+X=X:X-X:X-X-X-X:X-X-X-X-X-X-X-X@X-X-X-X+X+X-X-X=X=X=X=X=X-X:X-X=X=X+X@X-X-X#X1X#X#X>X#X@X-X+X=X+X-X@X-X+X-X@X#X>X@X>X1X>X5X#X>X>X@X-X-X-X+X+X-X+X+X+X+X>X+X>X-X>X=X-X:X;X;X:X,X5X-X,X,X5X,X5X7X,X,X:X,X,X:X:X,X-X,X;X:X>X,X,X:X,X,X<X,X:X,X,X5X7X>X7XeX5X,X7X7X7X9X,X,XdX,XiX,XtX7XtX7X7X6X7XuXyX6XtXyX5XyX5X5XyXyXyXyX5X5XyXyX7X6XyXuX7X8XyXyXyX8XiXaXyXyXyXyXuXtXtXtXyX7XyXuXyXuXyXkXZXZXZXt._ C W W &.E E Y Q ~ } Q K n d q w i a l H K L Y T [ } | +.r.%.r.t.t.t.t.x.m.D.D.D.D.D.D.D.F.z.S.r.r.&.r.r.%.+.| ..} ) ) ) I I I I I I C I I ) &.r...) E C C d 5 * * = $ $ $ > 9 9 d j g l m z a e - > > < - + > +   O   O   + O O X       O   O   O   O % + X + + + % + + $ + $ + o X + + $ + $ + + + + + + + $ + $ $ 8 4 8 8 8 * % % ; 8 # 8 . # . . . : m @.].GXsXsXpXsX8X8XlXxXkXlXkXaXyXaXaXxXZXxXZXaXZXaXaXxXaXxXaXaXsXaXaXaXsXsXsXsXsXsXsXaXsXsXsXaXsXsXsXiXsXsXsXsXsXiXpXiXwXsXsXwXzXsXzXzXsXsXsX9XsXsXsX9XsXsXsX9XiXsXsX9XiXqX9XiX0XiXiXsXsX0XiX0XdX0XiX,XiXiXiXeXiXiXdXtXtXiXdXiXdXdXdXtXeXdX7XeXiXtXiX7X7X7X0X9X9X9X;X;X;X9X,X3X;X0X9X,X,X0X9X9X9XdXdX,XeXtXdXuXtXdXtXdXdXeX,XiX0XdX,X9X,X0X,X9XdX,X,X9X,X,X9X;X9X;X;X;X;X,X;X;X<X,X;X<X:X;X;X<X;X,X,X;X;X;X<X;X<X;X;X;X;X;X,X<X,X,X,X<X:X,X<X>X:X",
"].&X].&X].&X<X].<X*X].].=X-X=X-X@X-X-X+X-X@X>X@X-X>X-X>X,X>X-X-X>X-X-X-X=X=X=X=XOXOX:XOX=X-X+X=X=X-X=X-X:X:X-X-X-X-X>X-X-X-X-X-X-X-X-X=X:X+X+X>X:X+X=X+X=X=X:X=X>X-X+X-X-X-X@X1X-X#X@X-X+X-X+X=X-X@X-X@X-X@X>X1X+X1X5X5X5X>X5X-X1X-X5X@X+X>X@X+X=X>X+X+X@X>X5X-X-X:X:X,X>X,X>X,X,X;X,X,X,X,X,X,X:X,X,X,X,X,X,X,X-X,X,X,X,X,X,X,X,X<X,X,X,X,X,X5X,X5XtX>XtX,XtXeX,X,X9X7X,XeX7XtXtX5XyX5XyX5XuX6XuX7X5XtX6XtXtX6XtXuX7XyXyX7X5X5X7X5X5XyXyXyXyXyXyXyXyXaXyXyXyXyXyXtXyXtXyXyXuXyX5XuXkXZXZXkXt._ z C l W J W J [ @. .{ Q J N k w e k h H J Y T T ) [ { +.X.r.&.&.r.r.t.m.m.b.D.D.D.D.F.D.F.m.t.t.r.r.r.+.X.X...| ) ) ) I E I I I I / I I E ) &.X.| E E C V k w *   o o X O O ; : ; 9 t d u e 5 e 1 < > - + + + + O   X   O + O X       .     O     O X O O + X X o % + + + $ o + % + + + + $ + % + + + ; + ; $ $ $ 8 8 8 2 8 8 $ * $ @ # X % O #   O + , @.A.9XUXzXsXpXwXpXlXaXvXxXyXlXyXaXaXaXsXaXaXuXZXuXkXxXxXaXZXxXaXVXaXaXaXaXaXaXsXaXsXaXaXaXsXpXaXaXaXaXaXaXsXaXiXaXiXsXiX9XsXsXsXsXsXsXsXsXsXsXsXsX9XsXsXsX0XsXsXsX0XsXsXiXwXwXiX0X0XiXiX9X0XiXdXiX,XdX7X0XeXtXiX,XiXtXiXdXtXdXdXdXtXeXtXdX,X,XiX7XiX7XiX7XiXwX3X3X;X;X9X;X;X9X9X;X9X,X0X9X,XdX,X,XdX9X9XeXeXdXdXdXuXdXdXeXdXdX9XeXdX,X,X,X,X,X,X,XiX9X,X9X;X;X;X;X;X<X;X,X;X;X;X;X<X;X,X<X,X<X,X<X,X,X<X;X;X;X<X;X;X<X<X<X<X<X,X<X<X:X:X:X<X:X:X:X",
"=X<X].<X<X&X].&X<X<X<X<X:X=X-X=X+X>X+X+X+X-X-X5X>X-X5X5X5X>X>X5X5X>X1X@X:X+X=XOX:X=X=X=X+X=X+X:X-X:X;X:X-X-X-X:X>X@X-X>X1X-X-X-X-X+X+X-X+X-X+X-X+X=X-X=X=X-X-X=X+X>X-X@X#X-X@X@X#X-X@X+X@X-X-X@X@X-X@X-X-X>X>X1X+X-X-X-X5X-X>X+X>X@X-X-X+X-X-X-X+X+X+X-X-X-X-X@X-X:X-X-X>X;X,X-X-X,X,X5X5X,X,X5X,X>X-X,X,X-X>X,X:X,X:X;X:X,X,X>X<X,X,X,X7X,X5X7X5X7X5X7X5XtX7X,X9XdX,XdXiX,XtX7X7XtX5XyX6XyX6XyX7X7XuX7XtX5XtXtX7XyXyX7X5X5X7XuX5X5XtX5X7XuXyX8XyXyXyXyXyXkXyXyXyXyXyXyXyXyXkXkX6XuX6XvXbXgXt.&._ _ l l l W L | ~ } } [ Y H j 5 w e j H G Y R E } [ { | &.r.r.r.%.%.%.t.z.F.D.D.D.F.F.F.F.t.t.r.r.&.&.O.X.X.} } ) ) E I / I I I I / I I W ) X..._ W I k j 5 = o   X O @ O # # ; 9 e i j z e z e 5 * > > > + + + +       O   O X     .   O . X   O   O O X O O O X + o + o o $ o + X % + % + = $ + + + + + + $ + > $ $ $ 8 8 8 4 w w O % # # ; : & . ; r M.<XsXsXsXsXpXpXyXlXlXxXxXvXxXaXaXxXaXxXZXxXxXkXkXVXxXaXaXaXaXaXdXaXaXiXaXaXaXaXaXsXiXaXaXpXpXaXaXsXsXaXaXaXaXsXaXaXsXpXsXsXwXwXwXsXsXsX9XsX0XsXsXsXsX9XsXsXsX9XsXsX9XsXiXiX9X9X9X0X0X0X0XdXiXiXiXiXeXiXiXtXdXiXiXeXeXeXtXdXaXuXtXdXtXtXdXiX0XeX,XiX0X7X0X7X9X9X;X9X9X;X;X,X;X;X3X;X9X,X,X<X9X9XdX0XdX0XiXeXtXdXdXdXdXtXiXiX,XtX,X,X,X,X,X,X,X,X<X,X,X<X<X,X;X9X;X;X<X;X<X;X<X;X<X,X,X;X;X<X;X;X;X,X,X<X9X;X<X;X;X;X;X<X<X;X<X,X:X;X:X=X:X:X<X:X:X",
"&X=XOX:X:X:X:X].].<X=X=X=X=X=X:X=X+X-X+X-X-X-X5X-X5X5X>X5X5X5X>X5X1X5X@X-X-X-X=X+X=X:X=X=X>X-X=X-X,X:X:X>X-X>X-X-X>X>X-X@X-X-X@X+X>X>X+X-X:X+X-X=X-X:X>X:X-X-X-X+X>X>X-X>X-X@X-X>X+X@X-X=X+X-X+X-X-X-X>X1X>X>X>X>X-X+X-X-X-X>X>X-X-X>X@X-X-X=X+X=X+X=X+X-X>X@X-X>X-X-X,X-X>X>X-X>X>X>X1X,X,X,X-X-X-X,X,X,X-X,X,X-X,X,X-X>X,X5X,X,X,X>X,X>X>X7X5X5XtX5X5X7XeX0X,X9XeX,XeX7XiX7XtX5XyX7X7XyX5XuX6X8XyXtXuX7X7XyX5XyXtX5XtXtXuX5X7X5X7XyX7XtXyXyXyXyXyXyXkXkXaXyXkXyXyXuXkXyXuXkXuXuX1X6X8XvXuXt.t.W W e e a l m L ~ @.} ~ T J N k d j V G Y Y R ) } } | X.X.%.O.%.%.%.r.x.m.z.D.D.D.F.F.m.t.t.t.r.r.r.X.X.X.{ } ) E T Y I I G I G I I I ) ) ) _ _ _ E E z e e 4 % o o % + O O $ ; ; 8 w e 0 e e w < > < = - + + + X     X O   X   .         X   X   X O X O   O O o + X + + + o o o + X o + + $ + + + + ; + + $ $ 8 4 $ > 8 8 8 4 % $ % ; ; .   & . O 8 f J.iXUXUXsXhXhXpXzXzXxXcXcXxXxXxXaXaXxXaXaXxXaXaXaXaXaXaXaXaXaXaXaXuXaXaXaXyXaXaXaXaXpXaXaXaXaXaXaXaXlXaXaXaXaXaXaXaXpXpXsXsXwXsXwXsXsXsXsXsXsXsX9XsXsXsX9XsXsX9X0XsXiXsX9X9X9X9X3X0X9X0XiXiXdXiXiXiXtX9XiXeX0X,XtX9XdXtXtXdXtXdXtXdXeXeX,X9XtX,XiX7XiXiX7X7X0X7X3X;X;X9X;X;X;X,X;X9X;X9X9X7XdX0X0XdXdXdXdXaXdXuXrXdXeXtXdXtX,X9X9X,X,X,X,X<X<X,X,X,X,X;X;X;X;X;X;X;X<X;X<X;X:X:X;X<X;X,X<X;X<X,X,X;X,X;X;X;X<X;X}.<X<X;X;X<X<X<X:X<X=X=X:X:X<X:X<X",
"=X<X:X:X:X:X=X:X&X:X<X<X=X:X=X=X-X=X=X:X-X-X>X-X1X>X5X>X>X5X5X5X5X@X-X5X+X-X+X=X=X=X+X+X>X+X@X-X:X-X-X-X>X:X-X>X-X5X5X>X>X5X1X@X>X+X+X-X-X+X-X>X+X=X+X=X-X-X:X>X>X-X-X-X+X@X-X+X+X+X-X+X@X+X>X-X-X-X1X>X>X>X-X5X>X+X=X+X+X+X-X-X@X>X-X-X-X+X@X=X+X-X+X>X-X-X>X-X-X:X:X-X>X-X>X:X,X-X>X,X>X>X>X,X,X,X,X>X>X,X,X-X,X-X:X,X;X,X;X,X:X,X,X,X,X7XeX5X5XtX7XtX7X7XtXtXtX9XiXiXiX,XtX7XtX7XuX7X5XyX7XtXtX5X6XtX7XuX5XyXtXyXyX7XyX7X7XyXtXtXtXyXyXtXyXyXpXyXyXyXkXyXkXuXyXyXkXkXkXkXkXuX8X8XuX8XkXkX$Xt.&.W l z z m L E ~ @.{ { } T I V C C I I R I R T [ } { X.+.&.+.%.%.%.$.r.h.m.z.m.m.z.m.m.t.t.r.t.r.&.&.X.| _ ) E T R Y I I I G J C / I I ) E _ _ ) I I e 5 = o & X X X X O # ; 8 t i a d d a a e < > > = + + : + +     X   O O       &         X X   X O X O X X X X o o % % X + o @ o + % % + % + ; + + ; + + $ $ $ $ 2 8 $ 4 6 k q g k q # . X O 8 c [ 9XUXUXzXsXsXsXhXqXlXvXzXcXvXxXlXlXxXaXxXxXaXaXaXxXaXaXaXaXaXaXaXxXVXaXaXaXpXaXaXaXpXaXpXyXaXaXaXaXaXaXaXlXaXlXaXpXsXsXsX9XsXsX9XsXsX9XsXsX9XsX9XsX0X9XsXsX9XsXsXsX0XiXiXwX9X9X0X9X9X0X9X0XiXiXiXiXeXtXiX0XeXeXiXeX7XeXeXtXrXdXeXtXrXeXtXiXeX,XiX7XeX7X7XiX7X0X,X9X9X9X;X;X;X;X;X,X;X,X,X,X9X9XdX9XiXdXdXrXrXdXdXtXtXeXdXiXdXdX,X,X<XdX,X,X,X,X,X,X<X<X;X}.<X<X<X;X<X}.<X;X;X;X<X<X;X,X,X;X,X<X;X;X,X,X;X9X[.;X<X<X<X[.;X;X<X:X=X=X=X:X<X:X:X:X<X:X",
":X>X:X:X:X:X=X=X<X=X<X=X=X<X:X:X=X=X-X=X:X-X-X:X>X>X5X5X5X5X5X5X#X@X1X-X>X@X-X-X>X+X=X-X-X@X-X=X:X-X-X:X-X,X5X;X>X>X5X5X@X@X-X-X@X-X>X+X+X@X@X>X+X-X:X-X-X:X:X-X-X>X-X@X=X-X+X-X+X=X=X+X-X-X+X>X-X-X>X>X>X5X-X5X1X>X>X-X-X-X-X-X-X-X>X-X-X+X=X+X>X+X-X+X-X@X1X>X-X-X-X-X-X-X-X:X-X-X,X>X5X>X-X-X>X,X-X5X,X>X1X>X-X>X-X,X>X>X,X,X,X,X,X,X,X,X5X5X5X5X7X7XeX7X,XiX,XiX7X,XiX7XtX7X5XtX7XuXyX7XyX6X6XtXtX5X7X7X7X7X6XtXtXyXyXtXyXtXyXiXiXyXiXyXyXyXyXyXyXyXkXkXyXkX6XuXkXuXfXkX6X6XkX8XkX6XkXgXkX$X%.| W m l m L L ~ {  . .{ ) I I I I I / I I I T T [ { | | X. .o.%.r.$.h.h.x.z.m.m.F.m.F.t.t.t.&.r.&.X.X..._ ) T / R P G G G G I I I I / W ) _ _ _ ) ) l 5 4 % % @ % @ @ # 6 9 t h d i k e e e e > > > + + ; : + + O O O   + O X       &       X   O   X O X X O X   X + + o % X + o + X o + + + + + + + + ; + = $ $ $ 8 2 $ $ 8 k k G d q $ + > v G  .J.UXUXsXsXzXzXqXsXzXzXzXzXcXxXlXaXaXaXaXxXaXaXaXaXaXaXaXaXaXaXaXaXaXpXaXaXaXlXyXaXaXyXaXaXlXaXaXxXaXyXaXyXxXlXxXaXaXzXpXsXsXsXUX9X9X9XsX9XwXsX9XsX9XsXsX0X9XsX9X9XiXiXiXiX9X0X9X9X3X9X0X0XiXiXiXiXiXeXdXtX7XiXtXiX0XeXeXtXtXeXtXtXtXeXeXeXiXeXiX,X7XiX0X7X0X7X7X7X9X;X;X;X;X;X;X;X;X;X;X<X9X9X,XdX9XdXdX,XtXeXtXdXtXdXiXdXiX,XeX,X,X,X,X,XdX,X,X,X,X<X:X<X<X<X<X;X<X;X;X<X<X:X<X;X,X;X<X,X,X<X,X;X<X;X,X;X[.;X}.<X}.}.9X<X<X-X;X=X:X=X:X=X:X,X<X:X:X",
":X>X>X>X:XrX:X:X:X:X=X<X<X<X=X:X:X=X:X=X-X:X,X-X5X,X5X5X1X>X1X>X>X#X-X@X@X-X+X-X+X-X+X>X-X-X-X>X-X-X,X;X>X-X>X-X5X>X>X>X5X>X>X@X@X>X@X+X>X+X>X-X=X-X-X-X:X-X-X>X>X-X-X>X+X-X+XOX-X+X+X:X+X-X-X:X>X-X>X5X5X>X5X>X>X>X5X>X>X:X@X-X-X>X-X@X+X-X-X+X+X=X-X+X-X>X-X-X:X-X:X>X-X:X>X:X-X:X>X-X,X-X,X>X-X>X-X,X-X>X,X,X>X,X-X>X,X5X-X-X,X>X>X7X5X5X7X5XtX5X7XtX7XtXtX7XiX,XdXtX,XdX7XtXyX7X7X7X7XuX7X7XtX5X6XtX7XuXuX7XtXyXyXtXyXyXyXyXiXaXiXiXiXyXyXyXyXyXyXyXyXkXkXuX6XkXkXkXuXfXuXfXfX8XkX1XfX$X$X$X:.| E L J J R L } @.| } ) ) E C I I I I I I I R T [ { { } } | +.r.%.r.h.t.z.t.x.m.F.t.t.D.t.r.r.&.r.&.X.| ) I R R Y Y P P I G P I / I / ) ) _ _ _ ) ) V k 4 = = * $ $ $ 8 w d c H F h a z j e e > > > > > + + + + O +   O O X           &     . X   O X X O O X X o o o X X + o + o X o X o + + + + + ; + + + + ; $ $ 4 $ $ $ 8 h F +.[ [ R H R o.r.G.9XiXiXsXUXzXsXzXzXzXzXaXcXzXxXaXaXaXpXaXpXZXaXxXaXaXaXaXaXyXaXaXaXaXaXaXaXlXaXxXaXxXlXaXaXaXlXaXyXaXlXaXyXxXaXlXaXxXaXxXsX9XsXwXsX9XsXsX0X9X9XsX9XsX0X9X9XsX0X9XsX9XiXiXiX9XwX0X9X9X0X9X0XiXiXiXiXiXiXiX0XdXtX9X,XiX,XiXeXeXeXeXeXeXeXeXeXeX9XeXiXtXiX7XiX7X0X3X9X;X3X9X9X;X;X;X;X;X;X,X9X,X,X9X9X9X<X9X<XeXeXtXrXdXdXtXiXeXdX,X9X,X,XdX9XdX,X9X,X,X<X<X-X<X<X<X}.;X<X<X;X;X<X;X;X,X<X,X<X,X<X,X,X,X;X<X<X<X<X<X[.<X<X<X<X,X<X:X<X=X<X=X<X<X<X:X:X<X",
"@X>X@XrX>X>X>X:X=X:X=X=X].:XoX<X].:X].].:X:X=X-X-X>X>X5X5X#X1X@X1X@X>X1X+X-X+X-X+X+X>X-X>X@X-X=X:X-X:X=X-X-X>X:X>X>X@X>X@X-X@X@X@X@X>X%X@X>X@X+X+X+XOX+X+X=X-X>X-X-X+X=XOX-XOX=X-X=X-X+X>X+X=X+X+X-X-X,X>X-X-X-X,X-X-X:X-X-X-X-X:X-X>X=X-X=X-XOX=X>X=X>X-X:X-X>X-X>X-X-X>X+X-X+X-X-X-X-X-X5X5X>X5X,X5X>X5X5X>X5X5X>X5X-X5X,X5X,X5X5X,X>X5X5X5X7X>X5X,X7X7XtXiXiXeXiX7XiXiX7XtXtXiX7XyXtX7X7XyXuX7XuXtX7X5XtXtX7XtX7XtXtX7XtXtXyXiXiXiXtXtX7XyX7XyXyXyXyXyX6XyX8X6X6XkXkXkXkX8XuX8XyX8X7X3X3X3X2XH.x.| E L ~ ~ L } { { | X.) E C C I I I I I P I / T } } ) } X.| o.&.%.%.r.t.t.t.t.t.t.t.t.r.%.r.r._ X.X._ ) E R R I U G P I P I / I / ) _ _ _ _ _ X.) C j k 4 4 $ $ 4 w d V Y / [ [ R n d e e w < < > , ; ; > ; + + + O O   X O     O     O     O   O X O   . O o X o X o X     o X o X o o + % + + + + = + $ ; * ; 8 * $ O $ w G { =X}.;XN.].P.9X0XqXUXUXUXsXUXzXzXzXzXpXpXsXsXcXpXsXaXaXxXcXcXcXsXVXsXaXsXaXaXaXaXpXaXaXaXlXxXaXaXxXaXaXaXaXxXaXaXxXaXxXaXxXlXyXkXaXxXlXaXaXiXiXiXqX0X9X0X0XsXsX9XsX9X9XsX9XsXiXiX0XiX0XiX9XiX0X0X0X0X0X0XiX0XiXiXiXiXiX9XiXeX9XeX7X,X7XeXeX,XtXeXeXeX,XeXeXeXdX7X,XiXiXiX7X7X7X7X9X;X,X9X;X;X;X;X;X;X;X0X,X0X,X9X,X9XdX,X9X9XeXeXdXtXtXaXdXaXdXeX9X,X,XeX,X,X9X,XeX,X,X<X=X;X<X[.<X}.<X;X<X;X:X<X;X;X,X,X;X,X;X<X;X,X;X,X<X<X<X<X<X<X;X;X;X;X<X;X<X=X=X=X=X<X:X:X:X<X:X",
">X>X>XuXrX>X-X>X:X=XOX=X:X].<X].].<X:X=X=X=X:X-X>X-X5X5X>X5X-X+X-X-X@X@X1X@X-X@X+X+X+X-X>X-X-X=X-X<X-X;X-X:X>X-X@X>X>X@X:X>X%X>X>X@X@X5X>X@X@X+X:X+X+X=X+X-X=X>X>X-X=X+X=X=X-X=X+X=X=X:X=X+X=X-X=X-X>X-X-X>X-X:X-X>X:X-X-X:X:X-X+X-X=X-X=X-X=X=X=X+X+X=X+X=X+X=X+X-X+X>X>X-X=X+X+X@X>X>X>X-X>X5X>X5X-X>X-X>X1X>X>X5X>X5X>X5X>X5X>X,X;X5X>X5X5X5X5X5X7X5X7XeX,XiX7XdX7XiXiXtXtX7XyXyX7XyXuXtX5X7X7XtX7XyXtXyX7XyX5XyX7XyX7XyX7XtXyXiX7XiXtXiXtXtXyXyXyXyXyXkXyXuXuXuX6XuXuXkX8X6XyX8X8X5X2X7X7XwX{.J.,.| W E ~ ^ | { | | _ ) I I C P P C P C G I ) [ } { ) _ | | X.X.X.%.r.t.t.r.t.&.r.t.r.r.r.&.r.r._ _ ) ) ) R / Y I U I U I R / I / / .._ X.X.X.X.| I V j e k j $ & $ I O.>.O.+.@.E H l j a i , , > , > : ; + + O + O   O X   .   .     . O     O X X X X X X o o O o   o X X o X   o o o X + + + + + + + $ * $ * 2 8 % @ $ 8 c =.GXAXsXGXGXGXGXGXGXGXUXzXsXwXzXzXsXzXzXzXsXzXsXcXxXaXxXaXxXaXsXcXcXxXsXaXxXzXaXaXaXaXaXaXxXVXyXxXxXyXaXpXyXxXaXlXxXyXpXxXaXaXxXaXxXaXyXaXiXpXqXiX0X0X9X0XiXiX9XsXsX0X0XsXsX9X0XdXiX0XiX0X9XsX0X9X0X0X9X0X0XiXiXiXiXdX9XiXtX9XtX,XdXiXdX0XeXeX,XeXeXeXeXeXtXeXiXdXiXeXtX0X7X7X7X5X;X7X;X;X9X;X;X;X;X;X;X;X,X9X9X,X9X9X9X,X9XeXeXeXdXtXdXiXdXiXrXeX,XeX,X,X,X,X,XdX,X<X<X<X<X<X[.<X<X<X;X<X}.;X;X<X;X<X;X<X,X;X<X;X;X<X,X<X,X;X}.}.<X[.[.<X<X<X;X<X;X=X:X=X:X<X:X:X:X<X:X",
"rX>X>X>X@X>X-X>X:X=X=X=X<X=X=X<X=X=X=X=X:X=X:X:X-X5X>X5X5X-X#X@X-X@X-X-X@X-X@X-X=X-X>X-X>X>X-X=X=X-X-X:X-X-X:X:X>X@X@X>X@X@X@X@X@X@X5X5X>X@X@X@X:X+XOX=XOX-X+X-X-X:X:X-X-X=X:X=X+X=X=X=X=X=X-X=X+X:X-X>X,X-X-X:X>X-X-X>X>X-X:X-X=X>X=X>X>X+X=X-X-X=X-X:X+X=X=X+X+X:X+X-X-X-X+X+X-X-X-X-X-X5X>X>X1X5X>X5X5X>X,X5X5X>X>X5X5X5X5X>X5X>X>X1X5X5X5X7X5X5X>XtX7XtXtX0XdX7XiXtX7XiX7XeXyXtXtXtXtX6X7XuXyX7X7XtX7XtX5XtXtXtX7X5X5XtXtX7XtXeXtXtX7X,XyX7XyXyXyXaXyXyXyX7X6XkXfXkXfXuX7X8X8XyX6X5X7X8XiXqX8X5X~.$.^ ~ ^ | | ^ | | _ ) I I V C V N z N N V ) { | } _ X._ _ X.&.&.&.r.&.r.r.t.r.r.r.r.r.r.O._ &._ ) E ) T R R I U I Y Y Y I ) I ) _ _ ..X.X.| X._ ) T Y I I P / X.+.@.{ X.0.| { T V i e q w 8 9 : , > ; ; ; + + +   O O X X   O   O   O   O   X X .   X X O + X o X X X X o o   X o X X o o   + X + + : $ $ > $ 8 $ % X $ 8 K N.IXUXiXsXGXGXUXzXsXsXpXsXpXsXzXzXhXsXsXsXzXsXcXsXaXaXaXxXcXsXcXsXsXsXVXsXaXVXVXzXVXzXaXaXxXaXlXiXaXaXpXaXpXaXaXpXaXaXpXaXaXaXaXlXaXaXaXpXiXiX0X0X9X0X9X0XiXqXsXsX9X9X9XsX9X9X0XiX9XiXiX9XiXiX9X0X0X9X0XiX9XiX0X0XiXiX0XdX,XiXeXiXiX,XiXiXeXtXtXeXeXeXeXuXeXeXdXdX7XiXiX7X,X7X5X,X,X3X3X;X9X9X;X;X;X;X;X;X9X<X,X9X,XdX9XdXdX9XeXeXrXiXeXdXeXeXeX,X,XdX,X<X,X,X,X,X,X-X<X:X=X=X;X[.<X[.}.<X<X;X<X;X<X<X;X;X;X;X<X;X<X,X;X<X;X;X<X<X[.;X<X[.<X<X:X:X;X:X<X:X<X<X:X<X:X<XeX",
">X>X>X>X5X>X>X>X=X+X+X=X].].=X<X=X=X=X=X=X:X:X-X-X:X>X#X5X>X>X-X-X-X-X-X@X-X-X-X@X-X+X>X-X=X-X:X;X-X:X-X:X-X:X>X>X@X:X>X%X@X@X@X%X@X5X%X>X@X>X>X+X@X+X+X-XOX-X-X>X-X>X=X=X:X:X=X:X=X:X-X-X-X=X-X:X-X>X:X>X>X-X:X-X,X>X>X>X-X-X,X>X-X-X>X-X>X:X-X:X+X=X+X=X=XOXOX-X+X>X>X+X>X>X-X-X>X>X-X5X,X5X>X5X>X5X-X>X1X>X5X>X1X5X5X1X>X>X5X-X5X>X>X>X>X5X5XuX5X7X5X7XtX,XeX7XtX9XtXtXtXiXtX7X7XyX7XtX5X7X7XuX7X7X7XuX7XtX7X7X5X>XtX7X7X5XtX7XtX7X,XtX7XtX7XyXyXyXyXyXyXyXyX6XuXuXkXyX6XuX6XyX8X7X6X7X8XpXaXpXpX-Xn.;.| } | | | | } ) E I H N V k k j k N J [ X...) X.X._ r.X.X.&.%.&.&.&.r.%.&.r.r.r.&.X.%.r._ _ _ ) E / / / R R R Y Y T / / ) ) ..X.X.X.X.X.X.X.r.z.z.S.L.:XG.z.g.z.z.*.@.@.{ R F a k q w 9 , , , , ; ; : : + + +             O     . O   O   O   O X X     o X o o X o X X o X X o X   X O + + + + + $ $ $ $ 2 * + @ $ 2 ! 1.PXAXsXsX,XpXpXsXqXpXqXqXpXpXzXpXsXzXsXzXzXsXsXsXsXcXxXsXxXxXcXVXcXsXzXcXcXsXsXcXaXaXaXxXaXaXaXaXaXyXaXpXaXpXaXaXaXaXaXaXpXsXaXaXyXaXaXpXpX7XiXiXqX0X9XsX0XiX9XsXsX9X9X0X0X9X0XiXiX0X0XiX0X0X9X0X0X0X9X0XiX0XsX0XiXiXtXtXiX,X0XeXiXiXiXtXiXiXdXtXiXeXeXeXtXeXtX9XiX,X,X5X,X,X,X3X;X;X;X9X9X;X;X;X;X;X;X,X<X;X<X,X,X<X,X9X,X,XeXtXrXdXeXeXeX,XeX,X<X,X,X,X:X<X<X,X;X<X<X:X=X=X<X<X[.<X<X<X;X<X;X<X-X<X:X<X:X<X;X:X;X;X,X<X<X;X;X<X<X;X[.<X=X=X;X<X:X<X:X;X:X;X<X<X,X,X:X",
">X>XuXrX%X5X>X@X+X=X+X=X:X=X:X:X=X:X=X;X-X:X-X:X>X-X>X>X-X5X-X-X>X-X:X1X-X+X>X@X-X-X-X-X-X=X:X:X-X;X=X;X-X=X@X>X@X@X@X:X>X@X%X>X@XuX@XuX%X5X@X@X@X=X+X+X=X+X+X-X=X-X-X>X=X:X=X<X:X=X:X=X=X-X-X=X:X-X:X-X,X-X,X>X>X,X-X-X;X:X,X-X:X-X,X-X,X:X-X=X:X-X=X-XOXOXOXOX-X+X@X-X-X@X-X@X>X5X-X5X5X5X5X7X5X>X@X5X5X5X5X5X1X>X5X>X5X5X5X5X5X>X1X>X5X1X5X5X5X7X5XtX,XtX,XiX7XtXtXtX7XiXtX7XtX7XtX5X7X7XtX5X7XeX7XtXtXtX7XtX7X5X,X7X,X7XeX7X7XtXyXyXtXtX7XyXyXiXyXyXyXyXtXyXuXkX6XyX6XtXtXtXyXyXtXtXyXyXyXyXyXxXyX+XC.$. .| | | } ^ E R J C k V d k d k N P [ X.X...X.X.0.&.&.&.&.&.&.&.r.&.&.r.r.0.&.0.O.X.X.X.{ [ ) ) R Y R R R I T I ) / ) ) ...._ X.X._ X.X.0.r.S.F.L.rX:XL.S.0.+.+.O.O.{ [ Y H j i w 9 : , : , : , ; : + + O O     X     O     O     O   X X   O X X X o o X o X + X + o X +   X o X X + +   + + + $ $ $ $ 2 * $ $ * 8 U *.PXUXiXGX0XpXpXpXiXlXpXpXzXzXzXzXzXsXpXsXsXsXsXsXsXsXcXcXaXaXVXsXsXVXsXaXsXVXcXcXcXsXxXaXaXaXpXpXaXiXaXaXiXaXpXaXaXpXsXiXaXiXaXpXiXaXiXaXiXiX7XiX0XiX0XpXiX0X0XsXiX0X9XsX0X9X0X0XiXiX0XiX0X0X0X9X0X9X0X0X9XiXiXiXiXiXdX0X,XtXiX9XiXiXiXiXtXiXiXiXiXdXeXeXeX,XdXiXiXtX,X7X,X-X,X;X;X;X;X;X9X9X9X;X;X;X;X;X,X,X,X,X,X9X,X9XdXdXrXeXeXrX,XeXeX,X,X,X,X<X,X<X<X,X<X<X:X;X:X=X;X;X<X}.].<X<X<X<X<X<X;X<X;X;X<X=X;X<X<X;X;X;X<X<X<X}.<X}.<X[.<X<X;X=X;X:X;X;X:X<X-X<X<X:X,X<X",
">X>X>X>X>X>X@X-X@X+X+X=X=X:X=X:X-X:X:X=X<X=X:X-X-X>X>X1X>X>X>X-X:X-X-X:X>X-X+X-X>X-X:X-X:X:X-X=X=X;X-X=X>X>X>X>X>X>XrX@X%X@X>X%X@XuXuX$XuX@XuX@X-X@X+X-X+X=X=X{.=X+X=X>X:X:X=X<X=X=X=X=X=X:X:X-X;X:X-X,X-X,X-X,X;X,X,X,X,X,X-X>X-X:X:X,X-X,X:X-X-X=X>X=X=X=XK.=X=X+X-X+X+X>X1X-X5X@X>X5X5X5X7X5X5X5X1X5X1X>X5X>X5X5X5X5X5X-X5X5X1X5X>X>X5X>X>X5X7X5X6X,XtX,XtX,XtX,XeX7XtX7X7X7X>X7X7XtX7XuX7X5X,X7X7X,X,X5X,X7XeXeX7X>XeX5X7XtXtX7X7XtX7XyXtXtXyXyXyXiXtXyXyX7X6XuXuXuXyXtX6XtXyXtXuXyXuXtXuXyXaXyXkXyX1XQ.x.&.| | | ~ E I H V k k k e k k j P ..+.X.X._ X._ &._ &._ &.&.&.&.r.r.X.&.r.O.X.+.X.X.{ } [ / T T Y T T / R E / E ) ) ) ..X.0.X.X.0.X.X.....+.X.+.r.g.r.0.>.0.+.{ / E R H l i q 8 > , : , , > : ; + : + + O X X X     O O       .   O   X O X X X . o X o X o o o + o o X o X o o % O + O + + + > + ; % > 2 2 $ 6 8 L P.PXGX,XaX7X7XqXqXqXpXsXcXzXUXzXzXpXzXsXsXsXsXsXsXsXZXsXxXxXxXaXsXsXsXVXsXpXsXsXVXcXsXaXaXaXaXaXpXaXiXaXiXaXaXaXiXaXaXaXaXaXaXiXpXaXpXpXiXyXqXiX7X0X0X0X0X0X0X9XiXiX9X9X0X0X0XdX7XiX0XiXiX9XdX9X3X0X0X0X0X0X0X0X0XtXdX7XeXdX,X,XtXeXtXtXdXtXtXtXeXtXrXeXeXeXeXtX9XeX,XiX,X5X,X5X-X-X-X;X;X;X9X,X;X;X;X;X=X;X<X;X;X,X,XdX<X<X9XeXeXeXeXeXeX,XeXeX,X,X:X,X:X:X,X:X:X:X=X<X<X=X=X].<X<X}.}.<X}.;X<X<X;X=X=X=X<X<X-X<X,X<X<X<X[.;X<X<X<X}.<X=X[.<X;X:X<X<X<X,X:X<X:X:X,X:X,X",
">XrX>XrX>X@X@X>X>X+X+X=X:X-X:X-X-X:X:X-X-X;X-X,X-X,X-X:X,X-X:X-X,X-X:X-X>X-X>X+X-X>X-X:X=X:X<X<X=X-X:X-X-X:X>X>X>X>X@X>X>XuX%XuX%XuX@X%X@XuX@X>X@X+X+X+X-X-X-X-X+X=X=X=X=X=X=X=X<X<X=X:X-X:X-X:X:X-X:X-X-X,X,X7X5X,X,X,X>X,X-X,X,X:X-X,X:X-X-X:X:X-X:X=X=X=X=X=X+X-X+X+X@X-X>X5X-X5X1X>X5X>X>X5X5X5X5X-X5X5X1X5X>X5X5X>X>X5X5X>X5X>X5X5X5X5X5X5X5X5X7XtX7XeX,XeX7X7XiXtX7XeX7XtXtX5X7X5X>X5XtXtXtX7X7X,X,XtX7XeX7X,XeX7X7X7X,XyXtXuXtXyXyX7XtXyXaXyXiXiXyXiXtXyX7X7X8XyXtXyXtXyXuXeXuXuXaXyXtXaXyXxXxXlXyX7X/.b.%. .} E L F h j z j k k d d H ) X.+.0.X...X.X.X.&.&.&.&.&._ r._ &.X.&.O.X.+.X.X.X.{ ) ) ) / / R T T / T ) ) ) ) _ ` ..X.r._ X.0.+.r.X.X.X.X...X...X.+.X.X.{ X.X.E Y H h d q 8 , ; : : , : > ; ; ; ; + + O X o       O O .   O O   O X X   X X O X + X + O % + X X X o X + % + + + + + + + $ $ $ $ * * 8 4 * 4 8 R A.PXAXpXcXcXcXZXbXzXzXzXzXpXzXzXzXzXsXsXsXsXsXsXsXcXsXcXsXaXaXsXsXVXsXsXpXaXaXpXaXaXsXxXaXaXaXaXiXsXaXsXiXsXiXiXaXpXiXiXsXiXiXpXaXiXaXiXiXiXiXiXqXqXqX0XqXwX7X0XiXiX9X9X0X0X9X0X9X0XiXiX0X9X7X9X9X9X0X0X9X0X9XiX9XiX7XdX7X7X,X,X0XtX,XeX,XeX,XeXtXeXeXeXuXeXeXdX0X,XiX,X7X5X,X>X;X;X;X{.;X9X;X9X9X;X;X;X;X<X<X;X;X,X,X<X,XdX9XeXeXeXeXeXeXeX,X,X,X<X,X<X,X<X<X=X:X=X<X<X<X[.<X<X<X<X<X}.<X<X<X=X=X=X<X<X;X;X=X:X;X<X;X<X<X[.<X<X<X<X].;X[.<X=X=X;X,X:X<X<X=X=X=X:X:XrX<X",
",X>X>X>X>X>X-X+X>X@X-X-X=X=X-X:X,X:X;X,X-X:X,X-X:X:X-X-X-X-X:X,X-X:X-X,X=X>X-X>X-X-X;X-X=X:X<X<X=X:X-X=X-X>X>X>X@X>X%X>X%XuX>X%XuX%XuX@X%X5XuX5X>X+X=X+XOX).OX+XOX=X=X:X=X:X=X=X=X:X<X:X:X-X-X-X-X=X-X-X,X>X,X,X,X-X,X5X,X-X,X,X-X-X,X,X;X,X-X,X:X-X-X>X+X=X:X+X-X-X+X-X@X-X-X5X@X-X@X-X5X-X5X5X5X>X5X>X1X@X5X>X5X5X5X1X5X5X5X5X5X5X5X5X5X5X5X6X7XuX7X,X,X7XtX7XeX7XtX7XtX7XtX,X5X7X>XtX7X7X5X7X7X,X7XuXtX5X7X5X7XyX7X5XtX,XtXtX7X5X5X5XyX5XtXtXtXtXiXyXiXtXtXtXtX7XtX7XtXtXyXyXuX>XuXaXrXuXuXrXuXyXyXyXlXlX1X!.c.#.| E H l d q w k w w k j G } +...X.X._ X.&._ &.&.&.&.&.&.r.&.X.r.0.X.X.X.@...X.} [ ) Q [ / ) [ [ ) ) ) ) ) ..` _ _ 0.X.0.X.X.X.X.+.X.0.X.@.@.0.+.@.{ | { { } T I V d q 8 8 > # : : : , : ; ; ; $ : + +         O     O       X     X O X X   o X o o o + o + o o o % o + + + + + + + + $ ; $ * ; $ 8 2 $ $ 6 ~ 5.IXGXsXsXaXpXcXxXlXpXqXqXpXpXqXzXpXzXsXsXUXsXpXsXsXsXxXcXxXaXaXsXsXsXiXsXaXiXaXaXzXVXaXxXaXaXiXaXsXsXsXaXsXsXpXpXiXsXsXiXsXaXiXiXiXiXiXaXiXiXiXpXiXpXpX0X0X7X0XiX0X0X9XiXiX0X9X0X0XiXiX9XwX,X0X3X9X9X9XiX9XiX0XiXdXiX7XeX0XeX,X9X,X0X,X,X,X,X:X>X>XeXeXtXiXiXiXeXiX0X0X7X,X7X3X;X-X[.;X;X,X<X;X3X;X;X[.;X;X=X<X<X<X<X,X9X,X,X,XeXeXeXeXeXeX,X,XeXeX<X,X<X,X<X:X=X:X;X;X<X<X<X<X[.}.].<X<X}.;X].<X=X=X=X=X-X<X;X:X<X;X;X<X<X;X].].<X}.[.=X;X<X<X=X<X<X:X=X=X=X=X<X:X<X<X",
">XeX>XeX>X@X>X>X+X:X+X@X>X-X-X>X>X,X>X>X>X>X>X>X>X>X,X-X,X:X,X5X>X>X>X>X:X:X-X-X:X-X;X-X=X=X[.[.;X:X:X+X:X:X>X>XeX>X%XrXuX%XuXuX5X%X5X%X5X%X@X5X-X+X+X)./.{.).-X:X].:X].=X=X=X=X=X=X=X:X=X=X=X:X:X-X>X>X>X>X>X>X:X>X>X>X>X:X:X>X,X,X>X,X>X,X:X>X-X-X-X-X-X-X-X(.+XOX+X+X+X+X+X+X>X>X>X@X>X5X5X,X5X1X5X5X5X1X5X5X5X>X5X5X5X5X5X>X5X5X5X5X5X7X6XtXuX7XtX7X7XdX7XeXtXiXtXeXtXtX7XtX5X5XyX5X7X5X5XtXtX7X7X7XyXyXtX7XyXyX7XyX5XtX5XtX5X5XyXtX7XyXtXiXyXiXyXiXiXiXyX7XuXaXtXaXtXiXaXtXeXtXtXaXaXrXtXtXeX7XtXyXyXkX8X1X!.D.X.) F l w 8 8 ; t 9 q c Y +.X.0._ 0._ 0._ &._ &.&._ &.&.&.%.+.X.+.X.+.+.X.....{ } [ } ) ` ) [ } [ } [ } } [ ....X.X._ 0._ 0._ 0.0._ 0...0...X...|  .| { | { R G h k w 8 * + : : : , > : - : ; + + +       o   & . .     X   X X & o X   X X o + X + X + X + X + % + + + + + + + % + $ $ + $ ; $ $ 8 * = * o [ oXGXGXsXsXsXiXaXpXpXpXpXpXqXpXxXcXxXsXcXsXcXsXZXsXZXcXZXaXxXxXsXsXsXsXaXsXsXsXsXsXaXaXaXaXaXiXsXsXsXVXsXiXsXiXiXpXiXaXpXsXiXpXiXaXaXiXiXpXsXiXqXsXsXwXqX0XiXiXqXiXiX0X0XsX9X0XqX9XqX0X7X7X0X0X0X0XdX0XdX0XiXiXiXdXiX,X,X0XeX0X0X0X0X0X9X;X7X,X7X,X;X7X>XtXuXtXtX,X,X3X7X0X3X;X7X7X3X{.-X-X-X-X<X;X9X,X].=X,X:X=X<X;X:X<X;XdX:X,XtXdXtXeXeXeXeXaX,X,X:X:X,X:X<X-X-X-X:X=X=X:X,X].<X.X].<X<X.X9X].<X].<X<X].<X}.].<X<X].<X<X<X<X].<X].].=X<X;X9X<X;X=X[.<X[.;X=X<X=X<X:X:X",
"eX>X>XrX>XeX>X>X:X+X-X-X>X-X@X>X5X>X>X5X>X>X>X>X,X>X:X:X-X,X;X,X>X>X,X>X>X,X,X-X;X-X-X:X-X=X=X-X-X=X=X-X@X:X@XrX@XrXuX>XrXuX%XrXuX5X%X5X@X@X>X@X+X+X-X).).).-X-X=X=X=X:X:X=X=X=X=X=X=X=X:X:X=X=X>X,X>X>X-X>X>X>X>X>X>X:X>X>X-X>X:X:X:X:X:X:X>X,X:X-X-X-X-X+X-X+XOXOX+XOX+X-X-X+X-X+X>X1X-X5X5X5X>X5X5X>X>X5X5X>X-X5X1X5X5X5X5X5X5X5X5X5X>X5X>X5X7XyX,XtXtX7XtXtXtX7XtX7X7X7XtXyXtX,X5X>X6XuX7X5X6XtXuXtXyX5X8XuX8XyXyX5XtX7XtX7X5XtXuX7XyXtXyXtXtXtXiXiXiXiXiXtXaXdXtXtXtXtXtXiXuXeXtXtXtXtXtXuXaXyXyX7XuXyXkXkX6X5Xm.X.H d 8 8 : ; 6 0 f Y { j.r.&._ &.r._ &.&.&.&.&.&.&.X.&.X.X.X.X.+.X.X.{ @.@.{ } [ ` } } } ` } [ } } } { } ......+.0.X.0._ 0._ _ 0...X.0.X.X.{ X.X.| { { ) ~ Y l q 8 8 8 8 ; > : , : > : > > ; +     o   o   .     . . X X X X o X X X X   X X o o o o + % + o + + % % + % o = o = o $ $ = 8 $ * 8 * % = o [ OXGXVXsXGXGXiXaXaXpXpXpXpXpXpXcXxXcXxXxXcXsXsXsXsXsXcXcXcXcXxXZXsXpXpXaXiXsXiXaXsXdXsXaXaXaXaXpXiXsXdXsXsXiXiXsXiXsXiXiXiXsXsXaXiXaXaXsXsXiXiXsX0X9XiXsX0XqXiXiXqXqXiX0XqX0XqXiX7X,X0X7X0X7X0X,X9X0XeXiXdXiXdXiX0X0XdXdX,X,X9X;X;X;X;X;X;X-X;X7X,X7X5XtXtXeX>XpXiX0X0X7X7X3X1X5X-X-X-X-X;X3X;X-X[.9XiX,X;X=X,X;X<X;X:X=X;X:X=X>XrXrXrXrXeXeXeXeXeX,XeXiX,X:X].=X=X-X:X=X=X=X=X<X<X9X<X9X.X<X<X<X]..X<X}.<X<X}.}.;X<X}.].].].].].].<X<X<X[.=X].=X;X=X[.[.].[.=X].].].].].",
">XrX>X>X>X>X>X>X=X>X-X-X-X>X-X5X5X>X5X>X>XeX>X,X>X>X>X>X-X:X:X;X>X:X>X>X>X,X,X,X-X<X=X-X[.=X=X-X:X=X=X=X+X:X>X>X>X>XrX>X%XuX%XuX@X@X>X%X5X>X@X-X>X+XOX(.-X(.-X[.=X=X=X=X=X=X=X:X=X=X=X=X=X;X=X=X>X>X>X>X>X=X>X-X>X>X>X>X>X>X>X>X,X>X>X>X:X>X:X>X-X=X-X=X=X+X(.+X+X+X+X=X=X-X>X-X-X-X-X-X>X5X-X5X5X5X5X5X5X5X5X5X-X5X5X5X5X5X5X5X5X5X5X>X5X5X5X5X,X7X7X5X7X7X7X7X7XtX7XtXtX7X7X7X5XtX5XyXtX7X6XtXtX6XtXtXyX8XuX8X8XuXyX5X5X5XtX7X5XyX7XyXtXyXyXiXiXiXyXiXiXiXtXiXtXiXtXtXtXtXaXtXtXtXtXtXiXtXtXuXaXiXyX5XuXyXkXxXkXxXuX-X%.} G H i g F } g.V.(.L.t.&._ _ &.&.0._ &.&.&.&.X.| X.X.X.+.X.+.@.X.@.X...{ } [ } } ..{ } } } } ..{ { { ....X.0._ 0.0.X._ 0.X._ X.X.............} ) [ T G F g q 8 $ + X : : ; : > : > : ; ; + + o       .   . X . . X O X     X o X X o o X X + o + o + % + + X + + + + = = % o + $ $ $ 8 ; $ ; $ o + 4 [ ].JXsXsXsXaXiXaXaXpXaXlXaXlXpXxXcXxXcXcXaXsXaXZXsXcXxXxXxXxXxXaXaXaXaXsXaXiXsXdXsXaXaXiXpXaXiXiXsXaXsXaXiXiXiXiXaXiXaXiXsXsXiXdXaXiXsXiXaXaXsXsXsXiXqX9X0XiXiX0X0XiX0X0X0X0XqXqX0X0X7X0X0X0X7XdX,X,XtXiXtXiXiXiXiX,X,XdX,X,X,X0X9X9X0X3X0XiXiXyXiXyXiXtXtXyXiXiX7X;X3X7X3X>X5X-X-X+X-X{.=X;X,XiXiX<X,XdXiX<X].:X<X,X:X<X,X<X<X:X:X:X:X:X:X<XrX:X=X:X=X].K.=X=X=X=X:X;X<X<X<X<X<X].<X.X.X.X].<X].].].].].].].].<X}.<X<X].].<X]..X].].].].].[.].=X;X=X<X<X[.<X<X:X<X:X<X<X",
">X>X>X>X:X:X=X+X>X-X:X>X-X>X>X-X>X>X5X>X5X,X>X5X>X>X>X>X:X-X:X:X:X+X>X:X>X-X-X:X,X-X;X=X;X-X=X=X-X:X-X=X:X+X:X>X@X>X>X%XuX>X>X>XuX>X@X>X5X@X>X@X+X+X-X).+X-X+X=X=XOX=XOX=X=X=X=X=X:X=X=X=X=X<X<X,X:X:X>X>X>X>X>X>X>X>X>X>X>X>X>X>X>X>X>X-X:X-X=X-X=X=X+X=X=X).=X=X+X-X>X>X+X-X@X-X-X@X>X-X5X>X>X5X5X5X7X5X5X5X5X5X5X>X5X5X7X>X5X5X>X>X5X5X5XeX6XtX5XtX5X7XtXuX7XyXyXyXyX7XuXuXyXuX7X7X7XuXyX7XyXtXtXtX6X7XuX8XuXuXyXyXyX6XtX5XtXtX5XyX7XtXyXyXyXiXyXiXiXiXtXtX0XtXtXtXtXtXtXdXuXtXtXtXiXtXtXiXdXtXtX7XyXyX6X6XuXyXvXlXZXyX>XF.>.b.V.c.-XpXzXZXkXW.t.r.&._ r.&.&.&._ | &.&.X.X.| +.| X.+.+.@.X...| { { } } { @.@.} ..} { } ..@.......X...0.X._ ..X._ _ 0..........._ ) ) ) T T Y H H h d 9 * $ + + ; - : ; : > > > ; + O o + o + O . .   O O O O   X X   X X X @ X o o X % X X + o X % + o % % + % o o o $ $ $ $ > # $ ; $ $ * j g.;XIXUXVXiXiXsXpXsXpXsXpXzXzXzXxXxXxXaXaXcXsXZXaXsXaXcXxXxXxXxXxXaXaXpXiXsXiXdXsXiXiXsXaXaXaXsXsXsXsXdXsXiXiXaXsXiXsXiXpXiXiXsXiXiXiXaXiXiXiXaXsX0XsXiXdXsXiXiXiXqX0XqXiX0XiX0X0X7X7X7X7X3X7X9X7XeXiX,X,X,X,X,X,XeX,XiX7X,XtX,X;X,X<X,X9X<X0X0X:X,XtX,X7XeXtX7X7X9X7X;X;X-X-X-X1X-X-X-X;X<X:X;X<X<XK.G.:X,X<X,XK.K.K.].].=X=X=XeXrXeXeXeXaXaXiXVXiXiXdXeXiXiXsX,X,X<XdX9X9XdX<XdX9X9X9XdXUXUXdXdXUXdXUXsXsX0XsX;X9X9X9X9X<X9X9X9X<X<X].[.<X;X9X<X<X<X=X<X<X[.].<X,X<XrXrX",
":X:X:X:X>X@X=X:X-X>X-X-X:X-X1X>X>X>X>X>X>X5X:X>X>X>X>X>X:X>X-X:X:X:X-X:X:X:X-X:X-X:X;X=X=X-X=X-X=X=X;X-X:X:X-X:X-X>X>X>X>X%XuX>X>X@X>X>X>X-X>X-X>X+X@X=X=X+X-X+XOXOX=X=XOX:X=X:X=X=X=X:X&X].<X=X:X=X:X<X:X>X,X>X>XeX>X>X5X>X>X5X>X>X>X>X-X>X=X-X:X-X-X:X-X=X-X=X:X-X-X-X:X-X-X-X>X-X-X,X-X:X>X5X>X5X5X>X>X5X5X5X5X>X5X5X>X5X5X5X5X5X5X7X7XyX7X,X7X7XuX7X7X7XuX7X7XyX7XyXyX8XyX7X7XyXtXuX7XyX7X7XyX7XtXtXyX8XuX8XyXyX8X8XyX5X5XtXyXyXtXyX7XyXyXiXiXyXtXiXiXyX,XiXtXyXtXtXyXtXtXtXtXyXyXtXyXyXyXyX,XtX7XyXyX8X6X5XyXlXuXxXaXsX,X:X7X7X).yXvXkXZXkX$XW.r.X.&.&.&._ _ &.| X.| | +.X.X.+.X.+.+.@.@.@.{ { { @.X.{ { { } { } { { { ..X.+...X.0.....X..............._ ..../ / _ / T / I Y G h w $ $ ; , > : > ; > : > : ; + = + + X X X O O . O X . O X X X X X   o X o o o X o o X + o o o + o + % O + % o + + + + $ $ 6 O # O ; ; w Y K.VXJXsXsXsXiXsXaXaXcXpXxXxXzXcXxXxXxXxXsXcXcXsXaXsXcXsXxXxXaXlXaXaXpXaXaXiXsXiXaXiXsXdXiXsXsXsXiXsXaXiXiXpXiXiXaXiXsXaXsXiXiXiXaXaXiXiXiXaXiXiXsXiXsXiXaXuXaXiXtXtXiXtXiXqX7X7XeX7X7X,XtX7X,XiX7XtXiX,X,X7X,XtX,X7X0X7X,X,X7X,X:X:X=X<X,X,XeX,X,X7X7XiX7X,XqXiXqX0X0X3X-X{.(.(.(.=XOX=X&X].<X].=X<X<X,X9XJ.G.9X:X=X=X=X<X=X=X<X=X=XOX:X:XdXeXeX[.:X<X:X].].K.K.].].].].].<X].].<X].].*X].<X].<X<X].*X<X].<X<X].;X9X<X<X].].].].<X<X<X<X<X].].].<X<X<X].<X<X<X<X<X&X<X<X<X",
":X>X:X>XrX>X:X>X>X>X:X-X-X>X>X-X>X@X@X>X>X:X>X>X>X>X>X>X>X>X:X:X>X>X>X>X>X:X;X:X:X-X-X=X=X=X=X=X=X;X=X=X:X-X>X;X>X>X>X>X>X>X>X>X>X>X>X>X>X>X>X>X>X:X>X-X@X=X@X=XOX=XOXOX=X=X=X=X=X=X].=X=X=X<X=X=X:X:X-X:X>X>X,X>X>X>X5X>X>X5X>X5X>X>X-X>X-X-X-X-X<X-X;X-X-X-X;X-X:X-X<X>X>X,X,X-X>X-X:X-X,X-X,X7X5X7X5X7X5X>X7X5X5X5X>X5X>X1X>X>X,X,X7X,XyXtXyXtX5XyX7XtX7X7XyXyXyXyX6XuX6X7XyX7X6X7X7XuX7XyXuXtX7XuX6X7XuX8XyX8XuXuX7X5X7XtX7XyXyXtXyXtXiXyXpXpXtXtXiXiX7XtXpXtXtXtXyXtXtXyXyXtXtXtXaXtXaXtXaXiXyXyXyX6XuXuXyXuXkXkXcX7XiXiXaX).#X1XlXxXkXkX$X6XW.t.&.&.&.&.&._ _ | |  .X.| @.| @.X.X.X.@.+.X.{ {  .@. .@.@.{ { { ..{ { { ......+.X...X.X.X...X..._ .._ .._ .._ _ _ / / ) ) ) P C j w 8 $ ; > , > : : > > > > ; > ; + X + X X X O O O O O X     &   X X X X o   X   o o X X o + X + @ o + + o = = o % $ $ $ ; : . : # $ 6 d @.<XUXJXsXpX0XiXpXsXsXpXpXcXcXcXcXxXxXaXxXxXaXaXaXaXaXaXxXxXxXxXxXlXxXxXaXaXaXiXiXiXsXiXsXsXsXsXsXsXsXiXsXsXiXsXsXsXiXsXiXiXsXiXsXiXiXiXiXiXaXaXiXiXsXaXiXdXaXtXtXtXiXyXtXpXiXtXeXtX7XtX7X,X7XiXtX,X,X7X,X,XiX7X0X,X,X,X,X7X,XtX,XeX:X:X:X>X,XeX,X7XiXiXiXiX0X,X,X0X,X7X5X3X-X-X>X=X:X>X,X<X<XdXdX:XdXeX].=XiXdX<X<X,X,X<X<X<X<X<XeX<X:X=X=X:X=X].].K.K.G.G.V.P.V.P.M.M.u.P.A.p.u.*.u.A.A.A.A.M.<.M.-.-.-.*.*.M.M.M.M.M.M.A.A.P.A.A.P.M.A.].].].].A.A.P.P.P.P.P.oXJ.].P.J.P.",
"rX:X,X>XrX:X>X>X>X:X-X>X>X>X-X>X>X-X-X-X-X>X+X:X>X:X>XeX>X>X:X:X>X,X:X:X:X>X:X:X:X:X=X-X=X:X;X;X=X;X;X;X;X-X-X;X-X,X>X>X>XeX5X,X,X-X-X>X:X-X@X>X>X:X@X:X%X=XOX=X+X+X@X:X=X=X:XOX].:X:X:X=X:X].<X=X:X:X:X:X:XeX>X>X5XuX>XuX@X@X5X>X5X5X>X>X>X-X-X;X:X;X-X;X<X<X;X:X-X:X-X,X-X;X,X:X,X>X-X,X,X>X-X7X>X5XuX>X7X7X5X>X7X,X>X>X-X>X5X>X,X,XtXeX7X,XtXyX7X5XyXyXyXyX8XyX8XyXuX8XyX7XyX5XyX7XuXtXtXtX6X7XyX7XtXyX7XuX8XuX7XyX5XtXyX7XyXiXyXtXtXyXiXyXyXiXiX7XyXiXeXtXiXyXyXyXtXyXtXyXyXyXyXtXtXtXtXaXtXaXaXaX8X8XuXyXkX5XaXaXZXyXaXtXyXGXbXvXkX6XkX6XvX6X'.E.t.&.X.&.X.X.| | { | { X.@.X.{ { ..| X.X.@. .{ ^  .X. . .{ { @.{ X.X.@...@.0.X.........X.X._ ...._ .._ ) ..../ ] _ ) _ ) / P G N h d e w 8 8 8 > , > : > ; ; + ; + + O X O   O . O O . X X X X X X X X X o   o X X   o X o o X o X X o + % % o + + + O # ; 6 # 6 . : 8 x k.iXUXGXsXUXsXZXGXaXpXaXcXcXxXaXxXaXxXaXxXaXxXaXsXsXsXaXaXaXxXaXxXkXxXxXxXsXaXsXiXsXdXsXdXsXiXsXsXsXsXsXaXpXpXpXsXpXsXiXsXiX0X0XsXiXiXiXiXiXiXaXaXaXaXaXiXaXdXuXaXtXtXtXaXiXtXtX7XtXtXtX7XtXtXtXiXyX7X7X7X7X5X7X,X-X-X,X5X5X,X,X7X:X%X:X:X:X:X:X:X:X=X=X:X:X=X[.[.{.;X3X;X-X;X,X5XdX9XsXdXsXdXdXdXdXsXsX<XiXIXIXGXsXiXsXsXAXqXsXsXsX9X:X=X].K.G.A.u.*.o.+.+.+.*.*.-.-.-.-.-.-.-.-.-.-.-.-.-.-.@.@.! D -.-.-.-.! ` @. .-.-.-.=.*.*.=.-.@.-.-.*.M.P.P.A.P.M.M.P.].].].&X<X&X<X",
":X:X:X:X:X:X+X>X>X,X:X-X,X-X>X:X@X-X-X-X-X=X:X+X:X>X>X>XeXeX,X,X:X:X:X:X:X-X:X:X=X=X=X=X=X-X=X;X[.;X;X;X,X,X,X;X:X,X>X5X>X>X>X;X-X,X-X-X-X:X:X>X=X+X:X:X:XOX:X@X@X+X:XOX%XOXOXOX:X=X:X:X=X<X&X:X:X:X:X,X:X:X>X>X>X>X>X5X5X5XuX5X>X@X>X@X@X>X:X>X:X-X<X<X-X;X<X=X<X-X,X,X,X,X,X,X,X:X,X,X,X>X,X,X,X5X,X5X7X5X7X>X7X5X5X1X>X5X5X:X>X,X,X,X7XtXtX7XtXtXtXyX7XyXyXuX6XyXuX6XuX8XuX7XuX7X6X7X5X7XtXtXtX7XyX7XyXyX8XuXtX6X5XyX5XtXtXtXyXaXyXtXtXyXiXaXaXyXtXiXpX7XtXpXiXyXiXyXyXiXyXiXyXtXyXtXyXaXyXaXuXaXaXaXyX8XuXyXvXlX5XyX5XpX7XtXfX5XxXkXkXkX$XfX$X$X!.t.%.| |  .X.| { | { { { { { } { | X.{ X.X. .^  .{ @.{  .X.X.@.X.@.X...X.X.....X.0...X......._ ..) ) ] ) / ..) _ .._ ) ) / I H j k q q 0 w 0 0 , < > > ; > ; ; $ % + O X O . O . O X .   &   X X X o X   & o X X o + X o o X o X + + o X + % = % + + : # # : : 9 # $ 9 c J.sXGXGXsXsXiXiXsXxXaXaXxXaXaXxXxXxXxXxXaXcXaXsXsXpXaXaXsXxXaXlXaXxXxXaXZXaXsXaXaXdXsXdXsXsXsXiXsXcXsXaXsXsXpXsXsXiXsXiXpXsXsXqX0XiXiXiXiXtXdXdXaXdXtXyXdXuXdXaXrXtXtXiXyXiXtXtXeX,XtXeXeXeXtXtXyXiXiXiX7X,X,X-X-X-X-X;X5X,X7X7X,XaXdXrXdXeXeXdX9X,X<X;X;X;X;X;X[.;X;X;X;X{.(.[.=XL.].].].*X].].p.P.S.G.=Xz.@.O.g.g.0.O.O.*.=.@.+.@.} ` Q [ [ Q ~ L R Y Y Q ` [ Q ! A K K ! ! ! ! ! K v A v v K K ! ! M K ! ! K K K H Z K U U ! ! K M c K ! Q R Y U K U K K Q Q ` ~ ` ` } ` ",
">X,XrX<XeX>X,X>X,XrX,X-X,X-X:X-X+X-X-X-X=X-X-X>X>X>XeX>XeX>XeX>X:X:X:XOX:X:X=XOX=X=X:X<X,X,X<X=X<X[.;X<X;X;X,X;X-X-X,X;X,X-X,X>X;X-X-X;X:X;X:X-X>X:X>X@XOX:X%X:X:X@X+X=X@X+X:X>X=XOX:X=X:X:X:X=X<X:X:X:X=X:X>XtX>X>X5X5XuX>X5X5X5X>X5X>X>X>X-X-X=X=X=X[.;X=X=X=X=X:X=X:X=X<X:X=X,X-X:X<X-X:X:X-X>X>X-X>X-X>X5X,X7X,X7X>X,X5X,X7X,X,XtX,XiXiXtXiXtXyXyXtXyX7XyXyXyXuXyX8XuX8XuX7X6XtXuXyX7XtXtX7XtX6XtXtX7XyX7XuX8XuX8X7X7XtXyXyXaXiXiXtXtXiXiXaXtXyXtXtXyXyXiXyXyXtX7XtX7XyXyX7XyX7XyXyXyXyXpXyXpXyXyXyXaXaXyXyXyXyX8XyXyXiXyXpXyXyX8X8X6XfX8X5X6X5X).m.h.| +.| @.@.@.{ } { { { } } | { ..X.X.+.@. .{ { {  .+.@.+.X.{ ....X...{ ..............` _ ` / ) ....) ..../ _ _ ] _ / / I G N j d d u q 0 w 9 , 8 : > ; > 6 $ $ % # $ % O O   . O O O . X   X   & X X o X o X o X X o X X o X o X + O o % o $ % + + ; ; 6 : # . # 8 K wXsXaXZXsXiXpXaXaXaXaXaXcXaXaXaXaXyXxXaXaXyXaXiXaXpXpXaXaXaXxXxXxXkXxXxXxXcXsXaXiXiXdXsXiXsXdXVXsXsXzXpXaXpXaXpXpXqXsX0XqXsX0XsX0X0X0XsX9XsXiXsX0XaXiXyXtXdXuXdXaXuXtXyXyXtXtXtXtXtXyXeXtXeXeXeX,X;X;X9X9X;X-X=X=X:X[.=X;X,X7X,X7XVXiXdXiXiXaXqXiX0XdXsXdX9X9X;X;X{.;X;X;X/.J.J.J.G.j.O.0.-.-.-.-.@.} } } ~ R G G H G G G H G F F x f f v n c n H c c h Z H H F c b b b b p p p p p u r p t p p p f v x c x l g g p a g c n n c c f x f g b f h v f s f f v c Z Z Z Z Z Z Z ",
":X:X:X:X:X:X:X:X>X>X>X,X-X:X-X-X-X-X-X>X>X-X>X>X>X>X>X>X>XeX>XeX:X:X:X:X:XOX:XOX=X:X,X,X,X<X=X:X=X<X<X;X<X<X;X,X,X;X;X>X5X,X>X5X;X;X;X-X;X-X>X,X>X>X>X:X@X:X:X@X@X:X@X=X=X>X+X>X:X@X:X:X:X=X:X:X<X:X:X=X>X:X>X,X:X>X>X>X5X>X5X>X5X5X>X5X>X>X:X-X=X-X=X=X=X=X=X=X=X=X=X-X-X:X=X-X,X:X,X-X:X=X<X:X,X>X>X-X,X-X,X5X,X7X7X,X5X,X7X,X5X,X,X,X7XtX7XtXyXiXtXyXyXyXtXyXkXyXuX7X8XyX8X7XtX5X7X7X5XtX7XyX7XtXtX6XyXyXuX8XuX8X7XyX7XyXtXyXiXiXaXyXiXyXpXiXyXtXyX7X7XtXyXtXyXyXyXyXyXtX8XuXyXyXyXyXyXpXyXyXiXpXpXpXyXaXpXyXuXuXyXyXyXyXyXiXyXaXaX7X7XuX8X6X5X1X).D.h.}  .{ X.{ @.^ { ~ } { } } } | ..| X.X.{  . . .| +. .X.@.@.@.| X.X.@...X.X.X...X.......) ....) ) ..) / ) ) ] _ _ _ ) / P H l j d i k q 0 0 8 8 > > ; > $ $ $ $ # # # # O O O O O O O O X X & X & X X   X X o o o     X   o o o o o o o = + + % # + : # : # $ . # w ~ AXGXGXsXsXaXpXaXpXaXpXcXaXcXaXaXyXxXyXaXlXxXaXsXaXaXpXaXpXyXaXaXxXxXxXxXxXxXsXaXsXiXsXsXsXsXsXsXsXxXpXzXpXzXpXaXpXzXsXsXsXsXqX9XiXiX0X0XiX9X9XiXdXiXiXtXtXrXaXtXtXtXtXtXtXyXyXiXtXrX,X>X,X,X,X:X=X=X-X;X;X;X;X=X=X;X,X,X,X7X0XiXiXdXdXaXVXVXVXzXAXUXsXsXdX9XwX;X;X[.].[.A.c.j.g.k.O.@.} [ -.! A U K Z F Z x d i i * 8 8 8 8 : ; : : : : : 8 8 9 9 t t t t d f d t y : , : > > < > > > > , > , , , 9 9 0 0 0 0 w 1 , 0 0 t u t i t f t t r r t r r y y y y s b v b b y y y y ",
":X:X:X:X:X:X:X:X:X<X-X,X,X-X:X-X-X-X-X1X>X:X>X;X>XeX>XrXrX>X:XrX:X:X:X:X:X:X:X:X:X:X:XeX:X:X<X=X=X=X[.<X;X;X<X:X:X,X,X>X,X-X-X,X-X;X-X,X,X-X,X-X>X:X:X@X:X:X:X>X>X>X@X@X>X@X:X>X:X:X:X:X:X:X:X:X:X:X=X:X=X:X>X,X>X>X5X>X5X5X>X5X>X5X>X>X>X>X:X>X-X-X:X=X=X=X;X[.=X:X=X:X=X=X-X:X,X:X<X:X;X:X-X,X,X>X,X,X,X,X,X5X7X,X>X,X,X,X7X,X,X7X,X,XtX7XtX7X7XtX7XyXtXyX7XyXuXyX7XyXyX7XyX5X7X7X7X7XyXtXtXtX7XtXtXuXuX8XuX8XuX8XuX8XtXyXyXpXaXiXiXiXyXiXiXaXiXyX7XtX7XyX7XyX8XyXiX8X7X7XiXiX7XyXyXiXpXpXyXpXiXyXiXyXyXyXyXpX7X7XyXyXpXyX8XyXyXaXaXyXuXyXuX8XuX5X1X(.b.} { ^ } { { { { } } } } } } | | | | | {  .{ @.X.@.+.+.X.X.X.....X...X...X.............) ) ..` ..) ......_ ......) / / P G F h j a i d q q 0 0 > ; ; ; $ ; $ % # . # # O . O . O O X   X X X &   X & o   o X o   X o o X X X o X X + + % + o O O + # ; # # ; X % q  .GXGXcXcXpXaXpXyXyXpXpXxXcXaXaXaXyXaXlXaXxXaXaXpXpXaXsXpXaXxXxXlXxXvXxXxXxXcXaXsXsXdXsXdXsXsXiXiXaXxXzXzXlXzXpXpXsXsXsXzXsX9XiX9X9XiXiX0X0XiX9XiXiX7XeX,X7XyXyXtXyXaXaXaXyXyX7X5X,X9X7XtXeX,X,X<X<X=X;X;X;X,X;X].].[.[.[.].J.K.[.;X,X:XG.S.N.P.G.].].].A.M.*.-.-.-.@.{ [ Q Y K J L K F c c M v b M b s y 9 8 8 8 > q e u r t r t y 0 9 r 9 r t i y t y p p p d s t y b y y 0 u u u , < 1 r q r 0 0 r r r r u 0 e 0 e e t i t p p y i i t q r q 9 r q y y t y s b b v b b f b ",
"rX>XeXeX,X:X:X,X:X:X-X-X-X>X;X-X-X>X-X-X5X>X>X,X,X>X>X>X@X:X:X@X:X:XrX:XrX:X:X:X:X:X,X,X,X:X<X=X<X=X[.<X:X:X,X<X;X,X-X,X>X,X,X>X,X-X,X;X>X,X,X,X>X:X>X:XOX:X%X:X>X@X>X@X@X>X%X>X:X>X>X:X:X:X:X:X=X:X=X=X>X:X:X>X>X>X>X5X>X>X5X5XuX>X5X>X>X>X-X,X-X<X=X-X-X=X=X;X=X:X-X:X<X:X<X:X,X;X;X-X;X:X:X,X-X,X-X,X,X,X5X,X,X,X5X,X7X,X,X,X7X,X,X7X,X,XtX,XtX7XeXtXtXiXiXyXyXyXyXyX7XtX5XtXtX7XtXyXtX7X7X,XyX7XyX7X7XyX8XyX8XuX7XyXtXyXyXiXaXiXyXpXiXiXpXiXyXtXtXyXtXtXtXyXiXyX8XiXyXyXpX8X7XiXiXyXpXyXiXqXyXyXaXpXyXtXyXyXyXyXyXyXyXyXyXuXyXsXaXaXyXyXpXkXyX6X5X1X/.X.{ { } { { { { } } ~ } [ _ } } ..{ ..{ X. .| X.0.X.X...@.X.X.X.X.X.........) .._ ..) ] ) ) ..) _ ....X.X.X.X.../ / I Y I H V h d d d t 0 0 8 > > $ $ + + # # O # X . O O . O . O O X &   X   & o X &   & &   o X X o   X o o + o % X + + o + # + # # : ; + X X w +.GXGXGXcXpXzXaXiXyXaXaXaXaXxXaXaXaXaXxXxXaXxXaXaXaXsXsXxXaXaXxXxXxXZXxXxXxXsXsXsXsXVXsXsXiXsXiXaXpXpXpXpXpXpXpXqXpXsXqX0X0XsXiX0XsX9X9X0X9XiXiX9X9X0X0XqX0XtX7X7X5X1X>X5X>X,X1X,X,X,X-X:X=X;X<X9X9XUXUXGXUXGXGXGXUXsXUXiX0X<X[.].=XL.z.+.{ [ [ } { ! A M v b b b y x c g g t t i p r r y p b b b b v b s t t 0 e k q i i u t d s s p p p i p x v b p p s f y t t p 1 , 1 y < < < 1 0 0 r i i i i t r t t 0 0 0 0 0 u i i i f p f p p d i d d t f s f s b s b b v b v v c v v ",
"eX,XeX:XeX:X<X:X:X=X=X-X,X-X,X>X>X-X3X-X>X3X>X5X>X>X>X>X:X>X%X:XrX:X:XeX:XrX:X:X,X:X:XeX:X:X:X:X=X].:X:X:X<X:X:X:X-X-X<X,X:X-X,X>X-X-X>X5X>X,X>X-X:X>X:X+X:X=X%XOX:X>X:X:X:X>X@X:X>X@X:X@X:X>X:X=X:X+X:X:X:X:X>X>X>X>X>X>X>X>X>X>X,X>X>X:X>X-X-X-X-X-X-X=X{.=X-X-X:X-X-X-X,X-X:X-X,X:X:X,X,X-X5X,X,X,X,X,X,X,X,X,X,X7X,X,X,X,X7X,XtX,X7X7X7X7X,X7X,XiX0XtX0XtXiXyXiX7XiXtX7XtX,X7XtX7XeX7XtXyX7X7XtXtXyX5XyXuX8XyXuX5XyXtXyXyXtXyXiXiXiXiXiXyXiXtXyXtXyXyXyXtXyXyX7XiX7X8XiXiXyXyX8XpXpXpXyXqXyXyXiXyXtXtXtXtXyXyXyXyXyX7XuXkXaXyXaXZXaXyXyXlXlX6X6X$X5X{.X.| ^ } [ } | | } ^ } } } } } ) } } } { X...X.X.+.X.X.| X.X...X.X.X.X......._ / ../ ` ` ....` ] _ ..X.X...{ ) ) E R Y G G V l d d e e e 0 0 8 * * $ $ # O # # X # . # O O . O O O O O X   X & & X   X & & &   & o X o   X o X o + + o + @ + X O + O % + $ % o & w &.GXGXUXlXlXlXaXyXyXaXlXaXVXaXaXZXyXaXxXxXxXsXaXsXaXsXsXxXxXaXzXxXaXaXaXcXcXVXzXVXsXsXsXsXsXaXiXiXyXaXlXlXpXpXpXpXpXqXsXwXsXiXsXsX0X9X9XwX9X9X9X9XwX0X9XwX0X7X7X3X7X7X7X5X;X1X-X-X{.=X[.=X=X;X<X<X9X=X<X=X<X<X;X;X[.].].J.l.>.+.@. .[ / T R Y G H H b v s r 1 y 1 y t t y s r r t p i p u b b b b b v v f p i i d a b a a a b b b b 1 y b , 9 p y y y b p s p y y y b p b p u r u p e e e t u i d t t r r 9 0 0 u 0 i a p i p p p f i i d u i t y p b f s b b b b b b v b b b ",
":X:X<X:X:X:X:X:X:X:X:X,X,X,X,X-X1X;X>X3X;X5X,X>X>X>XrX>X>X:X:X:X:X:X:X:X>X:XeX,X:XeX:X<X<X:X<X=X=X<X].:X].<X].:X:X,X,X-X;X>X,X>X5X>X,X>X-X,X>X>X:X:X=X+X=X:X+X:XOX@X@X:X:X@X+X:X:X=X:X@X:X:X@X>X+X:X>X+X-X>X>X>X>X>X>X:X>X>X,X>X>X>X>X>X:X-X:X-X:X-X=X=X-X-X-X-X-X,X<X:X-X-X,X-X,X-X,X-X-X,X,X,X:X-X:X,X,X>X,X,X7X,X,X,X,X,X,X5X5X,X5X,X,X,X7X>X,X7X7XeX7XdX7X7X,XeXiXeXeX7XtXtXeX7XtX7XtXeX5X7X7XuXtX6X5XyX8XuX8X8XyX7XuX7XtXtXtXiXiXiXiXyXiXyXyXyX7X7XyX7XtXyXqXyX8XyXiXyX8XyXiXpXiXyXiXyXpXyXyXpXyXyX7XyXyXyXaXiXyXyXyXyXyXaXyXyXaXaXkXkXkXkXkX6XkXuX1X>.#.| | | | } ~ } [ [ [ [ ) ) ) ) | ..@.| X.X...X.X.X.....X...| ....X.X.X.) ..} ....` ] ` .._ ....X.0.X.{ ) R I I G G H F F h d d d d e q 0 8 $ $ + O O O O # # X # . O O O . O O O . X   X   o & X X o o o X o o   X   o o % X X o X X @ + X O O + O X + & o   e %.GXGXbXpXpXzXaXaXaXaXaXaXaXaXaXVXaXxXlXyXxXxXaXaXaXaXsXaXaXxXaXxXxXxXaXsXsXcXsXsXdXsXsXiXsXiXaXpXpXkXlXpXlXzXpXzXzXsXsXsX0X9XwX9X9X9X9X9X9X9X9X;X;X3X9X3X0XwXqXwXwX7X2X5X3X7XqXwXwXiXiX0X0X;X].J.G.V.M.k.j.>.O. .@.[ [ [ T L H F F h n n n c v x g p p t r 1 1 y y q p s p i p p u p p p p p p b b y y i p i i i a u u u u 1 y , y y y y y 9 y y y p r p y s y p p y 1 1 y 1 1 u 1 u u t t q t y p i y r r 0 u u u i i a p i p p f d e k q q q q q t p i b p b b b b b b b b ",
":X<X:X:X:X:X=X<X:X:X>X-X,X-X,X;X-X;X-X3X-X;X>X,X,X>X>X>XrX:X:X%X:X:XrX:X:XrXrX:X:X:X:X<X:X:X=X<X:X:X:X:X:X:X:X:X,X,X:X:X>X>X>X:X,X>X5X>X>X>X-X-X+X@X=X@X+XOXOXOXOX:X%X=X:X:X:X+X:X%X@X@X@X>X>X@X:X>X>X>X>X>X>X>X>X@X:X-X>X>X>X>X:X:X:X:X:X:X=X-X-X=X-X-X-X-X-X-X-X-X-X>X:X-X>X,X-X:X-X-X:X>X-X:X-X-X,X,X,X,X,X,X,X,X,X:X:X,X,X,X>X5X,X5X5X5X,X7X7XeX,X,X,XdX7XdX9XdXdX7X,XiXeXtX7XtXtX7XtX7X>XtX7X7XtXtXyXtXuX8XyX8X8XyX7X5XtXyXtXiXyXiXiXiXtXiXtXyXtXuXtXyXyXyX8XyX8XuX8X8X8XyX8XlXlXyXyXpXpXyXaXyXtXtXtXtXyXyXyXaXyXyXkXyXkXlXtXaXxXuXkXkXkXkXkXkXkX8X8Xm.x.X.| | } | | E } E ) E E ) ) } [ ..} X...X.X.X.....{ { X.X.....{ ..X...........` ..) ........X.X.X.X.[ R I H V l h F V h h j d k k 0 0 8 > * $ + @ # @ O # # # # # O O . O O O X X X X X X X X   o o o X   o & o X o X X % + o % + X X O O + O + @ + + & = - d m.GXGXbXlXpXpXiXuXaXyXyXaXyXkXVXkXaXyXxXaXxXaXaXpXiXpXaXaXaXaXxXxXcXaXaXaXpXpXsXsXsXsXsXiXaXaXpXyXyXpX8XpXpXlXlXpXpXsXqX0XsX0X9XwX9X9X9X9X9X;XwX9XwX;X;X3X9XwX7XwX3XpXzXzXGXGXGXIXIXGXGXGXsX0X;X]..X*. .@.Q Q L K F x v f f t t t t d g g f f g c c c c v v p b b b b v v v v f f p r u r 1 1 u y y p y r r p i e u a a p p y y y y , , , , , : , y , y y 9 9 y y y 1 y , , y 1 r r 0 0 8 8 9 6 7 9 y 9 9 r 0 0 0 < 0 0 0 0 0 r 0 r i d k e q q q r r r y p y p p b y b y y y ",
"rX:XrX,XrX,X:X,X,X,X,X,X:X,X,X-X1X1X;X-X,X5X>X5X,X>XrX>X>X:XrX:X:X:X:X,X:X:X:X,X:X<X:X:X<X=X=X=X:X<X:X:X:X:X:X:X:X:X>X,X>X>X,X>X>X5X>X:X@X+X:X+X:XOX+X:XOX@X+XK.%XOXOX:XOX=X%XOXOXOX+X:X+X@X@X5X+X>X>X>X>X>X>X>X>X:X>X:X>X:X>X>X,X:X:X:X:X@X=X=X=X+XOX-X+X).=X-X:X-X>X-X:X,X-X5X>X-X:X-X-X-X,X,X:X<X<X<X:X,X-X:X>X<X:X:X>X;X:X>X5X>X5X>X7XeX5X,XtX,XiXiX,X,XeX,X9X,X9X,XiXeX0XiXtXeX7XtXtX7X7X7XyXtX6XtXtX6X8XuXyXuXyX5X5X7X,X,X,X7XtXtXtXtX7X7XyXtXyX7XyX7XyXtXiX8XyX7X7XyX7X8XpXyXyXpXaXyXyXiXaXyXtX7X7XyXtX7XyXyXaXxXxXaXyXuXaXtXuXkXuXxXkXkXgXfXfX6X8XH.x.| | | | | | | ) } ) ~ ) ) ) ) } _ ..X.X.....X..........._ ..| { X.....) / ) ` ../ ............/ I I J G F l h j h h h h j j 5 k B w w 8 8 $ $ O O @ X O # # # . # # . O . O O X   X X o X   o X X o X o o o X o X X   X o + X O X   X o O % O + + % + o * 5 z m.GXGXUXpXpXpX8X8XlXiXyXyXpXyXyXyXaXaXpXpXaXaXpXaXiXaXpXaXaXaXaXaXsXcXsXaXiXiXiXsXsXsXsXsXaXaXaXaXaXyX8XqX8XqXiXqXwX0XqX0X0X0XwX9X9XiXiX9X9X9X9X9X9X;X3XwX3X3X3X;X3X(.~.Q.C.b.j.4.,.,.>. . .@.} ~ { [ T K K H F F v j f d t d f d f 9 t f f j g x v c x x b b b b b b f s s p p p y u p b r y r r 1 y b p p i a a a p u u u r y y , y y , r y , , r y y y y y t y y y y , y r y r , 0 q 0 q q q 9 9 r r r r 0 u u u u u 0 r 0 q r t k i k q k q u t r r r y u p u y y y y b , ",
"eX,X,X:X:X-X:X,X,X-X5X;X,X-X-X3X-X-X1X;X-X>X5X>X7X>X>XeX%X>XrX@X:X:X:X%XrX:X>X<X>X:X:X-X=X=X=X=X<X<X:X,X,X:X:X:X:X:X:X:X:X>X>X>X5X5X>X>X>X=X@X=X:X>X:X+X>X+X@X-X@X:X@X:X=XOX%X:XOX@X:X@X@X@X>X@X@X@X@X>X>X>XrX>X,X:X:X:X>X@X>X>X:X<X:X-X>X>X-X-X-X>X1X>X1X,X-X-X-X-X:X:X-X-X@X-X1X-X-X-X>X=X-X-X:X<X<X,X,X,X<X,X:X,X5X,X-X,X,X,X7X5X7X,XtX7X7X,XtX,X,XeX,XdX7X9X9X9XeX,X0XtXtXiX7XyXtX7XtX7XtXyXtX7XtXyXyXuXyX6XyXyXyXyXiX7XtX0XiX0XtXiXtXyX7XyXyXyXyXyXyXyXpXpXyXpXyXaXyXpXyXyXyXyXiXyXyXpXyXyXpXyXyXyXyXyXyXaXyXyXyXyXaXyXiXyXyXyXtXyXuXkXkXuXkX6X6XkXuXW.D.r.| ^ | | } ^ E [ ) E ) ) ) } _ .._ .._ .._ _ _ _ X._ ..{ | | } } ....) ..} / ` ..` ......} Y P N C V V l j j j j j N j k B 5 k k w 6 6 6 $ # # # O O . O . O . O : . : O O O       O   X o     X X X X   X X & o o o   & X O + $   + + + $ + + + o   * k m E wXGXGXbXzXqXiX8XaXpX7XyXyXaXaXuXaXyXiXqXiXyXiXpXpXpXaXpXpXpXiXsXiXdXsXVXsXVXVXaXaXsXuXaXaXaXiXaXaXxXyXyXyX8XqX8XiXiX4X7X;X;X7X0XiXsXaXiXsXsXsXsXiX0XsX9XwX9X3X9X].].b.1.+.^ E L L K J H K K K K K J H J l j u a a d h g f d g j j d f f f f f f f p v b p p b u b p b p b p b p p p p p p r y y i t y u p p i p d a i i u t 0 0 t t 0 0 9 9 9 , 9 , y , y y y r 1 r 9 r r 9 r r 0 1 0 0 8 0 , 0 0 0 , r 9 9 , y , , , : 8 9 9 0 q q q k e q q e e 0 0 r u r p r b b y y y y r ",
":X,X:X:X:X=X:X-X-X;X;X-X;X,X;X-X;X-X-X-X;X-X,X;X,X>X>XrX>XeX:XrX:X%X:X:X>X:X-X:X<X:X<X;X;X=X[.;X:X<X,X<X,X,X:X<X,X:X>X:X>X=X>X:X>X>X>X:X:X:X:X=X:X=X+X:X+X@X@X+X=X@X:X@X%X:XOX:X:XOX:X@X5X@X@X@X@X+X>X@X>X>X:X:X:X>X>X:XrX>X>XrX:X:X:X<X>X>X>X@X>X1X>X-X,X-X:X;X,X,X,X-X>X5X>X#X>X@X-X@X-X-X:X:X<X:X<X<X<X,X,X,X,X,X,X,X,X,X5X,X7X>X7X5X>X7X,XtX,X7X7XeXtX,XeX,XdX9X7XdXdX7XyX7XyX7X6XtX7XyXuX7XtXtX7X7XyXyXyXkX8XyXyXtXtXeX9X,XiXeX7XyXyXtXyXyXyXyXyXyXiXyXiXyXyXyXaXyXaXyXaXyXyXyXyXaXyXyXaXyXyXyXyXyXyXyXyXyXaXyXaXpXyXyXaXyXaXtXyXyXkXkXkXkX6XkXkXkXuX$XF.t.+.^ | | } [ E E ) ) E ) / ) ..} ......_ _ q._ 9._ ..} { } ) | [ _ } ..} ..[ } ......} ` R P N N N N N N j N h l j j l k k 5 5 7 6 6 2 2 3 # . # . . : O O O . O     .   O   O O O   O     o   o   X X X X X o   o o o o X O O $ X + + + = + = o o o * e J  .sXGXGXGXsXsXpXiXpXaXyXyXaXyXyXaXaXyXqXiXqXqXiXpXaXaX8XaXpXsXsXsXsXsXsXsXaXdXiXiXiX8XdXdXdXtXtXyXaXiXxXvXxXpXqXqXqXqXpX0XwX9X0X7X,X,X>XrXeXyXiXiX0X3X}..X]..X].[.A.Z.o. .^ E L J F n m n n n n x n n m l l z l u d g x j d f g g g d f s s f f b b p b p b p u b p p p b p b p p p p p y i t r i y p p u i p p d p i i i t u t u t 0 q w 0 9 , y , 9 9 y y , y , r r 9 9 r r , 9 0 0 0 0 < < < , 0 0 1 r r 1 , y 9 , 9 9 9 9 0 w 0 e e q q w e w w w 0 0 0 u u u u p p y r y y ",
",X,X>X>X<X:X:X;X,X:X;X,X-X,X-X;X;X-X;X|.-X>X>X,X>X>XeX>X>XrX>X:X:XrX:X:X:X:X:X:X:X<X;X:X;X[.[.;X<XrX<XrX:X,X:X,X:X,X>X,X>X>X>X>X5X>X>X>X>X+X:X:X@X>X=X-X@X@X@X>X>X@X%X:X=X@X=XOX:XOX@XOX@X@X@X@X@X>X@X>X>X>X>X>X:XrX:XrX>X>X>X:X:X<X:X-X>X:X+X>X@X>X-X5X-X,X-X;X,X5X-X,X>X>X1X>X>X-X-X-X:X-X:X-X<X<X<X,X,X,X,X,X,X,X,X,X5X,X7X,X5X5X5XtX,X7X5X7XtXeX7X,XeX7X7XdX,XdXdX,X7XtXyXiXuXtXtXtXtX7XtXyX7XtXyXyXuX8XyXyXuXyXyX7XtX9X0XdX7XdXiXtXyXyXyXyXuXyXyXyXyXyXaXpXaXyXaXyXaXyXaXyXyXyXyXyXyXaXyXaXyXaXyXyXyXyXyXaXyXyXaXyXaXiXyXaXaXyXyXaXkXkXkXkXkXkXuXuXyX>XW.x.+.~ | } E E E ~ [ E ) / ) [ } [ ) ........_ _ _ .._ .._ ) } [ } } } ) } [ / Q / ` ` U G N d k k j B j N V h j j j k k k 7 4 4 4 2 2 # # # # @ . O # O O O O O O O     O O . O       + X   o o   X X & @     o o & o & o X + O O + + + = $ + = + o o = d L $.sXGXGXcXqXiXiXyXyXkXyXyXaXaXaXyXuXtXpXiXyXiXyXpXyXyXaXpXpXsXaXiXsXsXiXiXiXaXsXsXsXVXVXxXaXiXaXVXVXzXyX8XyXiXqXpXpXqXpXpXwX0XiX,X:X(.>X@X+X=X,X[.J.N.J.N.<.=.+. .~ ~ ~ R Y J m m g g n x n n x n g x m l n a a p p b v f f p g g a i d f f f v v p f b p p u b u p p p p p a p p a a r p p u p i i i i i t i p i d i i u i q 0 t 0 u 0 0 0 9 9 9 9 9 , y , y r r y 1 r r 9 r r r 0 9 0 , 0 > 0 8 0 0 , 9 9 , 9 9 9 , 9 9 9 9 0 q e q e e e w w w 0 0 0 0 0 r r u i i y r r r r ",
"eXeX,X,X,X,X:X,X-X,X;X,X5X-X,X-X1X-X3X-X,X>X7X>X>X,X>XeX>X>XrX:X:X>XrX:X>XrX:X,X,X;X-X;X=X;X;X=X<X<X,X,X:X,X:X,X>X,X,XeX>X>X>X-X-X>X>X>X>X:X=X=X=X:X@X>X-X>X-X@X@X>X-X@X:X:X:XOXOX:X@X:X>X@X5X@X@X@X>X@X>X%XrX:X:X:X>X:X:X>X>X>X=X:X:X:X>X:X-X-X-X1X-X-X-X-X;X-X,X,X5X>X1X>X>X-X@X@X-X-X-X-X;X:X<X<X,X<X,X,X,X,X,X,X7X,X,X7X,X,XtXtX6X5XuX5X7XeX7X5X7XtX7XtX7X,X9XdX0XeXiX,XtXyX7XyX7XyXyX7XyXeXtXtX8XuXyXyX8XuXyXuXyXyXtXiXdXeXdX0XtXtXtXyXtXyXpXyXyXyXiXyXaXyXyXxXyXaXyXaXaXyXiXyXaXyXyXpXyXyXyXyXyXyXyXyXyXyXyXaXyXaXyXaXpXyXiXtXaXyXxXuXkXkXkX$XkXkXyXeX+XG.o.} ^ } E ~ T T / ) / T / ) / [ ) ) ) _ ....] _ ..) } ) ) ) [ ) ) } } / / R U P P Z N s k k k k d k j j k d k k w w w 4 4 4 3 2 2 3 # @ # O X . X . .   O     . . . .     O   O .       X       X   X o X X & o o o o o @ O O O + + $ + * * + = -   = a [ C.zXUXGXzXpXpXyXyXaXaXyXiXyXaXaXaXyXaXiXiXiXtXiXpXaXlXsXaXaXsXsXiXdXiXiXiXiXaXiXdXtXdXaXyXyXyXiXpXaXaXGXZXbXGXGXbXUXGXsXpXsXpXqX-XL.G.O.+...| { ~ R G x u p p v m c F m K m n H n n x n n n n n n n n l n x x l b b b p p b p p a p f f f g f f f p p p p p p u b u a b u a a p u u p p u u i i i i i i p i i i i i i t t t t u 0 t 0 q 0 0 0 r 9 y y y , , y , y 1 r 9 9 r r r 9 r 9 0 0 , 0 0 < < 0 1 1 9 , , y 9 9 9 9 9 y q 0 q e w e w w 8 w 0 8 0 0 1 r r u r u t i t r r ",
",X,XeX:X,X,X,X7X,X,X5X;X,X1X,X-X-X;X5X-X,X5X7X7X>X>XeX>X>X>X>X%X:XrX:X>X,X>X:X,X:X;X:X;X:X;X;X:X,X,X:X,X:X,X,X:X,X,X>XeX>X>X:X>X>X>X>X:X+X:X@X:X>X>X>X@X>X@X-X@X>X@X>X>X>X:X:X:X%X:X:X@X:X@X5X@X>X5X@X>X>X>X>X:X>X:X:X:XrX:X:X,X:X:X:X:X:X-X+X-X-X+X-X-X-X-X-X-X,X,X5X>X>X>X5X-X-X-X-X-X>X>X-X,X,X,X<X,X,X,X,X>X7X,X,X7X,X7X,X7X5XtX7X5XuX7X5X5XuX7X7X7X7XtX7X7XdX0X,X9XdXtXyXtX7XuXtXyXiXyXyXtX7XtX7XyXyXtXyXuXyXyXyXyXiXeXiXiXtX0XtXiXyXyX7XyXyXyXyXyXaXyXaXaXxXyXaXaXaXaXaXaXyXyXaXyXaXyXyXaXaXyXyXaXyXlXyXaXaXyXaXpXpXyXpXaXiXiXtXyXaXaXyXkXyX8XyXyXpXyX:XK.g.} } ~ T ) T T Q T Q / / ` ` [ } ) ..) 6._ _ ) / ) ) ) / ) ) ) / ) / T R P F Z j d k k k w k q k i k q 1 z 5 5 8 4 2 4 2 2 2 % 3 # @ @ @ X X X X . X X X   X .     & .       O X             X o & X & o & o o o o o @ & o O O + + + * * $ * $ = = * l +.3XUXbXvXzXaXpXyXyXyXxXyXyXyXaXuXaXuXaXyXaXiXaXyXaXaXpXaXaXaXaXsXiXiXdXiXpXsXsXsXVXsXsXeXeX>XeXtXyXiXpX1X-X-X5X5X3X1X3X(.~.H.C.l.g.+.{ } ) E E E R J m n p g p i x p g c n n n m F m n l n n n n x l g b m x m b b b b p b p p b b p p i f j g g f i p u p p p u p a a a a a u a u e u u i e a e i a i i i i p t i t i u t r t q r 0 q 0 0 0 0 , y y 9 y , , y , y 9 r r 0 r q q q 9 r 9 0 0 w 9 w 0 0 , , 9 9 9 , 9 9 q 9 q q e q e t q 0 w 0 w , 8 , 0 < r 0 r r i q r t q 0 e ",
",XeX,X,X>X,X:X>X,X-X,X5X;X5X-X,X>X1X-X-X,X7X>X7XuXeX>X>XeXrX,X:X>X:X>XeXrX>X,X:X,X,X,X,X:X;X<X-X:X:X:X<X<X-X:X,X,X>X>X>X:X>X>X>X>X@X-X>X>X>X>X=X-X-X>X>X>X5X5X5X@X>X>X>X:X@X:X:X=X:X@X+X@X>X@X>X@X@X>X@X@X>X>X>X:X,XrX:X:X:X>X:X<X<X:X:X:X:X:X+X-X-X-X+X-X:X-X;X>X,X-X,X1X5X-X>X-X@X-X-X:X-X,X;X,X<X:X,X,X,X,X,X,X,X>X,X5X,X,X5X7X5X6X5X7X>X7X5X7X5XtX,XtX7X7XeX,X0XiX,X7XeXtXyX7XyXtXyXaXtXtXuXiXiXtXtX6XtX6XyXyX8XyXyXyXiXiXdXtXtX7XiXyXtXyXyXaXaXyXaXyXaXyXaXaXlXxXyXyXyXyXaXyXaXyXyXyXaXaXyXkXaXxXyXyXaXaXyXaXaXaXaXaXpXpXiXiXaXaXyXaXyXlXkXkXuXtXyXpXyX,X:Xl. .} ~ T T T T / Q / T / T / [ / _ _ ` _ ) ) ) ) / / / ) / / ) / / T G P H Z h k s s w w k k k e u q e 1 1 5 5 8 8 * 4 2 4 2 % $ @ $ # % @ X X X X . X X   X   . .   . &           X X   X     & & & & & o & &   o o o o o O O o + + + $ * = + o + * l O.zXGXGXbXxXlXyXaX8XyXaXyXyXyXuXyXaXaXaXaXpXaXiXaXpXyXpXyXpXiXiXaXiXiXsXAXcXsXsXsXdX9X9XiXyXeXyXiXtXuXeXuX>X+X{.[.H.B.c.;.;.O.#.o.@.{ [ R I I J J H F n x u p i p x f v c g c m F m n n x n l n n l g x b a x x m b b p y p p p p p p y g f f p i f a a u u u p u u u u u u u u i u a e u i a i a a e d i f i i i t u u q u t e r 0 0 0 w 0 w 0 9 9 , 9 y y y y y y r r 9 r q q r 9 q 9 0 0 0 0 0 0 0 8 0 , , 9 9 9 9 r 9 y q t t t e 0 0 0 e 0 0 0 0 0 0 0 0 0 t q t q u e 0 e w ",
"eX>XrX<X>X>X>X>X>X,X,X5X,X,X>X1X-X;X5X5X,X7XtXeXeX,XeXeXeXeX,XrX,XrXrX>X,X,XrX,X,X>X,X>X;X-X;X;X:X<X<X:X:X:X:X>X:X:X>X>X>X>X>X>X>X>X>X:X:X>X>X>X:X>X>X>X>X5X>X5X>X>X>X>X>X>X:X=X=X:X:X:X>X>X+X@X1X@X@X@X@X-X-X>X-X:X:X<X:X<X:X<X<X:X>X>X>X:X-X=X=X-X-X=X=X-X=X-X:X-X-X:X>X>X-X5X-X+X>X@X-X>X>X,X,X,X,X,X,X,X,X,X,X,X,X,X,X,X,X:XeXtXuXtXtXtX>XtX7XeXtXtXtXtXtXeXeXdXdXeXtXtXtXiXyXtXyXyXtXiXtXdXtXiXtX7X7XyXyXyX7XyXyXyXtXiXiXiX0X7XtXtXiXtXyXyXyXpXyXyXyXaXaXaXaXaXaXaXyXaXpXyXaXaXyXaXyXaXyXaXlXyXyXxXaXyXyXaXaXzXaXaXaXaXaXiXiXiXiXpXaXkXaXyXxXyXyXyXpXiX7X-XG.+.| [ T E R T T T T / T Q / / ) ] ] _ _ ) _ / / / / / / / / / / R G Z d B s s s k k q k k k k u a u 1 z 5 5 5 w * 5 4 4 4 2 2 % $ $ $ % + + @ X @ @ X X @ O X   .   .     . . & X &     X X X o & & o o & o o o o o o % @ O X X + $ * $ * * * o o + l $.GXUXGXcXvXvXlXkXyXyXlXyXyXaXuXyXyXuXaXVXyXaXiXtXtXiXpXiXyXiXiXdXdXtXdX,X9XsXAXGXGXGXJXGXGXGXGXGXcXsXaX5X/.n.c.$.| ~ E H H H H G H G H J J J F l l g g g i g f f x f f c c n n n c g g x n x l l g l g l b a b u b u b r y b p p b u p a d a i i i a p p u p u p u u p u u u u u u e i i e i i d i d i i i i i i t 0 t t 0 r r r r 0 0 w 0 0 r , 9 , y , y 9 y , y 9 r 9 q y q q q q 0 q q q q 0 w 0 0 0 , , , , , 9 9 9 q r r t r t w 0 < 0 0 < 0 9 0 0 0 q q e t u i e e e w e ",
"eXeXeX,X>X,X>X>X,X1X,X,X5X,X5X5X5X-X5X,X7X,XtXtXuXtXtX>XuX>XeX,X,X:X,X>X,XrX,X,X,X,X>X,X:X,X<X:X:X=X:X:X:X-X:X:X>X:X>X>X>X>X>X>X-X>X-X>X-X>X>X>X-X>X@X5X>X5X@X>X@X>X>X>X>X=X:X=X:XOX+X:X:X-X@X>X@X-X@X5X5X>X>X:X:X,X:X:X<X:X<X:X>X,X,X:X>X-X-X-X>X=X-X[.=X=X-X-X-X-X>X-X-X5X,X5X-X-X-X>X>X>X5X,X,X,X,X,X,X,X>X,X,X,X5X>X5X>X,X,X>X>X>X,X,XeXtXeX,XeX,XeXeX,XtXeXdXeX0XeXtXeXtXtXtXyXyXiXiXtXtXtXiXiXyXiXyXtX7X7XyXtXyXtXyXpXiXiXtXiXtXiX7XiXtXiXyXpXaXyXaXyXaXlXxXxXyXyXyXyXyXaXyXyXiXyXaXyXaXyXyXaXyXaXlXyXaXyXaXaXaXaXaXaXiXpXiXaXpXaXaXaXyXaXxXyXtXyXpXiX7X,XH.+.| } T ~ R ) T T / E ) T / ) ) ) _ ) ] _ / ) / / / I I / / ) ) Y F k w q k s k s k q q e k d l z z z z e z z 5 5 5 < 5 4 4 % 2 % 4 $ $ + % o @ + X @ @ # O # O   O   &   . O   . X & X X &   & & & & & o o & o o % % @ @ X X X o + $ * $ * * + o $ l $.GXUXGXcXcXxXzXaX8XaXlXyXyXyXyXyXuXyXuXrXaXdXtXtXtXyXiXiXiXiXtXdXeX:X:X,X;X;X}.=X=X].K.=XG.F.l.l.r.+.| E L I E E L J L m m h g g l h l g l z a a i d g x g c x v n v c m m c n m n l g g x a a a a a g a a a p u p u u u p u b u u p u a a d i i a e a u a u a u u u u a a u a i i i u u i i i i i i d d p i t t t u q 0 u q r 0 0 0 0 0 0 8 8 , , 6 9 , , , y y , , y q y 9 q r q 0 w r 0 q t q 0 0 w 0 9 6 9 r , , 9 8 y 0 q q 0 0 0 0 0 < < 0 , 0 0 0 q 0 t t q q i q 0 q 0 w ",
"eXeX>X>X>X>X:X>X>XtX>X>X-X>X>X-X-X-X>X5X,XtXuXtX,X,X>XeX>X>X>XrXeX:XrX,X:X>X,X:X,X>X:X,X:X;X-X,X:X,X,X:X,X,X>X:X>X>X>X>X>X>X>X=X=X@X:X-X-X>X-X@X>X@X@X>X+X@X>X>X@X>X>X>X-X>X:X:X>X:X=X=XOX=X+X-X>X@X@X@X-X>X+X>X=X:X:X:X=X:X:X<X=X>X>X-X:X:X=X:X:X>X-X-X-X-X-X=X>X5X>X1X,X>X>X-X>X>X:X-X>X-X-X>X:X-X,X5X,X,X,X,X,X-X,X-X:X,X,X,XeXdX,XdXdX9XeX<X>X,X,XdXdXeXeXeX,XeXdXdXeXtXuXiXyXiXiXyXtXtXyXdX,X7X7XtX7X7XtX7X7XtXyXtXiXiXiXiXaXiXiXiXaXiXyXpXiXiXpXyXaXyXiXaXaXyXpXaXyXaXaXyXyXyXiXyXtXyXtXyXyXyXyXyXaXyXaXaXaXpXaXpXyXiXsXaXsXaXpXpXaXaXaXaXyXyX7X7XeXtXtXtXyXQ.r.) } E ) W ) I E I / E E / ) ) ) _ ) ) ) ] ) / / I I ( ( I G P j q 9 2 3 # $ # 2 w 8 2 w j z C C C z C z z z 5 z 5 5 5 5 5 4 4 4 4 4 4 4 4 2 2 4 2 $ $ $ % % + $ $ + O O O X X X &   & X X . & . @ & @ o % X o X % @ O # @ o + + + $ * * * % * * H m.GXGXcXaXyXyXkXyX8X8XaXVXpXaXyXaXaXuXtXtXiXaXtX,XyXpXpXsXcXsXUXsXGXsX9XdX,X<X<X=XG.j.O.~ E [ T J n l l z d e a z l m m m l m H H n l h l l g l g a g g c h x x x x v v c c m n n m x g g g g a a a z g g g d a d e e e p p a p a i a i a a e a e a i u i u u u p u p u u u p r p p r r r t y k t t y t i t t i t t 0 t i i i t i t q 0 0 0 0 < w 9 r q 9 y q y 9 q q r 9 9 9 q q 9 q 9 0 w 0 8 0 8 0 8 0 9 9 0 w 0 0 8 9 , 9 9 0 9 r , r 1 r r r r 0 0 q r q q q q d d k u q r q ",
"eX>XrXuXrX>X5X>X>XeX5X>X-X5X5X>X>X-X5X>X7X7XeXtXeXtXtX>XeX>X>X:X:XeX,X>X:X,X:X>X>X,X,X:X,X:X,X:X:X:X:X,X>X:X>X>X=X>X>X>X=X>X:X+X:X>X=X>X>X>X>X>X>X>X-X-X>X-X>X>X>X5X>X>X:X>X-X:X=X:X=X=X:X+X>X:X>X-X>X-X-X@X@X-X>X=X+X:X=X:X=X=X:X=X>X:X-X-X-X=X,X-X;X-X-X-X+X-X-X5X5X>X>X,X>X-X-X-X-X-X-X-X>X-X-X,X,X,X,X5X,X5X7X,X,X,X5X,X7X,XdXdXdXdX9XdXrXdX,X:X9X9X9XdXdXdXeX,X,X,XeXtXtXtXtXtXtXtXiXtXdXiXiXiXtXdXiXyXtXyXyX7XtXyXiXyXaXiXtXpXiXpXiXiXiXiXyXpXiXyXyXaXaXyXyXyXyXyXyXyXyXpXyXyXyXuXuXyXtXtXyXyXyXyXyXaXaXiXpXaXiXiXaXaXiXsXiXpXaXaXaXaXyXkXtX7XtX7X7XtXyXiXlX-Xx.| _ E _ I E ) E E W / E E / ) ) ) ) ) ) ) / / / I I P P I P F B w 7 2 # 6 h B h d w 4 k H W C _ W W C C C z z z 5 5 5 5 5 w w e e w e w w 4 4 8 4 4 $ $ $ ; ; $ $ % # + # X X X   X X   X & & & @ & @ & % o o X X O @ O # % + + % % $ * $ $ * * F x.GXcXaXlXkXlXvXvXyXaXxX7X6XuXtXyXdX7XrXrXuXrXrX>X,X7X7X;X0X<X;X9XdXdX<X].G.G.M.g.O.@.} R Y Y Y G l j j j z d a b l l n m m H m m F Z l g l l x l g g g x v h g f x x x c c c n n c h g g g i i e d a j j j z d d d e a b u z u a a a a a e a e a a i u i p u u u u r r u p y p r r y p y y t t y t y q t u i t i u u 0 t t t i t u t 0 0 q e 0 0 0 9 9 q 9 9 q t q 0 0 9 9 q q y q q 9 q 0 q w 0 0 8 0 8 8 9 9 9 0 , 8 , 9 9 r 9 r r 9 , r 1 , 1 r r r r q 0 9 q q t d q r q t q ",
">X>XeX>X>XeXeXuX5X5X5X>X5X5X>X>X>X>X>XuX,XeXeX7X5X,XeX>X,X>X:X:X>X:X,X>X,X:X,X:X,X,X,X,X:X:X,X:X:X:X<X:X:X>X-X:X:X>X>X>X>X:X-X:X+X:X:X>X>X>X-X>X>X-X@X@X>X-X-X>X>X-X>X>X-X>X=X:X:X:X=X:X=X>X:X-X-X-X-X-X>X-X-X>X@X-X=X-X=X=X:X:X>X>X:X:X:X:X-X;X,X,X-X-X-X-X-X-X5X>X5X,X>X-X,X,X-X:X-X:X-X>X@X-X>X-X>X5X,X>X,X5X7XeX7XeX,X7X,X,XdXdXdXdXdX&XeX<XrX<XdX&XdXdX<XdXrXeXeXeXtXtXuXtXtXdXyXuXdXdXeXiX,XtXtX7XdX7XtXtXtXtXyX7XyXyXiXiXiXiXiXiXiXiXiXiXiXiXaXiXyXaXaXyXyXaXyXaXaXyXaXyXtXyXyXyX7XyXyXyXyXyXiXyXiXyXpXaXiXaXaXiXiXaXiXaXaXaXaXaXpXaXaXiXyXtXtXtXtXyXpXpXxXuXQ.r.| E W I W ) E I I W E E ) ) ) ) ) ) / ) / T R Y P P U P P N N k 8 2 2 k P T @.} I P I ) t._ t._ W _ C C C z z z z k 5 5 e 5 e w w w 5 w 5 w w 2 8 2 4 2 ; 4 $ $ $ $ # % O O @ @ . @ . O & @ @ & @ % o & o o @ @ @ # # O @ % % + $ $ * * 4 % = H F.GXGXpX7X6X8XiXyX8X7XuX6XeXtXyXaXaXiXuXeXdXeX:X,X,X7X;X;X{.].J.V.G.P.z.o. .@.} [ E R Y J H H H m h g l l a a a l m l m l n n H F n n h x l n g x g n l h g g b p g a x x x x c x g g g g i a a a a j g l j j j d z e d a a z z a a a a a a u a e e u i i p i p u p p r p p y u s y r y 9 q y y y y y y q u u i i q u t u t i i i t u u q u e 0 0 0 q q y 9 9 9 9 0 0 q 9 9 q r r 9 9 q w 0 0 w 0 0 0 0 8 9 9 9 0 8 0 8 8 < 9 9 9 y y , r , , , r r r r q 0 0 w q t k u t t q q r ",
"rX>X>X>XuX>XeX>X,X>XuX7X5X,X5X5X>X>X>X5X7X>X5XeXeXtX5XeX7X>X,X:X:X,X:X,XeX>X:X,XeX,X>X,X,X:X:X:X:X-X:X:X>X-X>X>X+X:X-X-X>X@X>X+X=X:X-X>X:X@X>X@X@X>X5X>X@X@X>X>X-X>X-X-X-X=X:X=X=X:X:X:X-X:X-X,X:X>X,X>X>X-X>X>X>X-X>X+X:X:X=X-X:X@X-X-X:X:X:X=X-X:X-X-X-X-X-X-X-X5X>X5X5X,X,X-X:X-X>X-X-X@X>X1X>X5X,X>X>X3X,X,XeX7X,X7X7X,XeX9XdXdXdXdXdX<X,XrX<XrX<XdX<XrX9XrXeXeXeXeXeXtXeXtXrXaXVXdXuXdXiXdXiXiXiXiXiXiXyXtX7XtXiXyXyXiXpXyXiXyXiXiXtXiXiXiXaXiXiXaXaXaXaXxXaXyXaXyXyXaXyXaXaXiXpXyXpXyXyXyXyXyXyXaXaXaXpXyXaXpXiXtXaXiXaXaXpXaXaXlXpXaXaXyXyXyXyXyXyXyXiXyXxXkX+XQ.| E W E I W E E ) I I E E / / / R I / / T / U U P P P P P N A j k s w U u.(.aXVXrXOXW.OX%X$Xt.t.&.&._ W C z z z z z V z z j e z e e k k w 4 k w w 4 2 4 8 6 4 6 $ $ $ $ # O # O # . X O . . & @ @ & % o @ % % @ @ @ # @ + $ $ % % $ 4 * 4 = % G L.GXGXaXyXyXyXiXyXyX7X7XyXiXyXiXdXaXaXiXtXtXrX>X>X7X;X}.V.k.*. .@.[ ~ Q R Y L G K K K G G m n n F l h g l l l a l m n m m n m n F n c c g a m l n n n n c g x g g p a p x f g g g g g g g d i i i a a j j j j z d d a a u z a e e z d e a a z u a u a u u i i u p r u r u y y y r y r r y y q q q q q q t t t i u t t e t e t u t i i i i u u q q r 9 9 9 9 q 9 w 9 w w 9 q 9 r t q r 0 w 0 0 0 8 8 , 8 8 , 1 8 8 , < 8 , 0 9 r r , y y y , y y , r y 9 r 0 0 0 w q q t t t t t t ",
">X>X>XeX>XuXeXuX>XuXuX>XuX>XuX5X@X>X5X5X>XtXeX5XtXeXtX,X>X>X,X:X:X-X,X:XeX:X>X,X>X>XeX:X:X:X:X-X>X=X:X-X:X>X>X-X-X>X@X>X>X>X>X+X:X:X:X>X>X>X5X5X@X>X>X@X>X>X>X-X>X-X5X-X-X-X:X<X=X<X:X;X-X,X,X-X<X-X:X;X>X>X1X>X>X-X>X>X:X-X,X-X-X>X>X-X-X<X:X:X<X-X-X-X-X>X-X1X>X1X>X>X5X,X,X>X-X:X-X-X>X5X>X>X>X,X>X5X5X7X,X7X,X7X,X,X,X,X,X,XeXdX<XrX>X,XrX:XrX>X>XeX,XeX>XeXeXeXeXtXuXeXtXeXuXdXuXdXdXtXeXeXiXiX0XdX7XiXiXiXtXiXyXtXiXyXyXiXyXiXiXiXiXeXiXdXiXiXaXiXaXxXaXaXyXaXyXaXyXaXyXaXyXpXyXyXyXaXyXaXyXyXiXyXyXyXpXaXaXiXaXaXaXiXaXiXaXaXaXlXxXaXyXaXaXyXyXyXyXyXyXyXxXpX5X@X&.) I E ) E E E E I E E R E T T R Y R T T Y U P P P V P P N P N N P A +.oXeXaXVXuXtXVXyXZX%XkX$XW.W.&._ W C z z z z l z z z z z z z e k w e 5 5 4 w 2 4 * * 4 $ $ $ $ # # $ # # # . # . & 3 X & % % o % o % & % @ @ # # % $ + % $ 4 4 $ * % o G ~.IXGXUXzXzXyXyXyXiXyXiX,X:X:XOX:XoX].K.oXG.F.l.b.V.N.<. .^ ~ Q L K K H H H G m G H G K H m l n n l n g n n l n m l m m x n c n c c c c x x g m h n c c g g g j a a p a d a a d g g g a d i i d i i g f d j d j l a u z a a a a d a u u a u a a u i u u i i u t y r i y i t t t r t r r 0 q 9 r 9 q r q t u t u u t u t t t t u i t i i i e i u r q r 9 9 9 9 9 8 w w 9 r 9 9 r q 9 r r 0 , , , > , , , 8 8 , 8 8 0 8 > , , , , , y , y y 9 9 , 9 r 0 r q 9 0 9 w 0 w 0 q r 0 q t ",
"%X>XrX>XeX>X>XeX>XuX>XuX7XtX5X>X-X>X>X5XtXeXtXtXuXtX,XtXeX>X,X:X,X:X,X,X,X,XeX,X,X,X,X>X>X>X:X:X>X>X>X:X-X:X>X>X>X>X:X:X>X@X>X:X=X:X>X>X>X>X@X>X5X@X5X5X>X>X>X>X-X5X-X>X:X:X=X=X:X=X:X<X,X:X:X,X<X;X,X:X-X,X>X5X>X1X1X>X-X>X-X:X:X:X>X>X:X:X<X:X:X,X<X,X1X-X-X5X5X5X7X5X,X,X-X,X,X;X>X,X>X5X5X5X5X5X5X,X5X7X7X,XiX,X7X,XeX,X7XeXrX,XeX,XrXeX,X,X5XeXeXeXeXeXeXeXdXeXeXrXeXtXeXuXtXtXuXdXeXeXdXeXdX,XtXiXdX7XtX7XtXtXtXiXyXyXiXyXiXtXyXiXiXiXiXiXiXsXiXsXpXaXlXyXaXyXaXyXpXyXaXyXyXyXyXyXtXaXyXiXaXpXyXaXiXaXiXyXpXiXiXpXiXpXiXaXpXaXaXaXyXaXxXyXaXaXyXyXtXtXyXtXcXxXpX>Xz._ I R I ) / E R T Y R E R E E R Y Y Y Y L K P H Z P A H Z U P U / / u.:XrXtXrXrXuXuXuXuX%XuX%X$X$XW.t.&.W C C z j k z e e d e e e e k w 5 w w w 4 8 2 4 2 4 $ 4 $ $ # $ % # # O X . . @ . @ @ & & % % % o @ % X @ @ @ % + % % % $ 4 * % o % J (.GXGXZXxXpXpX7XiXpXpXpXaXeX:XOXK.L.L.P.z.z.0.O.$.;.o. .^ ~ ! L L H H H H m K H H M H m H n h h l h g l l l l l b l l a g x c v c c v x x b b b x v g g g g g f d g a p a d a i i i i d a i p i d p i s a d f i u a u a u u u u e a z u u e e 1 i u u u u r r r p r y p r i i t t r r r 0 1 0 8 9 9 w 0 q q q t t u q t e u q u q u u i i u u q q r q 9 q y 9 6 9 w w 0 9 r 9 , 9 9 0 0 0 8 0 > > > > , , 8 , 8 > < 0 0 0 , y y y , 9 , 9 9 9 y y 9 9 r 9 q q 0 0 0 0 0 0 q u u q ",
"=X>X>XuXeXuXuXuX5X>XtX5XuX7XuX5XuX>XuX7X5XtXtXtX,XtX,X,X,X5X>X,X-X<X,X>X,X>XeX:X>XeX,X>X,X,X:XrX>X>X:X>X:X>X>X>X>X>X5X>X>X5X>X-X:X:X>X>X>X5X@X5X@X5X5X>X5X@X>X-X5X-X-X-X-X:X:X<X=X:X=X;X,X:X:X<X<X<X<X:X;X>X-X5X5X>X>X1X5X,X>X-X>X>X>X>X,X:X:X<X,X-X-X-X-X-X5X1X5X>X,X7X5X,X5X;X;X>X>X,X5X,X5X,X7X6XuX5X>X7XtX7XtX7XeX7X,XiXeX7XtXeXeX:XeX>XuXtXuXtXeX5XuXuXuXtXeXdXeXeXtXdXuXeXtXeXdXrXeXeXeXdXtXdXdX7X,XiXdX7XiXiXiXyXiXyXyXiXiXiXiXiXiXiXdXiXsXiXaXaXaXaXyXyXyXaXyXyXyXaXyXaXyXtXyXaXyXyXyXyXyXyXiXyXyXaXiXaXiXpXiXsXiXaXaXiXaXxXlXxXxXaXaXyXyXtXyXtX5XyX7XyXcXpXiXtXQ.| R E ) I I E T T R R R E E R R Y I Y Y Y P H A P P P P P P ( / ..| u.oXK.oXOX%XOX%XOX%X%XkXkXkXkXW.W.&._ W C z k e e d z z z k z z e w k k w w 4 4 4 4 $ 2 * $ $ $ $ # $ # # # . . . @ @ & @ % % % o % % % @ @ @ @ # @ + % % % $ $ * % o % I K.GXZXcXcXcXpXyXyXiXyX7XiX,X:XK.L.L.P.S.g.0.O.o.+.o. .^ W M M M n g x n K G G K m H m F m l h g g g g g g l g h g n g n g x x g g v g v x b x p f f f f d f g g g a a a a a e a i i a d a d i i p i p p p s t p u u u a 1 u u u u u u u u u u u u 0 r r r r r r r y y i i i i e e 0 w q w w w 0 w w w 0 q 0 0 r t 0 0 t t r t 0 u 0 t k u e u e t q 9 9 q q w 9 w 9 w 9 0 , 9 r , 9 0 0 , < , < < , > < 9 8 8 8 0 8 0 0 , 0 , 9 y , , , 9 9 9 y 9 9 9 9 r 9 9 0 0 8 < 0 0 u u 0 u ",
"@X>X%XuX>X>X5XeXeX>X5X7XuXtX5XeX5XeX5XeXeXtX5X,XtXeX7X7X,X,X;X:X,X:X:X,X,X,X,X,XeX,XeXeX,X,XeXeX>X>X>X>X>X>X>X>X>X>X>X5X>X>X>X>X-X=X:X>X>X5X>X5X@X>X>X5X>X>X>X>X>X-X:X-X<X-X=X=X;X<X:X<X<X,X<X:X<X<X;X,X:X;X>X>X-X5X>X>X,X-X:X-X>X>X>X>X-X:X:X:X-X,X-X>X1X5X-X5X5X5X5X5X5X>X,X>X,X,X,X5X7X5X7XuX7X7X>X7X7X7XtXtXtX,X7X,X7X,X,XtXeXtXeXeXtXeXtXuXtXuXuXtX5XtXuXuXuXdXtXeXeXuXeXeXdXtXeXtXeXdXeXeXeX7XtXeXiXeX7XdXtXiXtXtXiXyXyXyXyXtXiXtXdXiXiXdXiXsXiXpXaXpXpXyXiXyXaXaXyXyXyXaXyXyXyXtXyXyXaXiXyXaXyXaXiXyXpXiXaXiXiXiXaXiXpXpXyXaXyXaXyXaXaXyXtX7X5X5XyX7XyXtXVXtXaX,X(.X.) ) T T R T T E E R R R R E R Y L L L G G P H V Z P P / P / ` `  .u.S.S.S.z.S.S.F.oX%X%X%X%XuX$XW.W.&.W C z z e k e e e 5 e e e k 5 k 5 k 5 k w 8 8 2 4 8 $ $ 6 $ $ # $ # # # @ X & & @ @ @ @ % @ % % @ % @ @ X # O % % $ $ $ 2 * 2 * o * L ~.JXcXzX,X1X=X~.L.L.G.l.O.+.@.@...} [ [ [ [ ) T R E W L M m m n x x n H K M H H m n H m n x l n g g a n l l g l l n n n g g x f h h f j x b p f p p i i g g d g g g a a a e a i i i i p p i p p i i t p y p p t u u u 1 u u u u u u u u u u u u 0 u 0 r , 9 r r y p r i i i u u t u e 0 w 0 0 < 8 w w 0 0 0 r q 0 t e q u q 0 t q r q t t e t r t q q 9 9 q 9 9 8 9 9 0 9 , , , , , 0 , 0 0 < , < > > , , 8 , , 8 8 0 w 0 , 9 9 , : y : 9 9 6 6 y 9 9 9 9 0 9 9 < 0 , < 0 < 0 u e ",
"uXuXuX5X5XuX>XuX>X>XtX7XeX,X,X:X:X+X>X>X,XtXtXtXtXeXtXeX>X>X:X:X:X,X:XeX,X,XeX,X<XeX<X<XeX<X,XeXiXtX,X,X>XeX>X>X>X>X5X>X>X@X>X>X>X>X,X>X7X>XeX5X>X>X5X>X5X5X%X5X+X-X-X=X;X;X=X;X=X<X;X<X=X<X=X=X<X<X<X<X;X:X-X:X-X:X=X-X:X-X;X-X>X;X>X>X;X>X-X,X-X-X@X5X5X@X1X5X1X>X1X,X5X5X,X>X,X>X7X7XyX>XtX5X,X7X,X<X;X3X,X-X,X>X,X>X7XeX>XtXeX:X,X,X,XeX,X,XiXdXtXeX7XtXtXtXtXtXtXeX>X,XeX,X,X,X<X<X,X,X,XeXiXtXeXiXrXyXaXtXeXyXtXaXiXpXaXiXiXaXsXiXiXiXiXiXdXiXiXaXiXaXaXpXaXpXaXpXaXyXaXyXuXyXpXyXyXyXyXyXaXyXpXyXtXiXtXiXiXpXsXiXaXaXaXpXaXpXaXaXiXpXpXyXtXtXyXyXyXyXaXiXiXsXiXiXsX{ +.[ R E R R E T R I R R R R R L L J L K J K G G U U P P ( I / / ..@.@.@.0.u.t.r.t.q.%XW.%XoXt.%Xt.t._ E C z e e d e w 5 e e w e 5 w e w w 6 4 4 8 2 8 8 $ 8 $ 2 $ 2 ; $ # # . # # O . X . X X @ O # % O % # @ + $ # @ @ % # # 2 # 2 6 $ w E b.GXxX8X4X-XH.b.b.h.,.h.| { ) R Y Y / Y R R I W Y L L L K M m m m m H M K M m m M a M a a M m a a a a a a a a a l m m l a j j l j j j d d p f p p p i i i p i p a i p a i i u u u u u i i u u u u u u u p p u p u u u u u u u u u t u i u u u t u r 0 0 r 0 0 r r r t p r r r r 0 0 0 w < < w > 6 8 8 8 9 9 q 9 w q q q k e q q w k q q 9 9 9 0 0 9 r 9 r r 9 r r r , 9 9 , 9 : y y , y , , 1 , < w < < < w 0 > 0 w 0 0 r r r , y 9 9 q q q q 6 y : : y : : y : y , , , 0 < 0 0 < ",
"uX5XuX5XuX>XuX>X>X,X,X,X,X,X,X,X>X>X>XeXeXtXtXtXeXtX7XeXtX>X>X:X:X,X,X,X:XeX,XeX,XeXeXeXeXeX,XeXtXeX>XtXeX>X5X,XtX>X>X5X>X>X>X@X>X>X>X>X>X>X>X,X>X>X>X5X5X5X5X1X-X-X-X:X-X:X-X;X=X=X=X=X=X<X<X=X<X<X<X<X<X=X<X<X;X:X=X:X=X:X:X<X,X,X>X;X>X-X5X-X-X>X>X-X-X5X5X>X>X5X5X5X5X,X>X5X-X5X5X7X7X7X7X5X,X,X9X,X,X;X:X,X,X5X>X5X>X5XuX>X:X,XeX:X,X,XeXeXiXtXtXeXeXeXeXiXyXtXtXeXtX,XeX:X,X<XeXrX,XdXeX,XtXtXtXtXaXdXtXaXtXtXyXtXyXaXyXaXdXsXdXsXsXdXiXiXsXaXiXsXpXaXaXaXaXpXyXaXyXaXyXaXaXyXyXpXyXaXlXyXyXaXpXiXiXiXiXeXiXiXiXaXiXaXpXaXsXiXaXpXaXpXyXpXtXyXyXyXaXyXyXtXiXaXsXdXsXO.+.[ / T T R E I R I R R R R R Y J L L L G G P U G U ( I P ( ( / ....0.0.0.$.q.r.s.t.0.r.t.t.t.t.t.r.I I C e e e e e w e w 5 w w w w w 5 w w 8 6 6 4 8 8 4 $ > $ $ $ $ $ # # # X @ # X X X X # X O @ # O O O O # # + # @ # $ # 6 2 $ & @ o V | yX1X/.v.,.#.o.+.| } ^ T T Y G G H C P V F m J H J J M m H m H H m M H M M m m a M a a a a M a a m a m a a a a a z l b a j j h g j a a g a p a i i p i u p p i i p i a i i u u u r u u a u u u u u u a u p u u u u u u u u u u u u i t t i t t r 0 1 0 0 1 1 r r r u t y p r r r 0 w 0 w w 8 8 8 6 7 8 q 6 6 8 w w e q e w w w w 8 9 7 9 9 9 9 9 9 9 9 , , 1 r , , , , 9 9 , , , : , 1 1 1 1 1 < 1 w < - > < 8 > 0 w w u 1 , y 9 q q w 7 6 6 7 : : y : : y y : y : , , < < < 0 0 ",
"uX5X@XuX5XuX,X,X7X>X,X,X,X,X,X,X>XeXeX>X>XtXtXtX>XtXeX5XeX>X,X>X:X,X,X:X,X9X,X,XeX<XeX,XeXdXeXdXtX7XtXeX5X,XeX5X>X>X>X>X5X>X5X>X>X5X5X>X>X>X>X>X>X>X>X5X>X@X5X-X>X-X-X-X=X-X=X;X[.;X=X:X<X;X=X<X<X:X=X<X<X:X<X=X=X:X=X=X:X-X;X:X,X-X-X,X>X-X>X>X5X>X-X5X1X>X5X-X5X>X5X>X>X,X>X,X>X,X,X5X5X7X>X,X,X;X,X;X,X,X,X,X-X>X,X,XeX>X,X,XeX:X>X>XeXeXeXeXtXtXtXtXtXeXtXeXtXtXuXtXeXeXeX,XeXdXdX,XeXeXeXtXuXdXdXdXaXuXtXaXtXdXyXaXyXpXiXiXiXsXaXsXaXiXiXaXiXaXaXaXaXpXpXiXyXiXaXiXyXaXpXyXpXpXpXiXyXiXaXaXyXiXyXiXaXtXiXiXiXaXiXiXyXaXaXyXaXsXaXaXaXaXiXiXtXyXiXyXyXaXyXyXsXiXcXiXsXz.@.[ T T E R T / I R R R R R Y L L J L J L K G G U U I ( I ( / / } ..} @.+.0.r.0.0.q.t.r.r.q.r.0._ _ J C z z e z e e k w w k e w w w w w 2 8 8 8 4 2 8 2 4 ; $ 2 $ $ # # . @ . # X # @ O X @ X X @ @ % O @ # @ # % # # @ # # $ $ # # @ 8   e H %.r. .E E L R L I J H J F l h j h h l j l l l l F m n m H M M M M M m M M M x m a a M a a a a a m m a m a a a z l l z j l j j a j a d i i g i a i i i i i p i i p i p i u u t u i u u u u u u u u u u p y u r u u 1 1 u u u p t t t r i u u 0 0 0 , 1 , 0 9 0 0 t t t r r r r 0 0 w w w 0 w > 8 8 6 6 6 6 9 q w w w w w e q w w 7 6 9 9 9 9 w 9 9 9 9 9 9 9 , , , r , 9 9 9 , , , y r 1 , 1 y 0 w e 0 , 0 < 0 0 0 1 0 r r u 1 9 9 9 9 9 9 6 6 : y y : y : : y , , , , , < 0 < < ",
">XuX>X>X>XeX>XeXeX>X,X>X<X<X,X,X7X>X>XeXeX5XeX>XtXeXtXeXtX>XeX,X>X,X:X,X<X<XrX,X,XeX,XeX,XeXdX,XeXeXtXtXeXeX5XeX>X>X>X,X>X5X>X5X>XuX>X>X,X>X>X>X:X>X>X>X5X>X>X>X>X-X=X-X-X-X=X=X=X=X-X<X<X;X;X=X=X=X=X=X=X=X:X=X:X=X<X-X:X:X<X-X-X,X>X>X>X;X>X-X-X-X:X-X,X-X:X:X>X>X,X,X,X5X,X-X-X>X-X5X>X5X5X,X;X,X;X,X,X,X,X7X,X,X>X>X>X,X5X>X,X>X>XeX,XeX,XtXeXyXtXtXtXuXyXtXyXtXiXeXtXiXeXdXdX,XeXeXdX,XdXeXdXtXrXaXdXtXdXtXiXtXaXtXiXiXaXiXiXiXdXdXiXiXiXdXiXiXiXiXiXiXtXiXiXiXyXiXiXiXyXpXyXpXuXyXyXyXuXyXyXtXyXyXiXiXiXiXsXiXsXiXiXpXaXaXaXsXiXaXaXiXaXiXaXyXpXiXiXyXyXiXsXeXGXiXGXOX+.{ I R T ) I I E / T R R R R W L I Y I G U U P U U I ( / / / / / ....0.z.P.oXt.r.r.q.0._ _ _ _ _ I C C l e k e e w w 5 e w w w w 8 4 8 8 4 * 2 > 2 $ 8 $ 2 $ $ $ $ @ # O . X . @ # # X X X X @ X O O @ + O O % # $ @ @ # # 3 # # # & $ & 8 e H J j J l l n H m l l l h h g g h h n m l m F J m J H m m H H m H m m x x m x a M a a a M a M a a a a a a a z m l l m l j l j j j d i i p i p p i p i p i i r i i i i p i i i u i a p a p p u u u u u u u r r 1 u 1 u 1 u u 1 r r r r t u u r r r 0 0 0 0 0 0 0 r 0 r 1 y r 9 0 0 w < > > 8 8 6 6 q q 7 6 9 8 w 5 e w e q q 0 q 9 9 6 q 9 9 q q 0 9 q 9 0 0 9 r y 9 r 9 0 0 0 y , , r , 1 1 1 0 e 0 0 0 0 0 0 0 0 0 r r u u u r 9 9 9 9 9 6 : : : : : : y y : : , , , < 0 1 1 0 ",
"rX>XrX<X>XeX:X:X,X,X,X:X:X,X:X,X>X,X5X7X,X>X>X,X,XeXeXuX,XtX>XeX:X,X:X:X:X<X:XeXeX,X,X,X,X,X,XeXeXeXeXtXeX7XtX>X>X>X>X>X>X7X>XuX5X>X>X>X>X,X:X:X:X>X:X:X:X:X-X-X-X-X-X-X-X-X(.-X-X=X-X-X-X;X,X-X=X=X:X=X:X=X=X:X:X-X:X:X<X:X-X<X,X>X-X-X,X-X-X,X:X-X,X:X-X,X,X,X,X,X,X,X;X>X;X>X-X:X-X:X5X>X,X5X;X5X;X,X5X,XtX,X,X,X:X,X>X>X,XeX>X>X>X7X>XuX7XtXtXuXtXuXyXtXyXyXyXtXtXtXtXiXdXtXiXdXeX,XeXtXtXeXdXrXtXiXtXaXdXiXeXiXiXtXaXiXiXiXiXiXiXiXiXiXpXiXiXpXiXiXiXyXtX7XiXiXiXiXiXiXyXiXiXyXtX7X7XtXtXtXyXtXtXtXiXiXiXiXiXiXpXiXaXiXaXpXsXaXsXsXaXaXpXaXiXpXpXyXyXiXyXyXsX;XUXqXsX<Xg.+.R R E I I R / / R Y R W R I R L Y Y Y P G U U U I / / / / / / ) / ) ) ........X........._ _ _ C V V l e e e e < w e w k 4 8 8 4 8 2 6 8 2 8 $ $ ; $ 4 $ $ $ $ $ @ @ X X . # # . # O O X O X O X @ O + @ O O # + 2 @ @ # # # # : . # & q d k h d l l l l F l F n l h l n l F F H J J J J J K J M M c m m v M m m x v M b b x x a M a a z a a m a p a z a a h l l j j j j d d i d i i i p i i u i p i u p i u i r u i u i u i p u u b r b u r 1 u y r r r 1 r 0 0 1 , 0 0 0 9 y 9 0 r r 1 r r r r 0 q 0 0 0 0 0 9 r , , 9 < w 0 0 * 8 , > 8 8 9 6 6 7 6 6 w w 8 w e e w 0 r , , , 9 q q 9 q 9 q 0 q q 0 r r q r r u 0 u u u u u 1 1 1 1 1 p r r u t t i t 0 r u r 1 p 1 1 u 1 1 1 9 : , : : : , , y , , , , , , : < 0 < 0 u ",
">X,XeX<X>X:X,XeX,X,X,X,X-X,X,X-X,XrXeX>XtXeXtXeXuX>X,XeXtX,XeXeX:X,X,XeXeX,X:X<X:X:X:X,X,X:XeX:X>X,XeXtX7XeX>XtX5X>X>X:X>X>X>X>X>X5X>X>X>X:X:X:X:X:X:X<X:X:X:X:X-X-X-X-X-X-X-X-X+X-X-X-X-X-X-X-X:X:X-X:X-X:X:X:X=X=X=X:X-X<X-X:X-X:X>X,X:X:X,X-X:X,X<X-X-X,X,X<X,X<X,X<X,X>X,X-X,X-X,X-X-X-X5X,X-X;X;X,X;X7X,X7X,X,XeX,XeX,XeX>X>X>X5X>X7X>XtXtXuX7XuXyXyXyXuXyXeXeXtXtXtXeXiXdXeXdXtXdXeXeXeXtXeXtXrXdXdXrXiXrXiXtXiXiXiXtXiXiXiXiXiXiXiXiXiXiXaXiXpXiXiXiXtXyXeXaXiXiXiXaXiXaXiXaXiXyXtX7XyXtXtXtXtXyXiX7XiXiXiXsXiXsXpXaXiXaXiXsXiXsXaXiXaXaXyXaXiXyXaXyXyXpXqX;XsXsXUXiXb.g.T E T R / I I I R R I Y Y I Y Y Y Y P I U U U U ( / / / / / T / R / / / / / ] _ ) / / / I ( P C V V j d e e e w w 5 w w 8 4 4 8 $ 4 $ $ $ $ $ 6 $ $ $ $ $ $ # # O O # O . @ X @ X @ . @ X X X # # # @ O # # $ # @ $ # # # # . # O . . s h h l H F V l V l l J n F m n n n m F m F m M M M H H m m m c c m v v x b b b b x x x a a a a a a a a a z l b l l a a j j j a d d e i k i i p i i p p i i i i i r u r u u u u u i u r u 1 r y y u r 1 y , r 1 r r 1 0 0 r 1 0 9 9 , , 9 , < 1 , 9 1 0 1 r 0 r q q w w 9 , y 9 1 0 0 0 w 8 < 8 8 8 9 6 9 6 q w q w w w w w w w 0 r y , , q 9 q r q t t t t t t t r t t t i i i i u u u u r r 1 u p u p u t p t t u t i i p u p u u u 1 1 y y , , : y , y y , , y , , , y 0 0 0 0 1 ",
"eX,X<X<XrX,X9X<XeX,X,X-X;X:X:X;X,X,X,X,X>XeXeX>X,X,XeXeX>X>XeX,XeX,X>X:X:X,X:X,X:X>X:X,X:X,X,XeX,X,XeX,XeX,XeX>X,X>X>X>X>X>X>X>X>X>X>X>X:X:X<X<X:X:X:X:X,X<X:X-X+X-X-X@X-X-X-X+X-X-X-X>X>X>X>X-X-X-X:X-X-X<X:X-X=X-X,X-X-X<X:X:X>X-X>X-X;X>X,X,X-X;X:X;X<X<X,X,X<X,X,X,X<X,X;X:X,X-X-X,X>X>X5X5X;X>X;X1X,X5X,X,XeX,XeX,XeX,X,XeX,XeXeX5X,XtXtXtX7XtXtXtXtXyXuXyX5XeXeXtXtXeXtXiXiXtXiXeX7XdX,XeXeXdXeXdXdXtXdXaXeXiXiXiXiXiXiXyXiXiXiXiXaXiXpXiXiXaXiXaXaXiXiXiXiXiXdXiXsXiXiXiXiXiXiXyXiXtXyXiXyXiXiXiXiXiXpXpXsXiXaXiXaXiXaXiXiXaXaXsXiXsXaXiXaXiXyXaXyXyXaXiX0X0XpXpXzXiXL.z.) E / T I Y I U I I I E I I Y I Y Y I U U I Y / / I I / / E / / / R / ) ) ] / / ../ / U I / I P V V l d q e e w w w 8 8 8 8 2 4 $ $ 2 $ $ $ $ $ $ % $ $ $ # # % + O # O # . X . X X X X X O # @ % O # O O % # % $ 2 @ @ @ # . # . . . 6 q f g F H H H F F H H l F n l n l g l x l m l J M H m m m c m v x b b b b b b b b x x a a a a a a a a m a g g a a d d a a d d i i i i i t i u i i p u i p i i u t u r 0 0 u u u t t t t r b 1 y y y y , y , , y , , 0 < 9 0 0 9 9 9 9 , , < , , , 8 0 9 0 0 q 0 q w q 9 9 , 1 0 0 < < 0 w < 8 w 0 q q 9 q q 9 w w w k q 0 0 0 r 0 9 r r q r s t s i p p p f i i i i f i p p a a b p p p p u y p b p p u p p p p p u p p p p p u p 1 1 u y r , , , , y , , y u u b 1 y y 0 0 u 0 u ",
"eXrXeXrX,XrX<XeXeX,X,X:X,X:X;X:X>X:X>X>X:X:X,X:X>X,X,X>X,XeX>X,X,X:X,X:X,X:X,X:X,X:X,X:X,X:X>XeX>XeXeXeXeX,X>X>X,X>X>X>X-X>X:X-X-X>X>X:X:X,X<X,X=X:X<X<X:X:X:X:X+X+X+X-X@X@X>X-X-X@X5X-X5X-X-X@X-X,X-X,X;X-X-X,X=X:X-X:X<X-X<X=X-X,X-X>X>X;X-X,X,X:X,X:X<X,X<X:X<X,X,X:X,X<X<X-X:X;X:X-X-X,X5X7X5X;X5X,X;X7X7X9XdXiXeXeX,XeX,XeX,XtXeX,XeXeX7XdXtXtXyXtXtXeXeXeXtX,XeXtXtXtXtXdXdXtXeXtX,XeXtXeXtXeXdXuXtXdXtXtXiXtXtXiXiXiXtXiXdXiXiXiXaXiXiXiXiXiXiXiXiXiXyXdXiXdXiXiXdXiXaXiXiXiXiXiXiXiXiXtXiXiXiXaXiXiXiXiXiXaXiXsXiXaXiXaXpXiXiXiXsXiXiXaXiXaXiXyXyXiXyXiXqXsXiXpXzXiX/.F._ ) T I / / R P Y I I I I R I R I Y U I U U U U / I / I / / / / / / I I I I I / Y ( / ( P U P N P V j k q w 0 w w w w 2 2 2 $ $ $ $ $ ; $ ; 2 $ $ # $ $ % % $ # % # # # @ O X . X X X X X @ O O O + @ # O # $ # % $ # # # . . # . & 6 : y c f c h C H C n H n n l g g g g g a a m l m H m m H m x m v c v b b p b b b b b b a m M a a a m a a a a e a a z a j a a e i k i k i d i u p i u i i u i i i u r 0 0 r u 0 0 u u u u t r r y y y y , y y , , , 1 9 < 0 r 0 r 9 9 , 9 , 9 1 , 1 , 1 , 0 9 9 0 q t t q 9 r 9 9 8 > > > * < w 0 q q r q y 9 7 q 0 q q e q u u r 1 r r 1 u i p i i p p a p a p a p p p a p a a a b b a b b y b b b b b b b v f b p p p i p a p p b u p p 1 b r y , y , , b y y u p p u b y u u u i u ",
"dX<XrX<X<X<XrX<X:X,X<X:X-X=X:X-X:X=X:X=X:X:X,X,X,X,XrX,X,X:X:X,X,X,X>X:X,X>X:X:X>X>X:X,X:X,X,X>XeX,X,XeX,XeXeX,X>X>X>X:X>X>X>X>X>X>X>X>X>X,X,X:X<X&X<X<X:X:X:X:X>X1X-X@X@X-X-X-X+X@X5X-X5X>X#X-X5X5X5X>X>X-X-X-X-X;X,X-X:X-X<X:X,X-X>X5X,X;X:X:X,X,X:X;X<X<X,X,XeX9X<X<X:X,X:X:X;X;X-X:X-X:X,X>X,X5X-X;X;X,X,XeX,X,X,XeX,X,XeXdXdXdX,X<XdXdX<XdXdXiXiXeXtX,XeXeX,X,X,X,XuX,XtXeXtXtXtXeX7XeXtXeXrXdXdXuXrXdXtXaXiXaXiXiXiXiXiXiXpXyXiXiXtX,X7XiXiXtXtXiXiX,XeXiXdX,XiXiXdXiXiXdXiXiXiXiXiXiXyXiXiXiXiXiXiXiXiXsXsXiXsXiXsXsXiXaXsXiXiXsXiXiXtXiXiXaXiXiXtXtXyXiX0XiXqX0XyXpX7XL.X.) E E / T R / R I Y I R I Y Y Y U U P Y U Y / I / I / Y / / / / I I I I P P Y P U U A H U Z Z Z h f w w 8 w 8 6 6 6 $ $ ; # # $ % # + $ % $ # $ % # $ # % # + O @ X # X # # # # X X @ X O O O % $ O % # # + # % O O O . . . : . . . : y y b b h V c V F H H H l m l m m a m a l m l m m m x m a x a b b b p p b y b y p p p p a a a a x M u a a j z g g g g a p d i i i i i q t i u p i i i i i i u u u 0 0 1 0 u 0 u u r t u 1 1 y , y y y y , y , , r , , , 9 0 9 q 9 9 9 9 < , , < 0 0 0 r q t q u q q k t t r r 9 0 , 0 0 , 0 0 0 t t t i s t t k k i i i i u a p u b b u a a m a m x a m x x a a a a a b x x x v M v v b v b b v b b b b b f b b a b a b b a a a a p u a a a a u 1 u u u y b a a a a a a i a p a i ",
"<X&X<XdX&XdX<X,X,X:X;X:X:X=X-X=X=X:X:X:X:X,X:XeX,X,X<X,XeX,XeX:XeX,X,XeX>X>X,X:X,X:X,X:X>X,X:XeX,XeX,X,X:X,X,X,X>X>X>X:X>X-X:X-X>X>X>X:X,X:X:X:X<X<X<X<X:X:X=X=X:X-X-X-X-X@X@X1X-X-X-X5X-X5X@X-X>X-X5X>X5X>X>X-X:X-X-X>X-X,X<X-X:X-X,X-X,X>X,X,X:X-X,X,X,X,X,X,X,X,X,X,X;X,X:X-X:X=X:X-X-X:X-X>X-X;X,X-X-X,X,X7X9X,XeX,X,XeXdX<X<XdXdXdXeXdXdXdXiXeXdXeXeXdX,X,X,XrX,X>X,X>X,XtXtXtXtXtXtXeXtXtXaXdXtXdXaXdXtXdXtXdXiXiXiXyXyXiXiXiXtXeXtXiXtXyXiXqXdX7X,XiX,X,XiXiXiXdXiXiXiXiXiXiXdXiXiXyXiXiXiXdXiXiXaXaXiXiXsXiXiXaXiXiXsXiXiXiXiXiXiXiXiXiXiXiXyXtXiXiXyXyXqXiXiX7XpXvXyX+X+.| ) T T T R R I I I Y I Y Y U / I I U / P I U / I / I I / I / / ( I P I P G G P U P P F Z Z j j h s q 8 8 8 * 6 6 $ 6 $ # $ # $ % # $ # # + # % O + % O $ $ # # # # # # # O # @ O X O @ @ O @ $ # $ # $ # $ $ O % O O # . : : : . . : y y s b h N F h F H F n b m a m m m a a m l l m x M m x x x x a b b p b b p p p u p u b 1 a a x a a a a l a a g g a g g i d i d d d i t i r r i i u i t r r i r 0 u r 0 u u 0 u 0 t u r y y y 1 , y y , y , , y , , 0 0 0 9 0 9 9 9 9 6 , 8 0 q r q r 0 q t t q i t t d r y t t u u i i i i d i i p f p t d f d p a g g g g a g b b m m M M a m x m m a b m x a b x a m x b b x v b v b b b b b b b b b v v v x b p b a l u a b a p a p a a a 1 u 1 a u u u a a m a a a a u i p i ",
"<X&X&X<X<X<X,X:X,X:X<X:X=X:X:X-X<X<X<X,X,X,X,X:X,XeXeX,X,XeXeX,XeX>X,XeX>XeX>X>X>X>X>X>X>X>X>X,X<XeXeX:X:X,X,X:X>X,X>X>X>X=X+X:X>X>X>X>X:X,X:X:X:X<X:X<X:X=X:X=X>X>X>X@X-X>X>X>X>X@X>X5X@X5X@X5X5X-X>X1X>X-X5X>X-X-X:X-X:X;X:X-X:X>X-X,X>X,X,X,X;X:X,X,X,X,X,X,X,XeXeX,X,X;X-X>X<X-X;X-X,X-X:X,X,X;X;X,X;X<X,X,XeXdX,XeXdX,XeXdXdXdXdXdXdXdXdXdXdXdXdX9XdXdX,XdXeX,XeX,X,XeXeXtXtXyXuXtXtXtXeXtXtXdXdXuXtXaXdXaXtXdXtXiXiXtXyXtXaXiXiXyXiXiXiXiXtX0X9XtXiXeX,XiXdXiXiXiXiXiXiXiXtXiXiXiXiXiXiXiXiXiXiXiXiXiXiXaXiXiXaXaXdXsXdXiXiXiXiXiXiXiXaXiXaXiXiXyXyXiXiXiXiXpXiXpXkXZXxXuX&.| ) R T Y U Y L I J Y Y Y U R U / P Y Y Y Y / I / / I / / / / I / / / / P U P U U G A H A Z s v h d q 9 w 9 8 $ 6 6 # : # # # # # # # # + # $ % $ # % $ O $ % # # # X O . # @ % # # # O # O # # % # # % $ $ # % @ O . . . : . : . . : 9 s b v Z F Z g h F l g l n l a a m m l m m m m M a b M b a x a b u u m p p u u y p b u a a a a a a a a g a a j a a g a a i i i t i i q t i i u u t u r r 0 r r r r r r 0 u r r u 0 t r y y 1 r y y , y 9 y 9 0 r r 0 0 0 0 9 0 9 9 9 9 8 9 q i i i q 0 u t u t t d d f b p b b g h l n l g g g g f b a g g g g a g b m m x m m x m m x M b a M M x m m m a m a a M b M b b v x v v v v v v b b b b b b b x x p m p b b x b p p p p p u u a a u u u z u a a a a a z a a a p u p p ",
"<X<X<X<X<XrX:X:X:XeX,X:X-X<X-X<XrX:X<X:X,X,XeX>XeX,X,XdX,XeX,X,X7X>XeX>XtX>XtXeX,X,X>X>X>X>XeX>X:X<X,X,X:X:X:X,X:X:X:X:X>X@X:X=X+X>X:X:X:X:X<X<X:X<X:X:X:X:X>X=X@X-X>X>X>X1X%X>X@X5X>X@X>X#X>X@X-X5X5X-X5X5X5X>X5X>X-X,X-X:X-X,X-X-X>X-X-X,X,X1X,X5X>X,X,X,X,X,XtX,X,X,X5X>X:X:X,X;X-X:X-X,X-X:X;X,X;X;X,X,X,XdX0X,XdX,X,XeX,XdXdX9XdXdXdXdXdXdXdXdXdXdXdXdXeXeXdXeXdXuXtXtXtXtXuX7XtXtXuXtXtXtXuXaXdXtXaXrXiXiXtXaXuXyXtXyXyXiXiXiXaXpXiXiXiXiXeXtXeX7XdX7XiX,XiXiXiXdXiXsXiXiXiXiXtXaXiXiXiXaXiXiXiXsXiXaXaXiXiXaXiXiXiXdXsXiXtXiXtXdXiXiXiXiXiXiXyXpXiXiXiXtXaXpXaXyXxXZXvXfXt.+._ E T R L U L K U I Y U U U Y U R U Y Y Y P R R I T / I I / / I Y R Y U G U H G Z Z Z A Z v s s s 9 9 8 8 8 6 $ # 6 $ # # # # # # # $ # % # # $ + % % $ # # # O . # @ # # . $ # # X # O % O O O # + # # $ $ X @ O O O . . . . : : : 9 y s s c F h h h g h g g a m a m l m m m a l m x a M a x x a x u l a a b u b p y u y y a a a a a a a a j a d a a g a i i i u t u i i t i i r r u r u u u u r 0 1 0 0 0 u 0 r e u r u 0 1 y y y , , y , r , r 0 r r 0 t 0 q q q r t r r 9 r t i d f g f q 0 q q t i i p H c n c n m n m n n n c h x a b c x c c m m m m m m x m m m m m M M M M a M m m m m a m b a a a m b b b v b b b b b b b b b b b b x b x b b p p a p p p u p p u a a a u u a a a a a a M a a a a u p p u u ",
"<X:X<X:X,X:X:X:X,X:X,X-X<X:X-X<X,X,X<X,X<XeXeX,X:X,XeX,XeXeX,XeX>XeX,X,XeX5X>XtX>X>X,X>XeX>X,XeX:X,X:X,X:X,X:X:X:X:X:X:X:X+X:X-X+X:X:X=X:X:X:X<X<X:X:X:X>X-X>X>X>X=X:X>X-X>X>X5X>X5X@X5X@X>X5X-X5X5X$X5X>X>X@X-X>X-X>X-X,X;X>X-X-X;X:X>X>X,X>X>X,X,X,X5X,X,X>X>X7X7X5X7X>X>X>X-X:X>X-X:X:X;X<X,X,X<X,X;X<X9X,X,X7XdX,XeXeXdXeXdXdX9XdXdXdXdXiXdXiXdXeXdXdXtXdXiXeXdXiXeXtXtXuXtXtXyXtXtXtXtXtXeXdXuXaXaXaXyXaXyXtXyXyXyXyXyXyXyXyXiXaXiXyXpXiXiXiXtXeX,XdXiXdXiXsXiXsXiXsXaXiXsXiXiXiXyXiXiXiXpXiXsXdXsXaXiXaXpXpXiXpXiXiXdXiXdXdXiXiXiXiXiXiXiXaXiXaXiXaXiXpXiXaXaXVX6XkXZXZXuXF.%.| E E R Y L J L L K K U U U U Q U R / Y Y Y R R Y ( I / / I P / P P P P P G Z Z h j Z j s q s 9 6 6 : : # ; # # # 3 . 3 : # . # # # # # O # % O % % % # @ # % # @ X X # . # # O # # @ O # + O % O # % # # % + X X   O .   . : . : : y p s p v c h f j g g g a g x n m m m m m a x m a m M a a a a a a z a a a p a u u y b b b b b b u u u u a d d i i a u p i u u p t i t u u r 0 u 0 r u r u t u 0 0 0 0 0 u 1 u 0 u u r r 0 r q 0 y 1 y , 0 9 r 0 0 q u e i u i i d d f j d j j f c c n n K G K L K L L R K K H H m n n m n l n x m p b b c n a m b m m m m m m m m m m m M M M a n m m m m m n m M a m a x b x x b h f b b 7 v b b b b b p a p b p a p b p p b p p p r y u p u u p a a a z a b z a a a u u p u p b ",
"<X&X:X<X:X:X:X,X,X,X:X:X:X;X,X:X:X,XrX<XeX<X,X,XeXeX,XdX,XeXeX,X>XtXuX,X,XeXeX,X,XrX>X>X>X5X>XeXeX:X,X<X:X,X,X:X,X:X,X:X>X:X>X:X:X:X=X:X=X:X:X:X:X:X<X:X>X-X>X@X:X>X-X>X:X>X>X5X>X>X>X>X@X-X@X>X5X5X5X5X1X@X1X@X1X>X-X:X-X:X-X,X:X-X-X>X-X-X>X>X5X5X,X5X5X5X5X5X5X5X5X5X5X5X5X-X>X-X,X-X,X:X-X,X;X<X<X9X<X9X,X9X9X,XeXeXeX,XeX,XeXeX,XdXdXiXdXdXeXiXiXtXtXdXtXdX,X,XeXtXtXtXyXtX7XuXyXuXuXtXtXtXuXdXyXrXrXaXuXaXyXyXyXyXyXiXyXaXaXpXiXaXaXiXpXiXiX9XiXiXiXdXiXiXiXiXiXiXsXiXaXiXaXiXiXaXpXiXiXiXiXdXiXiXiXiXiXpXiXiXiXiXiXsXdXsXdXdXiXiXiXiXiXiXiXiXiXpXiXaXaXaXtXaXkXkXkXxXZXkX/.t.+.[ ~ ! Y L K K K G K U U ! U U U Y U Y Y Y R Y U I U I P ( U P P P H F H A Z Z Z j s s y y 7 6 6 : $ . O : # : : : : . : . # O # O O # O # # + + # O % + + # + O O # . @ O O # X # @ # # % # # $ O % O + O X X X X . O .   . O ; > 9 s d t h g h f f g g g x l a l a m l a m a M x m a a a a x a a a m a m m p a a b u r u y y 1 y u u u p i d i i i a u p u u u r i u t q u r u r r 0 0 u 0 0 r 0 r u r u u u u u u u u u 0 0 0 k 1 y r r 0 0 r t i u i i g j j j g h c F H H F F F F H F H G M H K J K K H K H M m m n l n m n n m b m x x g m a a m m m m m m m m m m m a M M M m n n m n n m n a m a b x x b a f v f h b b b b b p a b p p p b p p p b p p p y y p b y u b u p u p a u b a a a a a a a p p b u u ",
">X:X:X:X:X>X:X>X,X>X:X,X<X>X-X,X:X,X:X,X<X:X,X:X,XeXeX,XeX,XeX,XeXeX5XtXuX>X,XtX>X,X>X>X,X>XtX>XeX<X<XrX,X:X,X:X,X:X,X:X>X>X>X:X:X=X:X=X=X=X<X,X:X:X:X-X>X@X-X>X>X:X:X:X>X>X>X>X5X>X>X-X>X>X@X@X5X5X$X5X5X1X5X-X>X>X-X:X-X:X:X-X-X,X:X-X>X-X>X-X7X7X5X5X>X5X5X5X5X5X5X5X5X>X5X>X,X,X-X;X-X:X,X,X<X<X9X<X9X<X,X,X,XeXeX,XtX>XeX,X,XeXeXdXtXtXtXiXeXtXtXeXeXtXtXtXeX,XeXeXtXtXtX5XyXuXyXtX7XtXtXtXtXuXuXaXaXuXaXyXyXyXyXaXaXyXaXyXiXaXiXaXiXiXiXiXiXiXiXiXdXiXiXiXiXiXsXsXiXsXiXaXaXiXpXyXyXyXtXiXdXsXdXsXiXiXpXiXiXiXsXiXdXdXdXiXiXsXiXdXdXaXiXsXiXaXaXiXiXiXaXiXdXaXaXVXkXkXZXkX+Xm.%.| [ Q R ! ! K U K U K K U U U Y Y R Y Y Y Y Y U I P P P I U U P H Z F Z Z F Z h d s s 7 6 6 6 : 6 : # # # . : . . : # : . # # # # O # % # % # O % % O O # # # # . . X X X @ X X O O + % # $ % # # # O # O X X   X . :   . O : + : 0 f f u f x v h f g g a a l a n m a m a a x x x a a a a x a a m a a a a j l p i u p y y r r y y r y u u i q t u u u u 1 u u r u u t t t i t 0 0 0 0 r r r 0 r 0 0 u u p u u u u i i i i e i i a a i b a p g a g g g l g n l h l c n n H P G G H H H H H M H M K K K M L K m H m F n m m m l m n m m m x n a m m b m a a x m m m m m m m a M m M m m F n m m n n x m M a x p a p f g h f f v b b b l a m u p p p p p p p p p p y p b y y y b u b p p p u u p p a u p 1 u p u p p p ",
">X:X>X,XrX,X,X,X,X:X,X:X>X<X>X<X<XeX:X<XrX:XrX<X,X,X,XeX,XeX,X>X5XeXeX>X>X,X>X>X,X5X>XeXeX>X>XtX<X,X,X,X:X,X:X,X,X,X,X>X:X>X>X>X:X:XOX=X:X=X-X:X:X>X:X>X-X@X>X5X-X:X-X:X>X>X>X>X>X>X5X>X-X@X-X5X@X1X@X5X5X-X5X5X>X-X-X,X-X,X-X,X,X>X;X,X>X-X-X-X>X5X5X5X7X1X5X5X5X@X$X1X@X1X>X1X5X-X,X:X,X<X,X<X<X<X;X9X<X9XdX,X9X,X,XeX>XtX,XtXeX,XeXeXeXtXtXtXtXeX7XtXtXtXtXeXeXiXdXiXiXtXtXtXuXtXtX7XtXtXtXtXeXtXuXtXtXiXuXuXtXyXyXyXyXyXaXaXyXyXaXpXiXaXiXtXiXiXiXiXiXiXsXiXsXiXiXiXaXiXaXiXpXaXaXiXaXtXiXtXdXdXiXdXiXdXyXiXyXiXiXiXiXiXiXdXiXdXsXdXsXiXiXiXiXiXiXsXaXaXpXaXuXVXaXyXVXkXkXuX@XH.$.+.{ ~ ! Q U U K K K A K U U U U Y L R L I R Y I G P P P U P P P A A Z v j h h j d q y 9 7 6 6 : : # # O : . . : 3 3 . . # # # O # # # % O O % % # + % % # # # O @ @ X . X X X X X @ O # $ $ # + # O O @ @ X X X O O O :   :   + $ 0 p j e j g h g g f g p x g x a a l a l m a a x a x a M a m a a z m m z z a a i p y y 1 b y y y 1 r r 1 i e q e u u r 1 u u r r t t t r i t 0 r 1 0 0 r u u r 0 r 0 u r u u u u u i i a i g g x l n n m l n n n n n n F n n n n F n F H H H P H G H H H m H J H M K M m m K F H m m l m m m m b m b x x b m a b m a b m x m x m m m x m M M M a H F m F m n n m x m a a x a a g p g f f f b b b a a u b u u u u u u u r p u y p y y b b p y b 1 r b u r u a p u b u a u u p r u u ",
">X>X>X,X>X>X>X>X,X>X,XeX:X:X:X:X:X:X:XeX:X:XrX,X,X>XeX>XeXeXeXtX>XtX5XeX7X>X5XeX5X>XeX5X>X>X5XeX:X:X>X:X<XrX<XrX<X<X:X<X<X:X,X>X=X:X:X=X:X=X:X-X>X:X>X>X>X@X>X@X:X>X>X>X>X-X>X>X>X>X>X>X:X+X+X>X5X1X5X5X>X5X5X>X5X,X-X>X>X;X,X-X,X,X,X:X>X>X5X,X-X5X,X7X5X>X5X5X5X5X5X5X-X5X5X>X>X-X;X:X-X:X;X,XdX<X,X,X,X,X,X,XeX,X,X,X,X,X,X,XeX,X,X,XdX7XiX,XiXdX7XiXiX7XeX7X,X,X,XiX7XtXyXiX7XtX7XtX7XdX0XeXtXtXtXtXtXtXyXiXyXiXyXiXyXaXyXaXyXaXaXpXaXaXiXyXyXiXtXiX0XeXpXtXiXdXiXiXiXiXaXdXsXiXiXaXiXaXiXtXiXiXiXiXiXiXiXiXaXdXiXiXiXiXdXiXdXiXdXdXsX9X0XdXsXsXiXiXpXyXaXaXaXyXuXkXZXkX6XVX5XOXl.j.{ @.Q R U U U U U U U U U U U U R R Y Y Y U G G P P P U P P A F Z Z v s j j s s 7 w w 6 6 6 6 3 3 : # : 3 . : . 3 : : 3 : . % O # # % O % O # # O @ X O @ O @ + O # @ # O O # % # $ # $ % O + # O @ @ # X X @ # O O O O + + : > 1 r i i i g x g g x g a a n a a m a m a a a a a b a a l a a l a a z a l a e u u u u t r r r r y 9 r r r i t q t u u u 0 e u u t t t t r u 0 q 0 0 r 1 r 1 u 1 1 1 u u u r u a a a u a b n n n m M K L K L J L L I G G H H H H n n l F n H H H H H H H m H m H H M c K m m H H m m m m m m a m m m a x x x m b x m a m a b m m m m m n m m m m m n n x g n x n h c f f f i f p p a p f p t t p i u b u a 1 u u u r r r r r y p p p b p p 1 y r u y b 1 r t u u e r u q u u u u u u ",
">X:X-X>X,X,X>X,X>XuXeX>XrX>X:X:X:XrX:XrXrX,XeX:XrX:X:XeX>XeX,XeXtX>XtX5X>XuX>X5X>X>X5X5X5XuX5X5X>X:X,X:X<X<X<X<X<X<XrX<X:X:X:X:X:X:X:X:X:X:X-X>X>X>X>X:X>X>X>X>X-X:X+X:X>X:X>X>X,X>X,X>X>X:X>X+X@X5X1X>X5X>X5X-X>X>X,X,X,X5X>X,X,X>X,X-X-X,X,X-X5X;X5X5X5X7X5X5X7X7X5X>X5X>X-X-X,X,X:X,X<X,X<X:X<X,X,X,X,X,X,X,X0X,X,X,X,X,X,X,X7X,X9XtXtX,X,XiX,XtX9XtXtXiX9XtXtXtX,X,XeX,X,X,XiX7XdX7XtX7XtX7XtXiXiXyXiXiXiXyXtXiXyXiXyXaXpXaXaXpXiXyXyXiXiXiXiXiXiXtXiXiXiXiXiXiXiXiXdXsXiXsXiXaXdXiXdXiXiXiXiXiXiXsXdXaXiXiXiXiXiXdXiXiXdXaXsXiXsX9XdXdXsXdXdXdX9XsXiXaXyXyXkXyXyXkXuXkXuXyXuX:XF.z.{ ~ Q R Q ! Q U U A U K U U U R Y Y R Y Y U U G P P P P F A Z Z Z j B v j B k k 7 w 7 7 6 6 : : : # # : : . 3 . . . . . O # # # % + # % # O % O O @ O @ O O O @ O % + # O O # # $ # $ % # # @ O # O O X X X # % % # O X + O   > r u p u f g l g x l g d b a b l l b b a b x a a l g g g l l a a a a a a a a z u u r r r r t r r r r r r t e u e i i i e e u i t r t r 9 t q u u u u u u p u p 1 p a a M b m m m m l m m n m m m M M J K K L L K J K K H m m m n n F n n H H H H m H m F H m m K Z M v M m m m m c m m c m b m b b m x x b x x m b b m m m m a a a l n n x m m a n n x n x x c v g h f f f p f p f i p p p p t p u b b u u r r u r u r r r r y p y p y y 1 b y y y 1 u r u u t u u u u t r u u p p ",
":X,X,X,X>X,X>X,X>X>X>XeX:X>X>X:X:X:XrX,XrX,XeX:X>XeX,X>XrXeX>X,X>X>X5XeX,X>XeX>X>X>X5X>X>X7X7X>X>X>X:X<X:X:XrX<X&X<XdX<X>X:X:X:X:X:X:X:X:X:X-X:X>X,X>X>X>X>X>X>X>X>X>X+X-X>X>X>X5X>X>X>X>X>X>X>X5X5X>X5X>X5X,X-X>X;X,X>X-X<X,X;X,X:X-X;X,X>X,X>X,X5X5X>X,X,X5X>X6X5X5X5X>X>X>X,X;X>X:X-X,X<X,X,X,X,X,X,X,X,XeX,XeX9X,X,XeX,X,X,X,XeX,X7X,X,XdXeXeX9XeXiXiX,XiXeX0XtXtX7X0X7X,X7XiXtXyXiXiXiXyXiXiXtXiXiXiXiXiXiXiXyXiXtXpXiXaXaXyXaXpXaXiXaXpXyXyXtXiXtX7XiXiXiXiXiXiXaXaXiXdXiXaXiXiXiXiXiXiXiXiXiXiXiXiXdXiXiXiXiXiXaXiXiXiXiXdXiX9XsXdXdXdXdXdXsXsXiXiXyXpXyXyXyXkXkXkXyXyXaXyX>XL.l.} ~ T Q Q U U U U U U U U U U U Y R Y Y Y U G U P U P U A P P Z Z h f s j s d k w w 6 6 6 6 2 # $ # # 3 : . : . . : . : # . # O + @ + @ O # # O O @ O O # O # + O # @ # % O O $ O $ % # O O @ O @ @ @ O @ @ # @ O % O X +     > r t i t g g n n n g g g a a l b b a a m x b a a a b g g g g a l a a z a u a u e 0 r r r r r t r r u u u u t u 0 i i u i e i u q r 9 y 9 0 r 0 r u i p p b p u b M m M M M M M M M M m M M M L M H M M H J K K L J J M H n n n n n F n H H H F F F n F n H c c H M M c c H m c m m m m v m m a m m m a b m b x b m b m a a m m l l b m n m m m x x x x x x x x x v b f f i f f p p p i p i i u p p u y p p u u r u r r r , r r t p y i y y y b b r p r r r u u u u u u u u r u u u ",
">X-X-X,X,X7X>X>X>XrX>X>X>X>X>XrXrX,XeXrX,XrXeXeXeX>XeXrX,X:X:X,XeX>X>X>XeX5X>X5X>XuXeX>X>X>X>X>X:X:X:X:X,X<X<X<X<X<X<X<X,X:X>X,X,X<X:X>X-X<X:X:X>X>X>X>X>X>X>X>X-X:X>X=X>X>X>X>X>X>X>X5X>X:X>XeX,X>X5X,X,X5X;X:X,X-X>X:X,X-X:X:X-X,X,X:X-X-X,X;X,X5X,X,X>X>X>X5X7X,X,X5X>X1X>X-X-X,X;X:X:X,X,X,X,X,X9X7X7XeX,X7XtX,XeX7X,X,X,XtX,X7XdX,XdX7X7X,X7XeX7X,X,XiX,X,X,X,X,X7XeXiXtXiXiXiXiXiXiXiXiXiXiXiXiXiXiXiXiXyXtXiXyXaXyXaXyXpXyXiXaXyXiXiXtXaXiXiX7XiXiXiXpXiXiXdXdXiXiXsXsXiXsXdXiXaXiXiXiXiXiXiXiXiXiXiXiXiXiXiXiXiXiXiXiXiX9XsXdXdXsX9XsXdXdX9XiXiXiXyXyXiXyXyXVXyXyXyXuXaXyXuX].A.@.~ Q ~ Q U U U ! U ! A U U R Y U R U R P Y G P P H P P U P H Z Z B v j j B k 7 k 7 w 6 6 6 6 # : # # : . : . . # . O . O # O # @ @ + @ @ # X @ @ O @ X + % # # @ # O # % # # % # # O # O @ # O X O X # @ @ @ # # O + O O O   > 0 p i u g g h g g n g g m l b l l m m u x a m b a l g g g g a l a u u u e e u 1 0 r 1 0 r t r r t 0 u r t u 0 u e e e u i u i i i i r s i i i p a p a x b M m x M M M ^ W M L M W M M M L M L M K M H M K J J H H H H m n l g x n n F m m F m F F F F m m m c M c c c M c m m c x x m m a m m m a m m m b m m a b m b m m u b a l l a n m m a m c g g g g x x v h h f f f f p f i p p i p p p r y u u p u u u r 1 1 , 1 1 r r r i p u i y 1 1 1 1 r u r 0 u 0 u i t i i u u p u p ",
"<X<X<X,X,X,X,X>X>XeX>X>XrX>X>XeXeXrXeXrXtXeXeX>XeXeX>X>XeX>X,X>X>X>X>X,X>X,X>X,X>X,X>XeX>X>X:X:X-X:X:X>X,X:X<X:X,X:X:X>X:X:X,X-X:X,X:X<X,X:X:X:X>X,X>X>X>X>X>X>X>X:X-X:X>X:X>X:X>X>X>XeX>X7X>X>X,X>X:X,X,X;X>X-X<X:X,X<X<X<X:X<X<X<X:X<X,X:X,X,X,X;X:X,X,X-X,X>X,X7X>X>X>X-X5X,X5X,X,X-X>X,X,X,XeX,X,XeX,XiXeX9XtXeXeX,X,X,XeX,X,XiX,XdXeX,XeX,X,XdX0XeX7XdX,XtX7X,X7X,XiXtXiXiXiXiXiXiXiXiXiXiXiXiXiXiXiXiXiXiXiXyXiXiXiXiXpXyXyXaXaXiXiXiXiXyXiXtXiXtXiXiXiXiXaXiXiXdXaXiXdXaXiXsXdXiXiXiXiXdXiXiXiXiXiXiXaXiXiXiXdXaXaXiXiXiXdXiXiXsXiXiXiXiXiXiXiXtXyXiXtXyXyXyXyXyXyXuXxXuXaXyX@XL.| } ~ ~ / R R I U Q U U P U Y U Y U U R G U U U P G P P H P P F Z c Z s B B j k 7 k 8 6 6 6 2 $ $ # $ 2 3 . . : . . O . . # X O X % X @ # X O O # X X # # @ O @ O X X X O # + # O % # O % O @ O @ X X X # @ O O O # + @ O   X : 0 i p t g l c l g l g g g g n x x g x x a a M a g a g g a d a a e a u e 1 u 0 1 r 9 9 r 0 r r u u u e u u u u u u u u 1 u i p a x n m m n c m m M M M M M M M M M M ! M M J M M M L M L M L L ! M L M L M J J M M m m H x n l n n n n n c n n n m m F F m n c Z c m x c m n m n m m x n a m b m m a m m x m b x a m a a p a a a g x g g l m c v h g f f v f v f f s f p f f p p p a p a p t u u r r r u p p r 1 r , 1 r 1 r r r u u u u u r 1 u u r r 1 r 0 r r i r r r r r r p u ",
"<X:X,X,X,X>X,X,X,X>X>X>X5X5XuXtXuXtXuXuXeXuXuXeXeXuXuXeXeXeX>X>XtX>X5XeX>X,X>X>X>X>X>X>X,X,X>X>X:X,X,X>X,XeXrX<X<X,X:X<X:X>X:X:X:X:X,X:X:X:X>X,X>X>X,X>X>X>X>X>X:X@X>X=X-X>X>X>X,X>X>X>X>X,X>X,X5X,X,X,X,X>X,X,X,X:X<X<X:X,X<X<X,X,X<X<X,X<X,X,X,X,X>X-X-X,X-X:X7X>X7X>X,X-X,X-X,X>X,X,X,X>X5X,X,X7X7XeX,X,X,XiX,X,X7X,X7X,X,X7X7X,XeX7X7X7X,XtX,X7XeX7XiX,XiX,XtXiX7XiX7X0X,X7XtX7XtXiXtXtX7XiXiXiXiXiXyXiXiXyXyXiXiXyXpXiXyXpXiXyXiXiXaXyXyXiXtXiXiXiXiXiXsXiXiXaXaXsXsXdXsXiXaXiXsXiXiXiXiXiXiXiXiXdXdXiXdXiXiXiXtXiXdXiXiXiXsXiXiXdXdXdXdXdXsX9XiX0XtXyXyXyXyXaXyXyXuXaXyXyXaXaX6X(.X.} E [ ) T / R U U K U U U U Y U R Y U Y Y Y P U P G U A P A Z Z B Z j h j j s k w 8 6 6 2 6 $ 2 $ : # : : . : . . . . X X X X X X X X X X X @ X O @ X % O # X @ X X X O # O @ # + O O O @ O @ O @ O X X @ X X @ O O + O     > t g p i g h x h h n x g x l a x g g g a a a a a a g p i d a i e u e u u 1 u 0 1 9 1 1 0 0 0 u u e i u e u a u a p u a b a g g m m K L L L ! ! ! M ! L M M ! M ! ! M M M M M M M M M M M L ! L M L M L M K K H H m H n m l n x n g n a n l l c n n F m F n c c m m c x n n n x n x x x m m m m a b m a b b x x x l m b m b m l b g a g g a a g f h g j f g h f f p p s p p f p d i p i i i p p u r r r r u u r r 1 1 1 , , 1 0 r u u e u u r r u u r 1 r r 0 r r r r r r r r r r r ",
",X,X,X,X,X,X>XeX,X>X>XuX5XuXtXuXuXuXyXuXuXrX>XeXeX>XeXuXuXeX>XeXtX>XeX>X,X:X:X>X,X:X:X>X,X:X:X,X:X>X,X,XeX,X,X:X:X:X,X:X,X:X,X:X:X>X>X:X,X:X:X>X,X,X>X>X:X,X>X,X>X:X>X@X:X>X:X>X>X,X>X>X>X>X>X:X,X;X,X,X,X,X,X<X<X<X,X<X,X<X<X,X<X,X,X<X,X,X,X,X,X<X:X<X:X,X,X,X7X,X,X:X>X:X-X,X,X,X1X>X>X,X5X7X,XtX,X,X7X,X,X,X,X7X7X,X,X,X,XeX7XdX,XtXeX,X,X,X,X7XdXdX,X,X,X,XiXiXdX7XtXeXdX,X7XeX7XdX,XiXdX7XdXiXiXtXdXtXtXtXtXiXyXiXyXtXiXiXpXyXaXyXaXyXiXiXiXtXiXdXiXiXiXsXiXaXiXiXiXiXiXsXsXiXdXaXiXiXiXiXiXiXdXiXaXiXiXiXiXaXiXiXiXiXiXiXiXiXdXiXiXsXiXiX9XiX0XiXiXiX7XyXtXyXaXuXyXuXyXyXxXxXyXOX&.| E } ) ) / I R Y U U U I U U U R U Y R U U U U U U P A H F A Z h N v N j j s k 7 w 7 8 8 8 $ ; $ $ $ 3 : . 3 : . 3 . . @ O X X X X X X @ X X @ O @ O O @ X X X & X X X @ # @ # # % O O X @ O X . X X . X X X X @ + + O   @ ; i h f i g g h g g g g g g g g g a x g a a a a a f i d i e i e t u u u u 0 9 r r 1 1 0 0 1 u u u u a a a u a a z l b x M H M M L L L ! ! ! ! ! ! ! ! ! ! W ! ! M M M M M W M M M M M J M L M M L K L M L J K M H m n H n n n m n n n n g n c n n n m n n m n c n c v x x m n n x x m m x m b m b m a m a x a a a a b m p b a a b g f g g a f f h j s h f h h f p p y r r p t i p i a p a p u u u r y u y u r r 1 1 , 1 1 1 1 u 1 e 1 u 1 r u u u r 1 u r r r r r r r r y r r r r r ",
"<X<X:X,X,X,X,X:XuX>XeX>X>XuXtXuXuXaXuXuXuXuXuX>XtX,XuXeX5XuXuXtXtXtXeXtX,X>X,X:X:X:X:X:X:X:X,X:X,X,XeXtXeX,XeX<X:X,X:X,X:X<X-X:X,X:X,X,X>X,X,X>X,X>XeX:X,X:X:X>X=X>X:X=X:X:X>X>X>X>X>X>X>X:X>X:X:X<X,X<X,X,X,X,X,X<X<X,X<X,X<X,X,X:X<X,X,X9X,X,X,X<X-X:X-X:X,X,X,X,X5X,X;X:X,X-X5X5X>X,X7X5X>X,X,X,X,X,X,XeXtX,XeX,X,X,X:X,X,X,XdX7XdX,XiX,XtX,XeX,X7X,X,XtXiX,X,X,X,XeX,XiXiXiXiXiXiXiXiXiXiXdXtXiXdXiX7XiXiX,XiXiXiXyXiXiXtXiXiXiXiXiXiXiXiXiXiXiXiXiXiXiXsXiXsXsXdXsXaXsXdXiXdXaXiXiXiXiXiXiXiXiXaXiXiXiXiXiXiXdXiXiXiXdXdXaXdXiXsXiXiXdXaXiX9XiXiXiXtXtXiXyXtXaXaXeXuXyXyX6XxXxX7X-X&.| | E ) ) ) / R P I Y U I U R U U U U / R R Y U K G A P F P Z Z Z N N j j B j k k w w w 8 8 2 $ 2 $ 2 : . : . . . # . O . X @ X X @ o . X X X # X O # X X O X . X . X X X @ + % O # O @ @ O X X @ X X X & & X X @ O # O X X 8 i g j t g g g h g g g g g g g g g a g g p p a a a d i i q 0 0 q r r 1 r 0 1 0 , 9 0 r 1 0 u u a z a z e a a m m m m M M L ~ L L L L L ! U ! ! U ! M ! M M ! M W ! M M M W M W M M M M L L L ! L L M L M M J J H H H m n n n g n n n a l n m n n n n c n n m c c m x x n n m n n n n x n p m a m a a a m a a a M m b u m l p m a g f g g f j j j f f j f h f f s p t y r t t t t i i i u i p u u u r 1 , 1 r r 1 1 1 r 0 0 u e u u u 1 1 u 0 u 1 r r r r r 1 r 9 r 9 , y r 1 r y r ",
"<X<XeXdX,X,X,X,X>X>X5XtX5XuXuXuXuXuX%XuXuX>X>X>X>X>XuXeX>XuX5X5X>X>X>XeX>X,X>X:X:X:X:X;X<X,X,X,XeX>XeX,X,X>X:X-X,X:X,X>X,XeX,XeX,X,X>X,X>X,X,X,X,XeX,X,X:X:X<X:X>X>X:X>X-X>X=X>X:X-X:X>X:X>X-X,X-X<X<X<X,X<X,X,X<X<X,X<X,X<X,X<X<X,X<X9X<X<X,X:X,X;X-X<X,X-X<X,X-X-X-X-X,X,X,X,X5X,X5X5X5X7X5X,X7X,X,XtXtX,XiX,X,X,X,X7X,X,X,X,X,X,X,X,X,X,X,X,X7X,X,XdX7X,X,X,X,XeX0X,XiX,XiXiXiX,XiXdX7XiXiXiXdX,XdX,X7X,X,X,XiXyXiXiXtXiXyXyXtXiXtXiXiXiXiXiXiXiXeXiXiXdXiXdXdXiXdXsXsXsXdXiXiXtXiXiXiXiXiXiXiXaXaXdXiXiXiXiXiXiXiXiXiXiXiXiXdXiXiXaXiXiXiXiX7X,XeXyXyXiXtXaXiXaXtXtXuXuXtXyXyXvX5X8Xx.Y E ) [ ) } ) / R I P U P R U U Q ( ` U U U U U U U A U G U G P H H Z V N N j k k k k k k e w 8 4 2 8 $ $ # O @ X # # # # # @ X @ X O . X X O X X X X X . X X . X & X X O @ O % % # O # # @ X X X & X . & X @ # % $ $ # $ ; 8 q d j d d j g c n n h g d d i i i i e u 1 1 u u u u t 0 q 0 q i i p p r p p p r r 1 1 < u e m m m M J J M ! ^ ^ ^ ^ ~ ~ ^ ! ! M M ! ! M ! K K K K ! M M M M M M M M M ! M M M M M M M W M M M ! M L M L K L M H m m M n n n m a m l a m g x n x x a m a a m b x c v x c x g c g x g x g x g x x b m a b m a b m a m a b g g f g p g g f s f h s s f f b s p s p y t t t y t p i i i i a p 1 u u r r y 1 y 1 1 y 1 1 1 1 1 1 r r u u u u 0 e e u 0 1 r 1 , 1 9 r 9 r y r y r , , , ",
"<X<X<X<X,X,X,X:XrX>X>XeXtXuXeX5XuXuXuXuX>XeXuXrXeX>XrXuXtXuX5X5X>X>X>X>X>X>X>X:X:X:X:X:X,X:X<XrX:XeX>X,X,X:X:X>X:X>X>X>X,X,XeX>X,X,X>X:X:X:X:X,X,X:X,XrX,XrX<X<X=X:X:X-X>X>X>X:X>X-X>X>X>X>X>X:X<X<X<X:X<X,X<X,X9X<X<XdX<X,X,X,X,X,X<X<X,X<X<X<X:X:X;X:X:X<X:X-X-X:X:X-X-X,X>X,X>X,X,X,X,X,X7X7X7XdX,X,X,X,X,X,X,X,X,X,X,X,X,X:X,X,X,X,X7X,XeX,XdXdX7X,XeX,XeX7X,X7XeX,XeXtXiX,XdX7XtXiXdXiXtXiX,XiXdX0XeX,X,XeXiXiX7XiXiXyXiXiXyXtXiXiXiXiXyXtXiXiX,XiX9XiX0XiXdXiXiXaXaXiXiXiXdXiXiXiXeXiXiXiXiXiXiXiXiXiXiXiXiXdXiXdXiXiXaXiXiXiXiXiXiXiXiXiXiXyXiXtXtXiXtXiXuXdXaXyXtXyXtX7X7X7X-X7Xb.E E E } [ ) ) / R I I P Y Y U U Q U U U U U / U U U G G U P U P A Z P H V N j j k k d d k q w w 8 8 6 $ # # O . # X O O @ O O O X X X O @ @ X . @ @ . X X X X X X X X X X # O # O % # # # + @ X & . X X X X @ # # # $ O O $ 8 w d d f d i i i i d i q i a i i i q t 0 u b p p u u q q 0 0 < 8 < 0 1 r p t p p p g x x J L L ~ W W W W ! ! ! ^ ^ ^ -.^ ! ^ ! ! ! W ! ! ! K ! M M K M M M M M ! M ! M M M M M L M W M M M M M M L M L L M H M m m m n n n n b n b n n b x l g n m x a m m a x x g v h x x v x g g g g x n x g x a n b l m a x x a x b a a g g g g f g f h h s f j f s s f s p d t p t p y i i t p i a a u b u u b r y y , 1 1 1 1 y 1 , 1 y r 1 1 1 u r 1 0 0 1 r 0 1 0 , 8 , , 1 9 , r r 1 1 y 1 ",
"<X<X,X<X,X,X,X>X>XeX>XuXuX,XeXuXuXuXuX>XeX>X,XrXrXtX5XtXuX6X6XuX@X5X>X>X>X:X=X>X:X:X:X:X:X,X,X,X,X:X>X,X>X>X>X>X:X:X>X,X:X,X:X,X,X:X:X:X:X:X,X,X,X<X,X<X:X<X:X:X>X:X:X>X:X:X:X>X:X:X:X:X:X,X:X,X<X:X<X,X<X:X,X<X,X<X:X,X;X<X,X,X<X,X,X,X,X:X:X,X:X,X-X:X-X-X-X,X:X-X:X-X-X:X>X,X:X-X:X,X,X5X7X,XeX,X7X,X,XtXeX,X,X,XiXeX7X,X,X,X,X,X,X,X,X,XeX,X,X7XeX7X9X,XeX,XdX,XdXiXiX,XdXiXdXtX9XiX,XiXdXiXdX,X,X7X,X,X,X,XiXiXiXiXiXiXiXiXiXtXiXyXiXiXeXiXiXiXiXdXiXdXdXiXiXiXaXsXiXaXaXdXtXiXiXiXiXiXiXiXdXaXiXiXiXiXiXiXtXeXiXaXiXiXiXdXiXiXiXiXiXiXyXtXpXpXiXiXiXiXiXdXdXrXtXeXtX7X>X-XqXpX5XpX+X+.X.{ } ` [ ) / Y / U U P U U U U U U ( U U U U K U K H K H G P H P V N N V N j j j d j k e k w w 4 4 6 # $ # # # O + @ O @ X @ X X X X X @ X X @ X X X X X O @ X O O O @ O O % @ O O @ @ X @ X X X . . X X X @ O O # @ # $ 8 q d d d g j d d g g g i d i i i i i u q 1 u u u w 0 0 w t 0 9 r r r r r , 9 r a m K ! ~ ~ ^  .^ } ^ ^ ^ ^ ! ! ^ -.^ ! ~ ! ! ! W ! ! M ! K ! M ! K M M M M M M M M M M M W M M M M M M M ! M M M M M M M H m m m m n a m l b n l n a a m l b a n m a x x x a x b v g v x x h g g g x g g l b x g b b a x b m a a x a x x g g g g p g f f f f b f f s s p p s p y s t t i i y t i u e a e u u u r 1 1 1 y 1 1 y y y 1 1 1 1 1 , y 1 r 1 r 1 0 0 1 1 0 9 1 , < , , , 9 9 r 1 y , , , ",
"<X:X,X:X:X,X:X>X>X>X>XeXuX>XuX5XuXuXuXrX,X,XrXeXeXeXtXuXuXuXuXuX5X>X5X>X+X>X+X:X>X:X>X,X,X<X:X,X,XeXeX,X>X>X>X>X>X>X>X>X>XeX:X,X:X:X,X:X:X:X:X,X<XrX<X<X:X:X<X:X:X:X:X:X:X:X:X=X,X:X:X:X:X>X:X,X<X,X<X,X,X<X<X<X<X<X<X:X:X,X-X:X:X,X<X,X,X,X;X-X;X-X,X,X,X:X,X-X,X-X-X:X>X-X-X-X-X;X-X-X>X,X,X,XiX,X,XdX,X,X7X,XtX,X,X,X,X,X,X:X,X,XeX,X,X,X,X7XeX,X,XtX,XiX9X7X,XiX0X,XdXiX0XdX0XiXdXdXiX,X9X,X7X9XeX9XiX,X,X,X,X,XtXiXiXiXyXiXtXiXyXiX7XiXiXiXtX9XiXiX0XdXiXsXiXiXiXdXsXiXiXiX0XdXtXiXiXiXdXtXiXiXiXiXiXiXiXiXiXiXiXeXaXeXiXiXsXiXaXiXyXiXtXyXiXyXyXiXtXiXiXiXaXdXtXtXtXyX7X5X5X3X=X5X(.%.X.} ....} [ / / I R I I U U U U U U Y U U U U U G K G P K A P Z P Z P V N V N N j j j j d e q w w 8 2 $ $ % # O @ O X X X X X X . # X O X X O X X O X # @ @ # # + # X O # @ O O # O X X X X X O X X X . X X X X X X O O ; 8 s d j h h d i i d d i q e u k i u q u u u u b u q 0 q i q 0 r t i p u u r p n G L ~ ^  .^ |  .| ^ ^ ~ ^ ^ ! -.^ ! ! ~ ! ! ! ! ! W ! ^ M K K K M M M M M M M M M M M M M M M M M M M W M M M W M M M M M M M H n n n x a m m a p x a a b a l b a a x a x x a m b g x g g h c g g g f g x b n g g x a x x a a m a a m b a p g f a f f f f f f s b s p p p t t p d p t p t t t u i i i a u u u 1 y 1 1 , , y 1 1 1 1 1 1 y 1 , 1 , 1 1 1 1 , 1 1 0 9 0 1 0 , , , , , , 1 9 , , , , , ",
":X,X,X:X;X>X>X,X>X>X>XuXeXeXuXeXrXeXeXeXeX>XrX<X,XeXuXtX5XuX6XuXuX5X5X>X>X-X@X:X>X>X>X>X:X>X,X,X,X,XrX<X:X>X>X>X-X>X>X>X:X,X:X,X-X,X:X-X:X:X:X<X<X:X:X<X:X<X<X:X<X-X,X:X>X:X>X:X>X:X,X:X,X:X:X,X,X<X9X<X<X,X:X,X,X:X,X:X;X:X:X;X,X:X:X,X,X>X,X:X,X>X5X,X,X5X,X5X>X1X>X5X-X-X-X-X:X=X-X:X,X,X,X,X,X,X,X,X7X,XeXeX,X,XeX,X,X7X,X,X,X,XeX,X7X,X,X7X,XeX,XiX,XiX,XdX9XdXiX,X,XdX7XiXdXiX9X7XiX,X9X7X,XdX,X,X9X,X,XdXiXeXiXiXtXiXiX7XiXiXtX7XdXiXiX,XdXiXiX9XiXdXiXiXiXiXaXiXdXiXiXiXdXiXtXtXdXiXdXtXiXiXiXiXiXtXiXiXdXiXiX7XdXeXtX,XiXiXiXiXtXyXtXyXyXtXtXyXpXiXiXsX7X,XrX:X>XtX7X5X;X-XK.(.G.+...[ [ ..` ` / / R U I ( P U U P U U U U U U U U U K A K G P H A P P V N H N N N j j N j k k k w w 8 6 $ $ $ $ # O O X X @ X X X @ O O @ O X @ O X O # O # @ # # % # @ O @ O O O @ X X X X X X X X X X X . X & X X O O # $ 8 k d d s d k k i d i i q t t e t i t t q w u i t w 0 q i b v c H M M K v ! ! Q ~ {  . . .^ |  . .{ ~ ~ ^ ^ ^ ! ^ ^ ! ! ! ! ! W ! ! ! W ! M ! M M M M M b M M M M M M M M M M M M M M M M M M M ! M M M m m H m m l a a m a a b a b l l a m u a x a x x a g g x f x f x f g g g j f g a f l b g a x g x g m a a l x a a a g p f f f f f f b y b s y p r y y p y p t i t t y i t i u a u 1 u u 1 1 1 , 1 y r y 1 1 y 1 , 1 , , y , , , , , , , 1 , 1 9 1 , , < < > < 8 9 1 1 , , , , ",
",X-X-X,X>X,X>X>X>XeXeX,XeX5X>XeXeXuXrX,XrXeX<XdXeXeXeXuXuX$X6X$X5X5X5X@X@X>X>X5X5X>X,X>X,X:XeX,X:X,X:X,X>X>X@X-X>X>X-X>X>X:X:X<X>X:X:X:X:X,X:X:X<X:X:X:X<X&X<X<X,X>X:X>X,X:X:X,X:X,X:X,X:X:XeX,X<X9X<X,XeX<X,X<X,X,X-X,X-X,X;X,X,X,X;X,X5X;X-X,X5X>X>X,X-X,X5X5X5X>X5X>X5X>X>X=X,X-X:X;X<X,X,X,X,X,X,XtXeX,X0X,X,XiX,X7X,X,X,X,X,X,X,X7XeX,XeX,X,X7X,X,XeX,X,XtX,X,X,XdXiX9X9XdX7XdX,XdX,XdX,XdX,X,XdX,X9XeX,X,XdX7X,XiXtX0XiXtXiXtXiX7XiX,XtXiX0XdXeXiXiXiXdXiXdXiXiXiXiXiXiXdXtX0X0XdXiX7XiXiXdXiXiXdXdXiX7XdX,X7XdXdXiXiXiXiXtXdX7X7X>X7XtXtXtXyXyXtXiXiXiXiXsXVXaXaXaXcXcXUX7X=XJ.G.z.O.{ [ ` / ` ` / / / R U Y U U U U U A U U U U U U U U P H H A P F V Z P P V V V N j V j j j k e w 8 4 * 8 * 2 % @ @ @ O X O @ # O @ # X @ X # O X O @ O @ # O + O O % X @ O @ O @ X X . X . X X X X @ X & X & & X X X @ O $ 6 k k d d a d d g j g d i i i d i d i u e 0 e q t 0 0 q d U ! Q [ @.-.-.-.{  .@. . . .^ {  . .^ ^ ^ ~ ~ ~ ^ ^ ^ ! ! ^ ! ! ! ! ! M ! M ! M M M M M M M M M M M M M M M b M M M M M M M M M M M M M M M M m m m b m b a m a a a a a a a b a u m a b a a a x x g x p x f b a g g g g g p f g a l x g x a a x u a l a a m a x g i f f j f f b s b b y b y y p t t t t t t t k i t r t u 1 z z a u 1 1 , 1 y , r 1 y y 1 , , , , , , , , , , , , 9 , , 0 , 8 < < , , < , < < 1 , , , - , ",
":X>X;X>X5X;X7XeX>X>XeX,XeX,XeXeXrXuXrXrX,X<XrXrX>XeXeX5XuXuX$X%X5X5X@X5X>X5X5X>X>X,X>X>X,X>X,X,X,X:X,X,X>X>X>X-X>X@X>X:X-X:X:X:X:X>X:X,X:X,X<X:X<X<X:X:X<X<X<X:X<X>X,X:X>X:X>X,X>X:X,X:X,X,X,X:X,X,X,X<X<X:X,X,X:X,X-X,X,X,X5X5X,X:X,X,X,X5X-X>X,X5X5X5X5X,X5X>X5X5X5X5X5X-X:X-X,X-X:X:X,X<X,X,X,X,X,X,X,XiX,X7XtX,X,XeX,X,X,X,X7X,X,X,X,X9X7XdXeX,X,X,X,X,X,X,X,X,X9X,XiX,X,XiX,X9X9X7XdX,X9X,XdX,X,X,X,X,X9X9X7XiX9XiXiXiX7XiX7X7XiXiX,XtXdXdXtXdX9X0XdXiXiXiXaXiXaXdXtXdXiXiXiXeX9XiXtXiXiXiXdXtXiXtXdX7XtXiXtX7X0XtXiXiXiXiX,X7X7X,X7XyXyXyXyXyXiXiXiXtX,XeX>X:X:XOX=X(.(.K.H.x.j.O.+.{ ` ` ` ` ` / / / / / R R P P A A U U U U U U U U U U K P H H Z Z P P V P C V V V V j z N d d k w w 4 8 * 2 $ $ + @ @ O # @ + # O O # X O @ X X @ @ O O % % O O @ # O O @ X # # X X X X & X & & X X X X X . X X X @ @ O # $ 8 q k k k d k i k q w 0 q i d i d d j g g n n n n F H G Y Q Q ~ ~ -.~ -.Q ~ -.{  .{ ^  .|  .|  .{ ^ ~ ~ ^ ^ ! ! ^ ! ! ! ! ! ^ ! ! ! ! M ! ! M M M M b M M M b M M M M M M m M M M M a M M M M W M M M M m l b l a z a a a p p a p a a b l m a m a x x x a a x a x f f f f j f d i f g g g x l a a a b a a m p b m b a m a p g f f f f x p y b b y y y y y t r t t t t t t u r u u u 1 u u a u u 1 , , y , 1 1 1 1 1 1 , , y , : y , , , , , , y y , 9 1 , 8 , < , < < < 8 , 1 , < , ",
"5X,X5X,X,X,X>X7X>X>XeXrXeXrXeX>XeXeXeXrXeXrXdX<XeXeXeXuXuX5X6X6XuXuXuXuX5X>X5X5X5X:X,X,X,X:X<XrX,X,X:X>X>X>X>X>X-X>X:X-X:X:X:X<X:X,X:X:X,X:X<X:XrX<X<X,X<X<XrX:XeX:X:X:X,X,X:X:X:X,X:X>X:X,X,X:X,X,X<XeX:X,X<X,X,X,X5X,X5X,X,X>X,X,X,X5X,X>X,X-X-X>X-X,X>X1X>X5X>X5X5X7X5X5X>X>X-X>X,X,X<X,X<X,X,X,X,XeX,X9XdXdX7XdXtX,XtXeX,X,X,X,X9X,X9X7X,X0X,X,X,X,X,X,X,X,X,X,XeX,X,X,XdX,X,XeX,XdX,X9X,XdX<X9X,X9X,X,XeX,XdX,XtXeXiXeXiX,XdXiX,XeXtX9X7XiX9XtXtXdX0XdXiXdXsXaXiXiXiXiXiXiX,XiXtXeXtX0XtX0X0XiXiXdXiX7XdX,XiXdXdX7XeX,XtXdXiXeXtXtX7XyXpXaXpXpXpXpXiXeX<X:X:X:X:X:XG.x.h.j.>.O.O. .{ } ` [ ` ` ` / / R / U ( R Y U U P A U P U U U U U R U U K P H F F N V P V V V V V V j j j j d q w 8 $ 8 6 4 8 + % X X O @ O # # $ # % # X O # X O O O % # # O O @ @ O X O X # X X . X & . & X & . X & X . & X & @ @ # % $ ; 8 q s s d d d d q 0 0 w u q i d a g n n n H G J K R ~ } { @.-.-.@.@.-. .!  .~ ~ ~ ^ ^ ^ ^ | ^ ^ ^ ~ ~ ~ ^ ^ ! ^ ! ! ^ ^ ! ! ! ! ! ! ! ! M ! M M M M M M M M M M M M M M M m m a M M M M M M M M M M M M M l l a p b b b m a a a a b a m a a a a a a x x x n a x p g f f f p f f f d a f g g b a b a a g g a l a l l a m b d a f f f f p b y b b y b y y y r t t t t y d i u 1 a e u u u 1 u a 1 1 , , , y 1 1 , 1 y , , , , , , , , , , y 9 9 , , , , , , < 0 < , < 0 0 < 1 , , , - ",
"@X>X>X>X>X,X>X>XrX<X<X<XrX<X<XdXrX<X&XdXdXdXeXdXeXrXuXeX%XuXuX$X%X5XuXrX@X>XtX:X<X<X9X<X;X;X<X9X9X;X;X;X>X-X:X:X-X;X-X-X-X:X;X-X-X<X<X-X:X,X,XeX<X,X<XrX:X&X:X:X:X,XeX:XrX:X:XeX,X:X,X,X,X,X:X:X,X,X,X,X;X,X,X,X;X,X,X-X>X1X1X,X>XeX>X>X>XeX,X>X>X>X>X>X>XeX>X5X7X5X7X7XuX5X7X,X>XeX,X:X:X<XdX<X<XdXdX9XeXdXdX9XdXdXdX,X,XtX,X,X7X0X3X9X0X;X9X9X;X9X,X9X<X<X,X9X<X:XeXeXeX,X,XeX,X,XdXdXdX9XdXiXdX9XdX,XdX9X,X,XdX,X,X,X,XiXiXdX0X,X<X,X0XiXtX,XtXiXdXiXiXdXdXiXdXdXiXaXdXaXdXeX9X0X9X0X7XiXiXqX0XqX9X7X7X7XiXaXeXeXeXeXeX,X,X,X7X5X7X7XpXpXsXzXUXGXGXUXsXsXiX:X=XK.K.L.V.b.h.,.,.$.o.| } [ [ ` / ` ` R T ( ` T ` U Q U U S U U U A A U U U U G G G H Z F A A H V V P V N N h N j j d k r q 6 2 > 4 $ * $ $ O @ O @ O O # # # # # @ @ X @ X X @ + @ X . # X @ . X & @ X . @ & @ . X & X o & @   @ . . @ . . . X O ; $ ; 9 s s q q q 0 0 , 8 9 , u i p m m K ! Q | | -.#. .| {  .-. . .@.@. .@.~ ~ ~ ~ ^ ~ ^ ^ ^ ~ ^ ^ ^ ~ ^ ^ ! ! ! -.! ! ! ! M ! ! ! ! ! ! ! M M ! M M M M M M M M M M M M M M M M M a M a M a m m m m m m m m l l x a p p f b g a g g g x g x a M b a x a a m g x x g x a a b p p u b p p b u b u b u a a a a a b a a m m a a a a a a p g f f p p p r u y y y y y y , y y 1 y t t u r e r u 0 0 r 1 0 1 0 9 1 r 1 1 r , r , , y , , , , , , 1 , 1 , , , , 1 , , , < < < < < , < > , , < ",
"5X>X-X>X>X-X>X,X<X<X9XrX<XdX<XrX<XdX9XdX<XdXrX,XeXdXdXeX5X5XuX%XuXuXuX>X>X>X>X,X9X<X<X<X<X;X<X<X<X<X-X,X=X-X-X:X:X-X:X=X:X-X-X:X:X;X:X<X:X,XeX,XrX:XrX<X<X:X<XrX:XrX:X>X<X,X:X:X:X,X,X:X,X,X<X<X;X;X,X<X,X;X5X<X5X5X-X;X;X,X>X>X>X>X7XrX>X>X>X>X:X>X>X>X>X>X5X>X5X5X5X7X5X5X5X5X5X>X>X>XeX,X&XdX9X<X9X<X,XdX9XdXdX9XiX9X7X,X7X,X7X;X3X;X;X;X9X;X9X;X9X<X<XdX<X,X:X>X:XeXeXdXdX,XeXdXeXdX0XdX9X,X<X,X<X,X9XdXdXsXdXdXsXsXiX,XdXiX9X9X9X7X7X9XyXtX,XeXuXtXeXiXdXdXdXiXiXdXdXiXdXeXdXdX9X7X7X5X7X7XwX0X0X0XiXiXiXtXiXiXdXiXtXtX0X0X-X=X-X=X[.}.(.J.J.C.k.>.>.O.O. .@.X.@. .|  .| } | { [ E T ~ ` } [ ` ` ` / ` / ( ( ` ( U U U U U A K U U G G U G U U P P F F F F P V V N N j h h j j k s q 9 6 6 2 4 4 2 6 $ % % O # # # # # . # O # + @ @ @ O O O O @ # . # X # . . . @ X . X X X & X X & @ & @ @ @ @ . @ # X @ . # # 6 9 9 h N V H G H F m K M R L R ! Y R Q ~ ~ ^  . . . .~  .~  .@. .@.~ ~ ~ -.~ ~ -.{ ^  .~ ! ! W ^ W ! W ^ ! ! M ! ! ! ! K K ! ! K ! v ! ! ! v M M M M M M M M M M M M b M M a M M M M m M m m m m m m m m m m g x b b b b g g g g g g g g a a a M x b a a n x g x g b a b p u b u p b u b b u m m m a x m l a a m a u a a a b p u p d g i i p p r y y u y y r y y y r r u u q t q t 0 r 0 0 0 1 0 9 r r 1 r , r 1 1 1 , 1 1 , , y y 1 y , r r , , , , < , , , < , , < , 1 < , < < < ",
"-X>X>X>X>X:X:X:X:X,X<XeXdX<X,XeX&XdX<XrX&XdXrXrXrXtXtXuXuXuXuXuX%XuX>XrX>X,X>X,X<X<X<X9X9X<X<X9X,X>X<X>X>X:X>X>X>X-X>X-X>X-X-X-X:X>X>X:X:XrX,X,X,XrX<XrX:XrXrX:XrXeX:XrX,X:XrX:X<X<X<X<X<X:X,X<X<X<X<X:X,X<X,X:X,X<X5X,X5X,X>X>X>XuXuX>XeX>XrX@X>X>X>X>X>X>X>X>X5X5X>XuXuX>X5X5X>X>X>X,X<X9X<X9X9X9X9X3X9X9X9X9X9X9X,X9X9X,X5X,X,X;X;X;X;X0XdX,X;X9X<X;X<X9X,X<X>XrX>XrXeXeXeXeX,XdXdX,X9XdXiXdXiXiX9X,X:X=X=X=X=X<XdX9X,X<X<X<X9X,X,X9X,X,XtXyXaXpXaXdXaXdXiXiXaXaXdXaXiXiXiXiXsXsXiXiX7X;X5X3X;X{.;X3X,X,X>X,XiXdXaXdXsXsXsXGXsXUXUXiX7X;X[.A.;.| ~ R R K K ! Y ! R Q T ~ E Q K L L U L R ` } ` } ` / ` ` / / ` / U ( U U U U K U A K G G U U G I G H P Z F Z H F N V N N N j j j k k w 8 8 6 * $ * 2 $ 2 $ $ $ # # # # # # # # O % O + O O O O + X . . X O . & @ X . X X X X X @ X & X & & X . @ . @ . @ @ . X # O 6 9 8 v H Y ) } } } } ~ @.| } ~ ~ } ~ ~ ~ ^ ^  .{  .~ ^ { @. .~  . .{ ~  .-.~ ~ ~ ~ ! L ! ^ ! ~ ~ ! ~ ! ! ! ! ! ! M M K K ! K M K ! ! ! ! ! M M M M M b M M M M M M M M M a M a M a M m m a m b m m l m m z m x p p b b b a g g a a g g p a b a a a x m p b n g g g p p p p p b p b p b b b a b a a a b a a u m u a b b a a p a a a i g g p r r u y y y y , y , 1 r r u r u t r r 0 r 0 t 1 0 0 1 1 0 r 1 r 1 r r 1 , r , 1 1 r 1 y 1 y y r , 1 r , , , , 1 , , 1 1 , 1 , , < , < , ",
">X>X:X-X>X>X:X<X,XeX<XdX<XdX:X<X<X,XrX<XrXeXrX:XrXdXrXuX>XuX>XuXuX>XuX:XeX>X:X,X<X<X<X<X<X<X9X<XeX,X>X:X:X:X@X>X>X>X@X>X>X>X:X-X>X:X>X:XeX,X,XrX<X,X,XrXrX:XrX:X:X:XeX:X:XrX:X,XrX:X:XrX<X<X<X<X,X<X,X<X,X<X,X<X,X,X:X,X,X>X>X>X,X>X>X>X>X>XuX>X>X>X>XrX@X>XrX>XeX>X>X>X5X5X>X>X>X@X>X-X,X<X<X9X;X9X;X9X9X<X9X9X;X9X9X,X3X,X3X3X;X;X;X;X;X,X<X,X,X,X,XdXeXrX<XeXeX,XeXeXeXeXeX,XtX,XeX9XiXdX7XiX9X,X,X,X,X9XdXiXiX,X,X,XiXiXtX<X,X9X0X5X;X,X,X7XiXiXiXyXeXdXeX,XdXeXiXdXdXdX9XdXiXiXiX9X;X:X-X-X;X;X{.;X7XiXiXiXaXdXdXaXsXsXsXdXiXsX0X=XJ.A.k.=. .~ K K c v b v Z H A m m H M H c H H K G U T ` ` ` ` ` / ] ] / ( / ` ` U U U U U U G K A U P K Y U U P H F Z F V F N N N j j N j j d k w 8 6 $ 6 $ 4 * 4 $ ; $ ; $ % # # # # # $ % % + % # % # # @ X X O @ . @ . X . @ . . X . & & X X o & X X @ . @ . . @ # . . # # 6 6 q H ! Q [ { @. . .~  . .~ { ^ } } { ~ ~ ~ ~ { ~  .~ ~ ~ ^ { { ~ @.@.~ ~ ! -.! ~ ! ~ R ! ~ ! ! ! W ! L ! A ! ! ! K ! M v K K M ! b ! v M ! ! v M M M M M b M M M M M M M M M M a M m m m m m m a m a m a l a p p b f b b a a a a a g i a a a a x x a u b a g p g p b y p p b u b u b r a b u m a a a b a m u m m a a a a p m u g i i i u r p i r y r y y y y y y r r r 0 r 0 0 0 0 0 0 9 , 0 , 9 1 0 r r 1 1 , y 1 r r r y 1 u y r y 1 r r r , 1 , 1 , 1 1 1 1 r 1 1 r , < < , < ",
"+X:X:X:X-X:X:X-X:X,X,XeX,X,X:XrXrXeXrXrXrX:XrXrXrXrXuXuX%XuXuX@X>XrXrXeX>X,X>X,X<X<X<X<X<X<X<X<X:XeX>X,X>X>X@X>X%X@X$X%X%X%X1X@X>X>XuXrX>X>XuXeXrXeXrX>XrXrX:XrXrX%X>XrXrX:X>XeX:XrX<X<X<X&XdX<X,X<XdX<X:X<X<X<X,XeXeX>X>X>XeX>X>XuX>X%X@X>X>X>X%X>X>X@X>X>XuX>X>X>X>X5X>XuX>X5X>X@X5X-X:X;X,X,X;X9X;X9X9X;X9X;X;X3X;X;X9XwX;X;X;X;X:X;X:X,X,X,XeX,XeX,XrX,XrX9X,XeXeXeXuX,XtXeX7XeX,XiX7XdXiX0XiXtX7XeXtX0XiXiXiX,X;X:X7XiX0X,X7X7X0X,X,X1X7XtX,X,X>XeX,XeXeXdXeXtXdXiXiXdXiXdX9XdX9X0XiXqXiXsX3X3X7XwXpXsXiXiX=X].J.Z.P.M.u.=.*.1.O.{ Q ! ! ! Q K c K v v v v v v v v v v v v c K H K G H ( / ` ` } / ` ` / / ` ] R ( U ( Y U U K U U U G G U P U P G P Z Z Z N N N h j j s d k s q w 8 8 $ 2 2 ; * 8 $ 6 $ ; $ $ $ # # # $ # $ # $ # + % O % # # . X . @ . @ . . X . & X X . X X & X X & & @ @ @ . @ . @ # # . 2 O # 9 j T [ } { { { @. .~  . . .~ ~ ~  .~ ~ ~ ~ ! -.~ ~ ~ ~ ~ { { ~ } { ^ } ~ ~ Q Q ! U Q ! ! ! ! K L L L L K ! K K M K K M M ! K v ! ! ! ! ! K K M M M M M b M M M M M M b M M M M m m m m m m x m m a a b a m u b b b b b g g a a a a a g a a a a a b m m l a p p p r p p b p p p b y b b b p b a b p b a x a b b a a p p a a a a a a z u u u a u u 1 r y y , y , r y 9 r 0 r 0 0 0 r 8 0 , 0 , 9 0 0 0 0 1 r 1 r 1 1 y 1 r 1 b y r r y r r r r r 1 9 1 , r 1 1 r r 1 1 1 , 1 < , < ",
":X=X:X=X:X:X:X:X,X:X,X:X:XeXeX>XrX>XeX>XuXeXrX>X>XeXuXrXrXuXuXrXeXrX>X:XrX:X,X<X<XdX9X<XdX<XdXdXeXeXrXeXrX>X>X>X5XuX%XuX6X5XuX5X>X>XrX@X>XrXrX>X>XrXrX>X:X>XrX:X>X:X>X:X>XrXrX:X:X:X:X,X9X<X<X&X<X&X&X<X&X<XrX:X>X:X>XeX>XrXeX@X>X>X>X5XuX>X@X>X5X>X%X>X@X>X@X>X>XrXrXuX>X@X6X%X@X5X-X>X1X,X,X3X3X9X;X;X;X;X;X;X;X9X9X;X9X;X3X-X:X,X,X:X>X,XeX:X<X,X:X:XdX<X<XeXeXuXeX>X,XeX,XtXtX0XtXeXtX7X7X0XiXiX0X,X5X;X:X-X,X,X5X,X:X=X-X,X0X7XqX7XyX7XtXyXpXyXtXtXeX,XeXeXeXdXiXdXiXdXiXiX<XdX<XiXiXsXcXcXcXUXUXGXGXGXsXiXK.G.l.u.=.@.{ [ U ! K c v M A M K M M M M M v M M v A K v c c c v H Z K A P U I / ` ` ` / ] ] / ` / / R / U U U U U A U G P A H G H P G P F F Z B N B k s k q k q k w 8 6 2 2 * * 2 2 $ 2 $ $ $ $ $ # # # # # $ % % % % $ O # % X X @ X X . . X X X . X . . X X @ & X X @ @ X X @ . . @ @ # # # & $ O O 9 c [ @.@.X.{ { @.~  .@.~ { @. .{ @.@.{ ~ ~ ~ ~ ~  .~ ~ ~ ~ ~  .^ ~ } ~ Q ! ! ! K ! ! L ! ! U ! K L K ! K K M K K K K K ! v K K ! b v K K M ! K M M M b M M M M M M M M M a M a m m m m m m m x m b b a a a p b y b p p p a a a a a a d a b a M a m a a b a b u p p p r p b y y y b b b b p b b p p u b b a a p u a u p u a a a a u u u u u u u u r r 9 y y , y y 9 r 9 0 0 9 0 , 8 1 0 0 , 0 , 0 , 0 0 r 1 r 1 r r 1 p 1 b y u r b r r r r r r r r , r 1 y 1 r u 1 0 1 < , < 1 < ",
"=X:X:X=X:X<X:X:X-X:X:X>X>X>X>X>X>XrXuXrXrX%XuX>X>XrXdXuXuXrXuX%XrX>X:XeX,X:X<X,X<X<X<XdX<XdXrX<XeXeXrXeXeXuX%X%X%X5X$XuXuX6X%X$XuXuXuXrX%XeXuXrXrXrX>XrX:X:X:X:X:X@X%X>X:XrX>XrXrX:X&X<X<XrXdX<X&X<X<X<X:X:X:X:X:XrXrXeX>XuX6X%X>XuX>X@X@X>X>X@X>X>X5X>X@X>XuX>XrX>X>X>XuXuX%X>X6X5X-X5X1X5X3X5X;X;X;X9X;X<X<X<X<X;X9X9X;X3X;X;X,X>X,X>X,XrX,X,X<XrXrX,XrXeXdXdXeX>X>XeX>X7X,X7XiXtX,X7X7X7X7XtX7X,X7X7XiXiXsXsX7XiXpX0X5X;X7XiX7X7X7X7X7X7XtX5XtXyX>X:X:X=X:X=X,X:X:X:XdXrXdX9X<X<X=X[.;X<X-X=XJ.H.b.V.M.N.g.O.{ } ` Q ! U K K v Z v v v v v M b v v v v v v v v v v v v c c c m Z H A H P I ( ( / / / ` / ` ( ] / ( T U U U U U U K K H U A G P H H H F Z Z h N j j s 7 q q w w w 8 8 * 6 8 4 6 * 6 $ $ $ $ + $ $ $ # # $ $ ; + $ O # % % # O X # @ . X . X . @ . X . @ . X X @ X X X @ & o @ . @ @ @ . # # # X : . # ; s Q @.o. .} {  . .~ -.~ ~  .~ @. . .@.-.! ~ ~ ~ ~ ~ ~ ~ { ^ } { ^ } ~ @.~ ~ ~ Q Q Q Q ( ! ! U U ! U K ! K K K ! K K K M ! K K v ! v ! v ! K M M M M M M M M M M M M M M z M M m m m m m m m m m b b b a b b p p b f b a a a a g g g g a a a b l a a l m a b a u y p u b b b p r b u b b b p p b b b u b b p b p p a u a a a a u u u u u u u 1 r r 1 9 , , , y 9 9 9 9 1 9 , 0 8 1 8 , 0 8 9 0 8 9 0 9 r 1 r r y u y p b 1 b r b 1 r y y u p r r r r 0 0 0 r r r 0 0 1 < 1 , 1 < ",
":X:X=X:X:X:X:X-X:X:X:X:X>X>X>X>XuXuXuX%XuXeX%XeX%XuXuXNXuXeXeXrXrX>X,XrX:X,X<X<X<X<X<X<X<X<X<XdXeXeXeXeXeX>X>X>X$XuXuXuXuXuXuXuX%XeX%X>X%XuX>XrX>XrXrX@XrX%XrX%X@XrX>XrX>X:XeX:XrX<X,X<XrX<XrXdXdXrX<XrXrX:X%X:X@X@X>XuXuXuXuXuX@X@X>X5X>X5X@X>X@X@X>X@X>X@XrX>X>XrXrX>X>X>X5X5X5X5X5X5X,X,X3X5X<X;X;X<X<X;X,X:X<X<X<X9X9X;X;X,X,XeXeX:X:XeX:XeX:X:X:X:X,XeXeXrXeXtX>X,X>X>X5X,XyXiXyX7X7X7X7X7X7X7X7X,X;X7X5X5X;X-X-X,X,X7X7X7X5X5X,X7X7X7X>X-X,X,X>X,X,XeXeXiXiXiXdX9X9XdXsXsXUXdXdX<X=XK.G.V.$. .| } } } } ~ T Q ! U U U K K K K Z K Z v v M v M K M v M M M v v v v M v K c Z m Z H Z P U U R / ` / / ` / / / ` / U U / U U U U K A Z H H G Z Z H P H Z Z c Z j B s k k 7 8 w w 8 2 8 * 8 8 4 8 ; ; $ % # # $ # # # O % $ $ # % O % O O O # X X . X . X . @ . @ & . @ & X @ X . X X & @ @ & @ . @ . @ # # # # #   # # 6 K } +.{ ~ { @.@.~ ~ ~ ~  . .~  .{ ~ ! -.~ -.~ ~ ~ ~ ~ ~ ~ ^ } { ^ } ~ ~ ~ ~ ` Q Q R U ! U K K K K U K K K K K M K M M v v K ! b ! v K K M M M M M M b M M M M M M M M M M M M m m m M m m x x a m b a a u b b b p p i e a z z g g g M a a M b l b b a m b u p p p u b b y p y b b p b b b p b u b b p p p p b p p u u u u u a a u e 1 u u a u 1 0 1 , , , 9 9 , , y 9 , 0 0 , 9 , , 8 1 0 8 1 8 9 0 , r r r 1 u r y 1 b 1 r b r 1 b r r y u r r 0 0 1 1 r r u r 0 < , 1 , < < ",
"<X:X<X:X:X<X&X,X:X-X:X-X:X>X>XuXuXuXuX%XuX%X>X>X%XuXuXrXrXuX>X:X>XrX:X:X:X:X<X<X<X<X9X<X<XdX<X<XeX,XeXrXeXrX>X%X%XuX%XuXuXuX%X$XuX%X>X@XrX>XrX>X:X>X:XrX:X:XrX:X:X>X:X@X&X:X:XrX<XeX:XrXrX<XrX<XrX:X:XrX%X%X%X>X%X5XuXuXuXuXuXuX>XuX>X@X@X@X>X>X@X:X>X>X>X>X:X:XrX:XeXrXuXeXuX>X@X5X>X5X5X>X1X>X>XtX>X>XrX,X>X,XeX,XeXeXeX>XeX>X,X,XeX:X,X:X,X:X:X:X,XeXeXeXdXrX>XeX>X:X>X7XyXeX7XtX7X7X7X5X5X-X>X5X5X,X-X1X,X5X1X-X-X-X7X7X7X7X-X-X-X-X-X-X>X-X,X,XeX:X<X,XeXeXiXdXdXeXiXiXUXUXGXAXsX;XJ.P.j.O.E R G H F G K L K H K Z K U K Z K v K K v v v v x v v b b v v v K v v M v c m c c n Z F P G P I U T U ` / ` / ] ` ) / / Y U U / K H H F H F A F H P Z H Z P Z N B j s s s k w 7 7 6 8 2 8 8 2 * $ $ $ $ $ # % # # # + % % # O % @ + % # % @ @ X @ X X . . X X @ @ . . X . X X X X X X @ & X X X . @ . @ @ 3 $ $ O & # O # 9 c [ +.@.~ } ~ { ~ ~ ~ -.! -.~ -.~ @.~ ~  .~ ~ -.! ~ ~ ~ ^  .} } ^ ^ ) ^ } } ~ ~ E ~ ! Y L G K U K K L L K K M K L K M K m K m M K K K ! K b M M K K M v ! M M M M M M M M M z M z M K m m m v v x x x x b b b b b b a a z a z m a g a x g n a g g a b m a a p p u b b b b b p p b b y b b b b b b y b b b b p p p p a a p u u u a a u e a u u u e 1 , , , 9 9 9 9 9 9 1 , , 0 , , 0 0 9 9 0 0 q 9 y r r r r u t t t i u r r r r 1 r r r r r u r 1 r 0 0 r 0 u u u u 1 1 , 1 1 ",
"<X:X<X<X].:X:X<X:X:X>X:X>X>X7X5XuXrXrXuXuXrXuX%XrXuXuXdXNXdXrX:XeXeXeX,X,X,X<X9X<X<XdX<XrX<XrXdXeXrXeXeX>XuX>X>X%X>XuXuXuXuXuX%X%X%X@XrX@X%X%X:XrX%XrX:XrX:X%X:X:X:X:X:X<X<X:X:X:X:X:X<X,X:XeXrXeXeXuXuX>XuX@XrXuX%XuX%XuX%X%XuX%X@X5X%X>X@X>X@X@X>X%X:XrX>X:X%XOX:X%X:X%X@X@X@X%X>X5X5X5X1X1X>X5X%XrX>XrX>XrX>X:XrX>XrXrXrX:X%XrXrX:X,X:XrX:XrXrX:X:X,X:X:X>X>X,XeXtX>X>X7X7X,X>X5X7X7X7X7X5X3X1X;X-X3X-X5X;X5XiX7X5X5X7X7X7XwX;X5X7X7X7X5X;X:X,X,X,XK.K.OXK.K.L.G.S.S.>.u.u.>.@.@.~ ! Y R L G L G H c n n n Z H H M Z K Z Z M Z v v v v K M Z M v M M M m K H v v v b x n c m m Z F F V P I P U / ` / ` / ` / / / / ( / U Y U U G G P P Z H F Z P H Z Z Z F N Z N B B k 7 w 6 8 6 > 8 6 * * 6 6 $ 2 $ $ $ # $ $ $ # # O O % O % % O + O O X X X O X . @ . X . . @ X . @ & . X X @ & o @ X X @ @ . @ @ @ # # $ # . O O O 9 Z } +.@.{ } { ~ ~ ~ ~ ^ ~ ~ @.~ -.~ ~ @.~ ~ ~ ~ ~ ~ ~ @.~ ~ ^ } } } } _ ^ ^ ~ E T T U Y Y G K K U K L M M L M L M L L M H m K K M M K v v ! K v v M M K M M M M M M M M M M M M M M m m m c m m x x b x x b b b b m m z m z a m x a a x l g g g g f l b b m x x m b m b a b b b b b b b b b y b p b b b b b b p u p p a a p a u u a u u u u u 1 e 1 r r 1 9 9 , 9 , , 9 0 , 8 0 0 , 9 0 w w 9 w 9 q r r t r t q r 0 r t r r r y y r 1 r y u y r r 1 1 0 0 r r 0 r 0 < , 1 < , ",
"oX].:X:X<X:X,X:X>X,X-X>X>X>X>X>XrXuXeXuXeX>XeX%X>X>XuXrXuXuXeXrX:X:X:X:X<X=X;X=X<X<X<X<X,X,XeXeX>XeX,X,XrX>X>X>X5XuXuXuXuX6XuX%XeXrX:X:XeXrX>X>X@X:X:X%X:XOX&XK.:X:XrX:XdX<X<X<X:X:X:XeXeXrXeXrXeX%XuX%X%X>XuX>X%X>XuX%X@X%XuX@X5X@X%X@X@X@X@X>X:X=X:XOX+X:X:X:XrXrXrXrXeXrXeX>X5X>X#X>X5X>X>X>XeXrX%XuXrX>XrXrXeXrXeXrXeXeXrXeX:X:X:XrX:XrX<X:X,XrXeXeXeX,XeXeX,X,X<X;X:X,X>X-X7X5X-X).{.{.-X-X7X7X0X0X0XsXzXcXsXsXsXpXpXpXsXzXGXGXGXGXGXGXGXsX0X<X=XG.S.S.u.O.O.O.+.@.} ` Q T U P K v Z H K K G G K H H n Z m Z m H K c K Z M v c c Z M M v M v v v v b v c c x v v M n n n m n n c F P G I G U ( Q ` / / / / ] / / / / P Y P U U G G H A H A H H F Z F F Z N h j j s s 7 6 q w 8 2 6 $ 8 6 $ $ $ : # # # # # # + % # % $ + % O % % # + @ @ X X @ . X . X . @ X & X . . . X X X & @ & X X X & @ . @ . . # . # ; X O . . 8 v Q { { } ~ ~ ~ ~ ! ~ ~ ~ ~ ~ ~ ~ ~ ~ ~ ~ -.~ ~ ~ ~ ~ ~ ~ ~ } ^ } ^ ^ E ~ ~ E E R L L L L K K H H G L K M L L L L L J M J m m H M H ! b ! b K M K v K M v K M M M M z z M M M M z M m M v M m v m v m x x b b b b m l l l l m a a x m p m g g g x g x n l m m m m m m b x b b b b b b b b b b b b p a b a a b p p p a p u u u u i u 1 z u u u 1 e 1 1 9 1 , 9 , 9 y , 1 1 8 1 0 8 0 w 0 9 q q q q q t i t q t t t t r p u r u y u r y r r y r r r u 0 0 0 r 0 0 r 0 , , 1 , 1 ",
"<X=X=X:X:X<X:X,X:X,X:X:X>X>X>X>X>X>XeXeXuXeXuX5X%X>X>X>X>XeXrX:X:X&X<X<X<X<X<X9X<X<X,X<XeXeXeXiXeX>XrX>X>X@X%X>X>X%X%X5X%X%XuX%XOX%X%X%X%XOX%X:X:X:X:X@X&X:X:X:X=X;X:X:X<X<X<X<X:X<XrX:X>XeXeXuXuXuXrX>XuXuX%XuXuXuX>XrXuX@X@X@X@X>X>X>X>X>X:X%X%X:X:X:X:X:X:X:X:X:X:X:X:X@X:X%X>X@X>X>XeX>X5X>XuXuXrXrXeXrXeXrXrXrXrX>XrX%X:X:XtXdXdXeXdXdXeXrX<X:X:X:X:X=X:X:X,X,X,X;X,X7X,X-X(.-X>X5X3X-X{.~.;X-X[.-X;X3X0X0X0XqXwX0X0X0XpXsX8X7X1X1X=X=XK.K.G.M.u.+.@.@.[ ~ ) / / R U U H Z v v v v j Z H H Z H H H H F m v m H K c H c Z K K Z c c v v v M v M c c n c Z F m M v b x l c n c n c F F G P P R ` ` / ` ] ..` / / / / U / Y / Y G G H F H F F Z F Z Z Z F N h B j j s k k s q 7 2 6 2 6 6 4 6 # # # # $ # # $ % # + % # O O % # % + % + @ X @ X . X . X . X . . X . @ @ . X X & @ @ o & X X X & @ 3 X @ @ . X # . O . . ; k L Q ~ ~ [ ~ ~ ~ ~ ! ! ~ ^ ~ ~ ~ ~ ~ ~ ~ !  .~ ~ ~ ~ ~ ~ ~ [ ^ } } E ^ E ~ E E L R L L K G K K H H M L L L L L L L H M m M m K K M M ! b ! v K M M v M M v b M b b M M M z a a M M m m M c v m v x b a x b m b b m l M l M l m x x a m a x c n c x n x m n m b l b m x m b b b b b b b b b b b y b b b b b s p p i u u p u u u u u 1 1 u u u e 1 e 1 1 9 1 , 9 , , 9 1 9 1 9 , 0 8 0 q 0 q q q q q q q q u i i t t y r r r y 1 y r r r r y r y 1 u u r u t u u u 1 1 u 1 r r ",
"=XoX].:X:X:X=X:X:X:X-X:X:X>X:X:X<XrX,XrXrX>XuX>X@X>XeX@XrX>XeX:X,XrXeX,X<X,X<X<X9X<X,X<X,XeXrXeX:X:X>X:X:X>X>X@X%X:XrX@X%X%X%X%X:X%X:X:X:X:X%X:X:X:X:X:X&X<X:X<X].=X<X].<X<X].<X:X:X:X:X:X:X>X>XuX>X>XeXrX>X%XrX:XrX:X:X@XrX:X:X@X%X:X%X%X:X%X:X:X:X:XrXrX<X<X:X:X:XoX:X:X%X=XOX:X:X>X:X>X:XeXrXeX>XuX:XrXrXrX>XeX:XrX:XrX:X:XrXrX:X:X:X:X:X=X=XeX,X,X,X:X,X,X,X=X=X<X3X<X=X;X=X-X-X-X-X1X7X7XqX,X=X[.}.(.K.L.J.-X-X[.(.(.(./.J.m.x.%.+.@.X.@.@.` R U U U Y R U Y Y Y Y P G Z Z Z Z Z Z K K K K F H K A K c K K c m m H c m K H H c m m c c m x M m m m F F F F n n l n l c c v c c m Z H H H P U / ` ` ` ` ../ ) ) / / / Y / Y P I H P P F Z Z Z N N B h Z Z j j j s s s k q k 6 6 6 : 6 2 6 $ # # # # # # % O # # + # X % X X + + % # @ X X X X X . X . . X . . X & . . X & X @ @ X X X X X X @ @ . . . . . @ # & O O O ; w c Q Q @.~ ~ ~ ~ ~ ! ~ ^ ! ~ Q ~ ~ ~ ~ ~ ~  .~ ~ ~ ~ Q ~ ~ ~ ~ [ [ ~ E ~ E Q U ! ! ! K K Z K H H M K K L L L L K K K m m m K M H M b ! M v M M M K M M v M b M b M x b x M M m a M M v M M m x x a a l b x b p b m l m l l n c v v x c x x c c n n n m m m l m m m M x M b b b b b b y b y b p s p p a f f d p s i p u p t t r r r u u 1 u 1 u u 1 1 e < 1 9 9 , 0 , 0 < , 0 8 8 0 9 w q q q q s q q q q q i d t i r r r r y u r r r t t t r t r r t u q e e u 0 0 0 0 0 0 r ",
"OX].:X=X=X:X:X].=X:X:X:X,X:X,X,X:X,X:X,X>XeXeXeXeXeXeXeX>XeXeXeX:X<X:X<X<X:X=X=X;X<X-X:X:X:X:X:X:X:X>X>X:X-X@X:X=X@X@X:X$X%X%XuX:XrX:X:X:X:X:X:X%X=X:X].].=X].<X].].].<X<X].<X].=X:X:X,X:X-XrX>X%XrX@X:X@X:X:XOX<X&X:XOXOXoX].=XoXOXOX@XOXOXoXL.K.oXoX:X:X:XoXoX:X:X:X=XOX:X:X:XOX%XOX=X%X=X:X:X@X@X@XOX+XOX=X=X:XrX:X:XOX:X%X:XeXeXdXrXdXeXrX<XeXdX7XeXiXaXsXsXGXGXAXUXGXGXUXGXGXGXUXpXpXbXGXGXGXsXqX0X;X}.J.J.k.g.$.O.*.$.o. .} E I F h h c c v Z Z Z Z A G P U Y G U Y U K K Z v c Z Z v Z H P G K H Z K M c c c c m m Z Z c c c v c c m c n v v v c N N l V l l l l l c c c c c c c c Z P H / / ` ` ../ ) ] ] ) ] / / / P I I G C G V N V Z v Z j v h h N N N h B j s k q 7 7 6 6 6 ; : 6 # # # # # O # # O # + + @ % o + % O @ + @ @ @ X X @ @ & . . X . X X . @ . X . X X & o & X X X & @ . . @ @ @ @ @ . # & # # O ; 6 s Q ~  .@.~ ~ ~ ~ ~ ~ -.! ~ ~ @.~ ^ ~ ~ ~ ~ ~ ~ ~ ~ ~ R ~ ~ ~ ~ ~ ~ ~ Q Q Q ! L U K K K K K m Z K K K K K K K K K m K K F c M c m M b M M M M K v K v M v b b M b m M b b a M M a x m c c v x x b b m b b b m m l m m M l n h v v v c c c n c n m M n m H m m l a a x a x b p b u b b y b y b p f a b f f f d d p i p i t t i t r 1 1 u 1 u 1 e u e 1 w < , , , 0 0 , 9 < , , 0 w 9 w 9 w q q q k t d i t q t t t r r u y r y y y r t r t r r 0 0 0 u 0 u 0 0 w 0 0 0 w 0 8 ",
"=X=X=X=X:X:X=XOX:X:X:X,X,X,X<X:X,XdXeXeX,XeXuXeXtXtXyX,XeXeXeX<XeXeXeXtXtXtX9X,X,X;X,X-X:X:X:X@X,X-X;X>X:X>X:XOX:X@X:X%X>X@X5XuX%X:X:X:XoX:X:X:X:X=X:XoX].].].<X<X<X<X9X<X9X9X9X,X;X7X7X7XuX7XeXeXeX,X,X<X:X:X:XrX<X&X<X:X&X&X<X>X>X:XrXrX>X:X:X:X:X<XrX&X<X<X<X&X:X].:X:X:X:X=XrX:XrXrX,XrXeXeX1X5X>X-X>X:X,X,X:X;X:X:X:X:X=X:X].&X:X&X:X=X=X=X=X=X=X[.(.=X-X:X;X].=X].G.G.G.J.V.H.J.J.Q.b.$.#.#. .[ [ ~ R L I K J J G J L J G I J l h j d d f Z v Z Z Z Z Z G H H F P H H A Z A H H K K K Z K Z Z Z v v c v x c v v m n n m m c n x n m x n n n n F F F F F H F l l l c n v c v Z Z Z v v Z P U ` ` ` ..` ../ ] ) / / R / / P I G G F F c N Z Z j B h N N N h N N j j k s 7 q 9 6 6 6 6 3 # : # # # # O # @ @ @ + @ % X % X % @ X @ X @ X X & X . @ & X . @ . . X . X . X X X X X o @ @ @ @ @ @ . @ . # . # . # . # O O : ; q K ~ -.~ -.~ ~ ~ ~  .-.~ -.! ! Q -. .! ^ ~ ~ ! ~ Q Q ~ ~ R Q ~ ~ Q Q Q ! ! K ! K K K K K K c K K K K K K K M K K K H n m M v M v b M M M v K v M v v M M M b b b b M M b M b a M x b v m M c b m m l x x a m a m m m n n g x v v v c v v x c c n m m m m m l l m m x b b b b u r y y p y s b s b b p a d f d d d p t p y t t r r 1 1 1 u 1 u e e e 1 1 5 w < 0 0 9 1 0 < 0 , 9 9 8 9 9 w q q k k q i q t u t q r u i y r u r 1 1 t r q 9 r 9 0 0 0 0 0 0 0 0 0 0 0 0 8 0 0 ",
"=X:X:X:X:X:X].:X:X:X>X>XeX7XdXdXrX<XeXeXeXtXtXtXeXaXiXtXeX,X,X,X=X<X<X,X<X0X,X0X7X,X,X>X>X@X@X:X:X-X;X>X:X:X:X:X:X:X%X:X:XrX>XrXtXdXeXeXtXeXtXdXdXdXeX,XdX<XdX9XdXdX9XdXdXdX9X9XiXiXiXiXpXiXyXtXUXVXVXsXVXsXVXsXsXdXdXdXdXdXdXVXaXaXaXaXaXaXVXdXVXdXdXdXdXdXiXsXsXsXVXdXdXaXaXVXiXaXdXaXsXsXsXVXVXcXaXVXaXaXVXsXsXVXsXiXsXiXaXaXsXsXsXsXUXVXdXsXdX<X=XL.G.l.j.g.u.O.O. .@.} [ [ X.{ E L J L I R J n l l n l h n h n n F F c g l l l j h g j h s v c H A H c Z U Y P P H P P Z c F Z Z Z Z v Z Z Z Z Z v c c M v v m c m n H m c m n n x m n n h h n c l V N V F H H H V h x g g f c H v v v Z U U ` [ ] ` ) ..] ` ..) / / Y Y Y G I P H F N Z h h Z c j h Z F h j j B d k s k w 7 q 6 6 : : # . # # # # O O X X + @ + @ % X % X X X X X X X . & X X . . & . & X X . X . @ . X X X @ & X @ & @ & @ @ @ . @ @ X # O . O X . # # 8 g L ~ ~ ! ~ ~ -.!  .! @.~ ~ -.~ ~ ^ ^ ~ ~ ~ ^ ^ ! ~ Q R Q R Q Q Q ! Q ! ! ! K ! K K K ! K K K K L K K M K K M K c m m c c M v M M b b M M M v K K M v v b b M b b b b b b b b a b x x v m v m b m a x x x b n m l m l x g g v v v v v x v v c c l n l l m l l m b m p b b r b y y y y p y p p p b a d f d f p t y d s p p t y r r u 1 1 u 1 u u u e 1 < > > 0 , < 0 , , 0 9 9 9 8 9 q w w q q t q q q q q i t t i r r r r r y y t t t r 9 r 0 9 0 0 0 0 0 0 0 0 0 0 0 0 0 ",
"].].;X<X<X:X].oX=XOXOX:X:X:X+XOXrXeXuXtXeX>X,X>X:X>X5X,X,X>X:X:X].].].<X<X;X;X;X=X:X>X:X=X%X@X@X>X:X:X:X:X<X].:X&X].<X&X].<X<X<X<X<X<X;X<X,X>XuX>XrXuX:X:X,X<X<XdXdX9X9XdXdXiXiXiXdXiXiXiXyX7XeXiXtXeXdXdXdXdXdXdXdXdXdXdXdXdX<XeX,XeXdX,XdXeX<XdXdXeXdXdXdXdX9XdX<XdXdXdX9X9XsXsXdXdXdXdXiXaXaXaXrXyXdXtXaXaXsXiXiXiX,X:X-X-X3X9X<X,X:X,X<X:X<X=XK.L.z.+.@.{ { } [ ~ T Y L L L L G H l g g l l g a a a g l g c h l c F h h c h Z h g j f g Z h Z Z F c Z H K G H P H A Z F F Z H Z Z F Z Z v Z c c c c x x x x n n F n n l n n F F n l h l g n n g x x n H c Z F Z Z c F c h g h v c c f h Z U ` ( ` ` _ ] _ ) ..] _ / / / P P U I G H Z Z Z Z N s Z h h Z N N h h j d j d q q w q 6 6 6 2 6 # # # $ # $ # # # @ O @ O @ O @ O @ X # X X X X X X X X . @ X X X X   X & X X . X X & @ @ @ X @ @ . @ & @ . @ X @ & # # . O . O : i d @.{ { | ~ @.~ -.~ ~ Q -.Q Q ~ -.~ ! ! ~ ~ Q Q Q ! ! ! M ! ! Q R U ! ! ! U K K K U ! U L L U R K K H H K H K m m m m v M v x m m m m m m m m H m m m x m x b x b x b b b b b b b b v M M v v x x x M v M l m z m l a v f v v b s v v b v v v b v n c h h h g b a b p u y y y y y y y y p y y y d t d i f f t y y y p y y r y r r , r 1 1 1 r 1 1 , 1 , 1 , , 8 0 < 0 8 9 6 9 9 8 6 8 w q q 0 0 0 q q q r y i r r r y r y y y 9 9 9 q y 9 9 9 9 r 0 0 r 0 r 0 0 0 0 0 < ",
"P.P.P.A.G.P.P.S.P.P.G.oXoXL.L.P.L.K.OXoXK.OX=X[.=X=X=X-X=X=X=X(.].A.J.A.Z.K.[.:X(.OX=XOXL.D.D.OX+XK.K.K.K.L.P.K.P.P.P.].J.P.L.P.A..XZ.G.F.F.S.F.L.F.oXL.L.L.L.P.u.l.M.P.G.G.G.G.K.L.L.L.L.L.G.G.b.F.l.F.l.P.P.M.oX].P.A.P.M.P.l.l.M.l.l.l.l.l.z.u.k.P.P.P.P.u.u.*.u.*.u.*.p.A.].P.L.L.P.S.G.P.G.oXL.P.G.P.G.P.L.G.G.L.V.>.+.{ } } ` ~ T T T T T T T R G F h h F m H H H H H H H L G H l a d d a g l l g l n n l c c l c F n h Z j s h Z Z c v h j v c c F H K H P A F F H F F N Z F H Z Z v Z v c x x x n x n g F n V F F m m m m F V n n x x l x n n x c n c c c Z H Z Z n F m n n F F Z Z F U ` Q ` } ] _ .._ _ _ / _ / / I / Y Y P H F F Z Z j Z Z j N V V h h h j j k k k k w w 6 6 6 $ $ # # $ # $ # $ % O + @ O @ X @ X O @ X O O # X X . & X X X . X @ & X X X   X   X X X @ @ . @ & @ & @ & & @ @ . . @ @ # # . . . . : : w T [ { { ~ @.@.~ Q -.! -.-.! ~ ^ ~ ! ~ ! ~ ` Q ! ] ! ! -.D ! Q ! Q Q ( ! ! U L K K L K L L K L K K J H J K J m M H m M c M v a m m m m l J M m n m c x x b b x m b m M b b b b b b b b b v M v x M v x x m l a a g a j f s s v b b B b b b v b b v x x g h f b b u p p y y y y y y b y p p p t t d d t t t i p u y y y r r y y , , r r 1 1 1 , 1 1 1 r , , 1 < 0 9 8 8 9 9 6 7 6 9 6 w q 0 w 0 0 8 w 0 r r 9 r r r 9 y , , , y 9 9 7 q 9 9 q 9 q 0 r 0 u u u 0 u 0 0 0 ",
"A.P.A.].L.P.P.F.S.S.F.L.L.S.S.z.0.0.z.z.z.z.l.l.K.G.K.].K.[.K.K.].A.G.J.].;XtXiXpXiXaXyXuXuXuXuXOXK.L.S.l.k.u.z.j.P.P.A.A.P.P.M.5.<.j.1.u.$.r.r.F.F.F.z.z.O.+. . . .@.0.O.+.+.+.@.@.X.@.X.+.+.X.+.+.+.+.o.@.+.@.@.} ` @.@...@.@. . . .+. . .@.{ @.O.o.*.o.O.@.+.-.` Q ! U A ! ! Y Y Y Y Y Y R T Y Y U U G G U U G I G H F n l m n c h d u k i d d d i k k i d d a j l l F m F F c v x v l h n F l l l n n g c h n n c F n F n Z g h h h c v c c j h Z h Z F F F Z F Z F F H F V F F F Z v v h f c h x n g n h l V F F F n m m l F F m c h g n x x c n m Z c c c h Z h Z g g c c l g g h h Z F H / ` ` ` ] _ ) _ _ _ _ ] / / ( I Y Y I P H Z F F h h j j h N N N h h j j f k t k q q w 6 2 6 $ $ $ # # % O % O O O # + X O X O @ X X X X X . X & X X & @ X X X X &   X   X . X . X & . @ @ & @ @ @ & @ @ X @ O @ # . # # . O : O $ 8 F } @. . .@.~ Q -.Q ! ~ -.~ -.! ~ -.~ ~ Q ` ` ~ -.K ! ! ! ! Q Q Q Q ! U ! U K U ! R R L R L K K M K K M H M m K M H c M M c m m m l l m m H F F n c x v x b x x b m b v v b M b v b b M v v v b b x x m x m a a g a f f v s b b b B b b b b b x b x f b f s p p b y y y y y y b y y y p p u d t i t d y t t r y y u r r r , r , r r 1 r 1 1 1 1 1 1 1 r , , , 0 9 9 9 9 6 9 9 6 6 q 9 w 0 0 w w q 9 9 0 w q 9 9 9 y , , : 9 9 y 9 9 9 9 9 9 y r 0 0 q t u u i q u 0 0 ",
"@.@.@.@.+...X...............` } } ......X.+.+.@.@. . .+.O.O.O.O.;.u.O.@.+.+.O.0.+.0.0.+.X.X.X.X.+. .X.{ [ ~ Q ` ` Q ` ` @.` ` Q @.{ @.{ ^ } } .._ ......[ [ Q Q Y R R R R R Y Y Y Y J U Y U Y Y R R R T R U U U Z Z K A G K L U G K G G G U K K U H K Z A K P U v v v v v v b b f j h g h Z H H U U U G P U J G R Y Y K H H G J K H F h h j h h F F F m F H H H H l n F H H H F F F c c n F n l n n m n n x l n l n n n Z F c l c Z v g j h h h h c h c c F Z F F F V F V P F F F F F n N c h h N h h g h n h N N V V F F l m m n n F c n n x n n m n c n c l Z Z Z Z F G Y J J H H V F H H U U T / ` } / _ _ ..) ) / _ ) / R T R I G J H P F Z N Z h B h N l j j h j j d d i k q 7 w 6 ; $ $ 6 $ # # # # # O # O @ O O @ O @ O X X X X X X X . & & X & X . X . X   . X   X X X X X @ @ . @ 3 @ @ @ @ & @ X X O # & . $ O # 6 # X ; t Q ~ { } ~ -.-.~ ~ -.~ ! ! -.~ Q Q ! -.Q Q ` ` ] Q Q Q ] ! Q ` Q Q Q ! ! U U L L R ! U ! R K K K M M J H H m m m K K K v M b m m n m F H H H F H c m x v v x x b x v M v M b b M b b v v v b b x x x x x b a p g g f f f s B v v b b b b b b b p p f f b y b b y u y y y y y y y b p p u a i i i d t t r t r u r y r r r r , r r , 1 1 1 1 1 1 1 1 r 1 , 1 0 0 0 0 9 9 9 7 6 7 9 6 9 q w w w q w q w q 7 q r r 9 y y 9 y 9 9 9 9 9 9 q r q 9 r r t u i i i u u 0 0 0 ",
"U R R E T / / / / I / / / ( / / Y / Y R R R R L R R R Q T ~ / [ Q [ / T T Y I Y T / I / I / I I T R R L Y K K H ! ! ! Q Q ! U ! K L U U G Y Y R / ) / T R T T T Y Y U G G G G G F F F F F H G G U H H K H Z Z c Z v Z v v Z h v g c c n c m n n v c n F Z F c c h b x x v v c v v c v v c Z H H Z P A F H Z H F K U Y Y J J H H L K K H F m H n m l g c n n n h J H H F H F n c H Z H K H c F n m H F m c v n m g n h n h n h h g g Z F Z h j d s j h h g H H H Z F F H F C F C l n l V l h h j h N j V z N h V V N N V H F n n m c m m m x c n m n H m l Z F F F F Z F F Z j j G H V g N F P P / / / ) _ ) _ _ _ ) ) ) E T R R Y R I P H P F N h N N j j N V j j j d d d k k t q q q 9 8 $ 2 2 ; $ $ # @ @ O O O # @ @ X O # X X . X X X . & X & . X . . X X X X X & X X & X X X . @ & @ . X . @ & & @ @ @ @ O # & O ; O : : O O : 8 R Q @.} Q ! Q @.~ ~ -.~ -.! -.! ~ ` -.! -.-.-.! ! D -.K ! ` ~ Q Q ! Q ! ! ! U ! R ! ! K R ! K K M M M M A H H K M Z c c c m m H F F H F H H F F c M v v v x v v M v v M v x x v x v v b x b b x x x g a g j g h f h b v v b v B b b b b b b b b y s y y y y y y p y y y y y b p p u u p u d i i t t t 0 0 r u y u r r r r y r r 1 1 r 1 1 u 1 u 1 1 u 1 0 0 0 0 0 9 9 6 9 q 6 9 q 6 9 w w 7 k w k w w k q q q y q r y 9 9 9 9 9 , 9 r q r q q q i i d i d k e t q q ",
"l x l V V V V F P P V F N C H C F F F F m F m n x a g f g f g j s s j N N N N N j j j j j j N j k d f j g f b v Z v Z Z Z Z Z Z c v v c N N F P P V F V V N n F H F l j j d j j h l h N F F F H d i d t f t t s s f v j v v v h n n n m F H F F c g f g f x c c K K m n v v v g c c c c n c H Z F F H F P H F P G G G J Y Y Y Y J J J J H H H H I K G H H H H m H n l c c m m Z v v c c c H H Z m c x v g g h Z c h h c g h x h j h h h h h g g g v h g h F H H N V F C F V V H V V l l l l l j z N N N N l N V V V V H C n m n m v c m x m m x m n n F F l V V j N G G G G Y T J H H F G Y / } R / ) } ) ) ) _ ) ) ) / R R R R Y I U P G F F V N h h j j h j j d d d d k t t k k q 6 6 8 6 6 6 ; $ # % O + # % O @ O @ # @ X X X X X . & X X & & X & @ X X . X . X X X X   X X X X @ X X @ X X @ @ @ X X @ O @ # O O # . O # O : . 6 Z K Q ~ } ! ` ~ ~ ~ ! ~ ~ ! ! ~ Q Q ! ] Q Q Q -.S ! ! ! ! -.` ! -.Q Q ( ! L L R ! R R ! L ! K M A A M K K K H K c K Z c c m m H H H H H F n F F n v x v m v M c v v M v v v b v x b b v b b a p a a p a a g g g h f v v s b b b b b y b y y y y b y b y b b y b y b y r y y b u p p p a u t i i i u r t 0 r y y u p r r r 1 y r r r 1 u 1 u 1 1 u r r 0 r 1 0 0 9 q 9 q 9 6 q 9 9 8 8 9 9 w w 7 w 7 w w q q q 7 9 , y 9 r 9 9 r , y r r t u t t q i t i i i t q 0 0 ",
"n l F m F H V V N V V N Z N N N h v g x c c x p x g b x j g g g N h N N j j d d j j N j h j a a g g g g c c c c v v v v v v v v s s y s d k j j j N h F F G J J H H n l h h h h g g h h h c c c v j f f f b b v s f f v v v v c g g g c x n x g n x g f g x F K c n n g x c n n M Z c Z H c K F H P H K K U G G Y U H Z Z F H H H K H H H H m H n g g l n g a a l l h n l v c Z K Z K Z v v h f c v v f j v f g g v h g g h l c l h j d d g h n l F h h h h n h h N N F F V V V V l l l l l l l V V j V V h V V A C F F H F m m x m v M c m x m x n n F H F V V P V V V N V V N N F N N F P U / / / ) ) ..) ] ) ) ) / Q T Q R T Y Y Y P G V F Z h N h j j h j d d d d k d q k t q w q w 8 6 6 8 6 $ # # # % % # @ O # X X # X # X @ @ X X . & X X & X X X X . X X X X X X X . X . X . X X X X X @ @ X @ X @ @ # O $ + O O   . # # & : 9 b L R Q Q ~ ~ ~ @.~ ~  .~ Q ~ @.~ -.S -.-.D K ! ! ! ! ~ ! -.! ! Q Q ! ! ! U ! U ! L Y K ! K M M K K M K H Z K K K c Z Z H H G G H H F Z n n c c b v b M M v K M K v v v v x b v x b b b p b p p p a g a a g g g h f v v b b b b b y b b y y y y y y b y y u y b y y r r y p u u u u p u i i u i u u u r r u p u p r r p y r r u r 1 1 1 e u u e u u u 0 r 0 0 0 q 9 w q 9 q 9 w 9 8 8 q w w 4 w w q q w q 0 q r 1 r y 1 , , r r r r u i i t q i t i t q d i t r q ",
"m m J l n l V F V N N N h h j j f f h f x m n g x x x g x v c Z F Z N Z N N Z n V V l V m n x z n c g g v v c Z Z v v v Z A v Z v v f v j v N F N V V l V n m F C F n V l c l h N l h Z Z n Z h v g f f s f f v f v v h v f f f x g x x g x g f t d g c c c x g x x n x g g g v m c c M c Z n Z Z H F Z Z F Z Z F Z H H H F Z Z h n m n n n n H g n m n m n n n a l l n h v x c c v v v c Z c Z Z v v v c v c v c h h g h c g h j j g h g j j j h h h h g N h h h h F N l h h l n l V l h l l l N N V z z V l N N N V Z F c m m m v m v m x m x x h n F H C N N k k 2 j G ) } [ } ..} ) T / / / ` [ ..) ) ) ) ) ) ) T Q R U ! R / R R P P H F F Z h h d d j h j d j d d d d d k q w 7 9 6 8 8 6 > 2 ; $ + O # $ # # X # X X O @ X X X X X @ X & X @ . X X . X X . X . X X . X X X X X X @ & X X @ @ X X & @ @ # & ; O & O     : 6 . y : v U Q { @.@.@. . .~ @.~ ~ @.~ Q ` ` ! ! ! ! ! K ! ! -.! Q Q Q ] Q Q ! Q L ! R ! R ! R K K K ! ! K K M A c K K Z Z K K K K K H G H M H H m n m n M v M b c M Z K v M M v v v v b b b b b g b p p a p p g g g g v v v f v y b y b y b y y y y y y y y y b b y y y p p b y y p u b p u u u i i i u p u r r u u u p r p u y y r u r u u u e 1 u u u e q u u 0 0 r 9 9 q q w w q q 6 8 8 0 0 k w 7 k w q 9 q 0 q 0 r r r 1 r y , 1 , r r i i d i d i q t k q t q q q 0 ",
"m M m m m l n n H F n c h h g g g b x x x v b x b x x x g c c c c Z c h c Z n n x n n x n x m b m x x m m v v v v Z Z c Z Z M Z c c Z c Z c c Z F F F n l n l n l n n F l c h h h h h N c Z c n c g v f f g f v b b f f f b f x f x g g f g f g x a x a a g m b g l a b a p a g x x v x v c c Z Z Z n F Z F h Z h Z Z c Z c Z c n n n Z n F F H n n n g n g n n l g l c g c h v v v Z v c v Z c v N v h g v c c c c c n x h g h h l h h h h h h h h h h h h h h j h j B v v h j h v Z l n l h l l h h g h g l h V N Z N F m m v v v v c v x x m d j V N C N V j k B j V ) +.0.@.0...} / ../ ..) ..) ] ) ] / _ / / ` / ` R Q U U / U U U P F Z Z Z N f h s f s t d d d d d d d f k q q 7 6 7 8 8 $ 6 $ % + # $ $ # O % # # X X X & & X . X X . X @ X . @ X X @ X X X X X X X X & @ X X X X @ O @ O % O @ @ + O O O # +     X + > : : # : f n L Q ~ ~ } } } } ~ [ ~ @.~ [ [ } [ E Q ! R ! Q ! ! ~ ! ! Q Q ~ Q ! Q Q L ! ! Q ! K L K K ! U K K v K K v A K K K K K H K H c K M c c M b M v M M M M c m H m n c c c x b b f p b p b b b b y b y p p f f x g b b f f b b b y b b y b b y y y b y b b y b y y b y y u u u p p b 1 b 1 u u p u p u u r r u y y u r u u t t i t u u u u 1 u 1 u u e u u 0 1 r 9 8 0 8 8 w w 8 0 8 0 0 0 w w 9 0 9 0 0 r r r 1 1 r u u 1 0 u r u q u t u t i i q t q q q q r q r q ",
"m a m m m m n n F F n n c g x f f b v g x x b x g b g v x v c c h v v g g v c c m m x m n g a a x m v x v c Z v v v v Z v c c v v c c Z h Z Z N h Z h l n l n n l l l l h l c V g h g h c c c c c v v v b b f g g f p f p f f f g g g g g g g f p p a a x a a a g g a l x g g p v g f x v v v c c c h h h v h h h h c N N c h h c l h l c F m F n n x l g n a n l l n h v h h f f v N v c v v v v v v v c v x c c h c l h n n x c h h h h l l h h h h h h c l h N v v Z h j Z v j Z g Z c g v g h l g g g g g h N N j h c n x m M c c c M v v c V V z V N N C ( X.r.g.S.oXOXS.0.0.0.../ ../ ` ` ` ..) _ _ _ / _ / ` ` / Q U Q ! U R U U P A Z Z Z Z v B f s f s d d d d d d d k q q w 9 q 6 6 8 6 $ $ $ # % $ # # $ # + # X X & . X X X X X X X X X X O X X . O X X X O X . X X . X X . @ O X O O O O + O O @ O + O +   X + + + : O O : 6 p c F K L L R ! R E ~ [ ~ [ [ [ } [ ~ ~ R ! Q ~ ! ! ~ Q -.Q ! ! ! Q Q ~ Q Q Q Q Q R ! K K K K ! K K K K K K M A K A M K M M K M v v M b M M M M M b M m m c c c c x g x b f b s b s b s y b b b b g p f g v v v f f p p y b b y y b y y b y y y y y y b y b y y y p u u u u u u b u b u u u p u u u r y b u r u y y r t i t i u u u u u u u u u u e u u r 0 1 0 0 < w w w 0 0 9 9 8 9 9 q 0 0 0 0 0 0 r 1 r 1 u 1 u 1 u 0 u 0 u u t i i t u k d t t d q r r q r ",
"a m l a l n n n n n x n x p f f f g f x x x x b p x x f x g c v h g x f f x x x x x x x b x x m x x x v v v v c Z v v v c c c c c Z l Z Z c g v h c l c l l l l l h l h h l h h g h g h l c h h c c v g g g g g f g f i p d f f g g f g f g g g g g a g a l a n a a a a a g f g g v g v b h g v f j j h j j j j h h h N Z h Z h Z l h h h n h n l n g n g x x l c l g l g h h v f b f v v v g g c h v g h h v h x c c c h x g n c n c c c h F Z h n h h h n h c v v f s v Z s v f v h Z c v j h j j g a g g g g N d j h c c x x m Z Z F c v c c h j k k B V ) t.GXGXJXGXFXFXrXoXoXr.0...@.@.@.} ..] ..] 6._ _ 6.` ` ` ` ` U ( ! U U P P P Z H F N c v s f f s f d d k d d i k s k q q q w w 6 q 8 $ ; $ $ # # # O + # % O X X X & X X X X . X X @ . X @ X # X O X @ @ @ @ @ X @ . X X X   O X O @ O O X @ O X o + O X + + + + + : O O O : # : t x c F H K R Q Q Q ~ [ [ ~ ) E T Q T ! Q Q ~ ! ! Q -.-.! Q ! ! ! ! ! K ! L K K M K K U ! K A K A K K K A K K K A H M m c M b M v M M M M M M b M m c n n c x g f x b f s b s b b y b s b v f g f x x x g g f f p u p b y y b y b y b y y y b y b y b y b y p u r u u p p u u r 1 p u p r r r y u u u y y y p r p p s t i u u p u 1 u u u i u i t i r r 9 0 0 0 w 8 w 0 8 8 0 1 9 0 r , , , r 1 1 r 1 1 r u u 1 u u u i t u i i q t u t i t t k u r y r r 0 ",
"a a m b a m x h h c h x x x f g x f x x p x x x x a g v g c h c c x f x x g x g x x x x b a b b x x v m v v c v v v v v g c c c h c h h h h h h h h h n n l l g h g h g g g h g h g g h h h g c c v c h g v h g g d d g a f g f f d g g g f g g p g g a x a a l g a a m g g g g g f h g h h g f j j d f f j j j h g B j h B j j h h h h h l h n c n g g g g g g l l g h g h f f f s f h h h h h h v g v h h h g l c g n n n c n n Z F m F c c l F h F c n N h c B h j v s s v v v f v v v h f f j g g x g g v g N N Z N c m c M c Z c F K c K H H V k N V 0.L.GXLXLXJXGXP.../ U / P ( P ..] ..` ......_ ] _ _ 6.` / ` ` ` ` Q U U P ( P H P P Z F Z h N v s s d d d j k k k q t q w 7 q 9 w 7 8 8 6 6 $ % # # # # # # # X X X @ X . @ X X X X . X X O X X @ . X @ @ . @ @ . X & X X X & X X O X @ # O X + O + X + O   + + + + + : O : + O   : ; 9 9 q i g c n H Y Q T T R T T Q T R ~ Q ~ ! ! ~ ! K ! ` ! Q Q Q ~ ~ Q ~ ~ Q ! R K K K K K ! K ! K K K K K K K v M M K M M M M M M M M K M M M b m m n n c x g j x f f f b b b b b b b v v v c v v v v f x f f a u u y y y y y b y y y y y y y y b y p y p y y p r p u u u p b y r u r r 1 r b u u y y y y y y y s p p p i p u u u u z u t u q t r u r 1 8 0 8 , 8 8 > 8 , , 8 , r 1 r 1 1 1 , 1 1 1 1 1 1 u u u u e e i u q u u i k q t q q 0 0 r , , y 0 ",
"a b x x v g v v g v g v g h h f g g x g b x a x x x n x c c V h h v v g x g x x x b x b x f b b b v x b v v v c v h l h h h l h V h h h g h h g h c h n l l l l g h g g g g j f g h g g h h g h v v h v c g h h j a a j j j a d d d p d j g g g a g g g a l a b g g g g g g g x h g g g h f g j g g j j l j j j h j h h N h N Z N V h V h N V n h g h g h g g n g l h g h g h f f s j j f g g g h h l Z h g h h n g n g x x n n c H c Z F Z F c c c F h Z l c h c h v f v v v v v v v v f v f f f f v v v v x h N N N N Z F Z m Z F F Z F F H F d j k k C S.NXJXIXIXZXVX+.( B k B B V ( ..@.0...} ....` 6._ _ _ _ 6./ / ` / T R P P ( I P P J G F Z l h g j f f k d d k k q q k 9 w w 9 q 6 q 6 8 8 6 $ % # # # % $ O # @ O O O X @ @ @ O X X X X O O X . @ @ X X @ @ . @ @ X X X X X X X X   O + O O X O O o + + +   + + + o   O # ; ; + O O : ; > 6 8 7 y y s c Z K K U L R Q U Q Q U ! Q ! ! ! ( ! ! ! Q ! ! ! L L R ! K L K K U K U U ! L U U K A K K K v K v M K v M M M K K M K K K M n n c c m v h g g d s f s v s b b b b b v v v v x v g v x g g p p p u u p r y y y y b y y b y b y y y b y y y y u u y y r u y y y y b r b r p y p p b y b y y y b y p y p p r p r u u u r i u t t q r r 1 r < w w 4 < 8 > 8 8 , 8 , r 1 , 1 1 1 1 , 1 1 0 u u e e i u i i e e u t q u u u r 0 0 0 0 r , , , < ",
"m a b b f v h h N h N g h v v h g x a x g a m x x x c n l c c c c c c v v v c v f v f x b x f f b v b v v v v g h h h h h h j V l l j j j g h h c g g g g l g g g h g f g h j g g g h h g g l h g h h h h g l a l d l j j a a d f d d f f j d a j a g g n a l a g g g g g g f g g g j h j h h g h g g j h g h N h Z N j j N N N V N N N N l N V h h g h g g g g g g g l n h g g g h g g g g g g h h l l n l n h n n g x x n n n c H H H F F c c Z n Z c c c c Z h h N h j Z s v v s s v v f v f f v v c c c c Z N N A N Z Z c Z Z N H N Z V Z h d j V N _ NXFXLXPXLXZXoXP k 3 3 7 B V ( ..] ` / ../ ) .._ ' _ ( _ / _ _ ` / / / / I I I I P J J G C l h h g f d d d d d t k q k q 9 7 q 7 q 6 6 8 6 8 $ $ $ # # $ # # # O O O # @ X O @ @ O X X @ X X @ X X X X @ . @ @ @ & X X X . X & X X O   @ O X + O X +       o   o -   +     + > > + + ; 8 : 6 : 6 : : : y s b Z Z H U ` Q Q ! Q ! ! ! -.-.! K -.Q ! ! Q Q Q ! ! ! R L L K K U K K U K L K K K K K M K K K K M ! K K K K M K M M H m n l c c x x g g h h g f h s b v b v b b v v c v v v v g f g a a a i p u u r y y y y y y y y y y y y y r y y y y y y r u y y y y y y r b r r y p p b b b y y b y y y s b y s p p p r u r p i t r y q 1 y , , < < * < < 4 8 < , , , , , , r 1 9 , 1 9 w 0 0 q u u e k k e u e k i k u q 0 q 0 r u t r , , , 1 , ",
"b b b x s Z s Z N h Z B N N h h l g g a n a x n n x l h h n F h c c v c c c h v c h f v h b h b b v v v v v v g h h N h N z z V z j j j a j h h h g g g j l g g h f f h g h g g g h h h l l h h h f h h h l l j d z j a d d d d d j d d d f d g a j j g l l g g g g x g g g j j g g g g g g h h j l j l l h h h h h N N N N N j N N N N h j h h l h g g h g c c g h l h h h c c c h h g j j l l l h l V l F l c c l n g c c c n H Z H H Z n Z c h Z c c c N c c Z l l c h h Z v f v v v h v h v v v c Z Z F N A N A N A N N Z Z Z P F Z N F N N k h ....S.ZXHXIXGX%Xq.C 3 3 7 7 7 B U U ..] ....] ....) _ _ _ _ _ / _ 0._ ) E / I ) I / I I C I C J l l l h l a d d d k k q q q 6 8 7 w w q 6 q 8 6 4 $ $ $ $ $ ; $ # $ % $ # # X O # O O @ X X X . # X O X X @ @ @ @ @ @ & @ . X X X X     O O O O O O O +   o + o + o   o o - + o + > ; + $ ; # O X X . . . . : : : y b Z K T ! ` Q ! ! Q ! ! Q Q ! ! Q Q ! Q ~ ! ! Q ! ! L K K K U K U L K Y L K K K K K K M K K K v K K M K K c m H m F n h c x x g g h h h h h v v v b v v v v v v v v v v b b p a i a i p p u u y y y y y b y y y y y y y y y y y y p u p y y r y y y y y b y y u y u y b b b b y y y y y b s y s y r r p p r t r r q q y , 1 < < 0 < w * < 5 w > > 8 : , , , 8 0 9 9 9 8 q 0 w w e q q e q e k e u q e u e t r u r r 0 r , , 1 , 1 ",
"b m b b v j v s Z j j h N c N N g x g x a x l x x l x x c h h g c c c h c v h h g v B v j v f v v x b v h v c Z g h j z j V z k l z d j j j g h v g g g a a j j d f j f g g h h h x l g l l h g f f h f g z d l d a z d j d i d d f d f d d g d d a g l g g l g g g g g g d f g j g h f g h Z h a j l a j l j l Z h h h j j j N h j j j j N j N c h h h h g h l j g g h c n n l c h h g g h j l h l l n n n F n n n x x n x c m m Z c Z F c c h v c c h c Z h Z n l l h Z v Z v Z v v j v f h v v Z v c Z Z A N N A N P A N V P N H N N N N N N P / %XNXGXIXIXIXrX0.N B & 3 3 3 7 A ( ] ` ] ] .._ ) ..) _ _ 6.] _ _ _ 6._ _ _ I ) I ) I I I J J J H C V l z j j j j k d i k q q w q w q w q q 6 8 8 6 $ $ $ $ $ $ $ $ # % # $ $ # @ @ O O @ X O X X X X X @ O . @ @ @ . @ @ X X & X . X X O X X O O X + O   + +   + - o o     + > + O + ; + # $ : : O O : . . . : . . : 7 v Z U ` ` Q ( ! Q ! S ! ! ! Q ~ ~ ~ ~ } ~ ~ ~ Q ! L L U K K U U K K U K K K L K K K K K M K M M M v M c M Z F n F N h h g g x h h h h h v v v v v v b v v v v v v v b g g f f f d a i p u y y y y y b y y y b b y y b y y y y y p y u y y y 1 y y y y y b y p b p b b b b b b b y b y y y y p y p p r y p t t y 9 y 8 0 9 < , 0 * < * w < w > > , < , < , < , 1 1 < 0 w w w e q w e q q q e q q e t k u 0 r 0 0 , 1 , r 9 1 , r ",
"b b b b h v v v v g g h f f d g a p g p a x g x x g v g v g x v f v h h v c v g Z h v j j v f h f v x p a g x h a j a a d d d d d d g g l h g c g j g h g j j g g h h h h g g g g l h c l h l h j g g g j j g z g a h g g g j f j g g g d f g g i g a a g a a g a a a g a a i i g g g f g s h j d j j l h l N N N N j N N B j h N j j j j j N N N N h h N j h B h h h h h c n x c c g g h j h h h j l l n F n F n x m x x x m x c c Z v c v v v v c c K K v Z c m c n c c v v Z v Z v v v v v v v v v Z Z Z Z Z Z v P Z I P P P V N P N P P ..} +.L.VXJXIXPXPXIXG.N k 3 3 k 3 7 7 A ] ` ( / ] ......} ` ....) .._ .._ _ / _ / ) / I I I I I P I C V V V l N h d j k k k k t k s w w w 7 w 7 7 q 8 8 6 $ $ $ $ $ $ 6 $ $ # $ % # + X + O o X @ @ X X X X X X X X @ X @ . X X X X & X X X X X X X O O O : O O # # X + @ O o X X   + + + % + $ $ $ ; : : . . : . : . . : 3 : y b v S ! ! S U U Y U U ! ! Q ! ! ! Q E ! ~ E L L L I H K K U K K K K K K K K ! K ! K K K K K K v M M M v M v v M v v v v v v v v Z v Z v Z v v v v v v b b v v v v v v j f f f s f t u r s 9 y y s y y b 7 b 7 b b y b y b y i p y p y y r y y y p y y y y p b b p p b p p r y y y y y y y y y y y y t q y t q q q q 9 9 0 0 0 0 < w < 5 < < < = > , < < < < < < 0 < 0 8 0 w 0 q q q q q q q w w q 0 u u 0 0 1 , 1 1 9 1 1 , 8 ",
"b b p p s f p f f g j f f f f d p p a p p p p b x b x v f v v g f h h v v h v f g v v f f f f v a g x a x x n g g j j d d d d d i z j h h h g g g d j g g g j g h j g f h x c g l g l l l l l h h a g a a l g z a g g g g f f f j g j g g j g f g j f g g a a g j j a g i a i i a a d f g j j j a a a j h N N N h N N N j j j h h h h j N N j N N h B B j h N v g h h c h x h c n n c h g g h c h h l g l n n n x n x c x x m x c c c K v M v M v v v v Z v Z m Z m c c c Z v Z Z s s B b 7 b s Z Z F A F A Z A U A ( N P P P I U P P U / ..0.F.VXFXIXIXIXPXPXIX0.k 5 3 3 4 3 7 Z U ` ` ` ` / ` ` ` ..` ` ......9._ _ ) _ ] / / ) ) ) I I I C I C P H F Z V N j j j j d d k k k k 7 q q w q 8 w 8 8 8 $ 2 ; $ $ $ $ $ # $ # $ # O + @ O X + X @ @ @ @ @ @ @ @ X X X . @ X X X X @ X X @ X @ @ @ O . . O O O O O X @   o X o o X $ + + # # + $ $ $ # : : 3 . : . 3 3 . : : 7 y y v K ! ! Q Q Q Q U ! U ! A K Z Z H H H J J H H H H K K K K ! U ! ! A K K A ! K ! ! ! ! K M M v v M v v A A v v v B b B v v A v Z v Z v Z v v K v v b v v v v v v g g h f f s f s p y y y y 9 y y y 7 b b 7 b b y 7 b b y y p y y y , 9 y y 9 y y b p b b p b a p u b b y y y y , y y y y y y y y r r y y y y y t t r r 9 0 , w < < < < < < < < > - < - < < < 1 0 < 0 w 0 0 0 0 q q k k w w q 0 q q 0 0 0 1 , , < 1 9 0 < 1 ",
"b b p p f p f s j g j j d d d f f i f g g p g i f f g g p x f f f g g x h c h h h f j f f f f h b f x f g g g g h g j j z j j d a a j h h h g h g g g g h g h h h h N c c h g g x x l n n l V h h g j g z g a j a a j g g p p p f g a g g d g f a g g g g a p a l a d e i i a g x a g f g j j h l j j j j h N V N N h j j j j j j f h h N N N j j N N j B v Z j N N h h h h h h g g h j j j j j h h h h n n n n n c c c m v c M m Z m c v v M c M c M Z H c m c H c m c v v Z Z Z Z Z B Z v Z v Z H Z Z A B N B s s Z B C C / q.....0.t.rXVXGXPXPXPXPXPXPXIXJXFXI 7 3 % 3 2 7 B Z A ` ` ` ] } } ` ` ` ` _ ......_ _ _ _ ) ) ) E ) I ) I I I I P C J P V V F V h j j j k d d k k k k k q 7 8 7 q 8 8 8 8 6 $ 4 $ 2 $ $ 6 $ # $ $ + + # % + % % @ % X O @ X @ @ @ . X # . # . O @ X @ @ O @ O O O O O O O # # O O   &   X o + + + + # $ # % $ $ $ # # # . . : . . : . # . . : : : : b A ! U ` R U U U ! K F v b y d g j g a g l g x n K U ! ! ! U A ! ! ! ! ! ! ! ! ! K K M v M v v b v v A v A b v A A v v v Z v v Z c Z v A A v v b v v v v v v v h v f f s p s t y t 9 y y y s y b y y b 7 b y y b y y i y y t b v v v v v v v b b b b b x a p b r 1 y y y , y , y y y y y y y t s t t d k t t t t t 0 0 0 < < < < - < < > < > < < < < < < < 0 0 0 w q q w w q k w q q q q q t 0 0 0 0 < 0 9 1 , 1 < , , ",
"x x x x v g f f a d d k j j h j a p g p g a i i p p p p p f f x g g l b h g h f f j f f j f f v g x f p f g g g g j l j h h j l j j l a g h h g g h h g g h g g Z F h c l c n n n n n n F V n h g h g g g a a d j a g g f f f p f f d d d g d a g g g g g g g f j d d i d a a g g g g j h j j j l l l h V V N V N N N N j h g j h g h h N j j B h B h B j h j h N N N N h h N g c F c h Z h N h h h h h h V Z F F F F F H Z K Z H A H Z K v v c v v M c m Z H H n H Z n Z Z Z Z Z B Z A Z Z Z Z Z A Z Z N N A C U ] ` / q.q.q.t.%X%X%XZXVXZXGXLXPXPXPXPXPXIXVXoXN 4 3 % 3 3 w 7 Z U ` ` ..........` } ......_ ..0._ q.) ) ) ) / / ) I / I I I P P P G P F P F V l N N j d d d d k s 7 q w 8 8 7 q w 8 6 ; 6 $ 6 $ ; $ $ ; $ $ $ % % % $ % + $ $ % + % + % @ % O @ . . # # $ @ # O X O O @ O # # O . O O O O $ O X   X X o X o X # $ + # # % $ $ O . . # : . : . . . . . . . . . : b A ! ` ` / U A ! U U F v s p k i e d i k e t d h Z K U Q U ! ! ! A A K K A ! A ! K A A K v v v K v v b v v v v b b v v B v v v v v v v K v v A b v v v v b v h v h h f f y y y y t q 9 y 7 y y y y b y b 7 b y y b y y i y p r y i y i s p p f f p f b b p b u b y 1 y y y 9 y , y , y y y , t t t d y t d t t r q q w w * < < 1 1 < < < < < < , < , 0 8 0 0 q 0 q w q w q w q w q q q q q e w 0 0 0 0 0 0 0 1 , 1 , < ",
"n c n n g x h f j k j j j j V k j a a d d a a j a p a p x p x a m a a l h g h g g j d d d j h j j v b f f j g j j l j V j N j V g l z a j g l l n h h h g g j g l Z F h c n c F F m n n F F V l h g g g g j j a g a a g p i p p g i d d i i g g g g h g h g g d d a d d j a j a g j l j j N j V l V V F P V V V V N N N h h j j h h j j N j N h N h N j j j v h N N N N h h N h N N n Z N h N N h N N j N Z F N N H N H Z P Z H P P F F V V N N c c c c m H F Z F F P N Z Z A Z B N N N B N N B Z A A Z A P 6.0.q.oXoX%X&XOX0.oX%XZXVXFXbXLXLXPXPXPXPXPXPXIX:X@.w 2 & 2 4 2 7 s Z U ` ` ........} ..} .._ ............_ _ ) / ) / T ) I / P I U I I G G P J H l N N j j d d d s k k s q w 7 8 w 6 q 6 6 8 $ 8 * 6 $ 6 $ ; $ $ $ $ $ 2 $ $ $ $ $ % $ $ $ + + @ % X X # # # # # # O O # X # # . # O . X O O O O O O X X X X X X @ # # @ $ # $ % O   : :   . . : . .   O O : . # . : A ! ] ` ` / / A G U U H c j d d d k q y s y y y b v v A ! ( ! D ! K ! ! K ! A K A K K v K K v v v v v B v B v v v A v v b b b v v B v v v v A v K M v v v v v h v h h b b y y t q t t q y y y y b 7 7 y y y y y y i i y p y t x x v v v v x c f f f f f p d f y y y 9 9 y y 9 , r y , , , y y r q r t i d i d q q q q w w < < 1 < < < < < , , , , , , , 1 8 w w w w w w w q w w w w 0 q q w q q 0 w w w 0 0 w , 1 < , < ",
"n l n l h g a j z k N j N V V V j h j d g z a g a a a a a x x a a l l l l l j g h g j j j j h s f v h f f h g j N l l j V z V l n l l l l l l l n l n h h h g g l F h c n h n n n n F F F l n N h h l g j j a g g g g p a p p u i a i a i g a a g g g g g d a f d d j j d l l j h g g l V z V V V V H G V P V V V V N l j h g h h h N j j h N N Z N N v v j v B N N N V N N V c h h j g h j j d j j j h N h N N N N Z N Z H A P V P P P P V V B c M c n Z c m H F V N P Z N V Z P P A N P N N N B A P ( / ] w.w.t.oX%XNXNXNXoX&XuXZXFXHXGXIXIXLXPXPXPXPXPXIXK.} 2 % 3 % 2 2 s s U U ` ` X...] ) } ..{ ..) ) _ ..X.....) ] _ ) / / E / T R / / I P I I G J J H V V j j j k s k k q k k q w 7 q 6 8 8 8 2 2 $ ; 6 $ $ 6 $ 2 $ 2 ; 6 * 4 2 2 $ * $ $ $ $ $ $ + O X X X # # # # # . # # # # . # # . X O O O O O O X O O O o o X   X @ # $ # $ # + +     .   . . : . .   O . . . . # : A ` ` / Q / Y U U U P P Z h j j d i d s s b y 7 B B B A U ! U ! ! K K A K v A A ! A K v A v M v v K v v v B v v b b v v A v b s v b B b A v A A v v v v v v v v h v g v b s y k t s t y q q y y 7 y y y 7 y 7 y y y p p y p p f b g p p f f b f f d s d f d i y 1 y , 9 y 7 y y , y r y y r y q 0 t t q t q i q q 0 q e 1 e 0 1 1 < < < < 1 1 , , r , , 9 0 9 w 0 w 0 w 8 w 8 8 0 w w w q w w w e q w w w q w 1 1 < < 1 ",
"n n l n n l h j k V N N V N V N h h h j g h h h x g a m l b x a l l l l l n l g h h h j j j N N v c N h s h h h V j z j V V V V C l l l l l n l F n c h h g g c F l c l h h n n F F n F F F h l h c l h l g g h a j a f p p i p p i i i a a j a z g j j d g f d j a j l h j l j l j l V V V V V V V C P P C V V N V V h l j h g h h j j h B N N Z N Z h j v j v N N N Z N N N l V n F F F N n N j j N h Z h Z Z Z N N A A Z P P P P P P H G C C K K K H K F F H H H N N V N N A N B N B A C C A ( Q ] ..q.0.r.t.%X&X%XNXoX%XoXNXZXJXLXGXLXLXPXLXPXPXPXPXPXIX.XQ % @ @ @ 6 7 q s H ` / ) ....) ..} ...._ ....) _ _ ..) ..) ..) / / / E / / I I Y I Y I I G P C V V h d d t k k t q k q w w q w w 8 8 8 6 ; 6 ; 8 $ $ $ 2 8 $ $ 6 4 2 2 6 2 $ 2 ; $ $ $ $ $ # O O X @ . # # @ 3 . # # . # 3 # # . O X @ O @ @ + @ # $ O % @ X @ O @ @ 3 2 # $ @ O :   :     : . . . . O . . . @ . y U @.] ` ` ` ] T U P P P P F N j d d p y s y B s B B b v A A A A A A A A v A v v A K A K v K A A v v A v v v v b A A v A b v A v s b v v A v v v M b v v v v v f v v f v s 7 b p d s t s q s 7 y y y 7 7 y y y y y y s p s p p x f f f f p p p d i i i t d i d y y r y y 9 9 9 , , r r 1 y r u q t q i i q i q q y q q e 0 e 0 1 1 < < , < 1 , , , r , 1 , < < , 8 0 > 8 8 8 8 8 8 8 0 w 0 w 0 q w q w w w 7 w 1 , 1 , , ",
"m n m H n F V V N z N z V k N V j z l N l l l g n g l l b a n x l l m n l l h l h h N j B h j j N v v h h h c s j N N V j V V z l l l l l n l l l c h g h c c c Z n h Z c F F F n F F F F n N c h h c h h h x h g g p a p i a p i p a i a a j j d j a g j d j d j j j j j h h N l V N l V V V V V V V V N C V V V V N l j l j g s s j N j Z N N N Z N v h Z v h N N N V V Z F Z n Z n F n F h h Z g c Z h Z Z N V A N P V P H P P I P P G P S C U K H H m F F F P P P V A N N B A B A C ( ( _ I ..q.u.S.S.oXt.t.t.t.oX%Xt.%X%XVXJXGXLXLXLXLXLXLXPXPXPXPXPXPXwXQ % @ $ @ 2 q w j H R ` / ..} ..........X.) _ ..........} ..} [ / T / / / / / R Y I Y Y J J V V l j j d k k q q q k s w 9 w 8 9 7 w 8 8 8 4 6 8 8 2 6 $ > $ 6 $ $ 6 6 $ 4 6 4 ; ; # # ; $ $ O X X . @ # # 2 # . . # # # . . # . . X O O @ O O O O % # $ # O + @ @ # 2 # # $ # O + :     :       : X   X O O # @ 2 y A @.@.` ` / / / ( P P P I G G h s d p s s b 7 7 y B s 7 B B v v A v v A v b A v A v v v A v v v M v A v v b A b A b b A v b b Z B B Z v v A v v v A v v v v b f v j v v b b b s d d d y s y 9 y 7 y y y 7 7 y y y s y s p s p c v g g f f p f i q t q t t t t r 1 , , 9 y y q , y r r y r r p t q i q d i q d k s d q q u e e 1 1 1 < , < , , , , , , , , , < > < , , , > , , > > , 8 0 0 w w q q w q w w w w 0 0 < 0 1 ",
"F m F J J l C F C V V j l N V j N h N l V l C m n l m l n l m l l m l l l l h h V h l N N h V N h h Z c N j h h j j j j j V V V m l J l F l J l l h g g h c Z F F F F h h N Z V F H H Z F F n h n n c F c c c l f g p p p g a a a p g g l a l l l l g g d j h d h g h N h N V h V V V V V V V N V N N V V V N V N V N z N V z j d h h N N N N j C B B N B N h h H N N V V Z N l B N z N N N N h h Z N j B C C B H A C P ( P P / ( _ ( C _ C S C P V N N C N B C V V P A C A P I ( ( ( _ w._ w.0.t.t.t.w.t.t.%XW.NX%X%X%Xt.%XNXKXLXLXLXJXLXLXLXPXPXPXPXPXPXIXdX>.5 3 4 4 % 2 q j H R / } _ X..._ X.....0.@.......X.....} ..} [ ` ` / / / T R R Y Y Y Y Y G J J F h h s j k q t k k k t q q w w w 8 8 8 8 6 8 6 8 2 6 4 $ 8 6 6 4 8 8 6 4 6 2 8 2 6 2 * 2 $ $ X X @ @ # # @ . # # % 3 @ @ 3 @ @ # # O X X X X O # % $ O O . @ # # : 3 # .   . : .         O : +       & @ $ $ 2 4 N U ....` @.] Q ` / U U R I I I P N d d v s y b v s s B B B B B B v A v v A b v v v v v Z n Z v M v v M v v v b A b A b v A A b B v v A A v A v A K v b B b b b b B b b b B y 7 f d s k 7 y 7 7 y 7 y y 7 y 7 7 y s p s f f s f x f f i i i i p i q 0 0 u t t y r y y , 9 9 9 y y , 9 9 q q y t q q i d d t k t d d d d d e i u e 1 < < , 1 1 1 1 , 1 1 1 1 1 1 < < 1 1 1 , 1 , > > , 0 8 0 w 0 q w w w w w 8 w 8 8 0 w w ",
"J J H C F F F l F V V V V V V N V l V l F V F F n n l m n n a m n l l m m l l l F V V h V N N N N Z N Z Z h N h N j j j h h V V C F C m F F l n n l h h g v h n F F h c Z F V Z F H F H F Z c Z c n n c c c c v f g g f g p g g g f g g l l l l g l j j j j h h j j h h h h l N F V V N V V l V N V V N A V N V N C V V V V V j j h Z h N N Z Z P B C B P N Z N N N N N F F n Z C B V V V V V A j j j N B N S C G P P P P P C P C S C ( S C C C P V C P P A C C V P P P I ( ( 6.( _ _ w.w.w.t.w.w.w.t.t.w.w.w.t.%X%X%X%Xt.CXNXLXLXLXLXLXLXLXLXLXPXPXPXPXPXIXGX}.N 2 % @ 4 w k $ F U / ` _ 9...0...0.........@.....X.{ ..` } } } ) ` [ / T T / R Y R R R I Y J F V h j d d s t q q q t q q w 8 q 9 w 8 8 8 8 8 6 4 6 6 8 8 8 8 6 8 8 w 9 8 6 2 8 $ 4 ; $ $ O O X @ # # # @ @ . # % 3 @ @ @ @ @ @ X @ X # @ O O @ # O @ # @ # # @ # . : : : :   . O   : .   :     X % % O $ $ w B P R } ] ` ] @.` ] / / / ( I / P G j d k s y 7 b s B y B y B B A B A A B A v v A v A v v v Z c Z v Z K v Z M v v v b b A A b v b A v v v v A v A v v A v b v v B v b B v v b b b f s f s b 7 s y y 7 y 7 y 7 y y s y s s d f b f g f g i i i i u u t 0 r 0 t t r r , r r r y r r 9 r 9 r 9 q 9 r t t i i d t d q s d d d d u e e 0 0 1 1 1 , 1 1 1 1 1 1 - 1 - 1 - < < 1 1 1 , , > , 8 < 8 0 w 0 w 9 w 8 w 8 8 8 w 0 0 w w ",
"J J J J H C H V V V V V V V V V l V V V V F H V F F l l n n n n n n F l l l n l F l F N N h N V N Z F c Z l V h V j V j h V F F l J m C F m m H F n c g v g c c c F F h l F F H F Z H F F F c h x x v m c c x x g f g h g g h g g g g l m l l C l l l a j h h c j f g g h h N N V N N N h V l N N F N V N V V V N N B C N z N V Z c N h N N Z N B C B P A A A P Z N A A V F H H C P B C N N B N k f N N C C _ C I / / / / C N P B C C C C C B z B N C C P A C S P C ( w.q.q.w.t.t.w.w.r.s.t.w.t.t.t.w._ _ _ _ w.%X%X%X%Xt.%XZXLXIXJXJXJXJXLXLXLXPXPXPXPXPXPXGXUXr.V 4 % 4 3 k k j P / / ...._ 0.q._ 0...X...@.@.@...{ { } } ..) [ / [ / / R R Y R Y R R Y J J F F c g d d t q q q q q w w w q w w 6 w 8 8 6 8 8 8 6 8 6 8 6 8 8 8 6 8 6 8 6 8 8 6 6 6 2 $ # # @ # # 3 3 3 . @ @ 2 % 3 % @ @ @ @ @ @ @ # % @ @ X @ @ @ # # @ # . # 3 . : :   : :   O     O % O X @ # @ @ 6 w j N / / ..} ` ..] ] ` ( ` ( / U Y Y G V j f Z s b s B s 7 B B B B A B B B v A B A v A b v A Z K Z Z K v M M v v v v v A A v b A b A v A A v A v Z Z v A v v B v v B b b b B b B B b f j s s s y s 7 y 7 s 7 7 s s s y y f f s f b h g f i f a u p i u u r 0 r r r r y , , y y r 9 r 9 y 9 r 9 y q r q t k d d d d t y d d p i k u e 1 1 1 1 1 1 1 1 , 1 - 1 1 1 1 - < - 1 < 1 1 , , , , < > < w , 0 w 0 8 8 4 8 > , w w w w e ",
"I I I J J J C V H V V V F V H V V V C l J F F F H m H H m m n n n n F n F V l F N V h V V V V l l c V F h F h c h h N h N V F H H H F m m F F m n n c l c c c c l n c l Z F F F P P H H F F Z c m c c v c c c x g v g g g g h c g h c l l l l l l l l l h h h g g j j f j j h h N N N h N h h V N N N N N N N N N N N z N B k V h N Z N H P A N B C S B N N N N P V V C P P F P C S C C P C P V Z P C I / 6._ _ 0...0.0.0.6._ ] _ _ w.r.w._ _ 6./ / I _ w.6._ _ w.0.q.0.w.t.w.t.t.t.w.w.t.w.t.s.t.w.w.w.C C ( %X%XCX%XNX%X%XNXLXJXJXJXJXJXJXLXLXPXPXPXPXPXPXPXPXZXC % & 4 @ 5 @ j P Y / .._ ] _ 0...X...q...@.@.......` ....} ..[ [ [ / T T R R R R R T J Y L F Z h h f k k q q 9 q w w q 9 8 w w q w 7 w w w 8 6 w 8 6 8 8 8 8 8 9 9 8 9 9 8 6 8 6 8 6 6 $ 3 # 3 # $ # @ @ @ @ % % % % % 2 % 2 % @ @ @ # @ @ O @ @ @ @ # @ # # 2 $ :   : . . .   O :   # # # @ $ # @ 4 j F P I ....@.] ` ] -.Q ` ` ` T Y / / R G Z j s s y 7 y y b 7 y 7 B B B B B A B b B b B v v v c A Z P A v A A v K K v v v A v A A v A v A b v A v A Z A A v v A v B A b B B B b v v 7 y s s s s s s s s s s s y q s 7 q y s s f h v h f f f i i u i p i i u r r t t t y y y y 9 y 9 9 y 9 q 9 q 9 q 9 9 r q t d t d d d d s d t i q e 0 e e e 1 1 1 1 1 1 1 1 1 1 1 1 - < < 1 1 , , , , < < 8 , > , w > 8 8 8 > 8 ; > : 4 > 5 w w ",
"W I I I J H C H C n F F F H F F V V F F V H H H F F F F H F F H c F F F F l h V h V l F n V C V F V F h V h h V N l h c F F F F m H H H c H c Z c Z c c c n c c Z n V c F F H V A H A K H c c c v x m m c c c v v g h c h h l l c h N n l l l l l l l g g h g g x f j f j h j N N B g N h B v h j Z B Z N N B N N N N N N B z N g N Z N A P N N C B S C B B B B C B C z B N N N C B S C I w.w.w.X.q.0.0.w.t.t.w.s.t.w.%Xt.t.a.t.%X%X%X%XNX%X%X%X%XoXoXoXs.s.t.s.t.w.t.q.w.t.q.w.w.w.w.w.t.w.w.t.w.w._ _ _ w.w.%X%XNXNXNX%XNXVXJXJXJXJXJXJXJXLXPXPXPXPXPXPXPXPXPXJX%XF.C k 4 N 4 j V P / q._ _ q.] ..q._ ] @.@.9...@.......@.....[ [ ) ) [ / T R T R R R L U L H Z c g s t q q q w w w w w w w w w 9 w 8 q w 6 w q 6 8 w 6 w 9 8 8 8 9 8 9 8 6 9 8 8 7 2 2 3 2 @ 3 # 2 # @ @ @ @ % % % % 4 % % % % % @ @ & % @ % O @ . . @ @ # 3 $ % O . . . : . . . . # # 3 2 3 2 2 w B P / / ) ....] / ] -.( ] ] ` S Q ! ( T R R H g q q 7 : y 7 y y y 7 s B 7 B B B B B b b b B b A v N P N C H Z K v v M v A A v A v v A v A b A B A v A Z Z v A A v B A b B B v v A b B B b s B s y s s s y s s s 7 s 7 7 k s d f Z Z h f f d a d i i u i i d i t q y y y y y 9 y 7 7 9 q y y y 9 y 6 y y 9 q q q s s t k d d y i t k u u e e 1 1 e u 1 u 1 1 1 1 1 5 1 - - 1 1 1 1 1 , , y 1 1 , , > > , , , 8 , > > > ; > < w w 5 < ",
"I I I I J J H H F H l J n J H C V F V H H F C F H F H H F H H H F Z Z N Z Z F Z l h l F C l F F H l l h h F F V V h V c n Z F F n F H H H c H c h n c n c F H c n n n F F V A P H H H H Z H c Z m x x v c v c c c c c g h l l h h h h l V l l V z l z l h g h g g g g j s g j j j Z j j s f j f v h c j B N N N N N B N k z B B N h N N N P P B B C C S S A C B A P B z N V C A C C C w.w.w.t.t.0.S.t.S.w.%X%X%X%XW.%X%X%X%XNXBXVXVXSXVXVXVXVXuXCXNX%X%X%X%X%XCXoXoXoXw.t.w.q.w.w.w.w.w.w.t.t.w.t.w.w.w.w.t.w.%XmXmXmXCXXXNXNXFXJXJXHXJXFXGXIXLXPXPXPXPXPXPXPXPXPXGX$X| C 4 4 2 B V P P / ..9._ ..] ....@.@.@.@.@.@.@.@...@...{ } ..} } ) / T T E T R R K R Y G F Z h f t t w 9 9 9 9 w w w w w w w 8 8 6 w 6 q 8 w 8 8 8 6 w q , , , 9 8 8 6 8 8 2 2 2 2 2 2 3 # 2 # # @ @ @ 3 % % % % % % % 4 % % X @ @ @ @ # @ @ @ . @ . # @ # @     . . . : : : . # . @ 2 2 2 k N U / ) ) q.......` Q ] ] ! ` ` -.Q Q Q T T ) I Z k 9 6 7 7 9 9 7 y s 7 7 B b B B B 7 B B B B A v A A N A A A H A K A A A v v b v A A b A b A b A v A A K A A A A v A v A v b A b A A b B b v s s s s s s y s s s s q s s k s s h v v h d d i d i i i a i i t k t s s b 7 y 9 y 9 9 y 9 q y y 6 y 9 6 y 9 7 s q q t y k s s d t i u t e t e e u e e 1 u 0 0 1 u u 1 1 1 1 z 1 1 1 1 1 , y , 0 0 < , < , 0 < < , 0 < , > > > * < < < 1 ",
"I I I J J H H C H n F F H m H m F n F F F H F H F F F H F H F F Z Z Z F Z V F V N l V F l J C H F l l l V F F F l n n F c c F n F Z m m c H v c c c Z Z c n n H F n F F F P H A F H Z H Z H Z c M x v M v M v v c c c h h h h l N c N h V V l l l l z l g c g v x g h j h s B h j j s s s f s b h j N h Z B N N N N N B N N N N h Z N N N N B N B S C ( _ ( w._ 6._ w.w.w.w.w.w.w.w.w.t.t.t.t.a.w.t.XXt.w.%X%X%X%X%X%X%XNX%XNXVXVXVXVXZXZXVXVXVXVXVXNXVXNXNXCX%XNX&XXXoXXXt.w.w.w.t.w.t.s.s.%X%X%Xs.t.w.w.w.a.XXXXXXXXt.XXXX%XBXAXFXFXHXGXHXJXIXPXPXPXPXPXPXPXPXPXLXGXkXr.j 4 k k N N N ( _ 6.6.] ..] ] @.] =.] ] @.@.@.@.@.X..._ | } } [ [ ) Q Q T ` T R U Y G Z c v d t q q q w q 9 w w 9 w 9 8 w w 7 w w w w q 6 8 8 w 8 q 8 9 , 9 9 9 9 9 9 7 2 2 2 2 2 2 2 2 3 # 3 % @ % 2 5 % % 5 % 5 % % % % @ X X @ % % @ X @ # @ @ . @ O     . . : . : . . . . 3 2 2 7 B N ( / ..] / ......] ` ] Q Q S ` Q -.Q Q Q Q ~ R G h k 6 6 6 : : y : y 7 y 7 7 7 7 B 7 7 B 7 b v v A A A A A A P N A A A A A v b A A b b A v A v A v A Z Z Z Z v v A A A A A A A A b v B b B b s B s s B B b s s s s s s k s s f s B v g f d p f i a i i u a u d s 7 s s s s 7 s 7 7 y 7 q s y y 6 y 7 y 9 y y y 9 y 7 s q q y r t t t 0 t e e a e a a u u 0 u u e u u z 5 1 e u u u 1 y , , y r 0 0 , < < 8 r 8 < , < < , < > < < < 1 1 ",
"J J J P G C H H F J H m m H H m l V n F F H F H F H H Z H H F P F Z F Z F F F F h h F V F F l l H V l V l F F n F Z c c c F c Z H F F Z c c c c c n n n F Z F c n n F F V A V H V A H Z K Z c M v x M v M v c c c c c N h h h h c N n V n l l l l l n m l c n x c x v f f f j h N f h f s s s s Z v B Z N N N N N N N B N C N A N Z V B B B N B B C ( _ w.w.w.t.t.s.XXt.t.t.%X%X%X%XXX%XXXXX%XoX%XXXXXt.%XXX%X%XCX%XNXVXHXFXVXVXVXVXVXNXVXNXNXNXNXNXNXBXCX%XCXmX%XmX%XmXCXCXSXCXBXNXCXBXNXNX%XXXXX%X%XXXXXXXmXXXXXs.XXw.q.s.S.&XmXNXVXZXFXGXJXLXPXPXPXPXPXPXPXPXPXPXPXPXLXD.C 5 k k k B P ( / / ] ] ....{ y.] =.@.@.@...0.X.@.X.{ { } } } [ [ [ T Q [ Q R Q R K F F h d s s t q q w w w w w w 8 w 6 w 8 6 6 q 6 w 8 8 6 8 7 9 w 9 9 9 9 w 8 9 9 w 8 8 7 2 2 7 6 $ 2 2 2 2 2 % 2 % % % % % % = = % X o % % @ @ X X X # # # # . . . . O : : . : . . . . . @ 3 7 7 I / / ) 0.X...) ] ` ..` Q D -.-.-.( D ! ` Q ` ` R I Z d q 7 7 6 7 : 9 7 7 7 7 7 7 B 7 7 7 b B B A A A A A A P P A P Z A A A A A A A v A v A A v A v A A Z A A A A A A A A A A A A A A A A v A B Z s B B B s B B Z B j s s s s s B Z j h f s d d i d d i i i u e d d k y s s y 7 s y 7 7 y 7 q y 6 y 9 9 y 6 y q 7 q y q q q s q t r q q u e u u e a e u u u 0 u z a u u 1 z 5 5 z u r y 1 y , y r 0 < < , 0 1 r 1 < < < < < , > < < < < < ",
"I G I J J J J H H H F m H m H n H F F F H H H H F H F F H H G G G H F F V c l h h l h l V m C V n V F F F F H H H F F F n Z Z c Z F Z Z c c n c Z m c c c m H H F F H H P H A P P N Z H H F F c m H c m c m n n n n l N h h j g l h l l l n n F m F H H F n c x n x c g h j j j h j d d s f f j h N Z Z N Z N Z V C B P P C P C N j B B N P ] q.q...u.S.oX%X&XoX%X%XmX%XmX%XNXNXNXNXNXNXNXmXmXmXCX%XmX%XNX%XCXNXNXVXVXVXBXNXNXNXNXNXNXNX%XNXNXNX%XCXNXCX%XCX%XCXmXNXmX*X*XmXNXmX*X*XMXnX*Xf.*X*XXXXXXXs.XXw.XXXXw.w.w.u.u.y.u.oXoXoX*X&XVXAXGXFXJXIXIXIXPXPXPXPXPXPXPXPXPXGX:Xz.I k k 7 B ( P ] / 9...9.@.@.q.@.@.........| .._ | } | ) } [ [ ) [ T Q ` T T T K n c c f s p d t q w w 8 8 w w q y 6 9 9 9 8 q 6 9 6 9 w w w 7 7 t q 9 q w w w q 8 w 4 2 2 2 2 2 2 $ # $ # 2 2 2 $ $ 4 % = % 4 $ + X X O % % O X @ & 4 3 3 2 & @ + O #   & : & . . : 6 7 v Z U ` ..@.......] ........` ` ` -.( Q ] ` ..] ` ` ` ` / P P N k B 7 B k k k B B 7 7 B B 7 B k 7 B B B A A A A A U ( ! S A U A U U A A A A A A v A A A A v A A A Z A A A A A A A A A A A S A S ! A A A A Z A A Z Z A A N N B B B s B Z Z Z v s f p d i u u e i q q i k p y r y r y y y 7 7 y s s 7 9 , 9 9 q y 9 7 y 9 s q y q 9 q q 9 t e q r q t t q e q u u 0 1 0 r 1 e e u e e e 5 e e e 1 1 1 1 1 r r 1 , , 1 , r < 1 1 r 1 0 < < 1 , 1 1 0 ",
"G J G J U J H G F F H H F K H H H H H H H G U K H H H H H K G G Y L J G H H F n j l h l l V l n F F n m F F F F H H H Z F F n Z V Z H F K H H F c c M H H H Z Z F F H F F Z F Z A P P H H K H n H H H M m m m m F l N l l h g l g h h l n F n F F F m c F F n m x l c h h g j j j j j d j j h g Z N N Z H N N H N P N V P C P N N B N V / ] q.0.oXoXoX&XNXNXNXNXNXNX%XCXNXCXNXNXNXNXNXNXNXMXmXNXCXCX%XNXNXNXNXNXVXNXCXVXNXVXVXNXNXNXNXNXCX%XCX%XCX%XCX%XCXCXmXmX&XmX&X&X&X&XnX&X*Xf.*X*X*X*X*Xf.XXs.%Xs.a.s.s.w.i.w.w.q.y.q.u.i.p.].*X&X&XrXVXAXHXIXIXIXIXPXPXPXPXPXPXPXPXIXGXpXt.] C B B N N P / ) ........@.@...@.@.@.....| ..| ..{ } ) [ [ [ ` Q ~ [ ~ T T G F F c v d d s r q w 8 9 9 8 8 7 6 9 9 9 q 9 9 6 q 7 q 7 k w q q y t t q q w q w w 7 7 4 4 2 2 w 2 2 2 2 2 $ $ 2 $ $ $ % $ % % % + + + + + # # @ @ & 2 @ @ 2 & @   . O . . : . : . : v A ` ] ] 0.] ..@...` } ` ....` ` ` Q ] ! ] ` ] ` ` ] ` ` .._ ( P B B k B B B B B B B B B B B B B B B B S S A S A D ( A A A U A A K A A A A A A A A A A A A A A A A A A A U A S ! A D A D D D A D A S A S A A A A A A A A A A A Z N B B Z Z Z Z Z j s f p d i i d i i i k t y y y r y , y 9 q s s s y q , y 9 q 7 9 q q q q 9 9 q q y q q y q t q q 0 q q r t u u r r 0 r r u 1 1 z 1 e 1 1 1 1 1 u 1 1 1 1 9 1 , , , , 1 , , < 1 r u 0 1 < 0 1 1 1 0 ",
"I Y U Y I J Y G H H m F K H H H n H H H H H G L K G K G G G K G K J J G H F l l h h l l l l F l F F F F H H H H K H H H H H F F Z H K G U K K K K K H m m H G K H H H H G P A P P P P H J K K M G H H M K M M m H F H H F m n m m F m n F H H m H K m H n F m Z c c n n Z l N N B N g h h h c Z V Z Z P P N P F P P / P P P C C V B N ( u.P.rXNXVXVXNXNXNXNXNXNXNXNXNXNXNXNXCXNXNXNXNXNXmXNXCXNXNXCXNXNXNXNXCXNXNXBXBXCXNXVXNXCXNXNXNXNXCX%XCX%XCXCXCX%X%XmXmXmXmXmX&XmXXXmXXXXXf.*X*X*Xf.*Xf.*Xs.XXs.s.s.s.d.w.w.w.i.i.i.q.w.i.p.p.a.*X&XrXdXVXFXGXJXIXIXPXPXPXPXPXPXPXPXPXPXIXHX%Xq.C N k N N / / ] ..@.0.@.....{ ..X.X...{ .._ ..{ | } } [ ` [ T T ` T Q T J F F Z g s f s d q q 9 8 8 8 w 9 6 9 9 9 6 6 9 q q 7 q q k k B 5 k k k t k q k 5 8 w 7 6 w 2 2 7 6 6 6 6 6 6 2 $ 2 $ $ $ $ $ $ + $ + + O # + # @ 3 @ @ @ 3 2 % 3 . # : . # 3 6 3 7 b A Q @.+.@.+...........` ` } ` @.@.] ` Q Q ] ` ] ] ` } ` @.] ] / C N B B C A S C C B B B B B B S S S S S S _ D -.D ] ] ] ( U A A A A A A A A S A A K D A A K A A A A U S U S D ! ! D ! D D ! ! D S ! S A A S ( U U U ( U U U U A A A A A A A A Z Z s s d d f d d d i i i t k y u r y y , y y q q 7 s t t r 9 y q 9 q 9 q 9 q 9 y 9 q y 9 y y 0 0 q q q r q r t r u t 0 u r r u 1 u u a 1 1 5 z z 1 1 1 0 1 1 r , , , , , < , < 0 r r 0 r 0 0 0 r 0 0 0 ",
"Y Y R R R T R Y H J H K G H H K H F F H G G K J U G J U J U L Y Y Y L Y R I J H l l l V n C H H G H G H H G G G G K U H K K K G P G G G U K K K K K m c c Z H K L L U U P U U U U U U Y Y Y L K L Y L L K K H K J G G I J H J J H J H J J J K J J H H H H H Z H H F F F F H H H F F F Z l F m F P F H G P H P P ( C / P I / / q.0.0.q.0.oX&XNXNXNXBXMXNXCXNXNXNXNXNXCXNXNXNXNXNXNXNXCXNXCXNXmXmXCXNXNXCXCXNXCXCXCXCXCXCXCXCXCXNXNXNXCXNXNXCXNXCX%XCXCXCXCXCXCXXX&XmXmXmXnXmXmXXX*X*X*XnXf.*X*Xf.XXXXXXXXa.a.s.s.i.w.w.i.i.y.u.i.p.u.p.*X*X*X&X&XVXAXGXJXIXKXPXPXPXPXPXPXPXPXPXPXLXJXNXt...C P A P P P R ` ......{ X...X.X.{ ..| { { _ ....} } [ [ T ` ` T T T U F H c j d f f k 9 9 9 8 9 9 8 9 , 9 6 6 9 q q 6 q q k s k N k N d d k d j k k k w w 4 8 7 8 4 4 4 7 w 8 6 6 6 $ 8 4 2 * $ = + + ; + ; + $ $ $ 2 2 2 3 % 3 & 3 3 . # . . 7 y U G ( ] -.u.u.u.O.q.@.....} ......` ` ` ` ` ` ` ] @.......] ....] @...] ( ( P S I I ' S S S S S C S S B B S C S S S A A A A A A A A ( A ( A P A U A A ! S S ! D A D D D ! D S U S U S D D D ! D A S A D D ! D D D ! ( ( ( S ( ( S U ( ( ( ( P A A A U U A Z Z j f f g g f i d s d t b 1 b r r r y r s t s s p y r r q q q 9 9 y q 9 q 9 9 9 7 q 9 9 9 9 0 0 q 0 q 9 0 0 0 9 r 1 1 u u u a u u e e 1 1 e 1 1 u 0 0 1 9 r r , , < 1 r 0 1 0 u u u u r 0 r u 0 u ",
"Y R T [ ~ ) T R L J L U L K U K K J J L I Y L I Y Y R Y R Y L Y Y T R E E R Y I H H H F J J J J J G G J J J U L G L U L U R U U Y U U Y Y R R R ! Q Q } } ~ Q Q T Y R Y U R U / / R R T R R R R T T R L ! L L R R Y I R R I L I J I L W L L L I L L U K K H H K H H Z H Z H G G G H G H H H F H H C H G P P I I / C ( / _ q.r.oXNX%X%X:X&XNXNX&XmX%XmXmXXX%XnXmXNXCXNXNXCXCXCXCXCXNXCXCXCXCXCXCXmXMXMXnXCXCXCXCXCXCXCXBXCXCXCXCXCXCX%XCXCXCX%XCXCXCXXXCXmXCXCXCXnXmXmXnXnXnXnXXXMXmXnXnX*Xf.*X*X%XXXnXXXXXa.a.w.i.i.i.w.u.y.i.i.u.d.p.P.*X*XnXdXdXVXAXGXIXJXLXPXPXPXPXPXPXPXPXPXPXPXIXGXwX*.} U I P P I / / ..+.....X.....{ { ......_ ..} ..` ` ` / ` ` / / / I H H Z h d d p y 9 9 8 9 8 , 8 9 9 : 9 9 9 q 7 q q q k j j B N k j j k z k k k k 7 w 7 q 4 w w 7 6 7 8 w q 6 8 4 > $ > $ $ $ + + + + + $ $ $ 2 2 2 2 3 2 2 3 3 2 7 7 7 2 B ( u.P.u.*.*.@.@.@.] @.q.....@.......] ` ` @.] @.` @.] ] ..] @.@.....] q...] ] _ 6._ w._ _ 6.( _ S S S S S B S S B S C D A A S S ( ( ( U S S P A ( A ( A S ( S ! ( ] ( ! D D ( S U U S ! ( ( ( D A D S D D S D S ( S ( S ( S U S U S S ] ( ( U U ( ( U A U P A A Z h f h j h s f p s t b r r r b 1 y 1 s s k d y t t r y r q q 0 w q q 7 9 9 6 6 9 9 9 9 9 9 9 9 y y 9 0 9 r 9 9 9 y y e u r 0 u 0 1 u u u e 0 0 0 1 0 r r , , 9 9 0 9 0 r r u u i u u u r u u u ",
"R R ) [ } [ ~ Q T R R R R R Y R R Y I L R I R I Y L R R R R R R Y L Y R R R R L I I J I J J J L J G L Y Y Y Y L Y Y Y U R U Q Q T T R T R R Q Q R Q Q Q [ Q Q Q R T T R R / / R ` ` ` Q Q Q ~ ~ Q ~ ~ ~ ~ ! ~ ! T R T R E I L Y R L R R R R R L R L Y L K U H Z H H H Z H H G U Y Y G G H H F m H H H I I I I I / I / _ q.r.oXNXNXNXNXNXrX&XNX&XXXXXmXCXmXmXmXmXmXCXCXCXCXCXCXCXCXCXNXCXNXCXCXCXMXDXMXMXCXCXmXmXCXCXCXCXCXCXCXCXCXCXCXCX%XCXCXCXCXXXXXXXXXXXXXXXnXXXXXXXXXnXnXmX*Xf.nX*X*XDXDX*XXXmXXXXXXXa.f.w.i.d.i.i.w.i.i.i.i.d.d.p.*X*XDX9XVXVXAXGXJXIXIXPXPXPXPXPXPXPXPXPXPXPXPXPXGXjXL.O...R G J R } ....} ..} ..{ ......_ ` ....` ` ` ..` / / ` / ( / I H A Z h s d s q 0 9 9 , 8 , 9 , , 9 9 9 9 9 9 q k 7 k k j k B z l N V k V k k k k q w w w w q w w q w 7 7 8 8 8 8 ; $ 8 $ > ; $ * ; ; $ # 2 2 6 2 @ 3 3 3 3 3 2 7 k N P ] 0.oXP.u.u.u.u.O.@.0.q.@.....] ] ......] ..] ..@.] ` ] ....] ..] ..] @...9...q.w.6.6.6.6.( _ ( S S C S S B B S S C S S S A A S U ( U S S U S A S A A ( S ! D Q D ] ' ] -.' Q S ( S S U D S ( S A D ! D D ! D A ( S S S D ( S S ( S S U ( ( ( ( ( ( Q ( U ( ( U U H A Z Z v v b s p s t 1 b r r 1 1 y u t t s d d t t r r q q q 9 q 9 9 9 9 9 y y 9 9 7 q 9 9 9 9 y 9 y r 9 9 9 y 9 , y u 1 r 1 0 u u e e 1 e 0 u 0 0 u r , , r 1 , 1 1 0 r r u i i u u u u u r u ",
"T T T [ } } [ ~ [ [ Q ~ ~ ~ Q E E E E I W L I L R R R R Q R U ! T T R E E T E E R R L L I I R R Y Y R R R R R R T Y Q Q R Q T T ~ ` Q T T Q ~ Q [ ~ Q Q Q Q [ } ~ T T Q ` / ` / ` ` [ [ Q T ! ~ [ [ ~ ~ ~ ~ Q ~ E / ) ) E R W W W I E E T T T R Y Y U L K G K K A K K G U U U Y Y Y L G J F J m H H P I I P P ( P C ( w.r.t.CX%XZXVXVXNXmX&XoXXXXXXXXXXXXXmXmXmXCXCXCXCXCXmXCXCXCXCXCXCXCXCXCXCXMXDXMXMXMXCXCXCXCXCXCXCXCXCXCXCXCX%XCXXX%XCXXXXXXXXXXXXXXXXXXXXXXXnXXXXXf.XXf.nX*Xf.*Xf.nXnX*XDXnXXXXXXXXXXXa.a.d.d.i.i.d.w.i.i.d.d.d.d.*XMXdXDXVXdXAXFXHXJXIXLXPXPXPXPXPXPXPXPXPXPXPXIXIXIXGXzXL.+.I J I R R I / ) ) _ _ ........] ../ / ] ` ] / / / / I / / P H H Z j d f t q q 9 9 9 y , , 9 9 9 9 9 9 q q q k k d k k k N N N N k V k k k 5 e k q q q q q q k k w 7 8 2 2 $ $ ; ; $ > $ > ; ; 6 ; $ # # 3 2 2 3 2 3 3 3 3 B B V 9.0.t.oXu.s.*.u.=.@.9.@.@.@.9.@...] ........@.......@.@.9.@...@.q.@...q.....q.] 9...w._ 6._ ( w.6.( S S S S S B S S S S S S S A D U S S ( ( ( ( ( ( ( S ( ( ( D D ] ' ' ] ' D D ! S S ( S S S ( S ( A D D A D ! D D D D D D S ' D D ' S ( ( ' ( ( ( ( ( ( ( ( ( ( / ( R U U Z Z v s y s p p y r r y y r 1 y q i k d d d r r t t 0 q w 0 9 9 9 y 9 9 y 6 y 6 y 7 9 9 9 : , 7 9 9 9 9 y y y y 1 1 r r 0 u 0 u a e u u e 1 1 0 , 9 y 9 y , , r r r i i i u i p u q t u u ",
"E ) E ) E } { { | { ~ } [ [ ~ E E E E E E R E R R R R T R R R R R R L Y R L R L E R E R R W E R T T T Q Q / Q Q Q T Q T Q T Q Q T T Q ` Q ) Q ` T T ~ ~ [ [ Q Q ~ [ [ [ ` } ` [ [ ` [ ~ T Q ~ ~ E ~ ~ ~ E ! ~ Q [ [ [ [ [ T R E T W R E E E T T Y Y U K H K U U K U U U T R R R R R R J J J J J C J C C I C C P ( / ) t.NXZXKXHXVXSXVXNXNXmX&XXXs.XXXXXXXXnXnXmXCXCXCXCXmXmXnXCXCXCXCXCXCXCXCXCXMXMXMXMXMXCXCXCXCXCXBXCXCXCXCXCXCXCXCXXXXXXXXXXXXXf.XXXXXXXXXXXXnXnXXXnXnXXXnXnXnXnXnXnXf.*Xf.nXCXCXCXnXnXnXXXXXa.d.d.d.i.d.8.i.d.d.d.d.*XMXDX9XVXVXVXAXGXIXJXIXIXPXPXPXPXPXPXPXPXPXPXPXPXPXIXIXGXaXL.+.W J I ) I T ) ) ..../ ...._ _ ] ) / ..) ] / U / / / I I P H Z j s k q q q y y r 9 , y , 9 9 9 7 9 q k q d j N j V N z k k V V k V k V k k k k k k s q s 7 k k w 6 6 2 2 2 $ 2 > 6 > 8 6 8 6 6 $ # 2 3 2 2 3 k 3 3 2 B q.%X&XVXVX&XNXS.P.=.u.u.q.@.@.@.q.....@...q.X.....q.@.q.@.q.@.@.q.q.@.q.q...q.9.9.] ..9.6.w.( w.w.w.( w.( S S S S S S S S S S S S S D D S D S S ( ' ( ' ( ( ( ] ] ] D ] ] ' ] ' ] D D D D S S S S S S S S S D D D D D D D D D ' D ' D ' ' D ' ' ' ( ( ( ( ] ( ( U ( ( ( ] ] ( ( U Z Z Z b s s y s y b r r b r b y t d d k t t r r q q q 9 9 q 9 9 9 9 9 7 6 y 6 y 9 9 y 9 9 y 9 9 y , , , : 9 , : < , 9 r u 0 0 r u u u u u e e 0 r y 1 r r r r y u u u i i p i i r u t u r ",
"E R I _ _ _ _ _ | | ~ E | ~ ^ [ | E E | E E T R R R R T T R Y L Y J Y L Y R R E E R I L W R R T T T T ~ [ [ } } [ Q ` Q Q Q Q Q T T Q [ [ [ } { [ [ } } ` } } [ { } } } } } ~ } [ [ T ~ T Q Q E [ [ [ ~ ~ ~ Q Q ` [ ) } [ E E E R E E ~ E E T T R Y Y L K U K U U U R T T T T Q T T T Y G J Y J C I C I V C C _ _ t.%XuXFXHXHXJXHXVXVXVXCXXX%XXXs.s.s.XXXXXXCXCXMXMXmXCXnXCXCXnXMXMXMXMXMXMXMXMXnXMXnXMXMXMXMXMXMXCXDXCXCXCXCXCXXXCXXXCXXXXXXXXXa.a.XXa.XXXXXXXXXXnXnXf.nXnXnXXXf.f.f.DXf.f.f.*Xf.MXCXf.CXnXnXf.f.a.a.w.d.w.d.d.d.f.d.d.*XDXDXDXAXAXAXAXFXJXKXIXPXIXPXPXPXPXPXPXPXPXPXPXPXPXPXPXIXGXbX3X~.b.%.....) I R I / / ../ ] _ ] / ) ] / / / ( ) / _ P P V V N j j s s q t 9 7 : , : , , 6 9 9 6 7 y q 7 j k k N N V j B k z N k k j N k d d d B j j k k w 7 k k k q w 7 4 7 2 2 4 2 2 2 2 ; @ & & 2 B B A U / ( / q.q.oXoXoXXXoXu.S.j.u.u.-.u.@.y.q.@.u.q.@.@.q.+.q...0...q...0.q.0.0.q.u.u.r.q.q.q.9...w.9.9.q.6.q.w.( ( _ w.S w.w.S S S P S S S S e.S S ( ' ' ' ' ' ] 6.] ] ] ] ' 6.] 7.' ' ] ' ' ( D S D S S S S S S S S ( S D S D S S D ' ' 6.D D 6.' ' D ' ' ' ' ' ' ( ( ( ( ( ( ' ( ( ( ] D Q ! D A A A A v b b y 7 b y b y y 1 y u k t k r y , y u q r q 9 q 9 9 8 y 6 y 9 9 y 6 6 9 y 9 y : y , 9 9 : : 7 9 9 , , , , y y 9 , y 1 r r r 8 , 8 0 , y 9 , 9 y y y t r t 0 i t i u u i t u t ",
"W E E E E E E E E | E | | E | E E | E E [ E E T T Q T T R R U L J I Y R R R T E E E R R R T W T T T T [ [ [ } } [ ~ ~ ` Q Q Q Q Q ` Q ~ [ [ [ } ` [ } } { [ [ ` Q ` ~ [ } } } } } [ [ Q Q ~ ~ ~ [ [ } ~ ~ Q Q Q / / ` [ [ ~ R T T E ) [ } [ ~ ~ Q Q T R R R R Q ` ` ` [ ` ` Q Q T / T Y Y P U G P I C P C N I w.t.%XNXHXHXKXKXHXHXVXHXVXNX%Xs.s.t.s.s.s.s.XXXXXXnXMXnXCXCXnXnXMXMXnXMXMXnXmXMXmXMXMXMXMXMXmXnXMXCXCXCXCXCXCXCXmXCXXXXXXXXXXXa.a.a.XXXXa.XXXXXXf.nXXXXXf.f.f.nXf.f.f.nXf.nXnXDXnXnXnXnXCXnXnXCXCXf.f.f.s.d.d.d.d.d.d.d.*Xf.dXdXDXAXAXGXFXHXKXJXIXIXPXPXPXPXPXPXPXPXPXPXPXPXPXPXPXPXPXIXGXbXGXpX+Xr.X.) ) / / Y / ........] ..) ] / / / / ( / P P Z Z N N j s q q y y y 9 9 9 : 9 9 6 9 9 9 9 s q k k N k k k N N N k N N N j k j j d j d j d d d s k k 7 7 6 7 4 7 2 k 2 7 2 2 2 3 . @ 3 3 7 N / O.u.s.z.0.S.oXoXoXoXS.S.u.S.u.u.0.y.@.u.O.@.q.@.0...q...q.@.q.q.0.0.q.q.0.u.u.q.u.S.u.0.q.q.q.8.9.w.9.6.w.6.' w.w.e.S w.S ( w.S e.e.S S S e.S e.' ' ' ] ' ' 9.9.9.9.9.9.6.] ] 6.' D ' ' ] ' ' ' S S D S D D S S S S S S S S D S S D ' 6.6.e.' ' e.-.6.' 6.' ' ' ' ' ' ' ' ' ] ' ' ( ' ( ( D D ! ( ( ! A A Z v v y y y y y y 1 y i i t r r y y y r r y q r 9 q 9 y q 9 y 6 y y 9 9 9 , y 9 y y 9 9 9 y 9 9 , : y , 9 9 9 9 , y y 9 0 r 9 1 , , < 9 y 9 y y , , y 0 t 0 t q u t t t t q r q ",
"E ) W ) E E W E E E E E E E ^ ~ } ) } ) [ E ~ ~ ~ T T T Q Y U J L L Y Y R R E E L I R R R E E E E T T ~ [ [ } } ~ ` } Q ` ` Q ` ~ ~ [ [ [ } } } ) } } } [ } [ } } { { { { } } } { { [ ~ Q Q Q Q / E Q Q Q ! Q Q T ` ` [ ) ~ Q E E E [ [ } } [ [ } } } [ ` ` [ ` } { {  .@.{ ~ ~ [ ` ` R Y U I P C I ( C S C q.t.CXBXHXHXLXHXHXKXHXHXVXVXNX%XXXXXXXXXw.XXXXXXXXXXnXnXnXnXf.nXnXnXf.MXMXnXMXMXMXMXMXMXnXMXMXMXMXMXCXCXBXCXCXmXmXmXXXmXXXXXXXa.a.a.s.a.a.a.XXf.XXXXf.f.f.f.nXf.nXf.f.DXf.f.nXf.f.f.MXf.CXnXCXCXCXCXCXf.f.a.f.w.d.d.d.f.d.f.f.dXDXDXUXAXFXHXHXJXIXKXLXLXLXLXPXPXPXPXPXPXPXPXPXPXPXPXPXPXPXPXPXPXLXIXyXD.X._ } Y U / / / / / / ] / / / / ] ) I _ C P V N B j s s k k q q y 9 y 9 7 9 7 9 7 q 7 q 7 q k N j N N k j j N N N k k N N j N j N N j N j h d k k 7 w k w 7 2 2 2 2 3 3 2 2 s B k k 2 7 ..&XdXNXNXNXmX&XoXoXXXt.S.q.S.s.S.u.u.=.u.@.*.q.@.u.u.0.u.u.0.0.0.u.u.u.u.S.P.s.S.oXP.s.S.s.y.q.9.9.7.9.9.8._ w.6._ e.w.S S S S S S ( ( S ( S e.e.e.6.9.9.9.9.9.y.] q.9.9.9.] 9.9.6.-.D ' ' ' D ' ' S D D D D D S D D S D D ' ( D ( ' ' ' ' 6.' 6.7.e.e.7.7.6.' 6.' ] ' ' ] ] ' ' ( ' ' ( ' ' ( D ( ( ( ( U A A A v y b b y y , y y 0 q q q 9 r y , r t q q q q 9 q 9 r r 9 9 y 9 9 9 , y , , y : y y 9 7 9 9 y 7 9 9 9 , 9 , y : y 9 9 9 , , , , 8 : 9 9 9 , 9 9 9 0 r r r 0 t t r q r r r r ",
"E W E W I W E W E W E E E E E E } ^ ^ } [ } [ [ ~ ~ [ Q T Q R Y R R R R T T R R Y E E T E E E E Q ~ [ [ { } ~ ~ ~ @.` Q [ [ } ~ [ [ ~ [ [ [ ` } ..` } } } [ [ [ Q ~ ~ ~ Q Q R Y J G G n h f j g H H K K K ! ! U Q T / [ ) [ ~ ~ ~ [ [ { } { } } { } } [ } { { { { { { @.@.{ { { } { [ [ / / T / _ ( C I 6._ t.NXHXHXHXHXKXKXKXKXHXHXHXHXNXCXCX%Xw.s.w.s.w.w.s.a.XX*Xf.*Xf.nXnXnXnXf.nXMXnXnXmXMXnXnXMXMXmXMXMXMXCXCXCXCXCXmXnXnXmXXXXXXXa.a.a.a.a.a.s.XXXXXXf.XXf.f.f.f.f.nXf.nXf.f.f.DXDXf.DXf.f.MXf.CXnXCXCXCXCXCXmXXXf.a.a.a.d.*X*Xd.*XDXDXdXSXHXHXHXHXJXKXIXLXLXLXPXPXPXPXPXPXPXPXPXPXPXPXPXPXPXPXPXPXPXPXPXIXVX%XS.u.....` / / ( / / / / ( / / ] / ( P A P N N j d j B B s s 7 7 9 6 , 7 y 7 q 9 w q s q s k k k N k N h B N N N k N N B N N N N F F Z V Z N N d k k 7 7 w 3 3 3 3 3 5 N P N A / q.oXoXoXoXNXdX&XoXoXS.u.S.w.t.q.0.q.0.u.u.u.u.*.u.u.*.q.*.u.0.0.u.u.u.S.S.S.oXoXoXoXoXXXoXoXS.s.q.u.q.w.q.w.9.9.8.6.6.6.6.w.( _ e.w.w.S w.6.9.6.6.w.e.w.6.9.9.y.9.q.8.] y.9.] ] 6.9.9.9.] ] ' ' D ' ' D D D S S S D S D S S D D ' e.' e.e.6.' 9.7.7.7.7.7.7.y.7.7.9.7.6.6.7.' ' ' ' ' ' ] ' ] ] ' ' ' D Q ] ( ( U A A B B B y y y y y y y 0 q r r 9 y y , y t t q y r 9 y 9 9 9 9 q 9 9 9 , y 9 9 9 9 y 9 y 9 9 9 y : 9 9 9 y y y : , , y , 9 , 9 8 8 , , y , : 9 , , , 9 9 9 9 0 0 0 0 0 r 0 9 r 0 ",
"E E W I I E I W R W R E E E T E [ } [ [ [ [ [ [ [ [ [ [ Q T T R T T T T E E R E E T ~ ) ~ E ) } T ~ E [ Q [ [ } [ } ` @.` @.@.~ [ [ ~ [ [ [ [ } ) ..} } [ ` [ [ @.{ { } { ~ E E T T Y Y G H n n Z H K K K ! ! ! U Q ` ` ` [ [ ~ [ ` } [ } { { } } [ } } } } } { { { } { { {  .{ { { ..` } ` ../ / ( _ _ %Xt.VXHXHXHXHXHXHXHXHXJXHXHXHXHXVXNXCXNXXXXXXXXXXXXXa.a.a.*Xa.*Xf.*Xf.*X*XnXnXnXnXnXmXmXMXnXmXMXnXMXMXMXCXCXMXnXnXnXnXnXXXXXXXa.a.s.a.a.a.a.a.XXXXf.XXXXnXf.f.f.f.nXnXf.f.f.f.f.f.f.f.DXMXnXDXf.CXCXCXCXBXCXCXCXf.XXXXXXf.*X*X*XnXnXUXAXSXSXIXIXKXKXIXKXKXPXLXLXIXPXPXPXPXPXPXPXPXPXPXPXPXPXPXPXPXPXPXPXPXJXIXGXbXK.A.P.q._ ) / / ( / Y ( I ] I P C C V N j k j B s s k q 7 w 7 7 7 y y 7 k 7 7 k 7 s 7 s B j j j Z s j B k B N N N Z N N V A C P P N V d k 8 2 2 2 3 2 3 3 7 7 k N 6.w.dXAXFXVX&XoXrXVXrXoXS.S.z.u.u.q.XXoXoXq.u.P.u.P.u.u.u.1.u.u.*.u.u.u.z.u.S.oXoXoX&X&X&X&XmXoXXXoXt.oXs.t.q.w.i.w.8.8.8.8.8.8.9.8.w.w.w.w.w.w.( w.q.8.y.y.y.y.y.y.8.8.8.9.] y.' 9.7.7.' ' ] 6.] 6.D D D D D D D D D D S S S S D S D D ' ' 6.6.6.6.9.6.9.9.9.9.9.9.9.9.9.9.9.9.] 9.' 9.] 6.' 6.' ' ' ' ' ' ' D Q D D D D D A A A v b B y 7 y y r , r 0 q 0 y y y y y y 9 y y y 9 y 9 9 r 0 0 0 0 0 y r y , y 9 9 y y 9 9 y 9 9 q 9 9 y 9 9 y : y : : y : 9 8 9 9 6 9 : 9 : : 6 8 9 9 9 9 9 9 0 9 q q 0 9 q q ",
"T R R Y I I I I L R T Y L T T T [ ~ [ ~ ~ [ [ [ Q [ Q ~ ~ ` ~ Q T T ~ [ [ [ } ^ E ~ ~ [ E [ [ E T T ` ~ [ } [ ~ [ @.@.~ ~ ~ ` ~ [ ~ [ [ [ [ ` } } } / } } } } [ ` Q Q R Y Y J H J J L K H m m F A ! U ! ! ! D ! ` ] ` ` } ` { } @.} { @.{ } { { [ ) } } } } | } } } } } ~ {  .@.@.{ @.......q.] w._ _ w.%X%XHXLXHXHXFXSXHXHXKXHXHXHXHXHXHXVXVXNXXX%Xw.w.w.w.w.w.p.d.p.a.a.a.f.f.f.f.f.f.nXnXnXmXMXnXnXMXnXMXMXMXMXmXMXnXnXnXnXf.XXXXXXa.XXXXa.a.a.a.a.XXXXXXXXmXnXf.f.f.CXf.f.CXf.DXDXf.DXDXf.f.f.MXnXMXCXCXCXCXBXCXCXCXCXmXf.CX*XnXDX*XDXdXDXAXGXSXSXSXIXKXKXKXLXKXLXLXPXKXPXPXPXPXPXPXPXPXPXPXPXPXPXPXPXPXPXPXLXPXPXPXIXGXAXsXNX%Xz.u.0...] ..) / / P P C N C N k k k k k k k 7 w 7 7 6 7 7 7 w 7 7 k 7 s s s s s j s s j Z Z N N N N Z N Z H A A C A V V A V N N N d B N N B P / _ q.w.r.t.NXrXNXdX&X&X&XoXoXoXP.P.s.S.s.S.S.0.q.q.r.u.s.u.u.u.M.u.u.u.u.u.l.u.p.oXoX&X&X&XmXrXNXrX&X%XoX%XXXXXXXw.w.u.i.i.i.w.w.w.8.8.w.w.w.w.w.w.w.w.w.w.w.y.u.u.y.y.y.7.7.8.8.8.8.y.9.' 7.] ] 9.7.6.6.] ] -.D D D D D D -.D D D D D D D D D ' 6.6.6.9.9.9.9.8.q.8.y.9.8.w.y.q.y.9.9.9.9.9.9.' 6.' ' ' ' ' ] 6.] ' ' ' D D ] D ! ! D ! A A A B 7 b y y r , 0 0 9 q y : , y y y y y 9 9 9 9 0 9 0 0 0 0 0 0 , , , r 9 y , y q 9 q 9 9 9 y q y y r 9 9 y 9 7 7 : y 9 9 9 9 9 , : : y 9 9 9 9 9 9 0 9 0 9 9 9 9 9 9 9 9 ",
"I T Y Y G Y Y Y R R R ! Q Q T Q ~ ` E Q Q ` Q ~ ~ / Q / Q [ ` T E ~ ~ [ } } } } [ ^ ) [ ^ ) [ ~ E Q Q [ ~ ` Q [ Q ~ @.~ @.` } ` ~ ~ ~ ~ [ [ [ } ../ } [ [ } } [ } [ [ T Y L J m m J H m n c F H A K K K ! A ! ( ` ] ] ` } { { ~ } } { ` ` } { } } } } } } | { { | ^ | ^ {  .@. .{ @.....q.....] w._ w.%XNXSXHXHXHXVXVXHXHXHXKXKXKXKXJXHXHXHXNXNX%XXXXXXXXXw.w.s.y.d.p.d.p.a.p.d.a.a.f.f.XXXX*XnXnXnXnXnXnXnXMXnXf.nXnXMXnXnXf.nXf.XXXXXXa.a.a.XXXXa.XXf.XXXXXXf.nXf.f.MXf.MXf.CXf.f.DXf.f.DXDXf.f.DXDXnXCXCXCXCXBXBXBXBXBXCXCXCXdXnXnXdXdXDXdXDXSXSXIXSXKXKXKXKXLXLXLXLXLXLXLXPXPXPXKXPXPXPXPXPXPXPXPXPXPXPXPXPXLXPXPXLXIXPXIXIXZXuX%XeX%XS.O.....) ) V N N k k k k k s k k k k k 7 s 7 7 7 7 7 k 7 k 7 k s 7 s s s s B v Z Z v v Z Z Z A Z N A P C P C V N N V N N P P I / ....r.S.t.XX%XXXXXoX&XNXVXNXoXoXoXoXs.u.u.u.u.u.u.S.oXS.oXt.].P.p.p.M.u.P.p.p.P.P.oXP.P.oX*X&X&X&XrXNXNXNX&X%XXXXXt.t.a.q.XXw.s.s.s.w.d.i.w.w.s.s.w.w.w.w.w.w.w.w.w.y.y.y.y.y.y.y.-.y.9.9.7.7.9.9.' 7.9.7.] 9.' 6.' ' ] D ' D D ' D D D D D D D D D D D 6.9.9.9.9.9.q.w.8.q.u.8.8.y.u.9.q.9.9.9.] 9.' 7.6.' 6.' ' ' ' ' 6.' D D ! D D ' ! 7.D A S A A A Z B b y y y y q r q y y y , y , , y y 9 y , 0 9 0 0 0 0 0 1 r 1 r , , r y y 9 q q 9 9 9 q 9 q 0 q q y y y : : y : 9 : y y 9 9 , 9 9 9 9 9 9 9 9 9 9 w 9 9 9 9 9 9 9 9 ",
"R R Y Y Y Y Y Y Q R R R T Q ` Q T Q ` Q T Q / ` Q Q ~ T / Q E T / ~ [ [ [ ~ [ [ } [ ) ~ ) ~ ) E E / T ~ ` ~ [ Q @.~ ` ` @.~ ~ Q Q ~ [ / [ [ ` ) } } / [ [ ` [ } Q Q R R K J J H J J K H n m H U ! A ! ! A -.Q Q ` @.` @.@.` @.{ @.` } ` } [ [ [ } | } { | { { { } } } { { | { @.{ ......_ ..9.) w.t.t.VXVXHXHXHXHXHXHXBXHXHXKXKXKXJXKXHXHXHXHXNXCXCXXXXXa.s.w.w.-.y.u.u.p.d.d.p.d.p.d.p.f.XXnXnXnXnXMXnXnXnXnXnXnXnXnXnXnXf.f.f.XXf.XXXXXXf.f.f.XXXXXXXXXXXXmXXXf.MXf.MXf.nXnXf.DXf.f.DXf.f.f.DXf.nXnXDXCXCXBXCXCXBXBXBXBXCXCXCX*XDXDXnXDXdXDXDXGXHXSXIXLXKXLXLXKXLXLXLXLXLXLXLXIXPXPXPXPXPXPXPXPXPXPXPXPXPXPXPXLXPXPXPXLXPXPXIXLXJXJXPXPXHXaX:X0...) N N k 5 4 w 2 w 7 7 k 7 7 s k s B s s y 7 7 7 7 k B 7 s s s s j j B v Z Z Z Z Z A H Z A N A P P V N N N V H I } r.P.&XrXNXNXNXNXNXNXVXNXNXrX*XoXoXoXoXoXu.oXS.S.s.P.S.u.oXq.q.oXs.u.u.M.].u.P.p.P.P.oXP.oX&X*X&X&XrX&X&XNXrX&X&X&XXXXXXXXXXXw.XXw.XXs.p.p.d.i.d.i.i.s.w.s.t.w.s.w.w.w.w.w.y.y.y.7.-.y.y.y.' y.' y.9.7.y.9.' 7.7.9.] ' ' ' D ] ' D D D ' D D D D D D D 6.e.D 6.6.9.9.9.w.q.y.q.y.u.y.8.8.i.q.u.y.q.q.9.9.9.7.6.' 6.' ' e.e.S ' ( ' 7.D e.D ' 7.7.7.] -.D A A A B v b b s y 9 9 q y y , y y y y y y 9 9 9 9 0 0 0 0 0 0 0 0 r y 9 9 r 9 r 9 q 9 9 9 9 q 9 9 9 9 9 y : y 7 y y : : y 7 9 y , 7 9 : 9 9 9 9 9 9 q 9 9 9 8 9 9 9 9 q 0 9 ",
"I Y I I Y R U ! Y ! Q Q Q ` / ` T ` Q U ` Q Q U ` Q Q T / T ) R ) / [ [ ` Q T T R Q ~ E ~ E E E R ! E Q [ [ ) ~ } } [ } ~ ` ~ ` ~ Q Q [ ~ / ` / Q ) [ ` [ Q T T R Y K J H H F H F F V n F G G Y R Q Q ( Q Q ( ` @.` ` ` ..] { ` ` } / ` / E E ~ [ [ } } } ^ } { {  . .{ { X.@.} { { ......] 9._ w.t.CXSXKXKXKXHXHXSXSXSXHXHXSXKXSXKXKXKXKXKXKXSXDXNXmXXXXXw.w.w.w.w.q.i.u.i.i.i.i.i.p.p.p.f.XXXXf.nXnXnXnXnXnXnXnXnXnXnXnXnXf.XXf.f.XXa.XXa.XXa.f.XXXXnXnXmXnXnXnXMXnXMXnXnXMXnXnXMXnXnXMXMXf.DXnXnXDXnXMXBXBXBXCXBXSXSXSXSXBXBXCXCXBXCXBXBXBXBXSXSXKXKXLXLXKXLXLXLXJXLXLXLXLXLXPXKXPXPXPXPXPXPXPXPXPXPXPXLXLXPXLXLXLXLXLXLXLXLXIXLXPXLXLXJXZXxXVX:XG.*.@.Q K A B 5 s d s s 7 w 7 7 7 7 7 B B 7 B B B z C B B B V B B N N B N N N N P P A N Z P ( ) ....t._ t.t.%X%X%XNXNXuXVXrXNXNX&X&X&X&XXXoXoXoXoXoXp.P.P.S.s.s.s.P.s.p.u.P.u.p.P.P.p.P.P.oXoXoXoX].oX*X<X<X&XdXMXdXmXdXNXNX&X&XrX*XXXoXp.s.w.d.w.w.a.a.s.p.w.d.p.a.s.s.s.d.w.w.s.w.w.w.w.w.w.w.w.8.8.8.8.8.y.e.y.y.e.7.7.7.7.7.e.7.-.e.e.7.D D D D D ' D D ' D D e.e.D 7.D ' y.y.7.y.y.y.y.u.u.i.y.i.i.w.w.y.y.y.q.9.9.9.9.' ] ' ' D ' ' D e.( e.6.e.e.e.e.e.6.9.9.7.D ! D ! D b v b b b b y y y y y y y y r 1 1 9 9 , 8 9 y 9 9 9 0 0 r 0 0 r 9 r q 9 r y 9 9 y 8 6 9 9 r y y : : 9 9 9 9 : : y , y : y : y y : y y : , , , y : 9 9 9 9 9 r 0 r 0 r ",
"E R Y L K L ! R ! U U R T ` / T / Q ` Q U Q Q U U U R U R T T ) ) T Q T / Q Q T T Q R ~ E E E W R E E ~ Q ) [ ` ` [ [ [ ~ ` Q Q T T T T Q ~ ~ ~ Q Q Q [ T T Q E L I J H H m F F n F F H H G Y U ! Q Q Q Q Q ` ` ` @.` } ` ....` } [ / ) / T E E E ~ E ^ } { | { { X.{ {  . . .| } { @...] ....9.q.t.mXSXKXKXKXHXKXKXSXSXSXSXSXKXKXKXSXKXKXKXKXKXDXBXNX*XXXw.t.w.8.i.y.i.i.i.u.y.i.i.s.p.p.a.XXa.f.nXf.nXf.f.f.nXnXf.nXf.f.f.XXf.f.*XXXXXXXf.XXXX*XnX*XnXnXnXmXnXMXnXMXnXMXMXMXMXMXMXMXMXMXMXDXnXDXMXnXDXMXMXBXCXVXBXBXBXBXBXBXSXSXBXBXSXSXSXDXSXSXSXKXKXKXLXLXKXJXJXLXLXLXLXLXKXIXPXPXPXPXKXPXIXPXLXPXLXLXPXPXPXLXLXLXLXLXLXLXLXLXLXLXIXIXJXJXGXFXGXFXAXdXAXdXdXS.0.+./ P N k 2 5 5 7 5 7 3 3 7 3 3 3 3 3 3 3 3 7 5 k 5 B k B k B B k 7 7 B N P ..0.oX%XuXZXZXFXZXVXZXZXVXVXNXrX&X&X&X%XXXoXoXoXoXoXS.s.oXP.s.P.p.S.P.s.u.P.p.p.M.p.P.p.P.oXoXoX&XoXoX&X&X&X&XrXVX&XNX&XrXNXNXrXrXmXmXoXoXXXoXu.i.d.d.i.w.a.XXa.XXa.a.p.a.d.i.w.w.s.s.w.s.w.s.w.w.w.8.8.7.8.8.7.e.y.e.7.y.e.7.7.e.7.7.7.D 7.e.' -.D e.-.7.' 7.D ' 7.7.e.7.7.7.7.' ' -.y.y.y.i.y.y.i.i.i.i.w.s.i.y.q.y.y.9.9.9.' ' y.y.D D ' -.D ( e.e.e.e.6.e.6.6.6.9.9.-.7.D ! D v D A A b b b b y y 7 7 y 7 7 u 0 0 0 0 9 7 9 9 y 9 q q r 0 u 0 9 q 9 q r q q y q 9 6 9 9 y y y : 7 y 9 9 : , y , , 9 : y , y : : , , : y y , y , y , 9 y 9 0 8 0 0 8 0 ",
"R R Y Y L U U ! Y U U ! T T T R Q ` Q ! U Q U U Y U U R R / E T / / T R R Q R T T Q R ~ E E W L T R Q E ) ~ / ) T ` ` Q Q Q Q Q T R R T Q ` Q Q [ [ T T / Q T T R L J J H H H M V V H H G I I R / Q ` Q T / ` ` @...` ` } [ ` / [ ` [ ` [ E [ ~ ~ E ~ [ } { | @.@.X. . . . . .{ } } ......] 9.w.t.&XVXHXKXKXKXKXHXKXSXBXBXDXSXSXKXSXKXSXKXKXKXKXSXVXNXmXXXa.s.w.w.8.i.y.y.i.y.i.i.i.i.i.p.p.a.a.a.XXnXf.f.f.XXnXf.nXXXnXnXf.nXf.XXf.XXf.f.XXnXf.nXnXnXmXmXmXMXmXMXMXMXMXMXMXMXMXMXMXMXMXMXMXMXMXDXMXDXnXMXNXCXBXBXCXBXBXBXBXSXBXBXBXBXBXBXBXBXSXSXSXHXKXKXKXLXJXLXJXLXLXLXLXLXLXPXKXKXPXPXPXKXPXPXPXLXPXPXPXLXPXLXLXLXLXLXLXLXLXLXIXLXIXLXIXIXJXJXJXHXGXHXFXAXUXVXVX>Xz.9.) P B z B B k B 5 7 B k k B 5 7 7 k B k k k B B B B B B N N B B B P ( 0.S.rXVXFXHXJXHXFXFXFXZXVXNXNXrX&X&X*XoXoX%XoXoXoXS.oXS.oXp.p.P.P.P.s.P.s.p.P.P.P.p.P.p.oXoXoX*XoX:X&XrX&XrXmXrXdXNXNXdXNXrXrXNX&X&X*XXXoXs.i.u.d.i.y.d.a.a.a.a.a.a.a.a.a.s.i.i.s.w.w.w.w.s.w.w.w.w.8.7.7.7.e.7.7.7.7.7.e.e.7.7.e.7.e.7.7.e.' D ' ' e.D 7.D 7.7.7.7.7.e.7.7.7.7.y.y.y.u.i.i.i.u.u.i.i.i.i.i.s.w.y.q.u.9.9.] 7.' ' e.7.' D D e.D e.e.e.e.e.6.6.7.y.' 7.] 7.7.D D D D ! A A b b b b b y y b 7 y y i q 0 r 0 9 9 q q 9 q y q u q q q r r q q 9 9 r y y y y y 9 9 9 7 y 7 : y 9 9 y 9 , 9 9 : , : y y , y : : y , y , , y , 0 8 w 9 , , 8 , , ",
"E R R Y R L K K U ! ! U U R Y U U U U U Q U U Q Q U R R Y T I R R R R Y R ! U Q Y R R R R ! E E T R T Q Q / T T T T ) Q Q Q Q Q Q T Q Q Q Q [ Q [ T ~ T T E T ~ W L K J J J G H H H H J I R R T [ [ / ` / / [ } ` ` ` ) / ` ) ` ` ` ` ` [ [ [ [ [ E ~ | { { { {  .{ { | | {  . ...} ` ) ..] 0.r.CXNXSXKXKXKXKXKXSXHXBXCXMXBXSXSXSXKXSXKXKXKXKXKXHXSXBXNX%XXXXXs.i.i.y.u.u.y.i.i.i.i.i.d.p.p.p.a.a.a.XXf.a.a.a.XXf.f.f.nXf.nXXXf.f.*Xf.XXf.nXnXnXnXnXmXnXmXMXMXMXMXMXMXMXMXDXMXMXMXMXDXMXDXMXDXMXMXMXMXDXCXMXBXBXBXBXBXVXBXBXSXSXSXSXSXSXSXSXSXSXSXSXSXHXKXKXKXJXJXJXLXJXKXLXLXKXIXKXPXPXIXPXPXPXPXLXPXLXPXLXPXPXLXLXLXLXLXLXLXLXJXIXLXLXJXJXJXJXJXIXIXJXIXIXIXGXFXFXFXVXuXNXXXt.w.w.t.r.6.( ( C S S C S S B C C ( ( _ 6._ _ _ 6./ ..0.t.t.oX&X&XrXVXZXFXFXZXZXVXVXuXuXNXdXrXrX&X&X&XoXoXoXoXoXoXS.oXp.oXP.P.P.p.oXs.P.p.P.oXP.p.p.oXoX*XoX*X].&X&X&XrX&XrXNXdX&XmXdXmXdXNXrX&X&XXX*XoXp.s.s.y.w.y.y.d.d.a.a.a.s.p.a.a.p.d.s.i.i.s.w.w.s.i.w.w.w.w.w.8.8.7.7.7.e.e.y.e.7.e.7.7.e.7.7.7.7.e.e.-.7.7.7.D 7.e.7.7.7.7.7.7.-.7.y.7.-.y.u.y.i.i.d.s.s.d.p.s.s.s.s.i.i.u.u.y.y.7.] 9.] ' -.7.D ' 7.e.e.6.6.e.e.( e.e.6.e.' y.y.y.-.7.7.! ! D A A v b b b y y b y y b y t q w q q q q 7 7 7 s q q q t t u q t t r 9 q 0 q q 9 9 9 7 9 y y 9 y y : y 9 7 y 9 y : y : y , : , : y , y , , y : , , 8 8 0 8 9 0 0 9 0 ",
"R R T R L R ! U ! K K ! U U ! K U U U Y U R R Q T U R U Y Y J Y Y Y Y R R L R L R L L R R E L E R ~ ! T E T Q / / T Q [ ` ~ Q ` Q ` Q Q Q ` Q ` [ ~ [ ~ ~ E [ [ T Y L J J L K J J J I I E E E ) [ ) ) ) ) ) ) ) ) ` [ T ) [ ) ` ` ` ..` [ [ } [ } | { | { X.X.| @.| X.| { | | @...) ) .._ w.u.&XBXSXKXKXKXKXKXLXHXSXMX*XXXmXMXSXKXSXKXKXKXKXKXKXHXHXSXCXNXmXXXXXp.u.d.u.i.u.i.i.i.i.i.s.s.s.s.a.a.a.a.a.a.p.XXf.a.nXf.nXnXf.nXnX*Xf.f.*Xf.nXnXnXnXmXmXmXCXMXCXCXMXMXMXBXMXBXMXMXDXMXDXMXDXMXMXBXDXdXMXAXMXAXNXBXVXCXBXVXSXSXBXSXSXBXSXBXSXDXAXSXAXAXSXSXHXKXHXHXHXJXKXIXLXLXLXLXKXKXPXIXIXPXLXPXLXPXLXPXLXPXLXPXLXLXLXLXLXLXLXLXLXLXLXGXJXFXJXIXGXJXJXFXHXIXIXIXLXLXLXLXJXJXFXFXFXHXHXVXZXNXVXNX%XNX%X%X%X%X%X%XNX%XNXNXNXVXVXFXLXJXHXHXFXFXFXHXFXFXHXHXZXZXFXZXVXyXrXuXrX&X&X&X*XoXoXoXoXoXoXP.p.oXP.oXp.P.a.P.P.P.p.P.oXoXp.oXoXoXoX].*X].&X&X&XrXrX&XdXmXrXrXrXNXrX&XNX&X&XoXoXoXp.s.u.w.w.y.y.y.d.d.d.d.d.d.d.a.d.s.s.i.i.i.w.i.8.w.y.w.w.8.8.7.7.7.7.7.7.e.e.7.7.e.7.e.7.7.7.7.y.D -.e.7.' 7.' ' ' y.' 7.7.y.7.y.-.y.-.y.y.u.y.i.u.s.s.s.s.p.p.s.s.s.s.s.i.y.w.u.q.7.' 6.6.' 6.] 6.7.7.' 7.6.6.e.e.e.e.e.e.7.7.y.y.y.y.-.7.D D ! D b b b b B b b 7 B b 7 b s r q k w q 7 k s q q s k q t q i q e q 0 0 9 9 9 y 9 9 9 9 : y y , 7 9 y 9 9 q : y : y : , y : y : , y , , y , 9 9 9 8 9 9 8 9 9 9 9 9 , ",
"E E ! R R ! ! U A U K A U U U U U R R Y U Q U U U R Y Y Y Y Y Y L J Y R Y R Y K R R Q R L L R L R R E ~ [ [ / T T ` ` ` ~ ` ~ ~ ` Q ` Q Q @.Q @.[ ) ~ E [ [ E } ~ E E R W I R I Y I I R E ) E _ .._ } _ _ ) } _ ) E ) ` / [ ) [ ` ` ` } } { } { E } | | X.+.+.+.X.X.@.| | { | +..._ ....q.r.&XVXSXHXKXLXKXKXKXKXHXSXNXa.XXnXMXSXSXSXSXKXKXKXKXKXKXKXHXSXCXNX%XXXa.p.d.u.i.y.i.i.i.i.s.s.d.s.a.a.p.a.a.a.a.p.a.a.a.XXf.XXnXnXnXf.f.f.f.f.f.nXnXnXnXmXnXmXMXCXCXCXMXBXBXDXDXDXDXDXMXBXDXBXBXBXDXDXDXDXMXDXAXDXBXBXBXBXBXBXVXBXBXBXBXBXBXBXBXBXBXBXAXAXAXAXAXSXSXHXHXHXKXKXKXKXPXKXPXIXKXPXKXLXLXLXPXLXPXLXPXLXLXLXLXLXLXLXLXLXLXLXLXLXLXLXIXJXJXJXLXIXIXJXGXIXIXHXLXJXHXLXJXJXHXKXFXFXHXHXHXHXJXLXHXHXFXLXHXHXFXFXFXHXFXHXHXFXFXHXHXFXFXFXZXFXFXHXVXVXVXZXVXVXuXNXVXNXVXNXNXrX&X&XoX*XoXP.p.P.oXoXoXS.P.p.P.p.P.P.oXp.].*XoXoXoXoXoXoX].*X&X*X=X&XrX&X&XrX&XrXmXrXrX&XrX&X&X&X*X*XXXs.s.u.8.8.8.8.y.y.d.y.y.d.d.d.s.s.s.d.s.w.i.w.8.8.8.8.w.8.8.8.e.8.e.7.7.e.7.7.7.e.7.7.7.7.7.e.7.7.D y.7.e.7.e.7.y.y.' -.y.7.7.y.y.y.u.d.d.d.d.s.i.s.p.p.p.p.p.p.s.s.s.u.i.q.i.u.y.y.8.6.] ' 6.' ' 6.6.' 7.9.' 6.6.e.6.e.e.e.e.7.7.y.y.y.y.y.y.-.D D D D A A v v b A b b b b 7 s q w 7 7 7 k s s s k s k k k r e q 0 q w 9 9 9 9 9 9 y 9 9 7 : 9 7 , y 9 9 y 9 y , y , , , : , , , y : : y : y w 9 9 8 8 9 9 9 9 8 8 , : ",
"! E Q T Q Q R ! ! U U ! ! ! U U U Q R Q R T R U Y K Y L J J Y L Y J Y Y L L R Y R L ! U L R ! R R ~ T ~ Q ` / T [ ` [ [ [ ` ~ ` ` ` ~ ` @.` -.` [ [ [ } } _ | } } ^ ~ E ~ E T E E R E E T E E ) _ _ ) _ .._ ) ) [ [ [ [ [ [ [ ` ` ` ` { { { | { | { | @.+.X.+.+.X. .| X.| } { X....._ q.0.oXVXAXHXHXKXKXKXKXKXKXKXSXMX*Xf.nXMXDXSXSXSXSXSXKXKXKXKXKXHXSXSXNXCXCX*Xa.p.p.d.u.i.i.d.d.s.d.s.a.w.XXs.a.s.d.a.a.a.a.a.a.f.XXnXXXnXXXf.f.f.f.nXnXnXmXmXnXMXMXCXCXCXCXBXBXBXDXAXDXAXBXBXBXBXBXBXDXBXBXMXMXAXVXAXVXBXBXBXVXBXVXBXSXSXBXSXBXAXSXAXDXAXDXDXAXAXAXAXAXAXHXAXSXSXKXKXKXKXKXIXIXPXKXPXLXLXLXPXLXLXLXLXLXLXLXLXLXLXLXLXLXLXLXJXJXLXLXLXIXIXHXHXGXFXHXAXIXIXIXHXHXHXHXHXJXHXHXKXJXHXHXKXHXHXHXHXHXHXHXHXHXZXHXHXFXHXVXFXFXFXVXFXFXHXHXHXVXFXNXVXVXZXVXZXVXVXVXuXNXrXNXrX&X&X%X&X].oXoXoXoX*XP.p.oXp.oXoXp.P.p.oXoXoXoXoX*X].*X*X].&X&X<X&X&X<X&X&XrXmX&XrX&XrX&X&X&X&X&X*XoXoXu.s.i.w.8.8.9.8.y.d.d.y.y.y.d.y.w.i.w.i.w.8.w.8.8.7.8.8.8.8.7.8.e.8.e.7.7.e.7.e.7.7.7.7.8.7.7.8.y.e.y.D 7.7.7.7.y.' y.y.7.7.y.y.y.y.u.d.u.p.d.d.s.p.s.p.p.p.oXs.s.u.i.s.s.s.w.s.w.y.u.q.] ( ' ( ] 6.] 6.] 9.7.' e.e.e.e.e.7.e.8.7.7.y.y.y.d.d.y.y.7.! ! D A v v A A A b v v b 7 s q 7 q k q q s k k s q q t q q 0 0 0 0 0 0 9 8 : y y : : y , : 6 9 6 9 q 9 q 9 : 9 , : : : : : : : y , y , : , 9 9 9 9 9 9 9 9 9 , 6 : 9 ",
"E ! ~ Q Q Q ! U U ! U ! ( ( Q Q U T Q U R R R Y R R R Y Y Y Y Y L I L J Y R R ! Y L L L R ! R Q T T Q T [ ~ [ ` ` [ ` [ [ [ { ` ` ` @.` Q ` Q Q ~ [ } ^ | | | | { [ E ~ E T E E E W R E E I E E _ _ .._ _ } } / } } @.[ [ ` [ } @.` @...{ { ....| | X.X.+.+.+.X.X.X...| | _ } { ..X...q.S.%XVXFXKXKXHXKXKXKXKXKXKXSX&Xa.f.*XMXDXDXSXKXKXSXKXKXKXKXKXHXHXHXCXNXNX*X*Xp.p.p.i.p.p.s.s.s.d.a.w.a.f.a.d.s.p.a.a.a.a.a.a.a.f.XXf.f.f.f.f.f.f.f.f.nXnXnXnXmXnXCXCXBXCXBXMXBXBXDXBXDXBXBXBXDXBXDXBXDXBXDXAXDXAXMXAXAXBXVXSXBXSXVXVXSXSXSXSXBXBXBXSXBXSXAXDXDXAXAXVXBXAXAXAXSXKXKXKXKXIXIXKXKXPXKXPXLXPXLXLXPXLXPXLXLXLXLXLXLXLXLXLXLXLXLXJXJXJXJXJXJXIXJXJXIXHXIXHXFXHXHXJXLXHXFXHXFXZXZXVXFXFXFXFXHXZXHXHXHXFXHXFXHXZXZXVXVXFXVXFXVXVXVXVXVXVXVXVXVXFXAXZXZXSXVXFXZXVXVXuXNXrXrX&X&X&X&X*XoXoXP.oXoXP.oXP.oXP.oXP.oXP.P.*XoX].*X].*X<X].&X<X<X&X<XrX&X&XrX&XrXNXmXmX&X&X&X&X&XoXXXoXp.s.u.8.8.7.7.7.8.e.y.y.y.y.y.y.d.8.i.y.8.w.w.8.8.7.8.7.8.8.7.6.6.e.e.7.e.7.8.e.8.7.e.y.7.7.8.7.8.7.y.y.7.y.y.y.y.y.y.y.y.y.y.y.y.y.d.d.p.p.p.d.d.p.p.P.p.s.p.p.s.s.s.s.u.i.q.u.w.u.w.8.8.6.' ' ' 6.6.' 6.7.6.6.6.7.e.8.7.e.e.e.8.y.y.d.y.d.y.d.d.y.y.D D ! A A A A v A v B v v y s q 9 s q q t t s s t k t q q q w 0 0 w 0 8 8 9 y : : y 7 : 9 y 9 6 9 y y 9 9 9 y 9 , y y : y : , , , , , , y : 9 9 9 9 9 9 q 0 9 9 y y 9 ",
"Q Q ~ ~ Q Q Q Q ! D ! ] ! ] ! Q ` T R U T U Y R L Y Y L R L R R L L L L L L L L K R R Q ! Q ! Q ~ ~ Q ~ ` Q Q Q Q ` @.` Q @.` -.-.' ] ! ` ` ` @.{ } {  .| | | | | | ~ E L J J J W I I I Y E E E ) ........} ` ` ..{ @.` Q Q ` -.@.` @.@.@.@.@.X.| ....X.+.+.X.{ { ) { ) ) .._ ) _ _ 0.oXrXVXHXHXKXKXKXKXLXKXKXKXKXKXmXXXp.a.nXMXDXSXSXKXKXSXKXKXHXHXHXHXHXNXSXNX*X*X*Xf.a.p.p.p.a.d.d.s.s.s.d.w.s.s.a.s.a.XXa.a.XXXXXXa.XXXXXXXX*Xf.f.nXnXnXnXnXMXMXMXMXMXMXMXCXMXMXDXDXBXDXAXDXSXSXBXBXBXDXBXDXBXBXBXBXBXSXSXBXSXBXBXSXSXVXSXBXBXBXBXBXDXBXBXDXBXDXBXAXAXBXBXBXVXVXSXSXHXHXKXKXKXLXLXLXPXKXLXLXLXLXLXLXLXLXLXLXLXLXLXLXJXLXLXJXLXJXLXJXFXJXFXJXJXHXJXIXHXGXHXHXHXHXJXFXZXJXHXHXZXHXHXZXFXFXFXHXFXHXHXHXHXHXHXHXHXFXFXFXVXVXVXVXVXVXVXVXVXVXVXVXVXVXVXVXVXVXVXVXVXVXuXNXNX&XrX&X&X&X&X].].oXoX].*XP.*XP.P.oX*X].*X].*X:X*X&X:X&X&X:X&XdX&X&X&X&X&X&XmX%XNXmXmXmX&X*X&X*X*X].p.p.u.8.y.7.7.7.7.7.e.y.y.e.y.y.y.e.8.7.8.8.9.8.8.9.7.y.y.7.-.7.7.e.8.e.e.7.7.7.7.8.8.8.8.7.7.8.8.8.8.8.8.8.8.y.8.8.y.y.d.y.-.d.y.d.d.d.d.a.*Xa.*Xd.XXXXp.p.XXp.XXs.s.s.s.q.i.u.u.y.w.w.w.w.w.S S S ] 6.6.9.6.w.6.6.w.e.e.7.8.e.8.e.w.i.d.w.i.d.a.a.p.y.9.] D A S A A A v A A v v v s b s s y s s f i i p r t t t t t 0 0 9 w 0 9 9 7 9 y 7 9 , : y 6 9 9 9 9 9 0 q , , , y y : : : : < , : , , , 9 r q 9 9 y q 9 q y 9 7 9 9 ",
"~ ~ ` Q ` Q ` ` Q ! ] Q ` Q ! ] T Q T T T T Y G Y L R L R R L L Y I L Y I L R R L R U ! R U Q Q Q ~ Q ~ ~ Q Q ` ` ` ` ` -.` ` ` Q ! -.-.~ Q ~ ~ [ } }  .X.X.| | | | } ^ E H J F l l V G I T ) ) ) ............@...@.@.@.` @.-.` @.@.@.@.@.@...+.X.X.X.X.X.@.{ } } ) } ) _ ........9.0.%XaXAXAXFXSXHXSXKXKXKXKXKXKXSXmXXXa.s.d.f.DXDXSXSXKXKXKXKXHXHXHXHXHXHXNXCX&X*XnX*XXXa.p.p.p.p.d.s.s.d.s.a.a.w.s.a.a.w.a.s.w.XXa.a.a.f.a.XXf.f.f.XXf.nXnXnXnXnXnXMXmXMXMXMXMXBXBXBXBXDXDXAXBXDXBXDXBXBXBXBXBXBXSXBXSXBXBXSXBXSXSXBXBXBXVXBXBXBXSXBXBXSXBXBXBXBXSXDXSXSXBXBXAXBXBXSXSXHXSXKXKXKXLXKXKXPXKXPXLXLXLXLXKXLXLXLXJXLXLXLXLXLXLXLXLXJXJXHXJXJXJXJXJXHXJXHXIXKXIXHXJXHXJXFXJXFXZXJXHXZXFXFXFXFXZXFXZXFXZXZXFXZXZXVXZXVXVXFXFXVXZXFXFXNXHXNXVXFXVXVXFXVXVXZXVXZXVXVXNXNXNX%XrXrX&X&X&X&X].*X*XoXoXoX].*XoX*X*XoXoXoX].*X].&X:X&X:X&XrXrXrXrXrX&X<X&X&X&X&XmXXX&XoX%XoX*X*XoXp.p.p.u.y.8.7.7.6.7.7.7.y.y.e.y.e.y.y.y.7.8.8.8.w.9.9.7.7.7.7.y.7.7.7.7.e.7.7.7.8.7.7.8.8.y.y.y.y.8.w.8.8.8.y.8.y.y.i.8.d.d.y.y.d.d.d.d.d.d.*Xd.d.*Xa.a.p.a.XXXXXXp.s.XXs.s.s.s.q.i.q.u.w.w.w.w.S 6.S S ' 6.6.9.6.6.6.6.e.8.w.e.e.8.7.8.w.w.d.d.d.s.a.s.p.u.9.' D D A S A A A A A v A v v s s y y p p p i p t u i r 0 r 0 q q q 0 9 q 9 9 9 9 y 9 y y : 9 9 9 6 9 9 0 0 y y , , : : y y , : > , : , : 9 9 9 9 9 9 9 9 9 : y 9 9 : ",
"~ [ [ ` ` ` ` ` -.Q ` ` ` ` ` ` T / ` T T R Y L Y R R R ! L L R R R L L L L L R ! ! U R Q ! U Q Q ! Q Q Q ` ` ` ` ~ ` @.` ` ` ` ] Q Q ` @.Q ` @.{ } | | | | | | | E W W H l l n F F J J R E / / / ..} ......] @.@.@.@.] Q D ] -.@.@.@.+.@.@.+.+.....X.@...+...} ) T ) ) ) .._ ....0.oXVXFXSXFXHXHXSXSXKXKXKXKXLXLXKXMXa.s.i.a.f.DXDXSXSXSXKXSXSXHXHXHXHXHXNXBXNXmXmXnX*XXXa.a.a.a.a.p.d.w.a.s.a.a.a.d.w.a.a.a.w.a.a.s.a.a.XXa.XXa.a.XXf.XXnXnXnXnXMXnXMXnXMXMXMXBXMXBXDXDXAXAXDXBXSXAXDXSXDXBXSXSXBXBXSXBXBXSXBXSXSXSXSXSXBXSXBXBXSXAXBXBXBXDXDXBXDXBXSXBXBXBXBXBXBXBXSXSXSXHXKXKXKXKXLXPXKXPXKXLXLXLXLXKXLXLXKXKXLXLXLXLXLXHXJXJXJXJXJXJXJXJXJXHXJXGXJXHXJXHXGXFXJXFXFXGXHXFXHXHXZXFXZXFXZXZXGXZXFXZXFXZXZXVXZXZXFXVXZXFXVXVXFXVXHXFXVXHXFXVXFXVXFXVXuXuXVXdXVXVXVXNXNXdXmXmXdX<X*X*X*X].oX].*X*X*X*X].*X].].*X*X<X*X&X&X&X&X&XrX&XrXmX&X&X&X&X&XnX&XXXXXoXoXXXXXXXoXp.p.u.i.y.9.9.7.7.e.e.e.7.y.e.y.e.y.e.d.e.8.8.8.8.8.9.7.8.y.7.y.7.7.y.7.7.w.7.7.7.7.8.8.8.8.8.y.w.y.i.8.w.y.y.i.i.d.d.d.d.d.d.d.d.d.d.d.f.*Xd.*Xd.a.a.a.*Xp.XXa.XXXXXXs.p.q.s.q.s.s.w.y.q.w.w._ e.( S S 6.( 6.9.6.6.6.6.6.8.e.e.w.8.7.7.e.8.d.d.d.d.a.a.a.p.u.' ' D S S A A A A A A A v v Z v v b v v b x i y u p r r r 9 r q r 9 9 9 q 9 9 y 9 9 9 9 : y 9 8 9 9 9 9 0 0 , , y : , : : : , : : > , : , : 9 6 9 9 9 , 9 6 , : 9 : 7 ",
"} } [ [ ` ` ` ` ] ] -.] @.` @.` T ` T T Y Y Y Y R R R ! L R ! U ~ L R L L R L Y Y L R ! U U Q Q Q ! ~ Q ` ~ } ~ ` @.@.` @.@.-.` ( -.-.` ` ` ` ~ { { } | | } [ E E L J l l l l H J I I Y R R R R / / ` ..q.@...@.@...@.@.-.-.Q -.@.@.@.@.0...0...X.......@...{ ` [ T ) ) _ _ ] _ _ q.%XVXFXAXAXSXSXSXSXHXKXKXKXKXKXKXnXa.s.y.d.f.MXDXSXSXKXKXKXKXHXKXHXHXHXVXVXBXMXMXmXnXXXXXa.a.a.p.a.p.a.s.d.p.a.w.a.a.s.a.XXXXa.a.a.a.a.a.a.a.a.a.f.XXf.XXnXXXf.nXnXnXMXnXMXMXMXMXBXBXBXDXSXAXDXBXDXSXBXSXBXBXBXSXBXSXBXSXBXBXCXBXBXBXBXBXSXBXBXDXAXDXBXDXBXBXBXAXDXBXSXDXDXSXSXAXSXVXSXSXSXSXKXKXKXKXKXIXKXPXLXLXLXKXLXLXKXLXLXJXLXLXJXLXLXLXJXJXJXJXJXJXJXJXJXJXJXJXGXKXHXJXJXHXFXJXFXJXFXHXHXJXZXHXFXFXHXFXFXFXFXFXFXFXFXFXFXVXFXVXVXFXVXVXHXVXVXHXNXVXVXVXVXVXVXZXVXNXVXVXNXNXNXuXNXdX&X&X&X&X<X&X&X&X*X&X*X<X*X].*X*X*X&X&X*X&X=XrX&X&X<XrXrX&X%X&X&X&X*XXX&X&XXXXX&XXXXXXXXXoXp.p.p.y.y.' ' D D e.e.e.e.e.y.e.e.e.d.y.y.8.8.8.8.8.8.8.7.7.y.7.y.y.7.y.-.8.7.w.8.8.y.8.y.8.y.i.w.d.8.d.d.i.d.d.d.d.d.a.d.d.d.f.d.d.d.d.*Xd.f.f.*X*X*Xa.p.XXa.a.a.p.p.p.p.s.s.i.s.u.q.q.q.w.6.w.w.6.e.e.( e.6.6.6.6.6.6.6.e.w.e.e.e.w.8.8.8.w.d.a.a.a.XXXXoXs.y.-.D S A S D A D A A ! A A Z v v b b s p t u p p p r r r 9 r r q r 9 q r 9 9 9 9 9 9 9 7 9 9 8 9 9 w 0 w 9 y , : y : y y : , , , , , 8 , , 9 9 9 9 : 7 : 9 y 7 : y y ",
"{ { ` ` ` ../ / ` ....} @.{ } } } ` T T R Y R R R E R ! R R ! L L ! L R L L L L L U U L ! U Q Q ! Q Q ` @.~ } ~ @.@.` ` ` ` @.@.-.] -.! ` @.~ @.{ { } } E E R I l J l J H C V H G G G G U Y Y R / ] ..} ..@.] @.@.@.q.@.] -.] -. .@.X.+.+.X.X...X.+.....` ` / / [ / / [ ..) _ 0.t.NXVXHXKXJXKXSXAXSXSXHXSXKXKXKXKXHXCXXXp.i.i.i.f.CXMXDXSXKXKXKXKXKXHXHXSXSXVXNXBXNXMXmX*XXXXXa.a.a.a.a.p.a.a.d.a.s.a.a.a.a.a.a.a.a.a.a.a.a.XXa.a.XXXXXXXXXXnXf.nXnXnXMXf.MXnXMXMXMXMXDXAXAXDXDXBXSXSXBXSXBXSXBXBXBXSXBXDXBXDXSXDXBXBXBXBXSXBXSXAXBXDXDXDXBXAXDXDXSXDXSXDXSXDXBXSXAXSXAXSXSXSXSXKXKXKXKXKXKXKXKXKXPXLXKXKXKXLXLXJXLXJXJXLXJXJXJXJXJXJXJXHXJXJXHXJXHXJXHXHXJXIXHXFXHXHXFXHXZXHXZXFXHXGXHXGXFXFXGXFXFXFXFXFXFXVXVXVXFXVXFXZXFXVXFXVXVXHXNXVXVXVXVXVXVXVXVXVXaXVXNXVXuXuXNXrXNX&X&X&X&X*XdX*X*X&X&X&X*X&X&X&X&X&X&X&X&X&X&X&X&XNX&XNX%X&X&X&X&X*XXXXXXXXXXXXXXXoXXXXXXXa.s.y.y.y.7.D D S D e.e.e.e.y.y.e.y.y.y.y.y.8.8.y.y.y.y.y.y.y.8.8.8.y.y.y.y.y.y.y.y.y.y.i.y.w.d.d.s.a.w.XXw.d.a.a.a.f.f.a.d.*Xd.*Xd.f.*Xd.d.a.f.f.*Xa.a.*Xa.a.a.a.a.a.p.s.s.q.s.s.w.q.q.8.8.6.6.9.] 6.( e.e.6.' 6.6.6.6.6.6.8.e.e.8.8.e.8.y.y.d.d.d.a.XXXXXXXXu.u.9.' S S S A D A A A v A ! A G Z Z Z H c c p p i r y 9 r r q 9 9 q y 9 y 9 9 9 9 q 9 9 9 9 9 w w 0 9 , , , : , , : : y : : , < , , : 9 9 , y 9 9 , 7 , : y : y : : y ",
"[ } ` { ` ..] ....` ....@.` } ..} [ / R R L E E E L E L ! U L ! ! L ! L L K L K L L L R Q Q Q ` -.~ @.~ ~ @.` ` @.` [ ` ` ` ` ` ! ! Q ] ` @.@.~ [ } [ E E T W R J l l J l m F H n n F F Z K K U U / ` ` @.@.@.@.@.@.@.@.-.` ] -.@.@.@.+.X...{ ..........` ` ` / / [ ..} ....9.w.oXBXHXHXHXKXHXAXVXBXAXSXKXKXKXLXKXKXCXXXp.8.8.i.f.f.MXDXSXSXSXSXKXHXHXHXHXSXSXBXBXMXMXmXnXnXnXa.f.a.a.a.a.a.XXa.a.a.a.s.a.a.a.a.XXa.a.a.a.XXa.a.XXa.XXXXXXXXXXXXnX*Xf.*XnXnXnXMXMXMXDXMXBXBXBXBXBXBXBXSXSXBXBXSXBXSXBXSXSXBXBXDXBXBXSXBXBXBXBXCXDXDXDXAXAXDXSXDXAXDXDXBXSXBXBXSXSXSXSXSXSXSXSXHXSXSXKXKXKXKXKXKXKXKXKXIXKXLXKXKXJXLXJXJXHXJXJXJXKXKXJXJXLXHXHXJXJXHXHXJXJXHXGXHXJXHXHXFXHXJXFXHXHXFXHXFXHXFXFXFXFXZXFXZXVXFXFXFXFXVXFXVXFXVXVXSXFXVXNXFXFXVXZXVXVXZXVXZXVXVXaXNXNXVXVXNXNXdXdX&X&XdXdX&X&XdX&X&X&XdXdX&X&X&X&X&X&XdXmXdXrXrXmXdX&X&X&X&X&X&XoXXXXXoXa.oXp.XXs.s.u.w.w.w.7.e.D D S S S D e.e.e.e.e.e.y.y.y.y.y.y.i.y.8.d.i.y.y.y.y.y.y.i.y.*.d.y.u.i.u.u.d.y.i.i.s.s.s.d.XXa.XXXXXXa.XXf.f.f.f.f.*Xd.f.f.d.f.f.f.f.a.a.a.a.a.a.a.p.a.s.p.p.p.s.u.s.q.u.i.u.y.q.8.9...6.6.6.( 6.( ( e.e.' 6.w.w.6.e.8.w.e.8.8.8.w.d.d.d.f.XXXXXXXXXXs.q.q.] S S A D A D K D K v A A Z Z Z v c v p p p i 0 9 q y y y 9 9 9 9 y 9 9 9 9 9 9 y 9 9 r 9 0 0 w 9 y , , : , , , , , : y , , , < , 9 9 9 9 9 9 7 9 9 7 : y y y 7 6 ",
"[ ` @.` ) ` ) ..] ) ..........} [ / T R I R T R E R L ! ! K ! ! ! ! L ! L L L K K R U Q Q Q Q ` Q ~ ~ ~ @.~ ` @.` } ` ` ` ` ` ` -.` Q ] ~ @.} [ ~ } [ ~ E E T R W J l l l l F H Z F Z F Z H H K U / ` ` } ` ] ..@.@.@.@.O.@.@.@.@. .@.X.+...........` ` ` ` ` ` ` ` ..} ..) ) t.NXFXKXKXKXKXHXHXAXBXSXSXKXKXKXLXKXKXCXXXw.w.8.i.d.f.DXSXSXSXKXKXHXHXHXHXSXSXSXBXBXMXCXmXmX*XnXnXnXf.a.f.f.f.a.a.XXXXXXa.s.a.a.XXXXa.a.XXXXXXXXXXXXnXXX*XXXXXXXnX*Xf.nXnXf.nXMXnXMXMXMXDXMXMXDXBXBXBXBXBXDXSXBXBXBXSXBXBXBXDXBXDXDXDXBXBXBXBXBXBXDXDXDXDXDXSXDXSXSXDXSXBXBXSXDXSXSXSXSXSXHXHXSXSXSXSXKXKXKXKXKXKXKXKXKXKXKXJXKXJXLXHXJXJXJXJXHXLXKXHXJXKXJXJXJXHXJXJXHXJXHXJXGXKXFXHXHXHXHXHXHXFXFXHXFXFXFXFXFXFXFXHXFXFXFXVXFXFXFXSXHXFXHXVXVXSXVXHXHXVXVXVXVXFXZXVXVXZXVXVXVXVXVXVXNXNXVXVXdXdXdX&XdX*X&X&XdXdXdX&X&XNXNXdXmX&XNXdXdXNX&XNXdXNXNX&X&X*X*XXXoXp.XXp.s.q.w.w.w.w.w.w.w.8.e.e.D D D S S D e.e.e.e.e.y.y.e.y.y.y.y.y.y.i.y.i.y.i.y.d.8.d.d.d.d.d.p.d.d.p.d.s.d.d.a.a.s.a.XXXXXXXXXXXXXXnXnXnXf.XXf.f.f.f.d.*Xd.a.f.a.a.a.a.a.a.p.a.p.d.p.p.p.s.i.i.y.i.u.w.u.8.q.8.9.9.] 6.6.e.6.e.e.e.e.6.6.6.6.6.8.e.8.e.e.y.w.w.w.a.f.f.XXXX%XXXXXoXu.q.' D A S A A A D D A A A A A A Z K Z h s d i i t q q t s y y 7 9 9 9 y 8 q 9 0 0 0 0 0 8 9 w 0 0 r 9 , , , , : , y : : : , > < , , 9 9 9 , 9 : y , 7 , 9 : 7 9 7 9 ",
"` ` ` ` / ] ..] _ ] ) ..) ..} } ) T T T I R W R L E L R ! ! U U K ! U L R L L K R L ! Q Q Q Q Q ~ ~ Q ` ~ ` ~ @.` ` ` ` ` Q Q Q ! ` Q Q ` } [ ~ } { [ ~ T ~ E I J l J J J m l n n F F F F Z P P U / / ` ..@.{ ....+.@.O.@.@.+.@.+.+.+.+.X...../ } } [ / T ` ` ` } ........( / S.VXZXHXKXHXSXSXSXSXSXSXSXSXKXKXKXKXKXBXnXa.8.8.8.i.f.MXDXSXSXSXKXSXHXHXHXHXSXSXSXBXVXMXNXmXnXnXXXf.nXnXXXa.XXf.a.XXXXXXXXXXa.a.XXXXXXf.XXXXnXXXnXXXXXXXXXnXXXnXnXf.f.nXf.nXnXnXMXMXMXMXMXMXBXBXBXCXBXBXDXBXBXBXBXBXBXBXBXSXDXDXBXDXBXBXBXSXBXBXSXDXDXSXDXSXDXSXBXDXBXSXDXDXSXSXDXSXSXHXSXSXSXSXSXSXKXSXKXKXSXSXKXKXKXKXKXKXKXJXKXHXJXHXHXJXHXLXHXKXJXHXKXKXHXKXJXJXHXJXJXGXHXJXHXHXFXHXHXHXFXFXHXFXFXFXHXFXFXFXFXFXVXFXFXFXVXFXVXFXVXVXHXVXVXFXHXHXVXVXHXVXZXZXVXVXVXVXVXVXVXdXaXVXNXVXyXdXNXdXmXMXdXMXdXMXdXMXNXNXMXdXVXNXdXNXNXdXMXNXNXNXNXdXmX%XmX&X&X*XXXXXp.s.s.s.w.8.8.8.8.w.8.8.6.D D D D D D D e.e.e.e.e.y.e.y.y.e.y.8.d.y.y.y.d.i.i.i.i.d.d.i.d.p.p.p.a.d.p.p.p.p.a.a.a.a.f.XXXXnXXXXXXXmXmXnXnXmXnXnXnX*X*Xf.*Xd.f.a.a.f.a.a.a.p.a.p.p.a.s.d.s.p.s.i.i.u.y.u.8.9.q.8.8.9.9.] 6.6.6.( e.S e.e.6.e.6.w.6.e.8.8.8.e.8.w.w.w.w.a.f.XXmXXXXXXXXXu.q.' D D S A D A D K ! A A A Z Z Z Z Z h f k d i t y q q y : : 9 , 6 9 8 y q 0 q 0 0 0 8 1 0 w 0 0 0 8 , , : : , , : : y y , , , , , 9 , 9 : 9 9 , 9 y : 9 9 7 : 9 9 ",
"[ ` @.] ` ..] ...._ ] ..) ) ) ) R Y Y Y L J R R R L L L ! U U ! U ! ! ! U ! Q U Q ~ ~ [ [ [ ~ ~ [ ~ ~ ~ ) Q ~ / ` Q ` Q ` Q Q ` ( ! ` -.! ` @.Q ~ } } } ~ ~ R J J J C l M l C m H H H H G G U Y / [ [ } ....{ [ ....{ @...X.@.X.+.+.+.@...[ ) [ R T Y R U Q ( Q @.` ........q.%XBXHXHXKXKXKXKXKXSXSXSXSXSXKXKXKXKXSXDXMXd.8.7.8.y.d.f.CXDXDXSXSXSXKXSXKXSXSXSXSXSXCXCXCXCXCXXXXXCXf.CXXXXXf.f.XXXXXXXXXXXXXXXXf.XXXXnXXXnXXXnXXXmXXXXXXXXXnXnXf.nXnXf.nXnXnXnXnXmXmXCXCXCXBXCXBXBXBXBXCXBXBXBXBXBXBXCXBXBXBXBXDXBXDXBXAXDXAXDXAXDXDXAXDXAXDXAXDXAXSXDXSXAXSXSXSXSXSXSXSXSXKXSXKXSXKXSXKXSXSXSXSXSXSXSXKXHXSXHXJXSXHXHXHXHXSXGXKXHXHXKXHXKXHXHXJXHXIXHXHXIXHXHXIXHXHXHXHXHXJXFXJXHXFXJXFXFXFXFXHXFXFXFXFXZXFXFXVXFXFXHXVXFXVXFXVXAXFXGXFXVXZXZXVXGXVXVXAXVXVXVXNXdXVXNXVXVXNXdXMXdXdXNXdXdXMXNXNXNXdXdXMXVXVXVXMXNXNXBXCXNXmX&X*X*X*XoXp.p.p.d.i.i.y.y.7.7.7.6.7.e.e.e.e.e.S S e.e.e.e.e.7.7.e.y.y.y.y.y.y.y.d.y.d.y.d.d.i.d.p.s.d.d.a.a.a.a.XXf.a.a.f.nXXXXXnX*XnXnXMX*XmXnXmX*XmXXXmXnXXXmXnXXXd.f.d.f.f.f.d.f.*Xd.d.d.d.d.p.d.d.d.d.d.d.d.u.y.y.y.8.w.8.8.q.] 9.] 7.' ' D 6.e.e.e.e.e.6.6.7.7.8.8.8.8.8.y.8.y.w.f.XXnXnXmXXXmXoXXXt.w.w.6.( ( A S P P S C A N A A A Z A h q s y k t r q q r 9 7 y : y 7 : y 7 q 9 q 9 9 9 0 0 0 w 0 w 0 0 , 8 , , , 6 , 9 y : : , , , , : 9 9 8 8 0 8 8 8 9 , 8 9 9 6 , ",
"` ` ` ` { ` ` ........) ] ) ) / R R Y Y Y L L L L R ! R U ! ! U ! ( ( Q Q Q ` Q Q ~ [ [ } [ [ [ ) [ ) ~ ~ ) / ~ [ Q ~ ` Q ` ` Q Q Q Q ` ` ` Q @.} } } ~ E T R I M J M C C J C J H G J G G I I Y P R / / } ..+...+.+.+.O.+.O.0.O.X...X.} ) R Y Y Y R U Y U Y T Q ` ......0.q.0.NXHXKXKXKXSXSXSXSXSXSXSXSXSXKXKXKXKXKXDXMXi.8.7.8.w.d.f.f.DXDXSXSXSXKXSXKXKXSXSXSXBXCXCXCXmXXXCXCXf.CXf.mXmXXXmXXXnXXXnXnXf.XXmXXXnXnXnXXXmXXXf.mXXXXXXXmXXXnXXXnXnXnXnXf.f.nXnXnXmXnXCXCXCXNXCXCXCXNXBXBXCXBXCXBXBXBXCXBXBXBXBXBXDXBXDXDXDXDXDXDXAXDXDXSXDXSXDXAXAXAXAXDXDXSXAXSXSXSXSXSXSXSXSXSXSXSXSXSXKXHXSXSXSXSXSXSXSXHXSXSXSXHXAXIXSXIXSXSXHXKXHXKXKXHXHXJXGXHXHXHXHXHXHXHXJXHXJXHXHXFXJXFXHXHXZXFXHXFXFXFXFXFXFXFXHXVXVXHXVXFXZXFXFXFXFXFXVXGXVXAXZXAXAXVXVXVXVXZXVXVXVXVXVXNXVXdXdXNXVXdXVXAXNXMXVXdXNXdXdXMXVXMXVXNXNXVXNXBXVXNXNX&X&XXX*XXXXXp.s.i.y.y.y.7.D e.6.e.' e.e.e.e.e.e.( e.e.e.e.e.7.7.8.y.7.y.y.d.y.y.d.d.d.d.d.d.d.p.a.a.a.a.a.a.a.f.f.f.f.f.XXnXa.nXnXnXnX*XmXnX&XnX*X*XmXmXXX%XmXmXXXXXXXd.*X*Xd.f.d.f.d.d.d.*Xd.p.d.d.d.d.u.u.d.y.d.d.y.y.y.8.8.8.8.9.9.9.8.7.' ' D D D e.e.e.6.6.6.7.7.7.8.y.8.8.y.y.y.s.a.nXnXnXnXmXnXXXXXoXw.w.6.( P A A S S S S A A A B B A A Z s s k t t d y q 9 9 y : y : : y 9 9 9 9 y 9 9 0 8 , 0 w 0 w 0 8 , 8 9 : , 8 , , : , , , , : , , , , 0 , , 0 8 0 9 8 8 9 8 9 9 ",
"` ` ` ` ` ....] ..] ..) ) / T T R Y Y L R L R L L ! U ! ! U ! Q ! ( ! ! ` Q ` Q ~ } } } { { [ [ ~ [ [ [ [ [ ~ [ ~ } [ Q [ ~ Q ~ ] -.! Q ` ~ @.~ } } [ [ E T L I J J J l J m H J G J G G J G Y Y R I / ) [ ......[ ) [ E ` [ [ [ ....) ) R Y G G J L U U U U R ` ` @...+.0.S.oXBXHXKXKXSXSXSXKXSXHXSXSXSXKXSXKXSXKXKXDXnXd.8.8.8.i.d.f.f.DXDXDXSXSXKXKXKXSXKXSXSXVXBXCXCXCXXXCXf.CXCXf.f.XXmXf.mXmXnXmXXXXXmXnXf.mXXXCXXXmXXXmXXXmXXXXXnXnXnXnXnXnXf.f.nXnXnXnXf.nXmXmXCXCXCXCXBXNXBXBXVXBXVXCXBXBXMXBXBXBXMXMXBXBXBXDXDXBXDXDXSXAXDXDXSXAXSXDXAXAXAXAXAXSXAXSXAXSXSXSXKXSXSXSXSXSXSXSXSXSXSXSXSXSXSXSXSXAXAXSXAXAXFXSXSXSXGXIXSXHXKXKXHXHXHXHXHXKXGXFXHXHXHXHXHXFXHXHXJXJXZXHXHXFXHXFXHXFXFXFXFXFXFXHXFXFXFXFXHXFXFXFXFXFXFXVXFXGXAXGXAXAXFXVXZXVXVXVXFXZXVXVXVXVXNXVXVXVXMXNXVXNXNXVXdXNXNXdXMXDXNXDXdXNXVXNXBXNXNXNXNX&XnX*XXXoXXXu.i.y.y.9.' e.D D e.D D e.D e.e.6.6.6.6.6.w.8.8.8.8.8.y.y.y.y.y.y.y.d.d.d.d.d.d.f.d.a.f.XXa.f.a.f.f.nXf.XXnXnXa.f.nXnXnXnXnXmXnX*XnXmXnXnXmXnXmXmXmXXXXXXXnX*X*Xf.f.f.f.d.f.d.*Xd.d.p.d.d.d.d.d.y.d.i.i.y.y.y.8.y.y.q.9.8.9.9.9.' ' D D D D e.( e.e.w.w.6.6.8.8.8.8.8.8.d.y.w.f.nXnXmXmXmX%XXX&XXXoXr.6.6.( C S P S P P A A A B N A A Z s s s t t k q q 9 9 7 : y y , 7 9 y q y r 9 1 9 1 0 0 q 0 0 0 , 8 0 , 9 : 9 , , : , , , , y , , , , 8 0 8 0 8 9 9 9 9 9 6 9 9 ",
"~ ` ` @.] ` ...._ ] ) ` ) / I R Y Y Y Y L L R Q ! R Q R Q Q U Q ( ! Q ` ` [ [ @.} { ~ ~ } ~ ~ [ [ E [ ~ E Q ) ~ ` } ~ [ [ ` ` ` Q ` ] ` @.@.` @.} } [ ~ T T W R W J J J J J J J Y J G I G I I U / / / ) [ ..} [ / ) ` ` ` [ / [ / T T I Y Y J G G K G K K K R Q ` +.+...q.oX%XBXKXKXKXKXSXHXSXKXSXSXSXHXSXSXKXKXKXKXDXnXd.8.8.8.w.w.f.CXf.DXDXSXSXKXSXKXKXKXSXSXSXBXCXCXCXCXCXXXCXf.mXmXf.mXCXf.mXmXmXmXmXf.CXCXCXnXnXCXf.CXf.mXXXnXnXnXnXnXnXnXnXnXnXf.f.nXnXMXmXnXmXCXCXCXNXCXCXCXCXCXBXCXBXCXBXBXNXCXBXMXBXBXBXBXMXDXBXBXDXBXDXDXAXDXDXAXAXDXDXDXAXDXDXAXDXAXDXSXSXSXSXSXSXSXSXSXSXSXSXSXSXSXAXSXSXAXAXAXBXSXAXAXFXSXSXSXHXSXHXHXHXHXHXHXHXHXHXHXHXFXGXHXHXHXJXHXHXHXHXJXFXJXFXFXHXFXFXFXFXFXFXHXFXFXFXFXFXVXFXFXFXVXFXVXFXFXFXFXVXGXGXVXFXAXFXGXVXAXVXVXVXVXVXVXVXVXdXAXVXdXdXAXVXMXdXVXVXNXdXVXdXVXVXVXNXNXNXNXNXmX&X*XXXoXw.s.w.q.y.7.y.7.e.D D D 6.e.6.6.e.e.6.9.8.8.w.w.8.y.8.8.i.i.y.d.y.d.d.d.d.d.d.d.d.f.d.f.f.a.XXf.f.f.f.f.f.XXf.f.f.nXnXnXXXnX*XnX*XmXnXnXnXnX&X*XmX%XXXXXmXXXXXXXf.d.a.f.f.d.f.d.d.d.d.d.u.d.u.d.y.d.d.y.i.d.d.y.y.y.y.7.9.8.9.8.9.9.9.' D D S D e.e.6.6.6.6.9.w.7.8.8.y.y.d.8.d.d.f.nXmXmXXXXXmX%XmXXXw.w.6./ ( S A S P P S A A A A A A A Z s f d f s t y 9 9 9 9 y 7 : : y : 9 q r 9 9 8 0 9 , 0 0 w w w 0 8 , , , 9 , , , y : , , , : 8 8 , , 0 , 0 8 0 8 8 9 8 , 9 8 8 ",
"` ` } ] _ ..] _ ) / ) / / / R Y Y R Y K R R L ~ Q R ! ! R ! Q Q Q Q Q Q ` ~ @.~ } } } @.{ ` Q ` ) [ ~ [ [ [ ~ [ [ } ~ ` [ ` ~ ` ~ ` ` ` ` -.Q @.{ } [ Q T ! Q ! L J J J J J J J Y J G G G J J I I R / / } ....[ P I U I Y P I P G J P G G G G G G G G L G U Y / ` +.O.@.q.oX%XVXKXKXKXHXSXSXSXSXKXSXSXKXSXKXKXKXKXSXDXf.i.8.8.8.s.s.a.f.CXCXBXSXKXKXSXKXKXSXSXSXVXBXBXNXCXmXXXCXf.CXf.CXf.f.CXmXmXnXCXnXnXmXmXnXCXmXmXCXCXmXXXmXnXnXnXnXnXnXnXf.nXnXf.nXf.nXnXnXnXmXmXMXCXCXCXCXNXBXCXNXMXBXCXBXMXNXMXBXMXBXMXBXMXBXBXBXMXDXDXDXDXDXSXDXDXSXDXDXAXDXAXAXDXAXAXAXSXSXSXSXSXSXSXSXSXSXKXSXSXSXAXSXSXSXAXAXAXAXAXAXAXAXAXDXGXSXSXIXHXHXHXHXHXHXHXZXHXGXHXSXGXKXHXHXFXHXHXJXJXFXHXFXJXZXHXHXFXFXFXFXHXFXFXFXFXFXFXFXFXFXFXFXFXFXFXZXGXAXGXAXAXGXAXAXAXZXVXAXZXVXVXVXVXVXVXVXAXdXMXVXVXNXVXVXNXNXVXNXVXMXdXVXNXNXVXMX&XNXmX&X*X*XoXp.u.y.u.y.9.9.] 7.D D D e.6.D ' ' e.e.7.7.8.8.w.8.8.i.y.d.i.i.i.d.y.d.d.d.d.f.f.d.d.f.d.f.f.d.f.f.*Xf.f.*XXXnXf.f.f.nXnXf.*Xf.nXnXnXnX&XnXnX&XXXmX&XmXXXmXmXXXXXXX*Xf.*Xd.d.f.d.f.d.d.d.P.d.d.y.d.y.d.i.i.i.d.y.y.y.y.-.e.y.y.y.-.9.9.e.e.S D S D e.e.e.e.6.8.7.w.7.y.y.8.d.8.d.d.d.f.nXnXMXnXCXf.mXCXXXt.w.w._ ( S P A S P S A A A A A A U Z s b s p t t 9 y , : y 7 y : 7 , y 9 y y 8 9 9 , , , 0 0 0 0 8 < 8 8 9 , , 9 : , , 8 9 : , , , 9 , > 9 8 0 < 8 9 9 9 8 : 9 8 : "
};
