/* XPM */
static char *dembele_north[] = {
/* columns rows colors chars-per-pixel */
"735 516 256 2 ",
"   c #0B0B0C",
".  c #060608",
"X  c #160908",
"o  c #18140B",
"O  c #050B13",
"+  c #0B0C13",
"@  c #080A18",
"#  c #150C14",
"$  c #0C1214",
"%  c #0D131B",
"&  c #091519",
"*  c #131314",
"=  c #13141B",
"-  c #1B1B1C",
";  c #191718",
":  c #0C120B",
">  c #270706",
",  c #380706",
"<  c #27150B",
"1  c #261918",
"2  c #361917",
"3  c #330F11",
"4  c #1B2318",
"5  c #28241B",
"6  c #37261A",
"7  c #322D0E",
"8  c #0B1626",
"9  c #151A23",
"0  c #1B1C23",
"q  c #161927",
"w  c #081638",
"e  c #0C112F",
"r  c #251C25",
"t  c #34172A",
"y  c #1D232B",
"u  c #1B2226",
"i  c #1A2535",
"p  c #162F36",
"a  c #272628",
"s  c #362927",
"d  c #38342A",
"f  c #272A35",
"g  c #362B35",
"h  c #2B3339",
"j  c #373637",
"k  c #2C322A",
"l  c #480505",
"z  c #580507",
"x  c #471718",
"c  c #581718",
"v  c #4F0F10",
"b  c #680508",
"n  c #77050A",
"m  c #680A14",
"M  c #790914",
"N  c #681618",
"B  c #781518",
"V  c #711509",
"C  c #462819",
"Z  c #532C15",
"A  c #6D2A17",
"S  c #501829",
"D  c #711828",
"F  c #462927",
"G  c #572827",
"H  c #473529",
"J  c #573729",
"K  c #473936",
"L  c #563A36",
"P  c #502936",
"I  c #663829",
"U  c #673837",
"Y  c #712B2F",
"T  c #394334",
"R  c #494439",
"E  c #584539",
"W  c #514B30",
"Q  c #674739",
"!  c #764938",
"~  c #704E32",
"^  c #6E7535",
"/  c #605A14",
"(  c #071A47",
")  c #0B1C4D",
"_  c #0A2658",
"`  c #152A58",
"'  c #14294E",
"]  c #2A3546",
"[  c #373A45",
"{  c #2A3051",
"}  c #183567",
"|  c #143167",
" . c #27396F",
".. c #2B1D46",
"X. c #4E3747",
"o. c #6E334B",
"O. c #5E2C55",
"+. c #36464D",
"@. c #304771",
"#. c #1F4563",
"$. c #484647",
"%. c #574946",
"&. c #585549",
"*. c #474A54",
"=. c #585756",
"-. c #505052",
";. c #674B45",
":. c #774A45",
">. c #695548",
",. c #775749",
"<. c #685955",
"1. c #775B54",
"2. c #6F4954",
"3. c #5B6551",
"4. c #686559",
"5. c #786559",
"6. c #716F4E",
"7. c #4F5569",
"8. c #6E5867",
"9. c #686767",
"0. c #786965",
"q. c #747371",
"w. c #55656F",
"e. c #86050B",
"r. c #94040C",
"t. c #880815",
"y. c #970917",
"u. c #881519",
"i. c #98141B",
"p. c #8C1709",
"a. c #A40C1A",
"s. c #A5141D",
"d. c #B2130E",
"f. c #8F2815",
"g. c #990C24",
"h. c #891925",
"j. c #991726",
"k. c #91152D",
"l. c #A60D27",
"z. c #A81727",
"x. c #B31A29",
"c. c #AA1733",
"v. c #B41934",
"b. c #B10E2B",
"n. c #882628",
"m. c #982529",
"M. c #992835",
"N. c #8D3335",
"B. c #A9242A",
"V. c #B5242C",
"C. c #A82735",
"Z. c #B82835",
"A. c #B03436",
"S. c #AC2918",
"D. c #C42A39",
"F. c #C5333C",
"G. c #CC3030",
"H. c #CB2325",
"J. c #8C4E37",
"K. c #B04B34",
"L. c #8B6D37",
"P. c #A25D1E",
"I. c #DF5626",
"U. c #8F3747",
"Y. c #B03546",
"T. c #A01D44",
"R. c #C93744",
"E. c #CF3546",
"W. c #D42E44",
"Q. c #865948",
"!. c #865A55",
"~. c #914D4E",
"^. c #AD4F50",
"/. c #876758",
"(. c #966958",
"). c #906E4F",
"_. c #AB7056",
"`. c #876B64",
"'. c #887568",
"]. c #977668",
"[. c #917571",
"{. c #A77968",
"}. c #AF736E",
"|. c #A25866",
" X c #CE4D50",
".X c #CF6C51",
"XX c #CC7270",
"oX c #E7635E",
"OX c #75883D",
"+X c #6F853B",
"@X c #7B8704",
"#X c #768B43",
"$X c #7A8D44",
"%X c #798A49",
"&X c #7C9245",
"*X c #7D934B",
"=X c #789448",
"-X c #7D9353",
";X c #798A54",
":X c #7B866B",
">X c #9E9E21",
",X c #F0F712",
"<X c #EFF52D",
"1X c #D4D71E",
"2X c #858A49",
"3X c #81954C",
"4X c #84984C",
"5X c #859A52",
"6X c #869955",
"7X c #8E8B55",
"8X c #AE8857",
"9X c #8DA259",
"0X c #918B71",
"qX c #A88678",
"wX c #B78877",
"eX c #B18C6D",
"rX c #97A969",
"tX c #ADAE67",
"yX c #CA8E74",
"uX c #E29B67",
"iX c #EAE55E",
"pX c #C8B22E",
"aX c #253884",
"sX c #1F3686",
"dX c #325389",
"fX c #6F768B",
"gX c #556D96",
"hX c #9D7786",
"jX c #D57984",
"kX c #76859B",
"lX c #7097C7",
"zX c #938D8C",
"xX c #B89787",
"cX c #AD928C",
"vX c #B2A894",
"bX c #B2AEAB",
"nX c #979BA8",
"mX c #CD938C",
"MX c #ED928F",
"NX c #CDA993",
"BX c #F0AD94",
"VX c #CFB3AA",
"CX c #F2B2AF",
"ZX c #E29AA5",
"AX c #D2C8B5",
"SX c #EFCAB6",
"DX c #ECDE96",
"FX c #A9B4CB",
"GX c #E5BAC5",
"HX c #BAC6D8",
"JX c #D2CFCC",
"KX c #F3D3CC",
"LX c #F6E8D6",
"PX c #F5F3F2",
"IX c #D8DEED",
"UX c #BAC5A3",
/* pixels */
"(.~.A c z z z V N B N.^.U.N.N.A B N z v c Z C 2 o X X X > 2 S S P x 2 3 2 C C F G G G J G G L H t < 1 = % & O O & & 8 9 = % = & 8 8 & 8 8 9 9 8 u u 8 y y y y y 1 a 1 s H E E E L Q Q J J / Q ~ ~ ~ ~ Z C H H E E R R %.%.%.>.4.1.E 5.`.1.G G U U.I c l , , x S U o.L L F F 6 2 ; o o   X : : : < 7 H R >.4.'.0.5.6.0.0XvXcX4.4 X o < 7 d R W <.5.4.H . . . X o 1 F %.%.;.;.2.;.Q L ;.,./.5.5.5.[.5.0.,.s X . . .     @ . . . . . . . . . . O . . . . O O . @ +   $ . $ & . 7.kXzX:Xu . . & $   + @ @ O @ @ @   * +   ; 5 K E &.>.5.5.Q J J Q :.,./.qX0X`.`.`.'.nXhXr = a 0 y 9 - = 0 - 2 a t t X < 2 F X.P L L L 2.>.:.U F l , , 3 x t t 3 # ; ; r r a ; . X < F %.%.%.R L R <.4.E 5 o ; d =.q.9.+.a 5 u a a a h k s g f 1 # # < s H d H d s s H C L ;.1 . . . : ; - 0 a u u u 4 u 4 & : O . O O O # # 3 > x o.U Y U o.U 2 3 2 E <.0.4.5.8.1.!.~.N.k.g.t.D U.|.5.%.T j f [ [ [ [ @.X.[ ] ] ..] S S x v S m m m m m z v m v S 3 S t 3 3 1 # = = a j $.-.=.=.=.=.&.>.[.zXzX8.X.g X.X.X.O.P P P P S S v v m m D D Y Y U U I J J L J J J J J Q ,./././.'.cXcXqX5.>.s . o 4 & 9 + o > > 3 x F F 6 1 ; ; ; 4 * ; : : : : 4 a k k a 4 4 4 a T =.9.-.5 k d 6 K K L `./.}.!.Y v G U Q W Q 3.>.W < o :XPXIXvXkXnX;X4 . . X X o < Z ~ 6.7X(.~ 3 Z I ~ ~ ~ ~ ~ Q J W Q Q J J H J E ,.).].qX].].].,.:.,.,.!.5.1.1.1.1.5.5.5.5.Q >.'.qXqX'./.qXzXqX0X&.o : o X X > < t F H J H L L J L ;.1.5.qXVXNX0XQ C Z 7 H H H H W E >.5.'.0X9.$.5 # * - 0 y 0 0 9 9 0 9 u u y u u y y u y y y u u u u u p f f p p h h h T h T h k 1 1 X < H 2.`.`.1.,.",
"(.! A Z c z z v N B A J.N.n.A N m V V v v x 2 < X X X X > t P G S x 2 2 2 2 C C C C G G C x U L g 1 1 0 = % O O @ @ 8 = 8 % & & 8 & & 8 8 9 9 u u 8 u i y i q a a r a a d K E L L J W J I I ~ I I I Z C C W J R R K E %.&.&.4.5.5.;.1./.:.J G :.o.G x l l l v S G J G F t 3 1 < < o o . . : X : X ; k d %.5.'.0.0.0.6.0XcXzXW 7 X o o 7 6 W W >.0.4.%.o . . . X # 6 K ;.%.o.%.o.;.L L E >.>.5./.'.'.5.>.6   X . . @ .   @ . @ . . . . . . . . . . O O . O @ @ + $ $ O : O . -.nXkXT & .   O + + + + @ O O @ @   $ * # o ; s R E >.>.;.E J J U Q ;.Q ,.1.>.1.0.[.bXzXX.0 f 0 y u = - - a r t 2 1 < # 3 s P K L L K ;.1.;.G 3 , , , x x S t 1 1 = q r 0 - # . . X s K K K R K H %.&.d ; o 1 j &.9.=.K a a a 5 a a j s f j a - # # o 5 d d s s H 6 H F %.;.6 X X X * * - a a y u u y y y u = O O . O O # # # > x G ~.U :.~.U x , 3 E 4.5.5.0.<.2.:.Y M t.t.t.k.U.|.1.d 1 = u ] +.+.[ X.+.X.X.[ [ g t S S S v v z z z m v m S v v v 3 3 3 # < ; ; ; u f +.$.$.-.%.&.%.<.q.hXq.-.g g g g g S P X.P S S v S v D S m D D Y Y I G J J J H H J C Z Q ,.5.'./.'.qXqXzX[.'.K .   & & 4 + X X , x x x 2 1 1 ; * * - * : : : . : : 4 4 - 9 4 4 9 y T =.q.3.h 5 d K F H >.[.hX}.(.I v A I Q W Q W E H < o :XIXUXkX:X9.3.+.5   X o < 7 E 6.).7X).^ Z 7 7 / ~ ^ ).~ ~ Q ~ ~ Q I J J H ~ 6.).].qX8X].`.!.1.,.>.1.1.2.5.5.6.5.5./.6.~ >.'.cXqX[.].qXvXcX4.d o . . X . X < s L %.;.:.1.,.;.,.1.'.[.KXLXLXSX0XJ C C H C C H W W E >.<.4.4.$.a ; = a y u y u 0 0 u 0 0 u 0 u y a y y a p y p y y y y h h h h +.h j +.T h j j d 5 < X 6 E 5.`.`./.1.",
"J.N.N z v v z z z c N Y Y c v l v z v v x 3 3 > X . X X > t G Y G S F x x 6 x x x , v x x 3 O.2.P 1 # 1 4 9 O O O & % = % % & & & 8 8 9 9 9 9 q 8 y q q 0 i i a a 5 a a s H P P J J I Z I W W ~ I Z Z Z J E E R R R $.&.&.>.4.5.5.<.>.1.U G U o.! G v l l l v x x S x 1 3 < > o o X X . . . : : X o o 6 R 4.q.'.q.`.5.'.0Xq.W 5 o o 4 7 d H W E 4.0.&.5 X . . . X 1 K X.%.;.;.;.>.E L L Q >.5.`.'.'.5.W < X . . . + @   . . .   . . . . . . . . . . O O   O O   O O   O O & w.nXq.u . : $ .   : @ @ @ O O O + +   * * * o 1 s d E Q L J H J L Q Q U Q J H 2.[.zXAXnX[ a f u a y r a a 1 r 2 t 2 t 1 3 t P L X.L L ;.;.L x > , , , x S 2 3 1 1 r 1 r a 1 # . X X r H K H H H d H d 7 X X a d $.-.$.s u u 5 a d a f k k s a *   . o 1 6 6 6 s F H F F E R 3 . . X # ; - u u a u a p k k h y - + O . O   # # > x Y ~.o.:.!.U 2 > > H E &.%.2.%.P S z m M t.h.h.U.|.2.1 ; r a +.*.X.] g X.X.*.X.O.*.O.O.v x v v v m m z z v v S v t 3 # 3 # ; ; = - - u j j j j j X.d K %.-.X.g r f r r t t P F P S S S S S S m m S G Y Y U J J L H C H H C H W ,.5./././.0XzXcXcXzX&.o : * & ; O X X , 3 2 2 2 < o o * : * : : : : . . . : : . : 4 u a k +.4.zXq.R 5 s K K X.`.[.[.}.}.! v c ! ! J E W W F o o :XUXUXnX:X;XzXzX9.a o o < C ,.).).).).).~ Z 7 Z ~ 6.eX8X/.~ ~ ,.,.! ~ Q Q ~ Q.).(.[.xX]./.!./.:.J L L L ;.1.5.5.'.6.6.>.Q 1.q.`.`.5.qXvXzX3.7 : .   X X X < F ;.,.1.].].'.`./.'.qXvXKXLXLXLXvX~ Z J H H C 7 H W W W &.&.&.$.d - ; a 0 u u a 0 u u 0 u y u y y y a y a f i f f p h f h h [ h h h h h h k j j g s < < K 2.5.`./.1.1.",
"N.D N c V V z z z z c N c l l l l l v x x 2 < o X X . X 3 x S o.G G x x x , , , , l , l l v o.`.L 1 # ; u & O : @ @ @ 8 8 = = 8 9 9 & 8 8 8 9 9 q 8 q u i 0 y i u a a 5 t s H H F G J J J Z I W ~ J / E E %.E R K R %.%.%.%.&.>.>.;.>.%.H F U ;.U G x x 2 3 , 3 3 2 t 3 > X X X X o . . . . . X X X o < s E <.5.5.0.4.4.4.3.H 5 7 5 5 6 d H d R >.4.<.5 . X . . . X 6 H L %.;.;.;.U L L E >.,.5.'.'.1.d X X . X . . . @ . @ . O . . . . O . . . . O . O O @   O .     O : O $.:X*.& . :   O + O O   . @ O O @ + O   * * o o o 5 s H F 6 C G L Q U E L < 6 '.cXbXvX9.a ; k f h f h f f a r 1 s t F F t 2 x L X.L L L G C 3 > , , 3 2 S 3 > > 1 # # g g r ;   X X r K K K s d d d 5 o X o 5 s K $.K g s g g d d j j s k k r   . . X < < 1 6 6 F F F F H F < X . X : * - u u u u u a f h h h a = O . O # > 3 , x U !.!.~.!.U 3 > > < a s d s s 1 , l z t.g.g.k.U.~.Q 6 s j *.8.8.[ P X.X.-.8.8.fXhXhX!.o.Y v l v z z v v v v 3 3 3 3 3 1 # ; ; = u u u y k h a a k a 5 a a 0 0 q r @ q r a g g g F P P S S S S c D c G F L L L H H H H F C C J Q ,.5.6./.'.qXzXcXvX0.4 . & & $   # X > 3 3 3 < o X o : : :   : : . . . . : : O : 4 k a k T w.:Xq.&.a 1 6 K 1.[.`.[.hXmX}.c G (.].Q E H W H < 4 9.nXUXFXkXnXAXHXq.a o : o H 6.6.6.Q.^ ).L./ Z I L.).eX7X/.,.,.Q.,.,.1.,.,.,././.`.8XxXwX/.,.1.L C C s C K ;.>.6.5.5.>.>.E W ^ 1.1.,.'.0X'.d : X : o : o < 2 H 2.'.[.[.0X].[.].qXcXNXAXSXSXKXNX6.J W / E W C d H H R E &.E K a # * 0 0 0 y 0 u 0 y y u a y a a f a f p f h f f h h h h [ h h f f f f h T T j d a 2 s ;.1.1.1.1.,.,.",
"N.D B m V z z N v v v v , , x x , x 3 x 3 < o X . X X X > x S o.P S S c x x x v l v l l v Y ~.!.P < X ; = 9 & & O & @ % 9 & 9 & = 8 9 = 9 9 9 9 9 8 8 9 q i y y u a a a a 2 2 F C F F J J Z Q ~ ~ ~ Q W E E R d d K R R R d H K j R E H 6 2 F G G P x x 3 3 3 3 3 3 1 > > o X o : X . . . . . . . X X # 1 F K E %.&.E E R H 5 7 5 7 7 k 6 d d W &.5.&.5 . . . . . X X < s L o.;.L L L L Q >.<.>.5.5.W < . X . . . . @ . O . . . O . . . O . . . . . . . . . O O O . O . . . u +.p : . : O . O O . O . O . @ O O .   + # * # o > < 6 2 2 2 C H Q ;.F 2 X K zXcX0.=.j + = a h f h j h j g g s t F P F t t 2 S P L F 6 3 > > > , , S G P S 2 2 < # o a d a 1 # . X 1 s K K s s d 6 1 o o < 5 5 d K R X.R X.R $.E R d k k a * X .   X X > X < 2 C F G F F 6 o X X .   * = 0 = u u u y y h k h y = + O . # > , 3 S U (.|.(.,.Q x > X X o o X > X > , l m t.g.h.h.n.o.J H %.2.-.8.9.X.X.X.8.[.hXhXzXcXcXmXhX[.o.S l l v l l v x 3 3 3 # r # # * * & = u u y a a 0 r 0 4 u - ; = u y y @ q 9 f a g j j K K P P S S S x S x F F P L K H F C C 6 6 C E ,.,.>.5./.'.zXcXcXzXs . : & $ + * X > < > 3 X o : : : & : : : : : : : 4 4 4 4 5 u k k k h $.4.9.&.s 1 6 s 1.cX[.[.xXmX|.N Y xXxX6.Q >.1.;.2 o =.nXzXnXnXnXnX:Xh . X . > C ^ ,.Q.L.).).).L.J.^ ).8XeX{.).,.~ ,.! ,.,.,.,.! ,./.(.{.xXwX].1.;.L C s 6 6 s L E 6.<.>.W H H H H E %.;.1.0.%.1 . : : : ; 1 2 s L 0.[.].].[.'.].[.qXcXNXAXVXSXSXVX'.I ~ ~ ~ W H C 6 W W W R d k 1 * * a 0 u u u a 0 a y y y y y p a f f p f k f h h h h +.h h y y u y u h k R R j d H E 4.5.1.1.1.,.,.",
"m.B B B z z z z m c l l , 2 G F 3 < 3 3 < > X X   . X X # 3 S S Y Y D G c c x v l v v v S U.|.~.s # o ; 4 9 & & @ @ 8 % = 8 9 8 8 = 8 = = 8 9 8 8 9 8 9 8 q 8 u u p y a r s t x 3 x C G J J Q ,.6.3.Q E E W d k d j R R d s 5 5 6 6 s s 2 2 F F F F F F x 3 > X # 3 # > # o #   o . :   . . . . . X 1 1 1 5 5 s 6 s s 6 6 5 o 5 7 k 5 5 5 7 d R &.4.$.5 . . . . . . . X 1 d E X.o.L L L E >.>.;.&.E d X . X     O @   @ . O . . . . . O . . O . O . O O O O O . . .   . O .   = & : O O   O : . O . O . O . @   +       # o * o X < 2 1 3 < 2 F F 2 6 %.<.0.%.s u - * u y u u i f j j X.X.P g g t S 3 3 3 3 x F 3 3 > > > > x P o.2.1.o.2.2.$.X.g K g s 1 # X X # 1 K R d d s 5 < o o < 1 a K R %.%.>.<.>.<.&.R d 6 5 1 o . . : . X X X > , 3 x F F 6 < > X X X X + $ = 9 4 9 u a y f p y 9 = + @ # X > 3 v A U (.(.(.:.J C 2 X o o X X X X > , v m t.t.t.D D G G X.8.<.-.8.-.X.%.1.[.hXhXcXcXcXmXbXZXZXmX~.c , , l , 3 3 3 t t t # = # + + & & 9 u u y a a r 0 9 4 4 y f i y 9 e = u f g j T [ [ [ X.P P P F S x 3 3 2 s K H d s 6 6 6 2 C H ;.>.>.>.<.0.0XcXbXzXd . : $   * : # > < < < < o o 4 : : : * o : : : u k a k k k a h a 5 a k k 5 o X o 1 H 0.cXcX[.}.~.Y v D wXNX].6.0X0X`.F . T zX:XkX:Xq.+.u . . . X X H ,.).Q.).).L.L._.).).).eX8X(.^ ! ! ~ ~ ~ ! ,.:.,.Q././.(.].cXcX/.U H F 2 < < < 6 K E &.W 6 6 6 6 F H E L ;.>.K # . : - : o 1 1 6 E 5.'.[.'.].].[.qXqX0XqXmXVXAXSXVX].W J W W J C 7 C 6 W E W d a ; ; - u 9 0 u y y y u y u y a a a f f k f h h h f h h ] h h i u 9 = 9 0 a k j K K d L %.5.5.1.,.,.,.>.",
"n.u.B M M b b z z c l x F L >.E 6 < > X X X   . X     X X 3 S G G Y Y G G Z c v c Y Y Y U.~.!.o.3 # - * : u & & % & & 8 8 9 9 = = = 9 9 8 = 9 9 9 & 8 & 8 8 i 8 u u y 0 r s s 2 3 < 2 H E Q >.5.5.>.E E W T s 5 d j +.R d s 5 5 5 5 5 6 a 2 s s s 2 s 6 2 1 1 X # 1 1 # # ; *     .     :       o o 1 s s a 1 1 < 1 5 < 1 < o < 4 7 5 4 7 5 6 d W &.T o . . . . . . . . # s K K %.%.L L ;.1.1.>.&.E s :   # # # + # @ O O . . O . O . . . . O . . . . . . . @ . . . O . : .   + : $ : :   :   . . . . . . O O + $ +     * * ; # X < 2 1 6 2 < 2 3 2 2.'.<.H X   4 ; 4 9 & & & 9 0 a a j j K P P F t 3 3 3 , 3 3 > > 3 3 x x G :.!.!.[.[.'.[.hX[.'.<.K g a - #   X 1 s H d s s 5 X o o 1 6 s K >.%.<.5.5.5.0.0.<.E K k 5 : . : o > X > > > > , , x C 2 3 X X . X   + + & - 9 u u u u u 4 = O $ +   # # 3 x v G J.(.(.Q.Q H J F > o o o X > # 3 x m m t.t.M u.Y Y F H %.X.X.X.g F 8.`.[.[.].}.[.hXcXnXVXVXCXNX|.G , , , 3 3 t t 1 = = = + + O O O 8 8 9 u y 0 = = $ $ = y p u 9 & % u i h [ j [ [ [ [ [ K g P P F 1 # > < 6 d H P d 6 6 2 < 7 F Q >.;.%.;.4.[.cXvXzXd   - ; & * * ; 1 < < 1 ; o ; 4 & : 4 4 4 4 u 4 k k h h k a k k k j R T j 5 . . X > E zXcXhX}.!.c l l c _.mX].!.0X]./.H . s :XkX:X-.h O . . $   . < H ,./.).).).L.Q.).).L._.8XeX).L.! ~ Q Q Q ,.,.,.! ,.,.,././.{.cX/.C 2 6 < X X o < 5 W K C d H H H E L E R %.X.j 1 ; - * * o 1 < 1 H 5.`.'.'.[.'.'.].0X].].eXyXNXAXSXqXJ C W W W 6 C H W W &.&.%.k 4 - - = - 9 y y u u a u a y y f a p f f h f h f f h h h f f u = & & 8 - ; - 1 k K $.&.%.;.>.1.>.1.>.>.",
"h.u.B M M m z m v v x G ;.`.[.<.6 1 #   X       :   X X X 1 S G U Y U U ! o.o.Y U.~.|.|.~.U.o.P 3 X 1 4 & u = & % % % = 8 9 8 = 9 8 & 8 % 8 % 8 & 8 9 & & 9 8 9 9 9 u a r s s t 3 3 6 L %.>.4.6.3.&.R R d 5 ; * a d T j s k 5 5 5 - 1 a 5 6 a 2 2 s t s 1 1 1 X # # 1 ; ; ; * :   .           # # 1 1 a s s 2 1 1 1 6 1 5 o < 1 1 5 5 7 5 5 5 7 k d 5 X . . . . . . X . # 1 K L L L L %.<.0.5.>.4.&.5 X . $ = 0 @ % % @ O O O . . . . . . . . . O . . @ . @ .     .   .   . @ # $ = $     O       O . . . .   + + + + * # ; ; o 1 s d F s 6 < > < s 9.[.%.1 # a j u = O : $ @ O + + * - a s K K P F S t 3 3 > , , > 3 6 G U :.`.(.`.!.[.[.[.zXcXvXq.K 5 a 1 # o # X ; a 1 5 a < o X < 1 s H %.<.1.`.`.[.0XcXzX[.4.%.W s 4 X * 5 1 < > > , , , , 2 c C 2 > X . X $     : - u u = u u 9 & O . O $ # > 3 3 x c G J.Q.).,.J H ;.L 1 X o X X # 3 > , v m M t.t.D U.~.C s s 1 g t r X.0.`.!.!.!.].}.[.cXZXVXVXVXSXmX].x 3 3 # 3 # ; 1 r # = @ @ O O O & & 8 q q = + O O   & 8 u & & 8 8 q h ] [ h h h [ j j j [ X.j s 1 <   # 1 s K K H s s 6 5 2 F E >.;.&.>.1.[.zXzXzXR : 4 u * - * r 1 1 ; 5 4 4 4 4 4 4 & 4 4 u k T k h T T 4 5 k T $.9.zXbXzXq.=.d < X 2.bXcXcXcXQ.c N A c ~.mX'.Q Q J E H > 5 q.zXw.+.& . . $ O X . X H 5.).Q.).).L.L.).)._._.8X8X).! ~ ~ I I ~ ! ,.,.,.:.,.,.,.,.[.qX5.< > 6 5 X o o o < 5 6 < < 7 F H K W L L K K a - * * $ * # ; 1 6 L ,.'.'./.'.`./././././.5.,.'.eXNXxXW Z H Z Z H W E W >.W <.&.d 5 4 4 = - u u u y u 0 y y y i a a f f k f f p f f f f f p y 9 % & & % = X .   1 R >.%.%.R >.>.1.,.6.Q ",
"M M M m m m m v v v S P 2.[.0.j # :               : o # > > 2 L U U o.!.cX}.(.~.|.|.|.}.~.Y G 3 > X # o * = & u = & 8 9 % 8 9 8 9 8 9 & 8 % 8 @ & = @ = = 8 9 = = 9 9 - r s F g 1 2 5 H &.&.&.&.E T d 5 o : : : 5 k j k 4 : ; - * o ; 4 1 5 a 5 a a a 1 a 5 * # * # = * ; = & ; O . . O +   + * - ; 1 s s s 1 1 < 1 2 1 < o 1 5 5 5 5 7 5 5 5 5 5 5 o : . . . . .     . : 5 j K K H K J L %.>.&.%.=.$.5 : * 9 y y q 8 & O . O O . O . O . . . . . . . . .           X .   X   X   $ * * :   O . . . . . .   O O O & * $ * * $ X # s K K K H 2 > < s X.R s - a a ; & $ : O O O . . . . . # 1 a F K F S 2 S , > > , 3 2 P :.`./.|.`.|.`.[.`.hXcXcXcXhX<.j # # - . X   X X # X X   X # X 2 F %.1.1.0.[.].qXcXxXVXvXhX0.%.K k ; o * 1 2 x 3 , , , v U !.Q 2 1 X . X # O   # = 0 u u u 9 O O O O @ = = t 3 3 v c A N.L.Q./.Q W W E F 5 o X # # 3 3 , v m M M t.Y.}.}.H > ; 1 r s t %./.5./././.(.(.0XhXxXxXNXCXCXVXNX2.> X 3 < 1 9 0 u = & O & @ @ @ & 8 8 @ @ O O O @ @ @ @ = 8 8 8 4 +.+.w.9.w.+.u p h p k j X.j t - # ; o ; r s K d H s 6 6 6 H H K E ;.%.<.'.'.5.4.R a 4 a u u u 4 5 7 4 4 4 4 4 4 4 4 4 4 4 4 4 4 T R -.-.+.R +.=.4.q.zXzXzXnXcX0X%.X <.vXvXcXcX].~.U.A c ~.eX{.Q 2 3 J H o 4 R :XT 9 O O O @ O . . > J !.).(.(.).P.~.L.)._.{.8X{.8X).~ ~ I I I Q Q Q :.Q ,.Q ,.1.].cX/.2 X < 7 1 o 5 1 < o < o X < 6 6 H K L K g g g r 9 = = - ; o 1 s L ,./.5.5.1.~ Q J ,.,.~ J I Q ].NXNX).Q W Z W Q E E E Q W d 7 k 5 0 - - - u u 0 0 y y 0 a y a y f p k f f f f h f f a y 0 9 = % & @ #   # 5 1 1 R <.&.E j E <.5.5.>.>.",
"b M M M m m z v v x t S K %.g o   + :       + + * + * # # > 3 F G L ;.!.cXcX].|.].}.|.~.o.G c , > ; o # : & & & 8 = 9 % 8 % 8 = 9 9 8 = & % % % $ & @ @ # = ; ; - - ; * ; r g s s 1 s K R T d d a 5 * o   :   o u a k a 4 : : ; ; ; - ; 0 5 1 a a 1 - a 1 1 * : # * = = = = ; & & $ O :   + * * 5 a r a a 1 1 1 1 1 2 1 o < < 5 5 5 < 5 7 5 7 6 6 5 o . . . . . . : O . X a P K F F s s s H R R &.3.&.k 9 f a f y y q % O . . . . . . . . O . . . O . .     # X X   X # X   X # # # # : .   . . . . . . . . O : $ O $ * * = *   # s g K K K K 1 > < s s 1 - u 5 & $ : O   . . . . . . . . # 1 s g P F S 3 3 3 , 3 3 L :.`.`.`.`.!.`.`.[.}.cXvXVXcXzX0.%.1 : 1 : # X X . X   X X X X o a K ;.0.0.`.`.].[.cXvXVXNXcX0X0.&.R 5 o o r K L G S v z c Y Q.L 3 X X .         @ = 9 u y 9 = $ O O @ @ # r 3 3 x Z v A ~ ~ L./.W 6 K L j k a a - 3 # 3 3 v M t.M M U.XXhXF 1 5 r t g g =.0.5./.Q./.(.).].[.qXcXvXVXVXVXvX<.< < 1 - - - 9 & - & & & 8 @ @ O O % @ + @ + + = = = 9 9 q q f +.9.kXzXnXFX:X+.p h f p h [ f = = = * = - 1 s s d s 6 6 2 6 s C K J Q >.;.R H j d 7 5 a a h a a a 4 4 k 5 5 u 4 4 p k k u : : 4 T w.4.9.q.9.4.3.9.9.4.4.3.$.4.0.[.4.H 1.cXcXcXxX}.}.|.Y v ~.}.].Q 7 , E L < . 5 p & & & O O O   . X < L !.(.Q.Q.Y ~ J.L.)._._.8X8XqX(.! I W I W Q Q ;.Q ~ ;.,.>.`.qXcXzXL X X 1 5 1 1 5 1 o o < < < < < 2 s d s s K [ j k u u y ; 1 1 F %.1.5.5.1.>.E W J ! /./.J J ! eXVXVXqX1.Q J J W W E Q &.R k 5 5 4 5 u - 9 0 0 u u u y a u y a p a f f f f f h f f a y y 0 9 % @ + @ @ @ j =.%.j %.=.%.R s W 4.5.6.>.>.",
"Y.|.|.U.Y c l v , 3 3 2 6 1 X . : .   + +     # $ $ : o X > 3 3 F H ;.1.[.cX].2.{.|.~.o.Y S , > < X o # : & & u = 8 % 8 8 9 9 % 8 8 & 8 % 8 # # O # # # # # 1 1 t r t # X 1 s s s r k d d a 4 o   : . .   . : $ & 4 u - & : & & 4 ; - - - - - - - - u 5 u - * * # % = = = - & = ; & O   + * = - r a 6 1 1 o 1 1 < 1 1 1 < o < < < 4 o 5 5 6 d d d s 4   . . . : . $ $ .   1 s g K g s 1 1 s H R $.$.$.j k h f f y i y 9 @ O . . . . . . . . . . . . . .   X X #   # > # X X X # X #   X O . . : . . . . . O O $ $ O + $ ; - ; * o 1 s K $.;.L d 1 o o ; - 4 - ; & : O   . . . . . . . . . . X 1 t P P F t , 3 3 , G :.`.`.`.`.!./.`.].}.cXVXVXVXVXbXzX8.a . ; : # # # #   X   . X X < F ;.1.`./.5./.`.].}.cXvXNXxXcX0X0.;.5 X o 1 H o.;.Y c v c G G F > X X . X   @ . O $ = u y 9 & O O O O @ # # t t v v z V J.~ ^ ^ L 7 6 H s d j g t # # > 3 v M t.t.t.N.}.qXF 1 g g g g K <.`.`././.Q./././.].qXqXxXvXNXxXcX/.1 X 1 ; - = 4 = & & % 8 & = % 8 q 9 q = = = 8 q q q q r f h [ 7.zXzXkXbXHXnXw.p u p y h ] a = + & * * o 1 1 1 1 2 1 1 < < 2 5 7 6 H E E 6 X X 5 k d k k h a a 4 k 5 4 4 k 4 u p k k k k 4 : : *.q.:Xq.:Xq.q.:Xq.9.4.<.R s d %.q.[.4.`.cXcXhXhX].}.}.A z J.}.].J < 2 Q >.5 . : . . O & + O @ @   X > F U I Y c V Z A A J.J._._.{.eX].,.Q Q Q L E U L Q Q ;.>.,.`.0XxXvX'.6 X 5 a 5 5 d K 5 X X < < o < < < 3 1 t X.-.=.+.h h h 0 # s L >.5.5./.5.,.>.Q Q ,.{.eX).).qXNXVXVXcX1.Q J W Q W J E E R d 5 ; 5 u u - = u 0 y a y y u a y k a y a k h h h f f q q q 0 9 % @ + @ O . O %.q.0.%.%.&.K 5 1 H &.>.<.>.<.",
"ZXZXCXZXjXo.x S S 3 > 3 1 X . : . :       + + + * * * ; # # X # t s F L `.[./.:.].(.! U c 3 , > X X X   : & & & % % = 8 8 9 8 8 9 8 8 % % * @ #   X X > 3 3 3 3 3 t 3 # > 1 t s s a a a 4 $ . . :   . :     + $     $ $ & : & 4 4 9 u - - = 0 - 0 ; - ; - ; * + + + % = = = = 9 - &   O O * 0 a - 5 1 - X # 1 < 1 1 1 < o < 1 5 7 < < < 1 5 k 6 d d a o . . . : O $ $ .     - 1 g s K s 1 5 j R T j T k f ] h h i f i q @ O O . . O O . . O . . . . . . X # # 3 3 3 3 > > # > # # X # #   :     . . . . . O   O $ $ $ ; 4 - 4 - 1 5 g K %.&.%.d a 1 < ; - a 4 & & :     . . O . . . . . . . . o 1 F X.F x 3 x l 3 P 2.`.`.!.`.`.!.`.[.hXcXNXVXVXVXVXbX[.d . : * ; # # # * ; o # o o o K >.1./.1.,.1.!.`.].].cXcXxXzX[.0X4.d : o X s U :.o.N z v l x > X X X . X # O .   + $ = 9 % $ O O O O e # # 3 t l v z A J.J.~ ~ d < 1 a 5 k j g t # X > x m m M M M U.}.].F s j F h j X.<.0.5././.1.).)./.`.qX}.xXmXNXvXNX'.< X ; $ 4 = 9 9 & % & & 8 = e 0 y q q q = q 0 r q a r f f g [ 7.:XkXkXzXbXzX-.p p 9 9 y f 0 9 & $ + $ # # # o X o < < X < < < < 2 6 6 2 < < < s k j d h k k a k 4 4 4 k 4 k 5 k k k k k 4 : o -.q.:Xq.0Xq.q.q.4.q.q.q.=.K K R 5.zXzX[.cXcXcX}.}.jX}.D l Q.wX].~ x x 1.5.s : : ; : O & + @ @ # # # > 3 x l l l z z z v A A A I Q.(.Q.Q ~ ;.Q J L J Q Q Q ;.,.1.5.].cXbXzX&.6 5 5 5 a R <.E X X X X < o X X < 1 a X.=.w.$.+.[ T r ; s %.<.5.5.'.`././.).)./.eXNXmXeXmXNXNXVXxX`.Q Q E J H H W W R d 5 4 - a u 9 = = 9 0 u u u u y y y y y a f h h f a q 9 = 9 9 = % + O O O @ . g =.9.-.%.$.s : o 5 d W &.W E ",
"VXGXGXCXVXcX~.8.`.X.3 X ; X . : : O :       # # * $ o * # # X X X < 1 s <.[.1.;.!.:.I c v < , X X X . . : . : & 8 % 8 = 8 8 8 9 8 8 & & @ # # X # > > 3 t t v S v S x 3 3 1 2 t 5 a 1 ; *   O $ $   +   @ . O . . .   O : & & u u - 9 - = - - u 9 - ; - - = * + + # % = 4 & & u = & O : O * u a - - 1 o o 1 1 1 1 1 1 < o < 1 5 5 1 1 < < 4 < 6 d j s 5 : . . :   + O   .   . X 1 1 g s 5 6 R &.$.k k p k h h p f f f i 9 @ @ O O O . O . . . . . X . X > # 3 t S S P S t 3 3 # > # # # #   . . . . . . O O O $ O $ & 4 u a a 4 1 a a H E &.K 5 1 < 5 4 4 4 4 : : O O   O . . O . . . O . . . . . t P H S 2 , 3 x U 8.`.`./.`.1./.`.`.{.cXxXvXZXVXVXbXzXR     : # # ; # - - 1 1 r 1 < H >.1.!.,.!.1.!.`.].qXqXcXcXqX[.0X0.j X . X < S o.~.Y m v x l > X . X . .     O O O $ & O & O O O @ @ = # # S S l c D J.A ~ ~ W 7 o o 1 1 k h f 1 # # 3 3 v M n n u.~.}./.K s g g f g X.8.`.1./.!./.Q.~ ,.Q.(.{.qXwXxXxXvX'.< X o : ; * 4 4 & & & @ e = = q y i a q 0 i 0 r i r 0 q r a f i [ *.*.-.*.+.u u & q 8 q q q 0 % & & : $   > X X o > X > < C H E L W 6 X X X < 5 5 5 k k k k k a k 4 k k u k a 4 k 4 k 4 4 : 4 $.:Xq.q.q.q.q.0.q.0.q.q.<.-.%.<.<.zXvXcXVXbXcXmXcXmX}.Y v J.qX(.W 2 Z 5.`.d   : - + . O . @ # @ # # 3 3 3 v z m z z z z v v Z Z A I I Z L Q L H J L E W E Q >.,.5.'.cXvXcX&.1 4 1 1 1 R '.0.K 1 X < > o X > t d K X.-.7.*.*.+.+.h r K %.<.5.5.`././.)./.!.Q.8XNXNXwXqXxXxXNXvX'.Q E W J H F H H H d s a 4 u 0 0 u = u y y u u y y a p a f f f h g f r q = = = % % % + + @ O O @ - g X.$.$.j 5 : : ; 7 4 k W W ",
"VXGXGXJXJXVXbXbXbX[.5 X : : . : : :     #     # * * $ * ; o X o X X X o K 1.>.Q o.Q G x 3 , < > > X X X : : & & = 8 = = = 8 8 9 8 & & & # # X # 3 3 3 v v m S m S c v v 3 3 3 1 1 1 * $   O : = # +   + + . O + & O : & & & & 4 & - & & % = & u 9 - q 9 9 = *   + % % = = = 9 & & 4 : O : * - 5 - o ; o o o 1 < 5 6 1 1 o < < 2 5 6 5 5 < < 5 6 s d s 1 : .   O O O O   # # X . X ; s d k K =.9.-.k k a p p h f f p ] f i 9 = + O O @ O O O . O .   X # 3 t t S S P O.P P S t 3 3 > X #   X . . . . . O O . + O & & 9 4 u a 4 5 a 5 d d K K s 5 ; ; 4 a - & & $   . . . . . O O O O O : : . . . . < s P P x x 3 x o.!.`.!.`.!.1.1./.`.`.{.}.cXxXbXNXNXnX&.*   : +   # ; - r a a r 1 1 H >.1.1.1.!.,.!./.[.{.}.xX{.zXhX0X0.K X . # > 3 U ~.U.D m v l < < X o   . O   . @ $ $ O O @ O O O # e = = # 3 x v N D f.A ~ ~ / 7 o o ; 5 f a r 1 # # 3 v m M M e.h.^.}.!.P F g g g g X.<.0.`.!.1.,.! ~ Q Q ,.! Q Q ,.`.cX'.5 o < * * & 9 u 9 & ; # @ # q e y t f f r y 0 q f f f f 0 q 0 a u - u ; % * & & 9 0 a y 0 q q 9 9 = & * o # # X > o 2 s E 5./.].0XqX[.Q < X X 7 4 4 k k p k k k 4 k 4 4 k k 5 4 4 4 4 4 o * 4 =.:X0Xq.q.0Xq.q.q.0.0.0.q.9.4.0.0.[.cXxXcXcXcXcXcXjX|.Y v ~.{.`.~ 3 C /.`.d . : . .     O O @ @ # # 3 3 v v v v z z z z z l l l x C C 2 F L L H H H s H W E E 3.5.5.0XzX0.5 X ; - 4 ; d 9.hX1.%.6 < > X X 1 K &.=.*.*.$.-.*.7.=.X.g K %.<.1.5.5.5.!./.1.,.,.(.wXyXqXeXqXqXbXcX!.Q E L E H C 6 d s 5 a 5 a 0 u u 9 = u y y u u a y y a y y a f h ] f f y 0 9 % % % @ @ + @ O O     # r j k 5 * # ; o o o 7 d R ",
"FXHXAXAXJXGXAXAXbXzXg . : : . : . :     X   #     * * $ * o o o ; o # X s %.L J J J C x x C C 6 2 1 o   : & - & 9 9 8 8 e e 8 8 % @ O : @ # # # 3 S S S S m m D m D m S v 3 3 1 o X # . .   + = # + +   +   # = u u 9 u 4 8 & & & % & $ $ & = = = - - - 0 - = + + * & = & = & 4 4 & & & $ - 4 1 ; ; o o 1 1 6 r s s 6 6 2 7 6 s s F 6 6 < X < 1 5 6 5 ; :       O O @ + @     X X 1 s a a $.q.q.3.p 4 p a y p i p f f p y y 9 % @ + @ . O . . . . # # t t t S S S S S o.o.S S S t 3 > #     . . . . O . . O O O * = u a a a k u a 5 a s s d 6 5 5 ; 5 4 4 4 & :   . . . . O $ $ & & % ; ; : . . . X 3 F P F x 2 2 U 1.1.1.1.!.1.>.,.,.,.1.].qX}.[.hXcXcX&.  O : # X + # ; 0 a r s 1 2 K 2.1.,.:.,.,.:.:.,./.].[.{.cX[.[.0.L 1 1 # < 3 c ~.^.N.c l , 3 < 1 ; 1 * # + + O O + O O O . . O = q q q t t x S D B N.J.J.~ W < : : o a a a q - # 3 3 S m m e.n u.^.}.!.F t g t g g %.8.`./.!.!.,.! Q I U Q.! J C Z 5.0X'.5 o 4 o : ; 4 a y u 4 = # e = r r r y 0 9 9 = q f j j h f a y k a k h a f y $ & = q q i q q q q 9 & = ; * # X X ; 6 E >.5.0XzXcXxXVXSXNX/.2 . o 4 5 a a f p k k 4 p k k 4 a u 4 4 : : 4 7 4 k =.0Xq.'.q.q.'.'.'.q.q.'.'.0X'.q.5.0.zXcXcXcX[.[.}.}._.Y z ! {.(.Q 2 H /.'.d . . . .   $ O O + + # 3 3 S x v v z z b z V z v l l l x , , 2 F H L H H 6 6 F W E Q 4.1.0.0.H o X 5 1 - 1 a $.9.0.0.%.L s 1 3 F $.;.%.*.[ [ *.*.*.=.*.[ K %.2.<.1.1.1./.Q.,.! ~ ~ (.].{.].qXxXNXqX,.E J J J H 6 s 6 5 5 5 u - 0 u q 9 - = y y u 9 u a y y y y f f h h j h g h f q q % % + + O O O . #   # t a * : : o o : : o d R ",
"UXAXbXJXbXHXJXbXVXnX$.: : : : :   : : X   X X   # : : : : * # 1 * X X X 1 H F G C C x x C Z Q J 6 6 o X : $ & $ = % = 8 = = % 8 @ @ O O # 3 3 3 v v m m D D M M D m m m m S 3 > > # # : # + + $ 8 @ + @ @ @ @ # a y u a u u u & & $ % & & O $ % = = 9 0 0 - = + % $ = & - 9 = = & = ; * = - u 4 5 o 5 5 5 s d H H H H F 6 d F d E R E s X X . X 1 1 o       O . . @ .     .   X . # ; # 4 $.q.fX+.4 4 p u p a p i i i f f i 9 % @ @   O O . . . . # t t t S t S S S S S S o.P X.S t 3 # X . . O . . . . O . @ O - u u k a 5 k 5 5 a 5 a a k 5 5 5 5 u 4 $ : & : .   . . O O $ % * - ; u 9 : : . X . X t F S 3 S 2 U 1.`.1.`.5.1.Q U L J I 1.]./.Q 2.'.0X$.: . $ + + # # - q r r r 1 6 X.1.,.;.L Q :.Q J G ! !./.cXcXcX[.0.K ; 1 1 t 2 3 Y ~.~.A v , < 1 1 5 - ; 0 = $     O O . O O O O @ = q # 3 3 x m Y n.J.J.L.~ 7 o 4 o o 4 y r q # # > t S m D M n B U.(.:.s F t g f t X.8.8.1./.1.1.! ~ ~ Q (.}./.Q >.'.cX'.1 . ; * 4 4 u k a f a r # # # # # @   + = = y % 0 h [ [ j j j h h h h k +.h $ $ + + = 9 9 0 q 9 = - - - 1 < X < 6 E 5.'.].].].cXxXVXKXLXAX1.> X o 5 4 1 s k k 4 k k 4 5 a 5 4 4 : : 4 4 k d R =.q.q.q.'.q.q.q.[.fX0X'.q.[.q.0.<.0.hXbXxXcX[.[._.hX}.Y z Y {.].! C C /.'.d : :   X . . . @ #   # 3 # 3 v v v m z z z z z l v Z , , > > > 1 F %.E R 6 6 d H %.>.>.>.&.R ; o o - - ; - 1 1 L >.5.1.,.U H P E X.L g j j j +.+.+.*.*.j j X.>.>.5.<.1.5./.1.Q.~ I ~ Q.(.0XeXNXxX0.J J H H F 6 6 6 s s 5 - - u a u 0 = & & u u 9 = u a y a y y a f k h j ] [ [ h f a 9 = @ @ O O O O .   ; r 0 * # : : ; o : 4 d R ",
"AXHXAXbXbXAXHXUXbX:Xk : : : X . : o : X X X : X . . : o o : X o o ; # X X 1 s 2 F x 6 x C J Q Q E W 6 o o o : : 4 & & = % 9 % % & +   X X 3 , v c m m D t.t.t.M k.M M D m m v 3 > # # ; = $ * = = 8 = @ O O # = f a a y q 9 9 9 & @ @ % % @ @ @ & 8 9 y y 0 = + + $ $ % * % % 8 * = $ = ; u a 4 4 5 5 5 a d $.%.%.%.L K H F K L %.1.<.L X . X X X . X   * $ $ O @ O @ O   # + + +   = = # X.q.zX*.u & u q y p y y y y y y a u 9 + + O   . # . . . # 1 t t 2 t S S t x x S S P U S t t # X . . . . O .     . & * - a a k a k 4 k 5 a 5 s 5 5 a 5 a a a ; * & * O   . . .   #   * * * * * * :   .   X X 3 t F x x t U 2.1.1.1.5.1.>.E Q U G ;.(.1.C F 5.[.j . : + # @ # @ = = r r 1 1 t o.1.1.:.U :.!.(.2.U :.!.].cXNXcX'.5.K < o 1 1 < 2 x Y Q.N.x , 3 6 1 5 y 9 0 9 =       . . . O O & 8 0 r 1 3 3 v A M.J.^.XX8X>.7 o o * ; ; y 9 % % # 3 t v m M M n M ~.(.Y F 2 t t a g $.8.0./.1.!.,.Q.,.,.Q./.}.cXcXhXcXvX9.o   1 - ; u * y k j j f 0 * # = 0 a f g $.9.q.=.h r h j j j h h j h h h [ p 9 : $ $ = = 8 8 9 q q r q ; 1 ; ; 5 E 4.5.5.).].].].wXVXSXLXKXNX>.1 o 7 5 5 k 4 k 4 k k 4 5 k 4 4 4 : : 4 k d R R &.5.4.>.<.>.4.4.0XzX0Xq.0.4.0.<.5.0.'.cXbXxXcXcXhXmXjXU l ! _.|.! C 6 ,.'.&.< X X . . X #     X > # 3 3 l v v z z z z v v v l v x < > > X 3 H E <.%.K K R &.<.%.&.R k -     1 # # 1 # > 3 > 3 Q :.:.~.~.:.;.P 1 ; u k h h h ] +.X.X.$.%.%.>.1.>.6.5./.1.~ Q I ! Q.'.7XqXvXcXQ < d F F s s s s s a 1 1 a u u u u & & O & 9 8 & u u y y y 0 r f h f f j [ [ +.[ f q 9 @ @ O @ O O O .   % = = q # = = ; - a d j ",
"AXAXVXAXbXbXUXHXnX3.: . : : : . . . . : X . . X o o X X : o ; * o 1 # X X 1 s 2 1 3 2 C J Q ! /.5.5.1.W 7 o : : : * & & = % = = $   X X > 3 v m m M M M M t.t.M M t.k.t.D D m 3 , # # # * % & & @ # 8 = + + % * = = = = = % % # = % @ 8 8 8 % & O 8 q 0 y 0 ; =   $ % % % % 9 = % = $ + * ; 4 ; o < < 1 6 E <.<.<.<.;.R H K L ;.5.`.`.%.1 < o X X   . : * $ @ @ + + + + + @ @ #     ; # % j 9.q.+.p u u y u y u u u y y y u 9 ; # O   +   @ . . X # 1 r 2 t 3 3 x t S S S S S S P F t < #   @ . O . . . .   : & - 5 a s k a a k 5 k a k a a a k a a u - = ; = + O . . . . X .   X   :       O   .   X # 2 F t 2 x L ,.1.1.1.1.5./.,.1.,.! 1.].].;.>.[.zXR + $ % 9 8 8 # e # # = q t s %.8.5.1.:.,.`.}.[.!.!.}.cXcXNXqX'.5.W < o < o < 2 3 G :.:.G v , < 1 a a 0 0 q = #     .   . O O O = = # 1 3 l N Y J.^._.mX[.E 5 ; & $ = ; q 9 % = e 3 3 S m m M n h.|.}.! S s s a a g %.8.5.1.!.,.L.,.,.,.,./.cXNXxXvXbXbX=.o   u * & 4 ; a a k j j j j $.9.q.zXnXzXnXnXbXbXzX=.g 1 a j a h k h j [ h 9 & O $ & % = = = ; = ; q ; - o 1 1 H 3.5.5./.).).].{.0XeXVXKXLXVX0XW < < 5 4 k k 4 k 5 5 k u k k 4 : : : 5 d R %.&.E &.;.E %.&.&.E 9.0.0.5.<.>.5.<.<.8.`.zXbXcX0X[.}.}.|.U v U |.].:.2 6 5.0X%.X . . X . . . X # X # 3 3 v x v l z c v z v v l , < , , > > X 3 H >.%.E R %.&.R R j k a 5 o .   : # # 1 # X > > v Y ~.|.}.}.|.:.G 3 o - u u u p h j [ K X.j K %.&.&.>.>.6.,.,.Q Q ~ ,./.].[.0X0XW X 5 5 5 5 s d d s 2 a u 0 0 u u & & & & 9 u = 9 u u y i u y i f f f f g ] X.[ h f 9 8 & @ @ @ O @ $ O O % = = q q 0 u 1 r a d R ",
"AXAXVXbXvXbXVXJXzXh . . . o .   . X X o o X . X X X X X o ; o o o ; o X X 1 s s s F L E >./.(.].0XqX0X'.3.d 5 4 : : $ $ & % % $ + X X X 3 l x v m m M M M k.t.t.t.M t.t.t.D S v > > X # * $ & $ 8 % % % # +   + + # # = = 0 q q q # % @ % % & O & % 9 u y r 0 = + + $ $ $ % % = = = = * o - - * < 5 o o s >.0.5.0.1.<.;.%.;.>.<.`.[.'.&.5 < < < o X   $ % $ @ @ @ @ & @ O O # %   = - r - g -.-.+.u 9 p 9 9 0 - 9 u a a a y u = + #   # # . . X # s X.P X.P S t t x x S S S S S P F 2 # # . @ . . . . O O   : - 1 a a a 5 5 k 4 k k a a a 5 k a a r 0 - - = - #   . . X . . . X . X X . . . O   . X X < 2 s t 2 2 G 2.,.,.1.1.1.5./.`.(.,.Q.`.qXqX[.cXnX-.; - 9 a i i q = = # = r r 1 %.5.1.!.,.1.].}.}.].].].}.}.cXqX[.0.R o o o # 2 2 3 x U Q.U x > < 1 a a y f a 0 = :   . . O O O O $ 0 ; < , v Z f.A.K..XmX/.F o : & : # 9 8 % 8 = e t t S m M M M m.XX}.Y S F t t g g *.8.5.5.1.Q.,.).Q.,.,.Q.].cXcXcXxXcX%.# : 1 $ * * = u u k j +.=.9.kXnXbXIXIXJXbXHXJXPXIXbX9.k 5 a k h f h T h u & & O : $ % % = 8 8 q q q 1 1 ; 1 1 R 6./.6.).5./.Q.).).).qXxXVXNXxX>.7 7 7 5 5 k k 5 k a 5 a 5 4 4 : : 4 j $.W E E %.;.E E >.6.5.5.4.E H E <.<.<.<.<.<.`.vXcX0.2.1.!.`.~.D v Y _.].Q.C 7 5.[.%.X X > 6 a X . . X X 3 3 > 3 l l l v z Z v v l x 3 l 7 > < > X > H <.>.=.<.&.%.j a 4 4 - * $     #   + # X X > 3 x ! }.}.jXhX}.~.S > X # ; * & y h ] [ +.[ j R E &.&.>.3.~ >.,.>.,.,.6.].0X'.[.'.E X X o < 1 6 s s s a r a - 0 9 4 u & : O & 8 & & 9 q u i i 0 i q f f a f h [ [ h f 9 8 & @ O & & @ & + + & e q q q a q 0 r d j R ",
"CXCXSXVXvXbXbXJX:X4 . . . : . X X o 5 s s 5 > < X X o o < o o o o ; ;   X # 2 H F L Q ,.,./.(.(.].qXxX0Xq.E 5 4 : : $ $ & % % %     # > t 3 S m m m m m M M M t.M k.M D D D S v 3 > X X $ $ $ O % % & % # *   #   #   + # * = 1 = = = = + % & $ @ % 9 u r r q = + $ + * % # = = = - ; * ; ; ; o 1 5 < < s <.'.0.`.0.5.0.1.1.`.[.zX[.'.%.2 < 1 o o : # $ $ @ O & O & % @ + + @ @ = q a f f j [ j h 4 u y u u u a u f k f k h a u -       # . X X t %.1.8.1.1.X.P S S t x t 3 t S F S 2 # X . . . . . . .   : $ & - a a k 5 a u 5 5 5 5 5 5 a 5 a a a 0 - = - 9 = . . # # # o o o ; o :     . . : . X X # t s s 2 2 H ;.,.,.,.,.,.,././.!.,.Q ! /.qXqXvXzX%.a u f ..f f f t i q t r 2 2 X.1.2.1.1.!.!.].[.(.(.(./.].[.qXzX'.K o o o 1 1 2 > , J :.:.x > > 1 a f k h f a a - $   O O O O O # 1 1 < , l z A B A J.J.Z < . $ % $ e = = e @ = # t 3 m m m M M M.XX}.Y S F t g g g K %.1.1.Q.,.,.Q.,.>.:.! Q.`.`.[.zXzX%.o * - * $ * $ * ; 0 h -.9.zXvXbXAXJXJXJXbXcXbXJXIXLXbX9.k ; j k k k k y 8 & & & & % & % % = = = = - q - 1 2 5 %.,.1.,.,.Q.,.Q.! ,.,.7XqXxXNXNX,.6 5 d 7 k k k 5 k u 5 5 5 4 o : : k R &.&.&.E E E E E >.5.qXvXqXR . < %.>.<.<.<.<.q.VXvXK s >.`.|.!.P v D (.{.Q.Z < Q '.<.H K 0.'.qX0.K > . X # 3 3 , x x l l , 3 , , v C C C C C 6 2 < < s <.4.0.<.R d 5 1 o : * * *   O $   O # . X < 2 G ~.|.^.}.}.jX|.Y > X < s r k h +.] [ [ j R $.$.-.&.&.>.>.,.1.,.! ,.].[.0X'.'.0X5.5 X X . X < a s a 1 1 - - 9 ; 9 9 O O O & & & & = 9 u u y y y y q 0 q f h [ j h p 9 9 8 8 @ 8 @ & O O @ = = q q y f r - r k j $.",
"|.yXZXVXNXbXbXzX+.: : . . X . X o < H %.%.L H s 6 s H s 1 1 o 1 o 4 o : X X 1 s H L Q :.,.!././.].0XqX0X0X&.k o : & : & 4 & & * # # # t 3 x v m m m m n n M M M M t.t.M M D m S 3 3 X   * * $ $ % & $ = ; ; * X ; X # # # # # # ; ; * # + * ; - ; = 0 y f a 9 = + + +   + # = ; = q - ; ; 1 1 5 1 5 < o s <.0.5.<.1.1.5.'.'.[.0XcX0X'.E H H s o o o $ $ & @ & & & 8 & 8 @ @ % = # q a g j X.X.j j h f h f a k h j j j +.j j j j a #     # X X # g <.q.`.`.`.o.;.P F t 3 3 x 2 t t t 1 # X X . . . . . . . : & - u a a 5 5 u 5 a 5 5 - 5 5 5 a a a - - 0 ; ; = =   # 1 a s a s s s k 5 ; : . .     X # # 2 s s 2 2 F o.>.,.,.,.2.1.!.,.,.! G J :.'.`.zXhX$.a y i ..f f f t f f f s a t %.2.>.1.:.:.,././.!.Q././.[.].[.'.4.5 X o * o 1 1 3 > C Q :.F > X r s f h h f g a a = O O O @ @ O : < < , 7 l v V V V V Z 3 < X $ = 8 8 # 8 @ e = # t t v m M n t.^.MXXXU.S S P P f t g P %.:.Q.,.Q.,.~ ~ Q ~ !.(./.'.0Xq.%.; # ; * * + + * ; u j =.q.nXvXvXnXvXbXnXzX0XzXbXJXLXJXvX*.4 4 4 p k p 4 & & & : & $ $ % % 8 8 = q ; r 1 ; 1 s &.,.,.~ Q.,.Q.).).! ,.).wXxXNXNX5.H 6 T k T 7 k k 4 5 5 5 4 : . : 5 %.&.&.E Q Q ,.5./.>.>.'.xXAXJX'.< X 6 H %.>.%.&.'.bXzXd 6 5.[.cX}.:.x G _.{.:.Z 2 L 5.`.0.[.vXNXVXVXvX[.F X X > 3 x G Z c x l 7 , , C Z H W W H H R 6 7 d %.'.[.9.g 1 - - - ; * = = : O + O @ & :   > 3 G ~.N.~.^.XXjXjXY.S 3 F P g k j h h h h T j T R &.&.%.&.E ;.,.>.,.,.0XqX0X'.'.0X5.s X X X . X 1 1 r - ; ; ; = - & & O O O O O & & 8 9 9 u p y y 8 u q u i ] [ [ h i q q 8 8 & O @ @ O . O & q q q q f r q q a K *.",
"c Y (.|.(.[.5.%.4 . : : . X X X 2 s R >.1.>.E E E ;.<.<.E s 1 o o o o o . X < < H L ;.Q Q ! Q./.5.5.5.0.'.4.d 4 : : : & & & & = # > > 3 x x S v m m b m m M m M M M M M M D m S 3 > X     * * $ % * & ; ; o   . X X X o 1 # < # 3 # X X . X * * 0 - a a f a r = # + + + + # ; - r r s a s g g s 6 6 1 < 2 R >.>.E E ;.1.5./.'.[.0X'.`.5.4.5.&.k # : * = & & & 8 u q 8 u 9 9 9 q q ; r r a g j j j j j d d h j j j T $.R R R K j g s o X X X o # F ;.8.1.8.2.2.2.L P t 3 3 2 t 2 C 6 t <   . @ . . . . O   O $ 4 1 5 a 5 5 a a 4 k a 4 4 4 a a a a r - = = # + %   * r d K K j K K d d a o X . . . X # 1 1 s 2 2 3 2 J ;.2.,.>.,.,.:.:.;.! I U 1.`.0.[.0.K 9 = = q q i i f f f g g g s L ;.>.1.>.:.:.,.!./.!./.'.[.'.<.R 5 < ; o ; o ; 1 5 3 2 L ;.L 3 # r k g j s h k d a = + O @ @ @ + o o < < Z V A A V A A v , X o $ @ 8 q 8 e 8 # e # t S S m M e.t.^.XX}.N.S S S t t t = 3 P Q ,.! ,.! ~ Q ~ Q /.'./.'.[.0XK * # * * = * = ; r k $.9.zXzXzXzXzX:XzX0X0Xq.'.nXAXIXLXJXzXR ; 4 k k u u 4 & & & & = & % # = 9 q # = - ; - s K ;.>.,.,.Q.~ ! ).eX].~ ! 0XxXNXNX0X;.d 7 7 k 4 k k 4 4 4 4 4 : : ; T =.4.&.;.>.>.'.qXwX7X`.).xXAXKXVX5.7 X < K R >.0.0XzX5.d d >.5.}.[.! x Z ].{.~ J C J 5./.[.qXcXcXbXVXKXJXcX=.X X 2 Q ,.,.! U J Z C Z C C Z H L E >.~ R H W E 0.q.-.1 ; 5 1 - - = ; ; * + = $ O O : X > x G N.N.~.U.Y.|.|.^.D c G J g a g h h p h h +.+.+.$.=.>.>.%.R E Q ;.5.'.0.5.5.5.0.;.2 2 1 > X # 1 r 1 - - - 9 = = % O : O O O @ & & 9 9 u 8 u y q u q q q y h ] ] h f y u 9 8 @ 8 8 @ O O & 8 q q q i i i y r f [ $.",
"z b B D c C 6 < . . . . . X # 1 6 H L o.;.Q E L E ;.1.5.5.%.6 o o : : : . X X < F J E J C G I ! Q J C W 6.4.R 4 : : : & & & & * # > 1 3 t x v v m v m m m m m m M M M m m m S c x 3 > o o # # * & 4 * o * ; o o X X < 2 2 s t s g s s ; X X o - 5 - r a f f 0 -   +     + # 1 r 2 s g g j K R %.K H 6 < 2 H R E E E E >.>.>.5.6./.5.5.5.0.0.&.s : : ; & & & 8 9 y 8 q 8 0 q 9 0 - r ; ; r s t a d d k g g d d j j K K R R +.R R K j s 1 X X o 1 F %.2.1.2.;.X.>.%.X.F 2 3 3 2 2 t t 1 # X   . . . . . . : : & - - 5 1 5 5 4 4 k k 4 4 4 4 a 5 u a - ; - = # # # # # - a j K K K j K s a ;   . . .   X ; 1 t 1 > < < 2 L ;.,.2.,.:.Q ! ! ,.Q :./.`.`.[.9.j + @ & e q q i i i f f r g r s K ;.1.>.>.:.,.!./.1.'.[.[.>.s X   ; - * * ; : < 1 1 3 F L L t < r g h h h k f f r q = # @ @ + = o o < C / A P.P.P.P.J.A , X : $ 8 q q 9 @ 8 = q t t S m M M e.n m.Y.M.N S S S t t # # # s L :.,.! ,.~ Q ~ ~ ! /.5.'.'.q.s # X * # = * = ; a X.=.q.kXq.q.q.'.0X'.q.0X7Xq.0XvXJXIXLXJXzXR 4 4 k 4 p & & & & 9 & = @ 8 8 q 9 = = # # 1 s K Q >.~ ! ,.L.Q.(.NXvX].^ ].xXNXNXrX5.T 7 k k 4 k 4 4 4 4 : : : : k %.6.5.>.,.,.,./.qXqX].(.].qXNXVXAXcXQ < X 6 s &.0.4.&.R k T &.2.1.,.U x c (.}.,.J H Q /././.[.qXcXxXVXVXKXAXVXJ > 2 ,././.!.,.Q J Z 7 C C C J E ~ 5.0.6.&.E W >.<.j 1 1 - ; r u = = 0 % % = % & O * o 3 x Y ~.U.n.n.n.T.^.U.U.Y D S x s g k h a k h k j j R -.=.&.E L E L E Q >.>.>.&.;.E F 6 F t 2 r 1 t t a r r r 0 - = + O O O O O + % % 9 8 9 9 u u 8 i 9 0 i p h [ [ h h i f y q 8 @ & 8 & 8 9 9 q = q q i f i r f h j ",
"B b b v l > X X o : . . X . < 2 J L L F F J L G E J E >.1.>.H 5 : : X X o X X < F L L J C Z Q ! ~ E 6 C >.0.W 5 . : : : $ & & $ # # > 3 x x v S c v c c m v N N m m M m D D N S P F 2 1 ; : : * * : : * 1 5 d K E L L K K E 2.>.<.>.E s 5 6 a 6 1 - 1 a a a 0 = + # +   # ; 1 r a s F K L R %.;.%.L H 2 2 H E ;.E E E E >.Q >.1.5.,.>.>.>.&.H . . : & & 9 8 8 p p 9 8 q 0 0 q ; q 1 q r g g s a 1 a s s s K d d k d K j K K R R E R d 1 X X > < F X.>.1.2.;.X.;.;.X.F t r 3 < 2 > 1 < # X   @ . . . . .   : * - - - a 1 5 4 a 5 k 5 4 ; - 4 4 4 r 9 = # q # % #     o a s d d k g d d 5 o X   . .   o ; 1 r 1 1 > > > F Q ;.>.,.,.:.:.;.Q Q :.5.1.1.8.&.a + $ 8 e q i i i i q f r t 1 r F ;.1.2.,.,.,.5././.'.[.0XH X . o * * $ * $ . # 1 o > 2 P K s < a h j h h j a f a r q q @ @ # o o < < Z P.J.L.P..X8X8XJ.7 X   ; q 8 8 8 8 8 e r t t x v m M n n M B B z D S S t t 1 # > 2 L ,.:.~ ~ ~ Q Q Q ~ /./.[.q.>.5   * ; = * + = - h $.4.q.[.q.0.&.4.9.5.4.4.'.q.q.zXUXAXJXJXUX0Xk k 4 k p 4 & & & = & = 8 = = = = = 9 1 * 1 d E >.,.5.,.Q.~ ,.(.yXNXwX{.0XwXxXxX0X;XW 7 7 4 : 4 4 : 4 : o : . : H 3.0.5.6.6.,.,.~ ).).].].0XeXvXNXvX0X>.2 . > 5 d K k 5 7 5 T &.<.1.U L C F !.].~ J Z ~ `.(./.{.{.{.cXcXVXKXKXSXcXC 7 /.).,.,.~ Q H 7 C d C C W ~ `.[.0X].'.5.&.R K 2 # 5 - # q - = = 9 + + % + & + ; > > v Y N.N.B B M. X|.^.Y.U.U.Y G H K j k p y y u 4 - a g d K d H L L H H F W H C d 2 3 s F s P s t g s a a r f a u = + O . . . O @ % = = 9 & 8 8 9 u p y i f f [ X.+.[ h [ ] h y 8 8 @ @ y q u q q q e q y q f i q f a ",
"n m m N x 3 > o X o X X . . o P L o.L F x C F C x 2 2 C W >.;.K 5 o o X X X X 2 L E U J J J ! (.]./.~ >.'.7X<.j o : : * & & & * X > < 3 2 x Z G c c c c c c c m m N m m m N c G P L X.H s 1 - ; 4 4 : : 5 &.'.0X'.0.5.<.>.>.1.5.'.vXzX6.E E R d 5 5 1 - a a 0 = + +   * 1 r r s s s K L ;.>.8.5.>.2.L F H H L >.1.>.&.E E Q >.E >.>.;.K 5 <   . . : & $ & 9 q 9 8 8 8 9 = 9 9 - r - 1 s X.X.K K K K K K j H j d d d d d H K K R R R K s 1 X X < K ;.1.1.1.;.X.;.>.&.X.s 3 < 2 1 < < X X .   . . . . . O   : & - 4 1 1 5 - 5 a k u 5 4 4 ; 4 4 4 - ; ; ; & * = $     : 1 a a s k a s 5 1 # X   . .   * ; r 1 1 < > > > 3 H ;.2.,.:.Q :.Q Q :.,.1.0.0.>.j r ; 8 9 q i i i i f i f f t - < 2 %.1.<.;.>.5.[.'.0.`.[.<.5 X   : # * $ & $ +   # X 3 < t s s t r f g f f a u a r q q q = @ + ; o < 7 / L.L.P.P.P.8X8XJ.7 X X 4 u 9 8 8 e q e t t t S v m n n n n B b N S S S t t # # # 1 H Q ,.,.~ ~ Q ~ ,.,./.0X[.<.R - ; * * * * * # * d =.8.9.q.0.4.>.%.R H J W >.6.6.q.vXVXAXIXAXnX3.4 k k u u & 9 4 9 & 8 9 9 9 9 q = = # ; 1 j E >.,.,.L.:.J.! ~ ).7XeXqX].eX{.{.].].&.6 4 5 4 4 4 : 4 o X . : o R 4.0.'./.5.).,.~ ).8XwXtXcXqXvXvXqXvX0.< < o # o < o : : o d R %.;.;.L F J ,.].:.J J ,.]./.(.].].].qXqXvXVXVXSXAX,.W 5./.,./ J Z H C C H C C ~ 5.0XxXNXvXcX0XQ E g s 1 r ; = ; 0 9 9 9 % % % = = * > 3 , l D U.B B J.XXXXjXMXXX^.Y.U.o.o.K j d 0 = = $ @ . # # 5 < 5 s H H H H L L 6 6 > > 2 x S 3 t t F g s g g f f f a 9 % O . O O O O & & 9 9 & 8 9 u p p i h f h [ +.X.X.j [ j j f @ @ 8 @ y i y u 9 9 8 q q q q r q 0 a ",
"b m N N v , > X X . . . X X 1 P E ;.U G J J Q U J C 2 2 F E ;.E d < X o < X < 6 L Q ;.Q ! ~ :./.{.0X/.'.qXzX5.R 1 o : * * * & * X X > o 2 F L I J G G G G I I G D N N v z v c G G L E X.K d d d k 5 4 5 W 0.0XzX`.5.1.1.1.2.2.1.`.VXAXcX5.>.<.>.R K a 1 r u 0 ; # : # o r s s F L %.2.[.[.[.zXcXzX'.1.E K L K ;.>.>.>.>.>.E E ;.E ;.E s < X . . .   O & & = q 9 9 9 u 9 9 9 - 0 a 0 1 g K %.%.X.=.&.%.%.R K H F s s d d d d W H R K H H 6 < < < K 2.8.5.1.2.;.2.0.9.<.L 1 X > < 1 X X 1 # . . * . . . . : $ * 4 - 1 - o o - 4 5 k 4 4 4 4 ; - - - - - = - = = * *   : ; 1 a 5 s 6 a 5 ; #         $ ; - a 1 1 # X X X > F L >.;.;.;.Q ;.;.;.,./.5.0.<.j 0 9 q q q i i i f i f f i r # # 1 K %.>.<.>.0.'.0X`.4.4.d o X : * $ % $ $ + +       # # 1 r a 0 0 a f a u - ; * ; 8 q # e O + # o o 6 ~ ~ P.A / / L.8X~ < X : * u 9 9 & = e q e t t S v m M t.n M B m D D G S P t t # > 3 F Q :.Q Q Q Q >.~ ,.`.0X`.R k - - - * * + + # ; j =.9.0.9.8.<.K d 6 6 6 C 6 d 6 W q.vXvXAXAXUX&.4 k k 4 u & 4 9 & = = = 8 8 9 9 ; # # o 5 d %.,.,.,.,.,.,.! ~ ~ ].qXeX{.{.{.{.}.[.5.6 7 k k 4 4 4 4 o : . : 4 %.5.5.q.7X/.).~ ,.Q.].eXmXxXeXeXxXvXvX'.6 X X < o ; o : : 4 5 T $.E %.%.P J :./.Q J Q /.(.).(.].(.].{.cXmXNXVXAXNX/.W ~ 1.^ J C 7 Z 7 C J W ~ /.].xXNXSXSXVXcX6.%.R H a 1 1 - - y 0 9 9 9 9 9 = ; # # 3 l v N h.n.^.MXCXCXCXZXMXXXU.~.:.U F s a - = # + #   . #   o 1 2 6 L L K E 6 < 3 3 > G :.o.O.P S 3 t g r g g k g f a = O O O . O @ & & 9 9 9 & 9 9 y i a h h [ =.-.[ j [ j j *.*.f + @ 8 9 y i q 9 9 9 9 0 = = - - a f ",
"z N c v 3 , > o . X X . X X 3 P ;.;.;.L Q ;.:.1.,.Q Q Q ,.1.5.<.H 5 X < < > < H ;.>.,.,.,.! ~ ~ ).].5.`.qX0X'.E 1 ; # * 4 * $ * X X X X 2 H Q U Q Q Q ! ! ! ! U Y A c v v v x x P H H K K K K K R d d d E 4.1.1.>.>.>.5./.0.5.5.5.vXvXqX5.4.5.6.4.E d 5 - 1 0 ; + # # - s H K %.%.,.[.[.hXcXcXxXNXcX[.1.;.L H E %.;.1.>.E R K H L E E s X . .   O O O & & 8 9 u 9 u u u - 0 a r r ; 1 t K %.%.%.>.<.>.=.&.E K d 5 s 6 6 s 6 d s H H H d s < < 2 L >.0.0.0.1.<.5.'.[.[.<.s X X X X X o X X *   . . . . . : : - 4 1 - 1 ; o - 4 5 5 4 4 ; ; 4 - 4 - 4 9 - & = 4 & * $ # * ; 5 5 a a a 1 *   . . . $ = - r r a 1 1 X > X > t E 2.;.;.;.Q ;.;.,.5.'.'.0.<.j r 0 a 0 i y i f i f y f q 0 # + # 1 d X.>.%.>.<.<.E H a o X   ; = $ % + % + +     #     # # ; # q r f q 0 = % * # # % % @ @ # = : X s ~ L.^ A Z Z ~ ).~ < : . - = 9 & 8 q q e t 3 t S m m m M b n m m c c S P t t q # X X 2 U ,.,.Q E L J J Q /.[.<.d 1 a 4 4 & $ + # + ; g <.9.0.4.&.L 5 < 5 7 2 7 7 2 < < W 0X0XzXVXbX4.T k 4 4 4 & = & 9 = & % % % % 8 = # ; # 1 H E ~ >.! ,.,.! ~ W ~ ).qX].{.eX}.}.jXcX,.3 X 4 7 k k 4 4 * o : * 5 &.0.5.5.'.7X).6.Z / ! 7XwXmXxXvXvXvX0X>.1 < o o ; : o : : * 4 k d K %.%.L %.;.,.Q E ~ '.]./.).).(.].{.qXxXNXNXVXVX0X>.~ ,.6.H 7 7 J W W ~ ,./.qXwXNXSXLXLXAXNX0X>.E K 5 - ; ; = y 0 q q 9 9 & 0 r 3 3 l v z m B n.^.BXCXCXCXZXMX|.N.N.~.U F 1 o * # * # +   # X X X X X > < s H 2 < < > , G |.hXhXhXjX8.t 3 s P g a a f h h q % O O O O + & & & & 8 & 8 8 u y y f j *.-.$.a 1 k j j $.=.$.y + % 9 q y u q 9 9 # * + # ; 0 s $.",
"c c x x 3 < < X X X . X X X > C L ;.;.Q :.,./.`././.5.`.[.'.0.1.H 6 > < < 2 H U ,.,.,.,.,.Q J ~ Q ! ~ ~ 5.'.5.E < X o 1 ; * ; * X < o > 2 L E Q Q Q ! :.:.,.,.:.Q Y I Y Y I G x C 2 6 s d j K $.&.R R H K H 6 6 H E Q ,.5.`.`.5.5.'.6.'.'.'.0X:X`.&.d 5 1 r 0 ;   # X 1 d X.;.2.1.`.[.[.{.[.cXcXvXcXzX[.5.K 6 6 6 H W K d 6 6 6 H R X.d # . O @ O O O & 8 9 q q y y u u a 0 r a 1 1 1 a H X.%.E %.%.&.;.%.E K K 6 6 5 k 6 d 7 d d d d H s 2 < 2 L >.1.5.8.1.1.0.`.'.q.1.L 6 2 6 s s 1 ; X   . # . . . . $ * - - o ; X o o o o 4 4 4 * o * ; - - u 9 - u 4 9 9 & = $ $ * o ; - 5 1 5 ; * # . . @ # 9 9 0 r r 1 # # X X X 6 %.;.E X.U o.;.>.>.1.0.0.<.X.k a y y q 8 9 q q i i y q 9 = # #   # 1 t g K K s 5 ; X .   # * * + = = % % % % + +   # # . # # + = r f t a q - = ; = 9 % & 9 = = : X 6 Q ~ ~ / Z / / ).W o . : = & 8 u 9 q e r # t t S v m n B h.D n.D v c S S t 1 # # # X 1 H >.,.;.L J C F E 0.[.&.k a 4 9 - $ $ $ $ * # s %.0.0.&.j s < < < 2 7 < < > < X K 0XvX0XvXbX0XR 4 4 * & & O = & & & % @ % % = = ; # ; 1 d %.Q ,.6.,.,.,.~ ~ >.(.].).(.{.XX}.xX(.Z X . : 4 4 4 p 4 * o : * 5 =.0.5.5./.'.(.! I I ~ ).eXtXxXqXcXcXK 1 o < o 1 s 5 * * : 4 4 u a j $.;.<.;.%.>.%.W ~ /./.).].]./.].{.8XwXNXNXNXNXwX/.>.,.~ 7 7 7 ~ ~ ,.'.).].eXxXwXxXAXSXSXAXqX5.E d 1 1 ; ; = 9 q u 9 9 0 u 4 r t t v m m M B t.~.XXyXjX|.^.^.n.N.Y Y G 2 X X # : # * # #     . X X X X X F <.< > < , x o.jXmXmXmXmXZXhXL 1 t a a r a f h f q % $ O + % % & & & & & & 8 9 9 u a j X.s 1 1 s K X.K g k X.f +   & & 8 9 0 9 = = : #   : o a d ",
"G L Q P 2 < X . . X X X X X > 2 L E ;.E Q :.1././.1.5.`.[.`.1.2.H x > > 3 F L %.;.;.:.;.Q I J W Q ~ ~ Q >.,.1.;.1 X X o 1 q - ; 1 < < 1 6 J E J Q ;.,.1.Q.1.,.,.Q.:.,.Q.~.Q.U C < > X < 6 d K &.&.&.&.E d < 7 6 E Q ,.>.1.5./.5.q.'.0.0X0XqXvXcXq.>.d 5 a r - *   # # r K %.<.!.`.`.[.].[.}.[.cXcXcXcXqX`.K < X > < < 1 1 1 1 1 K K K t * . . O O O @ @ 9 q f f h f a a u r r 1 5 1 1 s H ;.%.E %.%.>.&.%.E K d 1 6 5 6 k 6 k 6 s 6 d s F 6 6 s X.<.1.<.1.>.2.<.;.%.%.R E L R K s 5 1 . X - -   . .     : - 4 ; ; o # X : o * o o ; o * ; 4 - 4 4 9 4 9 9 9 9 p - = = & ; * - - - - - ; #   . O # 1 q r 0 1 - #   X X X s X.<.%.;.o.E %.E E %.<.>.R k 1 a a 0 % % 8 % 8 q q 9 8 = @ # = # + # # r a a ;           * $ + + = e = % # # # # @ @ .       + = f ] [ ] h t a a y y u 9 9 u & . : 6 W W W H C 7 W ^ K o .   = 8 % 9 9 q q q r t 3 S m z b n.Y.^.|.U.D S G G F t - * # # 3 6 L >.;.E H F F %.q.0X-.a 4 u 4 u ; = $ +   . 1 K <.=.K 1 o < < 1 2 < > X X X X 6 qXvX0XzXbXzX3.5 : : : O O @ O @ & @ @ 8 % @ = = ; : 1 s W W Q 6.>.Q Q W J Q 1./.~.(.}.XXXX}.U , X X : . : 4 4 4 4 * : : 1 $.5.5.4.5.6./.~ ~ ~ ~ ).{.eXeXeXqX4.X o 6 o X R %.j 5 $ : $ 4 4 a k X.%.=.>.2.;.;.E >.5.Q.)./.Q.,.Q./.].(.(.].qXvXtX].~ ^ Z , 7 H W 6.].].(.).{.qX]./.).eXxXNX0X5.R 6 5 1 - ; = = = 9 9 9 u 9 9 r t x c S D M D V N A Y N.J.~.^._.jXjX`.:.2 X o o * o # # +     . X . < 2 L '.cX/.3 X , :.|.|.}.XX|.^.hXxX2.2 g s r 0 9 y h h y 9 & & % 9 9 & & % % % @ & 9 8 - 1 a 1 1 s %.0.[.zXcX0.&.$.g ;   O O & 8 = = ; * : : X . . o < ",
"P 1.[.<.H # . X X X X X > X > 3 L o.;.L L L Q ;.,.:.,.!.`.1.>.L x 7 , > 2 G Q Q Q ;.Q Q ~ W Z J W ,.>.~ ,.1.5.<.E F 1 1 # 1 1 1 1 1 2 6 F H L J J Q Q :.! ,.,.,.5./.,./.(.!.:.J > X X < 5 5 H R %.=.>.E 6 6 F Q >.,.4.>.>.4.5.6.'.6.5.5.'.VXLXAX6.&.H s 5 - #   # X o 1 K 2.1.`.`.(.`.}.cX[.qX[.cXvXvXcX'.L X X X X X o 1 5 s s K K K a q + O @ O O O & q a f g h j j g a a a 1 1 1 < 5 H %.;.%.;.2.&.>.%.E K d 6 7 1 6 6 6 6 7 6 5 7 s d C s F Q >.<.;.%.K j H H 6 2 6 F H H H K E H o . . $ ; X .   : * 4 - 4 * o X X o o o 4 4 o o ; ; - 4 u 4 u 9 9 8 4 9 4 u u 4 & & * * ; - a r 0 * O . . e e # q q q # # X X # > s %.<.;.%.%.%.L H s F K K d 1 5 k h f 9 = % % 9 9 9 8 8 8 @ O @ # + @   ; - - * #   : . . + + O = e # @ % % e = # @ # + +   @ + q g [ [ [ [ [ g g h k a u u = O . . o 5 C 7 7 7 7 C W k     & 9 8 8 9 q 8 q q r t 3 v m N N n.~.|.}.~.Y Y U P P a - * # < # < F L ;.Q L F P >.'.fX%.a u a k p u u * $   . 1 d $.K s < > < 5 s H H H H J J < X ;.0X'.0XcXzX9.5 . . O . O O O @ O @ & @ % % = = # o o 5 6 R W Q Q Q W J J Q /.(.].}._._.|.~.Y , X > X . : 4 4 4 & o . . X 1 R &.1.5.).).).~ L.).).qX7X].0XcX>.X X 5 1 # k $.$.k ; : $ & ; - a j K %.%.&.>.&.>.>.6.6.,.! ~ I W ~ /.~ C W ].qXwX0X,.W C < 7 / ,.6./.6.~ Q 5.wX{.~ J ~ ].tXvX0XW < o 1 - ; - 9 9 9 9 9 u u u t t S v m m m M b z z I (.mXCXKXKXKXKXKXKX[.1 . X #   #   +   . . o X 2 %.qXGXVXVX/.x l U |.~.N.Y.|.|.|.jX8.2 > r a r 0 q y i u u 9 u = 8 u u 9 = % 8 9 8 = % = ; # a E `.zXvXvXVXAXGXvX0.$.a # O O + & = = * * X . X X < 6 d ",
"s <.0X0.d X . X . X X X > > > > F L E L L F F J H L L ;.2.,.L 2 2 , 3 3 C G U U Q Q ;.Q Q J J J I ! ! ,.,.,.,.1.0.;.F r 1 t r 1 1 1 2 2 F F F J J J Q Q E Q ;.,.,.,.6.Q.!.!.,.Q 6 X X X < 5 6 K E >.<.E H 6 H >.>.>.;.E E 6.0.0.0.&.>.6.6.AXPXvXE E H s 1 # +   # # # 1 K ;.2.1.`./.`.].].}.].`.0XcXcX[.0.E 2 X X X o 1 5 d K $.X.j g r r q 9 % O O @ 8 q f f h j j j h g s a 1 2 1 o < s L ;.E %.>.>.%.E E H H 5 5 5 7 s 7 5 6 5 5 6 6 F d s F K %.X.H s s 1 6 2 < > < 5 6 6 5 K &.zXVXzXh . + . X   : : - - - o o : X X o o o 1 4 ; 4 5 5 u 4 0 u = 4 4 9 9 & u u u & : O $ $ ; - 0 - * + . O # q q # q = # # # # # 1 t H %.X.X.%.%.L d 2 6 d j d 5 a j j k 0 0 9 8 8 9 9 = 8 8 @ O @ # + + + = # * + + O . . . @ O @ = 8 # = @ @ q # = # @ @ @ +   # 0 f ] [ [ X.j ] h g a y u & & O . . X o < ; X : o 4 d a % @ @ q 9 8 q q 9 q r r t x S v N b D N.~.|.~.S Y P P s 1 * + : # o > 1 F ;.2.;.E %.<.[.0X-.4 u u p h h f u - ; ; 1 s s 1 < 1 a H L ;.1.5.'.cXcXNX0XC L [.'.0XzXzX<.- . . . . O O O O O @ % % @ % # = ; ; o < < 7 d W R H H J J Q ,.(.{._.~.J.U.~.~.o., X X : $ & u u 4   . . X X 1 5 E 6.6.6.).).).].7X].).).'.0XzX4.o . o X . k j j u = & - & $ ; a d j %.%.%.>.>.6.,.,.! Q.Q J W ,.).,.J ~ {.yXvX].~ C 7 7 7 >.6./.,.~ E Q ~ NXxX).W ^ qXVXAXcX6.d o o ; ; 0 9 9 u 9 u 9 9 0 r t x S m m M b V n._.ZXCXKXSXSXCXCXKXLXPXLXq.. . .   X   #     X o X H 0.NXKXVXSXVX(.c Y |.^.U.|.jXjXZXKXVX2.. # 1 a 0 q q u 9 u 9 9 9 u 8 9 9 u 9 q q 9 q 9 = 1 s %.'.[.0XqXcXvXcXvXcX'.$.5 : O O O & * * : * X X o d K >.1.",
"; E 9.&.s X . . X X X X X > X > s L ;.L H F 2 C F F H L ;.;.L 2 , , v G G G J U :.Q Q Q Q ~ W Q ~ Q.,.Q.:.Q ;.,./.X.2 3 1 1 1 1 3 3 2 6 6 C C J G J I E J I Q ;.,.,.Q.1.5./.1.1.Q 2 X . o 1 6 d K %.>.>.H C H E E E W H W <.'.q.W 6 W 4.6.vXSX'.H H K s o . . # # # X 1 K L ;.;.~.:.:.:.,.:.Q ;.,.`.`.5.>.E < X X X # 1 s g $.%.X.g 0 9 r f 0 9 8 & O 8 q y r a a g K X.K g s 5 1 < > < s Q ;.%.>.>.>.%.%.R H d 6 1 < < 5 5 5 < 6 5 6 s d F s s F H s 2 1 < < 1 1 < < 7 2 6 6 H H &.q.bXPXLXq.o .     $ 4 4 4 ; o o X   o o 4 o 4 < 5 5 5 5 a 4 u - u 9 & 9 & p 9 u 9 & . .     * * ; = + O O . @ = q q # = = # #     X ; r s F X.X.=.&.K s 5 s K d d j j h a u u r 9 9 9 9 8 @ O @ @ @ + @ + . @ + + + O . O   . + @ O = # @ = = = e # e # # @ @ + @ @ q r g ] { ] ] g j h a y 9 &   .     . . . . . : .   - $ = @ 8 = 8 q q 9 8 e # t t S v v N z Y U.~.|.~.G G F s 1 #     * X o o > s %.5.<.1.<.8.zXzX=.u = u p h T h j h a s s a 2 1 X 2 H ;.<.5.'.].qXNXJXLXKX].1.'.0.[.zX0X4.- . . . . . O O @ O @ @ @ % % # # ; < o o o < 5 7 7 C H E E J ~ :.Q.J.Y Y n.o.}.}.G X . : : : u 4 & : . . . . o X 6 W >.~ ~ ! ^ Q.).).).].0XcXKXLXq.X X X   0 j *.g = * = $ + = u a g K %.&.&.>.>.,.,.5.).~ Q ~ 5.8XqX).0XyXxXxX(.Q C 7 < 7 ~ 6.).6.,.6.~ ).yXAXxX].xXNXSXSXVX[.W < o - 0 u u u u 9 u & - ; r t S S S m b b N.}.MXBXBXmX_.Q.~.~.Q.(.VXPXAXK . . . : # * $   X X o ;.zXcXVXKXKXSXcXU ~.}.|.XXjXmXZXGXKXKXVX2.. # r u 9 0 p 9 & 9 u 9 9 8 9 u q u q r q 9 9 * 1 K 0.0.;.E 1.0XcX1.>.0.0.%.s 1 & O : $ & & : o o o 6 E >.5./.",
"o 5 H j 1 # X X X X # 3 1 # > X 2 H L L K H s F F H L L L L G x , x G U G c G ! Q.:.U I G J U ! ! Q.,.! U U U J G 6 3 3 1 3 ; 1 2 < < < < 2 C H J J Z J J J Q W ~ 3.>.,.6.5./.'.5.F X X X o 5 H R R %.&.H 6 C H J W H H E <.4.4.K d W &.6.0XzX6.H H L 1 X : .     o o 3 s J U Q :.U J I I U U G W ,.>.;.>.%.2 X . X # r r g K *.$.a O % a h h y 0 0 0 9 0 - 1 - a s d j R j d k s 5 < 1 d ;.1.>.<.>.%.L E H H d 6 < 5 6 5 < < 5 6 a s H H s 6 6 1 < 1 < < 1 5 1 2 6 6 F H L H W H E H T 0XPXPXbXT . . 4 * 4 k 5 ; 1 - o ; 1 a 5 5 5 5 5 5 a u = = % & + @ & & O & 9 - * . . O .       . . @ # @ = e = 8 = = @ # @     # # # # # t X.&.%.g r 1 1 r a a u a f a y f y u 9 9 & @ @ O O O . O O O O O @ @ O O O O O O @ . + @ # = e = # = = q # q @ @ @ @ @ 8 a f ..f h h j h f y a & :     : O : . . . . .   $ = = % % = = 8 9 = q q q 0 t t 3 S m m v D |.jXhX1.F 1 r 1 # #   # # # # X X 2 R 0.`.0.1.0.zXhX+.u = u p k +.j +.j j j K K 2 1 s L ;.1.1.5./.[.cXvXVXLXLXAXqX`.q.0XzX[.d ;   . O . O . O O . O O O .   # # X 1 < o < 1 < 6 H E %.>.>.;.Q U Y G N G D U.NXcXX.2 r = O = y f a * : . . . : . X J ~ W Q J Z C 7 Z W ).0XUXLXPXLX=.5 s 5 k j R +.a     - $ $ ; - a j R E &.>.>.>.6./././.! 6./.].qXeXqXNXvXwX{.Q < < 7 C >.5.0X].).'.).6.qXxXNXxXNXVXSXAXAXqX4.5 o ; a a y a 4 & & & & 4 1 F 2 x G z v ~.mXBXMX(.Y Z l z z z l l c cXSX0.. . : $ * + * X X X F 5.[.].cXVXKXKXNX].}.hX}.hXjXZXZXZXbXGXGXVX-.1 @ = t q O 9 & u 9 9 9 u u p u u f y a f q ; j 0.`.<.E J ~ ].cX].5.'.zX'.6 # - = $ & : 4 : : o 6 E ,.>.Q Q ",
"o 1 r 6 3 # X X > > > 1 3 3 3 > 3 F P H P L L L E E E L U L J x 3 c Y U U c x G :.~.! I Z x Z G A A A A A Z c Z x 3 > > < 2 1 < < < < < < 7 6 C C J J I J W J J E Q ~ ~ /././.].`.E 7 < o o 5 W R E E R C 7 6 H L W E H d &.>.4.4.&.3.&.&.6.`.Q E H H < X X : *   X X < F L L ! ,.:.U I U Q./.Q :././.>.1.>.g 1 X   X # r a f j g = O + y h f i f f a a a - a - a a a d j K K d d 6 5 6 d %.2.X.L %.L H H H 6 6 6 d d H 6 6 5 7 6 6 6 s s 5 5 2 < 1 < 1 1 2 6 6 s d H K R L E E E E W d 6 6.AXPXJXT . k d 4 5 a a k d d d d s 5 5 k 5 a 5 5 u 4 & $ O O O O + @ O u $.w.k . . . . . . . @ @ # @ @ # 8 = = @ @ @ + + @ # @ O @   r g X.g r # ; = = * $ $ * u k k h f y u 9 9 % & O O O O . O @ . @ O O @ @ O @ O O O @   @ # # = q q e 1 q q = = # # @ % = r a f f h h h h f y 0 & & O O O & O O O . O O O % = = % = = q q q q q q q r r t x v S S m o.|.cXqX;.3 1 = = * = # # # # # # # a K <.q.0.8.8.9.=.j ; u f h [ R +.X.X.j g K X.H H ;.1.!.!././.`.].qXxXNXSXKXSXcX0X'.0XzX4.k - * . . . . O . O O O O   @   # X # 5 5 6 6 s d K R &.<.5.5.`.!.:.U G c G Y hXmXhXX.P K t 9 f h h f a &   . . . . 1 E >.Q ~ / J J / W ~ 5.'.rXAXPXPXbXT j T j j [ X.a * $ ; ; $ = 4 5 k R E W Q >.>.>.,.5./.,.,.,./.].'.].qXxXxX0XJ > < 7 Z ,.5.].'.'.).).,.Q.].qXyXNXNXVXVXNXvX4.5 o - 9 9 4 p u u 9 & & 4 r 2 x 2 x c Q.XXBX}.Y v l v A Y J.N.J.Y x I '.2.X X .   * #   # o 5 %.0.`.`.[.cXVXKXVXzX`.[.hXmXZXbXmXVXVXFXZXbXcXX.# r = + u $ 9 = 9 9 9 9 8 9 u y f f f a r a =.'.'.0./.5.6.).qXqXNXAXLXVXE < 1 ; ; * : & o o 1 K ,.1.,.Q W ",
"> # < 3 1 1 3 > < > 3 3 3 3 3 > 3 t F s H K L %.L %.E L L L G F x G G U I x , v U ! o.Y A Z c v z c c N G N c x , > > < 2 5 6 1 < < > < < < 7 v J J Q J J J W J W W Q ,././.'.'./.>.E W C < 5 d E &.W W C 7 6 W >.>.&.K R %.=.=.4.4.3.&.&.>.>.>.E H F 1 o #   : o X X 6 L Q ;.,.,.,.:.U :.].}.(.(.qX[.`.0.1.L s <   . # - a a a 0 % O $ y f g f h f h k a a a ; 1 a 5 a k d R H K H H s F K L K H K H s d C 6 F H H E W E K K H 6 a 6 s s 6 1 1 1 1 1 6 2 s s s d H E E E W W E E W Q 5.~ 3.0XvXPXAXK . k R 5 k d R $.R R j d d 6 d 5 4 4 ; ; * = $ O O $ 9 a f h +.kXbX9.0 :   . . O @     # @ @ @ = % @ = @ # + @ + + . @ . . # # = #       + + + +   & u f h h f y q 9 % % + . O O O O O . @ O O O O O O O O O O @ @ @ @ = # = q q e q q q = = = @ # = 9 r q f f f f a y q q u 9 = $ & & # + O O O O & = % 9 9 9 9 q q q q q e r q t t S x v S S G o.1.;.s X # * * # @ + # # # = # # 1 s $.&.<.8.=.$.h - u h +.+.+.$.*.$.X.[ g K X.E 2.1.`.`.`./.1.Q.!.].0XqXqXvXNXvX0XqXvXzXR - u a + . . . O O O . @ .         X 1 s K K R K R E %.&.>.4.5.'.0.1.Q G Y U o.NXbX[.%.=.8.X.j h [ j h a * . . o . o ;.0.`.6.).6.,.6.,.6.).'.7X6.bXPXPXcXk k $.$.j j j f 0 * * 9 * * ; 5 a d R W &.>.6.>.,.,.6.,.>.Q ~ >.Q ,.'.cXxX`.6 > , 2 J ,.`.].0X'.'.6.,.~ (.qXvXxXvXNXVXbXbX'.s ; 4 ; y y k p a u & & : 1 < 3 , , U.xXZX_.A l v A J.(.^.Q.^._.|.Q.! ;.H o X   :   +   # o R 0.[.[.`.0.`.hXVXmXhXcXNXGXLXKXKXGXKXIXKXHXJXvXX.. # f # 0 $ - 9 & u 8 9 8 8 8 y f a f a r X.0.0X'.'.0X].!.,.Q.eXNXKXLXVX;.< r 0 - ; 4 : : o 2 ;././.1.,.Q ",
"3 3 > < 3 t 3 3 3 3 3 3 3 3 3 > > 3 3 3 6 F s F H K H L L J F x x x G Y U C , x Y U J.:.~.~.Y N z c N Y Y Y c x , , 2 C H K d d H C 7 < < < < 2 Z Z Z J Z J H J J Q ~ ,.6.5.5.).5.6.`.'.4.W 6 6 &.>.>.R 6 < 6 E <.1.>.%.R &.&.-.&.=.4.4.=.&.E >.,.;.L F 2 1 o X 1 X X 6 %.>.:.1.Q.!.:.! ! ].qX]./.].].[.`.1.%.K r X . . = 0 0 a 0 = $ % q f h h h j g s a a r 1 - 1 5 1 5 s d H R E K F s F H K L L H 6 6 F d H W E &.>.>.>.%.R s s 5 s 6 5 5 6 5 1 6 s 6 s s s F H K K E E E E E W W E &.>.'.0XVXPXJXR . 5 R d d R $.%.R K d k s k 5 4 ; * & $ $ $ & u f j [ $.$.[ w.zX9.f u + O . O # # @ @ @ # e # 8 = 8 % % @ # @ + +   @ . # #   #     # # * = ; u y k h h y y % & + @ + O O O O O @ . @ @ O O O O O O @ O @ @ @ @ % % e = e # = r e # r q e = = @ @ # = 0 q q q 0 q q q r y y u u = = 8 @ + O O O @ % = 9 8 9 q 9 q q q q q q r t t S S t v x x t 2 o X   + + + % = # @ # * ; 1 ; ; s j X.X.=.-.g - = f +.$.*.7.-.*.$.X.K K X.X.;.1.0.`./.,.,.,.! ;.:.Q.,.,.].].0X[.zXvX'.5 * 1 a = O . . . . . O . @ +     X # 1 K &.%.E R R R R R R E %.<.;.;.X.L J U Q `.`.<.E -.$.] [ [ h h h 1   . . X . H 0XcX0X'.6.).).).6.).6.6.6.3.0XUXbXk . k j [ j f h k a & & = $ $ * * 1 k H R >.>.4.>.~ >.,.~ Q E Q Q Q ~ /.qX0X~ < > 7 < W 6.5.'.'.)./.).,.,.].cXtXxXwXvXVXNXAX[.5 - ; = a y h f p p 9 = ; 1 1 > 3 U cXmX}.v v I L.J.Q.Q.J.^.).(.~.}.}.,.2 o o .     + # # : d 8.q.'.0.0.5.9.hXcXbXKXPXPXPXPXKXIXPXPXPXPXPXIXbXK . r # - q = & & & 9 & & & & 8 9 0 a a u $.q.'.'.'.].].,.! ,.0XNXAXJXVX<.# 1 1 - ; & o : o F 1.'.`.`./.,.",
"2 3 3 3 3 t 3 3 3 3 3 3 3 3 3 , > > > > < 3 2 1 2 2 6 6 F 6 2 2 , 2 F G L G x G U o.~.(.}.}.^.D N N N N A G c v , x J ;.;.%.%.E W L H H F F C x x C G G I J I J W Q Q ~ 5.1.,.5./.5.'.0X'.4.W d W <.E R 6 X < E >.<.&.%.$.-.-.*.R -.&.=.&.E R >.[./.;.L s 1 # 1 o X X s ;.,.:.!.Q.,.! ! U Q.(./.Q./.[.}.[.!.>.-.j a * + ; 0 0 - y u % * - y f h h j f a r 1 1 1 5 1 1 1 1 s F K K E E s s H H K %.%.L s s C H H E &.>.%.<.0.5.=.K d 6 6 5 a 5 6 6 6 s s s F s d H K L E R E E Q J W E >.>.6.'.0XAXvXLXAXE X 6 k j H d R R d j d k 5 4 o * & * & $ % u f [ $.$.$.[ f j -.[ j T u O O   % 8 = @ = @ 8 8 = 8 = % @ + @ + % + + + + + @ . . O O   + = 4 a a h h f a 0 = & @ @ + @ O @ @ O O O O . + O O O @ @ @ O O @ O @ @ @ % # 8 # = q # = 8 q q = e @ @ @ = e e = = e = q q r i f f f a i r 9 # + O O O & % 8 9 % 9 8 8 9 8 9 9 t e t t t t t S t t t 3 # .     * % % # % % e + q = = - r a j g $.=.-.g u y +.*.+.*.*.*.*.X.$.[ L L L %.;.2.;.Q U U Q U J Q Q Q J ! 5.,.>.5.0.R : . 5 4 ; $ . . . O . O O @   # X . 1 j &.<.>.E R R d d T H T R R H K K K P F 6 2 s s s g g a h [ f f u = . . . . . &.bXqX6.,.6.,.>.6.6.6.6.6.6.6.3.6.4.; o k k j a f a k k & & $ +   $ * ; 5 d R E E E &.>.>.>.E Q Q Q Q E Q ,.].).J X 7 Z C E 1.6.'.).)././.Q.6.(.].qX0XqXxXNXVXvX<.1 ; - = y y p f a 4 4 = & X X 3 P cXZX}.G l I Q.Q.~.! J.~.L._.(.I ! (.2.2 o X X   + * # # : 4 K 4.q.4.5.0.9.0XcXJXLXLXKXLXLXLXLXLXPXPXPXPXPXPXAXu . u & 4 = & % % % % O @ O + & + 0 r r $.5.q.[.'././.1.L.Q.].xXvXVXVX5.< 1 1 1 ; 4 o X < L 1.`./././.! ",
"x t v t 3 v 3 x 3 v 3 x 3 x 3 3 > > > > > > X X o < < 1 2 2 < < , 2 2 C F 2 2 C I U U ~.|.}.^.N.m z z v z l v v x J ;.<.<.<.&.>.>.;.,.,.>.Q J G C c c v C Z J J Q ~ ~ ,.Q.6.,./.'.'.'.qX0X0X>.K R W E H < X 6 E <.<.%.&.=.4.9.9.=.=.=.-.%.R H %.0.2.L P F 1 1 # < X X 6 %.>.1.,.!.:.,.:.! :.!.(.(.`.qXxXzX1.K s K K s a r a a a 0 = % $ = u h h g f a 1 ; # X X ; 1 1 1 1 s d F L 0.1.L P R P F E X.H s s F K L %.;.%.%.0.zX0X0.K d 5 5 6 2 5 1 1 s s d s d H H K K R E Q ;.&.Q >.~ E E >.5.'.0XbXVXbXJXbX&.o d R d d s d R K d 5 5 ; - - = - ; = - f k j j f f h j h j g $.=.[ = + + + = = q q q 9 # % = @ = = % + # @ + + + + + . .   . O $ % y y f p k f a u 9 % & & + & @ + @ O O @ @   @ . O O @ @ @ @ O @ O @ @ & % @ 8 % e q e = 8 9 q q = = @ + @ = = = 8 = # q = 0 y r f h [ g f f q # @ O O @ & 8 8 q 8 8 % @ % % % % e q e t r t t t t 3 1 r r q = & 9 = 8 % % % @ # = = # - a a g g $.=.X.f a f h [ [ [ *.[ *.X.X.X.P P G P L G J G J J Q J J I Q G C W ,.,.Q K k X o . - - - $ . . . . O . @ .     . . 1 K <.0.4.E R d d d d d d k k k s s d d s 6 5 s s a f h h h h p y - $ . .   . X %.'.3.W W ~ ^ W W ~ ~ 6.>.3.6.&.3.&.3.k 5 k k k y y p u 9 & O O + $ : * 1 5 d H H R E Q ;.E E E Q E Q Q J E ].5.C X 6 W H >.>.5.`.'.5./.6.,.,./.].7X].{.xXvXvXq.d X 1 a a y f i h p u = $ O . . 1 `.NXwXG , I ~.!.J.Q.(.(.}.).yXyX(.!.].!.L X X   # + * = * :   4 R &.=.3.9.=.&.q.cXVXJXKXLXLXPXLXPXPXPXPXPXPXPXPXzX: 9 & & & = & & @ @ & @ @ O O . ; a f %.0.'.`./.6./.Q.,.~ Q.].qXvXNX5.< # r 1 ; 5 o o 6 %.1.!.!./.,.Q ",
"x x 3 3 x 3 x 3 x 3 x 3 x 3 l 3 3 3 > > > > > 3 3 > < 2 1 < X > 1 2 2 2 2 < > < x x G Y U.U.Y D z N Y Y G c x x G Q 1.1.5.<.>.>.>.1./.`.`.,.U I c c l l l C Z J ~ >.>.,.1.,.,.5.'.'.[.0XxXcX'.&.H H 6 7 X X H 4.0.0.9.9.9.q.fX:XzXzXq.w.&.d 5 6 H F 2 P F t 1 < ; X X 2 E 2.,.1.!.,.:.:.! :.(.(.`.(.[.cX[.5.F . s j [ j f j f a - = $ $ 9 f j ] f a a r # X X X X < 1 < 2 2 6 s ;.hXzX1.2.2.L t P L H 5 6 H %.>.>.5.1.0.zXvXzX&.d s 6 5 s 5 5 s 5 s d g H d K K R R E %.%.;.Q Q E Q Q Q Q J J ;.5.cXVXvXcX/.E E H d d d d d d d 5 5 ; 4 ; ; ; ; = a a a a r r r a h a a h j [ [ f - + = 8 q 8 9 9 = # 8 @ = % % @ % + % + + $ + # + O O $ $ = u a f f k f f y u 8 % % % % = % + + @ O + @ O   @ O @ @ + @ + @ @ @ & 8 @ @ % % 8 = q q # 8 # = q e = @ @ @ e e = = e = e 9 q q y f ] g h j g a = O + @ + % 8 q u 9 % 8 @ @ @ @ e q r e t q t r r t r q q r q 9 u 9 9 8 & @ % 8 = = = = 0 a f k j X.*.+.a y h ] ] ] [ +.*.X.*.X.X.P G P G Z C G J I J I J Z Q ,.,.J J 6./.5.W X . X o 5 - u = . O O . O O . @   # X X k &.5.0.4.W 6 s k k k k 5 a 5 k k k s d s k s k k a a f p f f f u %     # X X < R >.H 6 H J / W W W W &.3.^ 6.6.q.6.:XR 4 k k k u u p 9 8 & + + + * # o 1 5 s 6 6 6 H E E E W E W J E Q E Q '.'.L > < W W E 6.5.6./.6.5.,.6.,.).'.eXqXqXcXvXzXK X 1 a a y q a i i h f y = $   X s `.hXo.3 c !.(.(.Q.(.{.{.(.Q.8XwXxXxXmXqXL X # o # # * ; * * : = k T +.T R k k T 0.cXxXmXxXZXCXSXKXLXLXLXPXPXLXPXUX4 & & p & % & @ O O @ @ O O O . % h $.0.0.`.5./.!.).,.! ~ /.].qXvXvX0.6 1 r 1 ; 1 ; 1 d >.1.1.!.Q.:.Q ",
"S x S l 3 x 3 x 3 x 3 x 3 v 3 3 3 3 , > 3 1 2 s 1 1 1 1 1 > o < 1 1 1 5 6 1 1 2 2 2 x c G S m m G o.|.}.(.~.U G Q :.1.1.>.>.%.E E >./.`./.1.:.! G Z I I U :.:.,.>.~ >.>.,.,.6././.].[.].zXxX0X6.K 7 < < X < R 5.0.q.0.q.q.q.[.fXq.q.:XhXq.%.s 2 2 2 3 t F 3 2 1 X X X < H ;.>.1.,.:.,.! Q :.!.(.(.(.{.cXvXcX1.1 X a j j k j h a & = O $ 9 f j j g h g s 1 1 # # 1 1 s 2 s 2 F F U cXvX`.0.`.;.2 s F s 2 s L >.0.0.'.0XzXcXbX0.a 5 5 k s s 5 s d s H H H H H K K E %.;.>.>.Q >.>.>.,.Q W Q E C 2 < L 5.0X'.6.W F d H d d k s d k 5 4 ; ; = * * = 0 - 0 r ; # ; 1 r t ; r g k g $.$.f = = q = = 9 8 = 8 % % % @ = % + % + + % $ % @ $ O $ $ & u a a f f k a k u = & % % % 9 % & O @ + + + O O + @ @ O @ @ @ + @ @ @ @ @ @ @ & % % = = 9 @ @ @ # 8 # 8 @ # @ = = q # = = = e q a a f f h g h h f - + $ + & % 9 9 q 8 8 @ @ @ @ @ # q i ..f f q r r r q r r q 9 9 y y 9 = & % % % q = e q 0 u a g h $.-.+.h f ] [ +.+.+.$.X.*.X.X.X.F F x 2 3 3 x C U J I J J ,.qXcX,.J 1.0XqX>.. o . : - 4 ; $ . . . O . . @ +     # o d <.5.'.1.H 6 6 6 6 5 5 k 7 k k k k a k s k a 5 4 u 4 9 y f i y = O   +   . o s >.q.5.&.W R H H W W W &.&.^ 3.4.6.0.3.4.T 4 4 u u u u 8 & & & + $ $ * : 4 5 k 7 6 5 s L R L >.E E L Q 6.5.5.0XcX6.< < F H W 5.0.5.,.6.,.,./.).'.qXvXvXeX0XqX1.< X 1 - # 9 = 8 9 i f [ j f a r r j 1.2.x x Q Q.:.!.!.Q.(.{.(.! /.).{.xXmXxXF X X o # + * = # * $ ; u k k k 4 4 4 5 H X.;.U Y Y N.~._.mXBXKXLXPXPXPXbXp 9 & & 9 & $ + O O @ @ O . O . # j 9.[.`.0./.5./.).).,.).].eXvXNXcX2.1 # 1 ; 1 a 1 2 H ,.;.,.,.;.Q I ",
"x S S 3 x 3 l 3 3 v 3 v 3 x 3 x 3 3 3 3 3 t F F s 1 1 1 1 < < 1 5 1 4 5 5 5 5 2 1 2 3 c G c z v U `.xXNXZX[.;.L ;.,.1.1.<.,.E J J Q 1.1.1.Q Q.|.I v ~.{.].}.qX/.Q >.>.,.6.,.5.Q././.5.`.].0X0X'.&.6 X X X < K 5.4.8.4.9.9.9.9.9.q.q.q.[.0XfX8.F 2 > > 3 3 2 2 1 < X X > 1 L ,.:.,.,.,.! U ! Q.!.!.!.].[.cXKXGX0.# . a j h j +.j y ; : O - h +.[ a g X.K g F g F t 2 H <.0.o.L ;.`.cXZX[.[.hXX.1 2 2 F s H ;.`.0.[.zXzXvXbX'.K 1 5 k d s k s d d d j K K K K K %.&.E &.E >.,.4.~ ,.~ Q Q ,.5./.,.L H H E 1./.>.W H d K d 5 s k a - - - ; * * = = 9 r #   X 1 1 r r s 1 X r s f s j [ f 0 q % q = = e # % % @ = # @ % @ = & = & = & & O & & & y f h f k h f f u & % % % % = @ $ @ + + + + + + @ + @ # @ = % @ # @ @ % = = O O % 9 q q - = 9 = q q + = @ O # @ @ 8 8 8 9 % 9 0 y u a f h j j h f 0 + $ + + 9 9 8 y 8 @ O @ @ @ @ @ @ y f y i y a q q r r q q q q i 8 u q 9 q 8 8 q q q q q f f g g $.*.*.f h ] ] +.*.*.*.*.X.8.X.X.F x x F x G U U Q U Q J J ,.qXmX].! `.qXcX>.o X o : . * ; & O : O O @ O O     # # < K 4.5.5.1.H 6 5 1 6 6 5 5 5 5 d 4 k k 5 j k 4 4 4 & $ 9 p a h i 9 $ + + # . o g %.'.cX0XR d d 6 d W W T W 3.3.4.6.9.6.4.-.4 4 4 9 u 8 8 & & + & & : : * 1 k d d 7 6 6 d H W E E H W W E 5.`.qXvX[.H < 6 H H >.>.,.6.,.,.^ 1./.Q.'.{.qX0X/.0X4.< X ;   O . & O & q f [ [ ] j j j X.X.F G U :.:.:.Q./.(.(.).Q.~ ~ ,.).0XxX].F X X # # ; = = = = = ; ; ; * 4 4 4 a 5 5 2 x x c m B D A Y Y (.mXSXPXPXvX. O 9 & & + O . O O O O O . .   . # $.<.0./.5.1.5.)./.)./.eXxXxXqX'.&.X   ; - ; 1 1 < 2 K ,.1.;.>.Q E ",
"S x x v x S 3 x 3 3 x 3 x 3 x 3 x 3 , 3 , 3 t S t 2 < 3 ; < ; 1 * 4 - 4 4 5 5 5 6 6 6 S S v S U 0.[.cXcXVXzX1.;.,.1.5.1.1.,.>.E H U :.,.:.J ! !.G v (.jX}.{.{./.W Q ~ ,.1.,.,.,.,.,.5.5.5./.'./.6.H < X X < K &.&.-.%.=.=.=.4.9.9.9.q.q.[.[.q.=.P t 3 3 t 2 2 t 1 > > o < H >.,.:.,.:.:.! :.Q.!.~.(.].].vXKXPXJX0.5 ; j j [ j T k u & & u h $.$.f s f K X.=.2.;.L H 2.[.cXcX[.[.hXbXbXhXzXcX;.> # 1 F K %.0.'.'.[.0X[.0XzX<.s a s k s k s k s d H j K K %.%.%.%.%.%.Q ;.>.>.>.,.>.>.,.>.~ >.Q Q :.>.;.,.>.5.`.'.W H R K d a a 1 u - = - - % * u - =   # 1 r a s K *.X.g a a r a f j a = = % q 9 = % 8 @ % = 8 = 8 % % % & = = % % & & & - u y y a f f f h y u = % + % & % % + @ + % @ % @ @ + @   @ @ = @ e % % = @ = q % + + + #   + $ = - r r 0 = @ @ # = # = + % & $ % = 0 0 = a a f f h g a = = + + 9 9 9 9 8 @ @ O @ O O + @ 8 y i 9 0 9 = q r i y i t f a y u i y i y y y i q q y f f h h +.-.+.] h h +.+.7.7.7.*.7.-.%.X.S F G U 1.[.[.{.qX(.,.I J Q !./.'.).].qX0X4.X . . X 5 4 ; $ $ = @ & & % +       X ; R <.4.6.>.W 6 6 2 6 5 5 5 d 5 5 5 5 a k k a a - & & O & y p f y 9 $ # #     X 1 j =.q.4.d d d 7 7 d T T T W 3.3.3.9.q.4.3.4 4 4 & 4 & & & & + $ O :   : 5 d d d 7 5 6 6 6 H R W C C 6 H 1.'.zXvX0XW 7 6 H H W H W &.6.>.Q E W W Q ~ E E ,.0X5.< X 1 # O . . O % q f h j g j g j X.K F L o.:.:.,.Q.,.Q.Q.Q.6.~ /.qXeX{.].1.1 . X o : # # * * # * # # ; - 4 4 4 5 5 5 6 2 S c B B D n.n.A A N.{.ZXLXvXX . & & % @ O @ O @ O O . . + . . . a %.4.5.5.,.Q ! ~ ,.,././.5.5.'.4.; . * ; 1 r 3 > 3 H >.,.>.,.~ ~ ",
"3 S S 3 3 x x 3 x 3 3 x 3 x 3 x 3 , 3 , 3 3 3 3 2 2 1 # X o o ; : : * 4 4 a 5 a s F F F S x G !.[.zX0XzXcXzX0.<.<.5.5.,.1.Q.,.Q Q Q :./.,.Y :.|.Y v }.mXcX(.!.>.W Q Q 1.1.! ~ >.~ Q >.1.6.5.1.6./.>.6 o . < K R $.%.%.%.-.-.=.=.=.4.9.9.q.q.zX[.2.P t t t F t 2 1 # < o > 2 E >.:.,.:.! :.! ~.!.~.(.(.[.VXLXPXPXJX3.a h j T j [ h a 9 & = h [ j f a f P %.8.`.8.<.2.1.[.vXVXcXcXcXmXbXcXmXcXX.# X < K %.<.0.[.`.'.0.1.<.4.&.s 5 5 d d k s d d d K R %.%.%.%.%.%.%.E &.>.>.>.>.>.,.,.~ >.J Z C C J Q ,.5.6.,.>.6.>.E R K K a - a u u - 9 = = = u 1 #   - s F K K 8.8.8.X.K g a 1 a K f = 9 = 9 9 e = = @ = 8 = 9 = % % % & = 9 & = = = u u u a f f f f f f a 0 = % % & % % % + @ @ % % + # @ # @ @ @ = e = # 8 # # % # r a * * * = * # : * = * + * # .   = = # = # = * & & - ; - ; u 1 a a s a 5 *     + % 9 y 8 % @ @ @ O     # $ & & = = = 0 y r r r = q r r q i p a p i i i f f i i f f h h f [ *.+.] h ] ] +.*.*.*.X.X.O.X.X.P L ;.!.(.cXxXcXxXcXqX].,.U :./.qXeXcX0XcX'.5 . . : 4 u a u - & u u u 0 * *     X 1 L <.6.<.,.W J C 6 < 6 6 F H d d k 4 5 j h k a & O O O & 9 p i y 9 = $ + * * .   1 R =.&.R &.$.W W &.R R R T W 3.3.4.9.;X3.T & 4 4 & & & & & $ $   . . : k K d H 7 5 1 5 7 6 H W F d 6 H <.0X].vXqXE 5 7 d d 7 < 5 W 4.,.W W C 7 C 7 C W /.qXcXK 1 d 1 * 0 % % q q f f a f a k g g F S P ;.Q ! ,.,.! ! ,.~ Q.~ ).eXqX]./.Q < . X : : + $ # # # # # # ; - u 5 5 4 5 5 2 6 x S N m b N A B N z D |.CXmX3 # # q - 8 @ + O . O . . . . . * d $.<.0.5.6.>.Q Q ~ Q W C 6 H <.zXzX%.. : o 1 3 1 3 > 6 >.1.,.,.,.,.",
"x x 3 S 3 3 3 x 3 l x 3 x 3 v 3 3 l v 3 v 3 t 3 t 2 1 < X # ; o : : $ = 4 5 a s a s H s F P 2.[.zXzX0X:XzX0X0.<.>.1.5.,.1.5.!.,.,.1.`.{.[.!.].wXU c |.mXcX!.;.U J J Q ~ ~ Q W E W J Q ~ >.~ >.,.0.5.&.C > 1 H R %.K $.$.-.%.=.=.<.=.4.4.=.q.[.zX`.;.H F x F g s 1 1 < > X > Z Q ;.! :.:.! ! Q.Q.!.Q.!.}.SXLXLXPXPXq.j j j j $.T +.h u : + a h a r r g K %.<.0.`.`.8.1.`.hXcXcX}.cXmXhXcXbX[.P 1 > 1 H >.1.5.0./.1.<.E R E K 6 k k k k d d d k d K $.%.%.%.%.%.;.&.;.;.E >.Q >.Q Q Q Q Q Q E E ;.L Q Q Q ,.>.>.>.E &.K H j a r r - - = - = = ; r r   # t K K K P `.[.`.=.%.2.K # a j s - 9 9 = 9 # % = = = 8 = = 9 9 = 8 = & 9 & & 9 = 9 9 y f a k f h k a u = % & % % 8 % + + @ % % + % @ % @ # @ = @ # % # @ = + a s f f s k d K j j d d 5 o     X .   =   # ; = = * * * = ; ; - ; ; a s a 5 a 1     * * = y 9 % + @ O   O # * #   + # ; * # 1 r r r r r q q f u u p y p y f p f f i r f f f f [ *.*.h f i h h h ] ] j j *.X.X.2.2.1.2.2.,.1././.cXxXxXqX].[.cXxXxXcXqXcXcX5.6 . . .   y h f u u y a u u ; #   X 1 R >.Q >.Q W E H F C 6 d K R d s s ; a k a k u $ & O   O 9 9 u u 9 9 = = 0 0 a s j $.<.9.9.9.:X:Xq.9.3.3.&.R &.&.&.&.3.9.9.T 4 & 4 9 4 & : & O $   . : 5 k d d d k 5 < o < 5 H K W H s F >.0XqXzX0.d < 6 d 7 o X o W 5.5.>.~ W Q W J W 5.0XbXbX5.1 s k r a 0 q y f y 0 0 = = a r r r 2 F U U :.! ! :.L.! Q.! ,.6.)./.5./.%.< . . : . + # #   # * * ; ; ; - - 4 - 1 1 2 t F x G A G N N z z b b Y |.|.3 > 1 r 0 0 9 8 O O . O O O O - K =.9.0.5.4.>.E W Q W Z 7 < < W '.VXbX9.  ; - < 1 3 3 3 2 Q 1.,.,.,.,.",
"t v t l 3 x x 3 x 3 3 x 3 3 x x v x S S S S x t F L K 1 X # ; * - & * * - 1 r 5 1 t 2 s K 2.`.zXzXq.q.0.'.q.0.4.4.1.6.,.1.!././.!./.].qXxX}.xX}.Y l !.cXqX/.E J Z H Q E J H J Q J C H J >.~ ~ Q 6.5.0.&.6 1 H $.K K K $.$.%.&.&.=.=.4.4.4.4.0.[.'.2.L P t t 2 a s 1 X > < > 6 J Q Q ! Q I I ! Q.Q.I Q.cXCXLXPXPXJX3.f h T T T +.+.T h & O u a 0 = r g F X.8.0.`.`.0.1.1.`.}.cXxXhXmXcXVXcX2.1 < X < K >.5.5.5.5.>.>.E R K d s k k j j j j j j K R R %.%.%.%.%.-.%.&.;.E >.E >.>.Q ~ W Q Q Q Q 1.>.Q E E E ,.1.5.6.4.E s K g a 0 0 = = 9 - = - u -   1 K %.%.X.L 8.hX[.1.0.zX[.-.1 s r # = 0 = - % % e = q = = 9 = 9 & u & u 9 9 u 9 9 9 q a f f h f f f y 9 % % % % % & = @ % % + % + @ + @ + @ @ @ # e @ # # % # %.9.=.$.=.=.<.q.q.q.9.=.$.K d a 5 o   # o # ; ; # * * ; - 1 1 1 1 1 s 5 2 s -.&.a # o = = u q @ O . @ .   X #   X   1 < o X o r # # r r q q 0 u u u p y i i f i f y f f y f f j [ [ h f p h p i h h g [ X.-.;.2.2.;.J F F H J E >.5.].cXcXcXmXvXqXqXqXqXVXbX4.k T u : . & 9 u u u y a y 4 + X . 5 E &.E E &.Q Q E W H W W E K d 5 5 5 k k 5 k - = = + O @ 8 8 & 8 9 9 u u a f -.=.=.=.=.9.9.4.9.9.9.9.0.q.4.-.$.-.$.3.3.9.9.+.4 4 4 4 & O O O : . . . o k k d d H d 5 7 o o 7 6 K H d 6 d ;./.0Xq.W < < d d 7 o : < W '.].5.6.,.6.5.,.5.0XcXVXVXcXd 5 R g h f f f y = = * # + +   # 3 > 3 G J ,.! ! ,.^ Q.J.,.,.~ ~ ~ /./.W o . . . : @ # # # # # * # # o # * 4 * 4 4 1 2 2 F P J U I Y A B A m z Y U.x # 1 = q 0 r q = @ % 0 0 h [ *.9.9.9.0.0.5.3.Q E E W H C C E '.vXbXbX4.5 a t 1 1 3 3 , x U ,.:.! Q ! ",
"S 3 x 3 3 x 3 x x x x 3 v v 3 v v v v S S P S F X.2.;.s # X o # 4 = * ; - 1 1 t 1 3 1 s X.5.[.zXzXzXq.0.4.4.4.4.4.1.5.5.5.Q.,./.1.1.].].qXwXhX!.x l Q.}.(.Q L W H J Q Q J C Q ,.Q Q W ~ 6.5.>.E >.6.'.<.d 2 s %.$.K K K K K E &.&.%.<.4.4.4.0.0.`.1.X.K 2 2 1 2 2 1 > o < > < C Q Q Q U G I I U Y G !.NXKXKXPXLXbXR 9 T +.h h T +.+.k 4 O * 0 * # r r s X.8.`.[.`.`.0.1.1.`.cXmXcXxXcXcX[.F X > . < L 5.5.0.`.5.1.>.%.%.R d d 6 j T R $.$.&.&.=.=.=.&.%.%.%.%.%.E E E E E Q ~ Q Q Q W E W J J W E E ;.,.6.>.>.>.'.zX'.&.g f r r 0 0 9 - 9 = = 0 # # t &.1.<.1.;.1.[.cXhXcXVXVXcXK a ; * = q # 8 % = = = q q 9 q = 8 8 9 9 u u u y u r q q 0 i f a f f f u 9 % % % % = & % % % = % + + % + @ + @ @ @ @ @ @ @ # # g q.cXq.0.0.q.5.0.7Xq.0.5.4.4.4.=.%.a X o ; o # 1 < o o < 1 5 5 s s s F 2 2 X.[.cX=.1   * = = % @ O . .   . X X 3 1 2 r 2 s P X.%.g # # - = = = u 9 u u y y y i a f i q r f y f h [ j f f h p ] h +.+.[ X.X.2.=.2.L F 2 3 < 2 < F C C L !.hXcXxXxXqXxXcX0XvXbX0X:X0XzX=.9   : 9 u u a a a 4 X X . 6 E %.&.~ E ~ Q Q E Q E E E R H 5 5 5 ; X = a g 0 = + O $ % @ & 8 = 9 u y h k X.*.-.j j +.[ j T h T $.3.3.3.3.3.3.3.&.3.3.3.T : : * : : :     . . : o 5 d T d k d 7 7 7 < o < d W H d 6 H &.4.<.E < . 4 6 5 < < o 7 >.0.6.>.~ ~ 6.,.>.5.0X0XNXJXAXR 1 j d k j k a = + # % $ # #   X # X > 3 J Q ~ ~ ~ Q.~ ! ! ~ ! 6.6./.>.7 : : . . . . .   X   .   X X   * : * ; * - - 1 r r s H E Q ! ~._.^.Y z A o.P 3 ; = - q y r 0 9 h +.+.$.$.=.9.q.q.0XzX0X'.4.>.Q ~ 6.Q 6.0XvXvXnXkXR j K F 2 3 3 3 v 3 I 1.Q.! :.:.",
"S 3 t l 3 x x 3 x l x l l x S v v S m S G S S S 2.8.8.X.; X o : - ; * ; ; 1 2 r 1 3 1 2 X.9.q.0XzXq.q.<.&.&.4.5.<.5.1.1.Q.6.,.5.,.~ :.!.].{.}.! x x ].}.[.;.J J H W >.Q E J ~ (.).,.~ ,.].).,.W E >.6.>.6 5 d K K K K K L R E %.R W R &.=.4.0.0.q.2.o.L F t 2 r 1 < > X < > > 2 J Q Q I G c G I U ! {.VXJXKXKXJXzXk 9 T R j k j j T h u $   = * # 1 ; > x ;.8.`.0.5.1.2.:.:.`.hXcXxXcXcXq.t X X X 5 %.5.0./.'./.5.5.5.>.W d d k T T R $.R &.&.-.-.=.=.%.%.-.%.%.%.E E E E Q E ~ Q Q ~ E >.~ >.>.,.1.,.>.Q E >.>.4.'.zX8.g # r r r 9 9 9 9 = 0 0 # ; K 8.8.5.0.1.2.`.zXcXcXbXFXVX'.g ; 1 ; - @ = e = = = q 9 = = 9 9 9 u u u y y f a f a r y y r r f a q q = % % % % % % % = = @ @ % % @ # @ @ @ @ @ @ = # # # # j zXbXzX[.'.0.4.6.4.6.4.0.4.4.9.q.0.%.5 X # ; < s 6 1 2 6 s F H L H P H F H `.cXbX[.s . X # + @ + O . O # # 1 r F K L H K ;.`.cXzXhX%.1 $ $ u u u u u u y y i f f f y f f f f g h h h y f h h h [ +.$.X.*.=.<.%.H 2 < > > > > < 6 C 6 6 F :.[.NXxXwXqXcXqXqXvXcX0XnXbXnXq.w.+.k 9 u p p y -   . X H &.>.Q E ~ ~ Q E Q >.>.>.&.W d 1 5 - . . $.9.7.f # = & + & @ & 8 9 u u p f k u u u 0 0 u a u 4 - - k T R $.&.$.3.&.$.$.&.3.d o 4 * $ :   O : : : 4 k k T d k 7 d k 5 5 7 o < 7 R W H K R >.E H 5 X X 5 7 7 5 7 s H &.6.E W W J H W W W ,.0.cXVXvX%.5 a a h h h y $ O   # * # o   # # > > x G J J Q Q Q.~ ! ! ~ )./.).5.W 5 o 4 : . . . .     . .     X # # : & ; ; = ; 1 1 5 d K E Q ,.(.XXXXK.N G U P 1 * & % = q 0 9 f +.9.=.=.+.=.0Xq.q.zXzXzX0X:X0.6.,.Q >.6.0.0X0Xq.=.R R %.K F S c v l l G ,.Q.,.! ! ",
"x S x 3 x 3 x x x x x x x v S v D S S P D G P S ;.`.[.%.a 1 r - ; ; o o 3 r 1 t 3 1 1 1 K <.q.[.[.q.0.%.j R &.4.>.>.>.6.5.,.,.,.>.U ;.,.].].}.U l x }.wX].>.W H J I ~ ! Q E ,.].].1.>./.'./.Q W H E E H 6 6 H L H H d F K K L E E H d R E &.4.0.8.2.;.X.K s 2 1 1 < X X < > > < J U Q U I G Z A A N.Q.}.mXKXJXbX=.4 5 j h j h h [ j [ f & + = = # # # . # P 2.`.`.1.1.2.;.2.1.`.].hXzXvX[.F # < X s ;.5.5.5.5.6./.`./.4.E W d k d j j k k k k s j K %.%.%.&.%.%.E E E E E E Q Q E ~ >.~ >.6.,.,.,.>.>.Q W W W H H R <.$.t q r 0 q 9 8 9 = = = - r a &.0.0.1.5.,.;.o.!.hX[.hXcXcXzXs # ; * = # 9 # 8 9 9 9 9 9 9 u u q y y y k f f g f f f r 0 q 0 q 0 q 8 = % = % % @ % % @ % % = = 8 # e @ # @ @ e # @ # q q 1 X.0XcXzX'.q.5.>.>.>.>.4.4.5.5.4.4.0X0.s X . o 6 X.H F d F F H L L L J J L 1.hXvXvX0XR X . . O @     # # 1 r s F L :.1.2.2.`.hXvXbXcX[.K . . & u p p u p y y i i f f f f f f h g [ j f i f p p h h [ j +.X.-.-.X.t 1 > < < X < < 1 6 C 2 3 E cXvXxXxX].qXcX[.zXvXbXbXbXvXHXbXq.y 4 9 4 a a u : . 1 K >.,.>.Q Q &.>.;.^ >.>.>.>.E H s s s : R bXPXq.g @ = 9 % & = u 8 9 9 y u u y a = = u 0 - u a p a a k k y k +.T T $.R $.-.&.k * : 4 :   . : : & k d T T T d d d d 7 7 6 4 o < 1 d K K R E R d < > o 5 5 6 d d H d W W W W H W C C W J W W Q '.0Xq.>.W R j R T j a + . . + # +   # # < > 3 F I Z Z J ~ ~ ~ ~ ~ ~ L.).,.~ 7 < k 4 & : . O . X   X     # : # # o o & 4 4 ; 0 a 5 1 d R ;.,.(.}.yX_.N v G 6 o : & + # % % % f *.q.7.9.q.zXzXq.%.<.0.0.0X0XcX0XW < R >.R $.&.+.j T X.$.P F S S S v , c U Q.U A A ",
"x x x 3 l l S x v v v x x v v v S S S D P Y P O.8.[.[.2.j d s 6 1 o o o < # 2 t 2 t 2 s K K %.&.-.&.&.R d d R &.E E >.6.1.1.!.,.Q Q W ! /.]./.:.c J !.!.Q Q Q C G I Q ! Q I Q /.1.,.~ ,.5./.,.H F E J C 2 6 H R F H J H H E Q >.Q H 7 6 5 H ;.1.1.2.U L P s t s 1 ; < 1 X X > < 6 E Q J I A N N N V A I !.NXVXzX5 5 - a g f f h [ +.+.T T p 9 u - *   X . X F ;.`.0.2.X.:.,./.[.[.qX[.zXcX%.> < < H E 1.5.6.5.5././.6.4.E T d d k k k u 4 ; * 4 4 5 k d R %.%.R E E E E E Q >.Q >.>.,.,./.6./.,.6.,.~ E J H H H H 6 R K a 1 q r 9 q 8 8 8 # 8 = = s &.0.5.1.>.,.U L :.!.`.[.zXzXzX>.;   = # q # & = = 9 = 9 9 9 y f y a j g f X.X.-.-.O.-.=.-.[ r = q 9 @ % = @ % & @ @ % & @ % = 8 = = # = e @ @ @ = q # - r 1 K 0.'.0.5.>.6.Q E W E ,.5.6.5.5.0.0X0X&.1 X 3 %.8.2.;.%.E J J H I Q Q Q :.].mXVXcXcX;.. . . .       # r K X.%.E ;.5.].].`.[.cXqX0XzX[.K . . 0 a h h [ f 9 9 p f f f h h h f h h ] g f q i i f i i h f j -.=.-.s o X 3 X X > X > < 7 2 7 3 F '.vXxXxXqX}.cX}.].xXVXJXbX:XvXIXzXk : : - 4 ; o X . 5 R <.,.>.Q >.! >.Q >.^ ,.>.>.Q E R d R d 9.IXUX*.& k u u 8 & + 9 9 9 9 y y y y y y y y u f h h j h h h h k k T +.T $.$.&.3.+.k 4 : : . . : & 4 h T T T T d d 7 k k 5 7 7 5 5 o o 5 k 5 s s 5 < X o < 6 5 d H R W d W W W W H Z H C H H 7 W / 5.0X'.6.5.0.q.6.4.3.R 4 . .   ; # # # # 1 > K 1.1.W x Z ~ W ~ ~ ~ ! ~ ~ 6.W 7 < 7 4 & : . : $ : X # # # o X X X o o o - ; 4 5 - 4 4 5 j ;.2.!.}.}.}.! l C C o . : *   = = O u =.q.w.q.q.zX:XR d R >.Q &.7XcXzX3.4 7 R R d d j d k s g t S S S m v v c N c v v l ",
"v 3 x 3 3 S x x S x S x x S S v m S S Y P O.P L 8.'.q.<.L K K d 5 1 < o X < 2 s s H K K K g s a a k k k a a d K H R &.,.1.,.,.1.,.>.Q ,./.(./.Q.U Q ].`.U U U J G G J U ! Q Q 1.1.1.,.5.5.`.1.L J L H 6 2 6 J J J E Q E E Q >.1.1.L C 6 6 6 W >.1.:.L L P t 1 1 1   ; F L s > . 7 J Q J G A Y B B V b z D (.].5.5 ; - u a a g j T $.$.+.+.+.h k u - # X X . > s 2.8.>.<.`.0.].zXzXqX[.zXzX<.5 s 5 H %.5.,.>.,.,.5.5.5.>.R d j j T d k T T T j T j d d d d T R %.E %.;.E Q >.>.>.,.>.,.6.1.Q.,.1./.5.,.W W E Q W E %.K g g 0 # @ q 8 9 = = = # # # a %.0.8.,.>.2.Q Q ,.].[.[.0XhXcX8.s # 0 # ; ; ; ; = = 9 - 9 0 q r f g [ [ X.-.=.7.7.9.0.fXhXfX=.f # ; q # # e 8 & % % % 8 = 8 e # # e e = @ # @ @ = e = # - # j <.5.5.,.4.5.>.W W W 1./.5.5.4.[.0XzX'.%.3 3 2.`.1.1.1.2.;.E Q Q ~ !./.].cXmXcXcX[.E X . . . $ . # 3 P ;.1.>.;.,.'.qXzX0X{.qXqXqXqX0.g # # a ] +.+.+.+.p u u u y i i f f f h h f f f q 0 y u 9 9 y a f X.%.K 1 X X o > X 1 < 1 1 2 6 2 < 6 ,.xXvXmXxX}.mX}.~.!.xXAXUXzXnXUXzX-.* ; 5 5 o : X X < s E >.>.>.! ;.Q >.>.>.,.,.>.>.>.6.>.&.%.0XzX$.  O y k h f y u 9 9 q 9 q q y y y y y y y h h h +.h k h j +.+.[ $.T +.$.*.3.$.k & : . : : 4 p k T d d T d d d k k 7 k k 5 k 5 : o 4 5 < X o X . o < 5 s d H T H d W H W W H W H H Z 7 Z Z 7 H Q 0.'.0X0X0.6.6.6.0.4.&.k *   + ; # # # 1 1 L 5./.Q Z Z ~ I ~ ~ ~ ~ ~ ^ '.W o o o 4 : : * 4 4 ; : X # o # X X X o X o o o o ; - ; 5 5 6 K ;.1.`.}.}.).C > o o o : * #   = ; u h =.9.kXzX:X-.k T W W >.>.W 3.0X0X:XH d R H d 5 5 ; 1 s S v v D S S c c c c c z v ",
"t l 3 3 3 v t v S v x v x x S v S S D S o.L X.o.2.%.%.K K $.K K 5 5 o o < 1 s F K L %.=.&.R s * * o * - 5 k k 6 5 6 H E Q ;.,.,.>.,.,.5.'./.,.,.Q Q ].].Q J J H G Z G U ,.:.,.1./.`.[.'.`.`.5.L L E H C < C H E E >.,.>.>.,.,.'.[.,.E Q R C L >.1.2.o.P s 2 o # . o K 0.0.K < X 2 J E J I D A A V V V z v J Q K ; o ; u u a f j R +.$.*.-.-.+.h u $     X X X 3 %.<.2.5.0.0.`.'.'.`.'.cXcX<.F s s J %.>.Q E ~ >.6.5.6.>.W T K T j a 4 k T -.-.-.&.T d k a k K W E %.>.E ;.;.>.>.,.,.,.,.,.,.,.6.~ ,.,.>.~ Q W C R E 1 1 s 0 0 0 9 9 8 8 8 @ # +   s ;.<.1.>.,.;.:.:.!.`.[.[.[.zXzX[.g # ; # # r = = = = = 9 q q q f h j X.j X.-.%.*.%.8.8.8.9.9.q.X.9 = = # @ = 8 @ % % % 8 8 = 8 # 8 % @ # = @ 8 @ = = q # ; < g >.9.5.0.'.5.6.E J E ,.'.0.6.0.q.zXzXzX`.F # ;.1.8.5.1.1.,.~ Q Q ,.).].qXNXZXcXxXhXL o . . . O . X 1 X.<.<.>.<.<.5.0XqX0X[.[.0X[.zX`.j . . h *.=.7.7.+.p 9 9 9 9 9 q y y y i y f y i q 8 i 9 8 % = 0 a j j s X X X < 1 1 2 s F H F H s 2 < F ].NXxX{.{.XX}.~.U 0XVXAXbXcXzXzX<.o o 5 5 o o o X X 3 F E Q >.;.,.Q ;.>.1.5.6.1.5.5.5.4.0.zXAXq.. u j j +.+.j f f 9 q q q 9 0 y y f f i y f h h [ h k k f j +.+.T +.T R $.+.-.*.j ; : O $ u k T $.T j d k k d 7 k s k 7 k 7 5 7 : . X X . . . X o 5 6 d H H W d W H W H W W H 7 H C 7 7 6 7 7 C C E &.>.&.W &.4.6.:X:X0X4.j *   # # X # 3 < H 5.`.5.Q W ~ / I ~ / ~ W ! '.^ o : . . : 4 4 k d 5   X X # X X X X X o X o o o - 5 5 5 5 6 d %.2.!.!.}.].! C < X - : * #   # 4 $ 4 +.:XnX:X-.< 4 K H H W >.^ W W :XcX5.R R s 6 1 1 1 2 F S S S m S m D v c v c m m ",
"3 t 3 3 3 t 3 S x S S S v x x S S S S P P L P K g t < ; s K $.K s 5 1 1 1 s H K X.;.<.<.<.X.a 1 ; * * 4 k k d s 5 < < 6 H W >.,.>.,.,.`.].,.F L F G ,.2.L L H G C C F U ,.1.1.1.0.[.qX0X'.'.1.E L J F 7 3 6 F J E ,.5.,.>.,.5.].]././.'.0.>.E >.<.2.E H t 1 1 X . s 0.zX[.R 2 < < F J J G A Y Y c V Z c , 2 < > o * ; ; 0 0 g [ +.$.$.+.*.&.+.u $   . X X X X # L <.<.>.>.E K L ;.>.0.0X[.>.K F H H J H H 6 C W E 1.5.4.&.j d T k 4 * 4 k T T $.$.R T 6 5 6 6 d R E E ;.>.>.>.~ ,.,.>.,.~ >.>.~ >.>.~ E E W J W [.0X%.: + 0 r q q 8 9 % = @ @ # # g =.1.>.,.>.>.;.:.,./.`.`.[.zXzXq.g   q # @ - = = 9 = 9 q 0 q r f h X.X.$.X.-.X.L X.X.=.&.$.*.=.-.[ ; . @ @ @ % & @ @ % & @ % # e @ @ e = @ @ @ # = ; q # # 1 K 1.'.[.0X7X`.6.Q W E ,./.'.`.'.0X'.0XzXzXL 3 ;.,.1.,.,.! ,.,.~ I ! /.(.[.cXmXxXxX}.o.X .   : .   . 1 X.2.<.&.2.>.Q >.`.`.'.[.qX0XzXzX-.r a *.9.9.q.fX7.h 9 8 9 8 q u q u 8 9 q q q q q u 9 y y y 0 a f h g 1   X X 2 s H F H >.;.H L F C 3 > ,.xX{.J.~.}.}.Q.I ,.vXAXAXzXq.0X0.5 5 5 o o X o X X X 1 J Q ;.Q ;.E >.,./.`.).`.].[.'.'.0XzXvXR 1 zXzXj +.$.j f y 9 q q q u y y f u y u u u y a y y h h a y k h h h h T T f T R k & : & 4 h +.$.+.T d d d k k k k 7 5 5 k k 5 o : . . . . X X 2 d K K R R R d R d W H W d 7 H C 7 C 7 , 7 7 7 7 7 7 6 7 7 W 3.6.:Xq.0XzX9.k # +   . # 1 # o 5 Q 5.].~ ~ ~ J W I J J / ~ '.>.o . : . : 4 k j K a o X o # X X o < X < < < X o < ; 1 < o 1 s X.>.2.1.!.!./.,.6 . : : : ; * ; 4 : u w.UXnX3.a : 7 H d H H Q q.4.T R 4.0X6.5 < 5 2 1 s 2 S S v S D m D D m m c m c z ",
"t t 3 1 t 3 x x x S S x x x x x c S G P P P F g 1 X . X a K %.%.K K d s 6 6 s L ;.<.<.=.$.k 5 - a 4 - - a k k 5 o o < < 6 F E L >.Q >.5.`.H > C H E ,.E F J L L x C F U >.2.>.1.1.0.`.0.0.5.1.L K H 6 2 3 2 s H E >.5.,.,.,.,.,.].`.'.].0X'.>.E ;.;.L s 6 1 < o ; =.zXzX'.Q x < 7 C Z C I I A D A N c l , < < o ; ; - ; ; u j $.R [ +.$.+.*.[ 4 $   + o X . X > K %.;.%.E s 6 s E E >.>.L H J F H F C F H H C C H W E &.$.T d T a 4 : * 4 k k T T T d s 5 5 6 6 K E E Q Q >.,.,.,.>.~ ~ >.~ ~ Q >.! Q J J W W J 5.cXbX=.- a u 8 9 = % % % @ .   * g %.<.>.>.>.;.,.1./.[.[.'.`.q.zXq.g @ q ; = e 9 9 9 9 9 9 q q 0 f X.$.=.<.9.0.<.2.;.<.0.hXzXcX9.q.q.[ O O % @ % @ @ & @ 8 % % % % @ = @ @ = e @ @ @ = = # # 1 %.0.[.0X].0.6.>.Q W J Q ,.6.6.5.5.0X0XzXcX,.2 J :.:.:.:.,.! ! ,.Q ~ (.].(.qXxXxXwXhX,.1 X . X     X # F %.%.%.;.>.K E ;.>.5.'.0X0XzX[.9.=.9.9.q.q.kXkXq.+.9 % 9 8 0 y y y y q y y 0 q q 9 8 i h h h h j j s ; X > > 6 F K H L 5.,.L L P J C > G /.! A (.yX}.N.Z Q ].vXbXqX'.cX0XE R H 1 X X o X o X < C L ;.Q U L Q 1./.`.[.'.0X0X[.0X[.0.'.K q.JXnXf T +.j f y = 9 9 9 q 0 u a y y y y a f f f y y f u u f h j T +.T h f k h u $ $ & u j +.j j j d k k k s k k k 5 k 5 5 s 5 X . . . . o < d R &.E R R R d W d W d H W W 7 C 7 C 7 7 C 7 < 7 < < 7 W E 6.:X6.q.:X:X4.k     + +   X ; o X 2 L >.5.,.~ W / J / Z Z W ^ 0X0X< . . . ; a k k k 1 X X < 1 < < 1 2 < < 1 2 < 1 1 o X o X < 1 X.4.X.K L U Q %.5 X 4 4 * # * ; : 4 9.bXbX4.k < < 5 7 6 7 Z E ,.1.&.W R zXvX1 X 2 x x 2 S S S c v S m m m m m N c m m ",
"t r r t t t S t t x x G G S F x F S S P F x 3 1 X X . > s K K K K d H H s s d K %.&.=.%.d 5 4 a k a a a a s a a o o o 2 6 F H F d d E 5.5.6 > 6 L 5.[.%.2 s K F 2 F F L 2.;.;.%.E %.%.L K X.R F H s 2 < < 3 6 F ;.,.1.,.;.Q E Q ,.1.1.`.[.0.%.K K K H 6 1 1 ; X k 0XvX[.>.H < < 2 6 C C G I I A A G Z 7 3 < < 5 - 4 4 9 ; - f $.[ h K +.+.$.+.- :   # : . X X X H %.%.R K F 6 6 L %.E C 2 6 H H 6 H E >.6./.5.>.H H H T T T d k a 4 * * 4 u k h k d k a 5 5 s d H E E %.>.>.,.>.,.>.,.>.>.>.>.~ Q Q W W E Q W F > 7 4.0.$.a 9 a 8 % @ @ + + @ . . 5 X.%.%.;.Q ;.>./.[.qXzX0.<.<.q.8.r @ 0 q = = 8 q 9 q 8 q q 0 q g *.<.9.q.[.[.`.'.`.[.zXVXKXKXzXcXzX9.r . + + % & & @ % # 8 % % % @ e e @ @ 8 % 8 @ # # # # t 8.0XzX[.0X/./.1.Q W H W E ;.>.>.4.0.'.0XzX5.x 2 U :.,.:.! ,.,.! ~ Q.(.].(.].{.cX}.cX{.o.> . . X # X # 1 j X.&.&.%.H d R %.&.<.0.0.0.9.-.-.7.7.w.w.w.q.w.+.u 8 9 % q y f i f f f f f f y u i p h [ j [ [ X.a # X < s K K ;.L o.`.[.!.2.,./.;.2 , ! ! Y ~.XX_.~.I ! /.7X0X0X`.0XqX0X5.>.H < X X X > X < 6 L %.E L Q Q ,././.].].qX].[.[.[.'.zX0XVXAXq.: j j a 0 - = 9 9 9 = % & = 9 9 9 q q q y y u = = u f h j [ +.+.+.*.+.+.h y & & 9 a j +.h k k k d k k k s 6 k k d 5 7 k 5 o . . . o 5 d K E E %.&.W W W d R W W R H H W W W W E Q W W W Z W W W 3.5.'.:X7X6.:X6.T   .   * .   # # o X < 6 W ~ Q W J H H C W 7 / '.AXvXd . . : * 4 1 1 ; # X # 1 r s s H s s F H K E E L F a < X X # O.`.X.2 s s 2 2 < o a k - : : : : $.nXUX:X6 o < 7 < < < < 6 J E ,./.4.W cXLXH X 2 F F S S c S N m S m m m S D m m m m ",
"q r r t t t t t F F G G L I G G G F F F t 3 # # X # o ; 1 a s d d s d d s s s d K %.&.R g 5 k k j h f k j k a 5 o X 1 5 6 d H s 7 d >.q.5.H < 6 H 8.[.%.1 6 5 2 2 t s F %.E P K s t s 2 2 s s s t 2 1 < < < 6 F E >.1.>.Q W H J J ;.;.>.'.5.R d d s 6 5 o < o o &.zXzX>.s 2 < C C C C C J J Z I Z G Z , > o o 1 a a a u = a j $.K h j *.R +.j - $     X   X X X d &.&.E E d s H H E H 6 6 J E L J ;./.0XxXbXvXqX6.K 6 s d k a u 4 ; $ : & * 4 4 5 4 5 5 5 5 s d d H W E Q >.>.>.>.>.~ >.Q ~ ~ E >.Q E Q >.6.'.[.'.6 . o j h 9 4 = % + O +     . . # g %.%.E E ;.Q >.5.0.`.2.-.<.q.*.9 @ q q # e 8 q q q q q q 0 0 h -.0.q.[.0X[.`.].`.[.xXVXAXJXbXvXbXcXj . . + @ @ @ % @ 8 8 = e @ = @ # @ e # @ 9 @ # = # o j [.qX[.[.'././.5.>.E E E E E E Q Q 3.6.'.].5.C 3 U ! ,.J.,.J.! ! ! ! /.].[.|.].}.xXjXmXvX1.> . X X . . # 5 K R R R d d K K R %.-.&.=.-.[ h h +.+.+.+.*.7.+.i y 9 q i i r r y f f ] ] ] f y u y f h f h h f 1 # < 2 L >.2.2.;.;.[.xX[.{.cXxX].Q , I J.Y ~.|.(.|.Q.,.Q.,./.5.5./.'.qX0X'.>.6 > X X X X > 5 H ;.;.L ;.,.,.1./.].].qXqXqXcXcXNXVXVXVXvX$.. j a - 0 % = 9 % = $ + + O @ @ & + % % 9 % 9 & 9 a j [ j [ $.+.*.=.-.*.j y u 9 u a h j j h j d d d 7 k k k 5 k 6 5 5 d 5 o . . o 5 d R E W R E R W H R d W d W W R W W Q 6.5.5./././.6.5.1.5./.7X:X'.7X:Xq.3.&.k o :     . . # X X X X < F W H J H Z H C Z C 6.vXAXvXT : : : : ; ; * o X   1 s g K L %.E L L ;.>.0.0.'.5.2.P g P t q.nX2.# a F 1 o * - d +.R 4 : . 4 :XbXvX$.o o 7 6 7 7 x 6 J E ,.'.'.5.E zXKX`.> x F c c S m D m m m m m m N m m m z m ",
"q q y t s g s S G P L Q ;.:.Q U F G P F 2 1 > # # ; 1 o X ; 5 s d k s s s s 1 1 5 g R j k a k k h s h s h k - o   : 1 5 s F H s d %.0.'.=.d a 5 d &.<.g < a s 5 1 1 3 t K K s r 1 # # 1 1 r t t 2 1 # < o < 6 6 R ;.>.Q Q W C H H U Q >.0.&.d d s a 5 1 1 X < < `.zX0.d < 2 2 C 2 C C C Z G J J I Q L 6 > o 1 a a k k a 1 5 j $.$.j $.-.$.$.j a * : : X : # X X 6 %.%.&.&.H H H H E F 6 H >.>.;.;.'.qXcXvXNXbXvX0.W 5 k k a 4 9 4 & : $ : : : : ; 4 5 5 5 6 6 s d H K E E E Q Q Q Q E Q Q E E Q Q >.5./.].wXAXKXLXJX;.  * a f 9 # @ @ O @ O @ . . X s %.>.E K E L E L L $.K $.=.q.*.q = q e q e q q w q q q q 0 0 g =.0.q.[.[.'.`./.(.0XxXvXVXNXcXcXAXbXR . # + + + + + @ = % # # 8 = % @ = @ @ 8 q @ @ #   < $.'.zX[.].'.'./.5.>.Q >.Q Q Q Q W >.~ 5.6./.,.C Z U Q.Q.,.! ,.,.! ~ Q ,.(.{.].}.[.}.[.ZXKXVXL X X X X .   a K R d j a s j j R %.$.$.$.$.$.+.+.[ h h f f h f a i f f f f i q q q y f g h y 8 8 8 u f u 0 a r # # 1 j ;.0.1.>.;.;.[.xXcX[.cXZXxX5.v c J.I J.U.J._.(.! ! ,.! Q./.,.).].qXqX'.W > > > X X > 2 F ;.2.;.1.,.,.,.!.`.].qXqXxXvXVXAXAXAXbXvXj X s ; ; a = % 9 = % $ $ O : y y a q y y a f y u f [ +.h j j -.+.$.7.*.+.h 9 9 - 9 0 y f h j j j s d k s s k k s k 5 5 d k o . X 5 d R R W R W R W H W W W R d W R W &.~ 5.0.'.0X0X0X].0X0X'.6.'.'.'.:X:X0.6.W d o : : . : *     : X X X o 6 7 W C 6 Z 7 7 < E vXJXLXzXk . : : : : * ; X # # 1 d K E ;.<.1.;.:.<./.`.].[.[.'.`.hX`.=.hXnX-.# K $.a 1 o $ j 9.9.R $ . d zXbXq.< . < 7 2 J E J E ~ 5.'.qX0X/.E >.VXcX< C S c S N S c v v v v v D m m v m m m ",
"r r i g g t s F F L L Q Q Q ;.,.U L x 2 2 # X X # # : X     1 s 6 d s d s a 1 1 - 5 k d j j j k k f a f h k - *   * 1 5 s K K j &.9.q.0.$.s 5 a s a 5 1 5 1 5 a 1 1 # 1 r t r 1 # q 1 1 r r r t r 1 3 1 # > 1 2 F E %.&.Q E H J L %.;.;.&.%.K 5 5 k 5 1 5 X X L zX0.H < 2 6 6 6 C Z Z H Z J W Q ! 5.,.K o X 1 5 u a a 5 a k j R j -.=.=.$.$.-.T - :   X   X X   o s E &.%.%.K d H H F W >.5.'.'.[.0XcXqXvXvXVXcX0.R a 5 u a - 4 ; - * * * : :   : o o 5 7 5 5 5 6 H H W W J E Q J I E E Q W ~ Q Q >.`.qXNXNXVXAXLXPXVXk   g = = @ @ O @ @ O .   . # s $.>.=.X.L K H F s K %.=.9.=.*.*.{ [ { f 8 8 e e y q q q q = g <.0.0.0.'.'.).).].eXwXvXNXvXVXvXVXbX*.. . . O O   + + % % 8 = 8 8 = = @ = @ = = = # # # 1 P `.5.5.1.5.1.1.,.1.>.,.1.,.E J E E E >.>./.:.C G ! ~.!.:.! ! ! ! Q ! :.(.wXhX(.{.xX|.}.VXKXZXt . X   # r d R K j k k k g j +.R K j $.+.$.+.+.h k u 8 9 u f f h ] +.[ [ f 0 # @ @ q q q q 9 8 & & % % @ * = # # 1 L <.1.1.,.;.;.:.[.}.].}.xXZXcXU C Z Y J.J.Q.~.J.! Q.,.,.1.Q.).).qXxXxXvX].H > > X > 3 X 2 L L >./.5.!.!./.`.].{.qXqXxXVXSXSXVXAXAX4.. o a * - 9 = u 9 = O & y T =.9.q.q.fXq.w.=.*.$.h h [ g h +.+.*.*.$.h 0 = = u = = 0 a a j j j d d d d a s d 5 k k 1 5 s 7 < . o d R W &.W W W W W R H R W H d W W &.>.4.6.'.0X0X0XqXqX0X0X0X0X7Xq.0.0.0Xq.&.7 4 o : : : * * #   . X X . X < H W C 6 d < < H vXJXJXAX0Xd . : o :   : # # X X 2 K %.&.0.5.5.`.1.1.1.`.`.'.[.[.[.zXnXhXnXzXX.O [ j X.j - # f *.9.=.k : 9.vXzXR : < 6 H >.1./.].'.qXcXxXxXcXqXK J zXcXx S c v S m S S v v l l v c m N N m m z ",
"..] ..g g F F F F P L L I Q ;.,.1.;.F 1 < X X X . .   #   o - a d d j s d a a 1 1 4 a a k k k h f h k h j f = $ . $ - - k K X.R =.<.4.-.d 5 a k a a a - = - - - # # X # # - # + # # # q 1 r r t 1 1 # 1 # < ; < 5 F L E E E L E E >.&.%.R R j a k 5 1 o 3 X > ,.qX1.F < 2 C C C C F C Z J J Q >.6.`.5.R 1 o 5 5 ; ; 4 k d K H d d %.&.=.%.$.=.4.K s o # o   X X : o d R &.&.E H H K H ;.5.`.0X].qXcXvXvXvXVXvXzX4.E 5 4 4 u : $ = $ $ $ + : :   X : o o o < 5 6 6 d F H W H J W L W J Q W Q Q E E Q ,.5.,.,.E E 1.cXcXH   r a u @ O O O O O @ + + # a $.<.<.;.R K H H j $.-.=.=.*.[ [ [ [ [ { ..q q q 8 q q q q q s -.0.0./.'.`.'.].].{.eXNXVXVXVXcXvXcXK .   . . @ @ @ + @ % 9 = = @ @ % 8 @ % e @ @ # # # 1 K <.,.,.>.,.:.;.;.>.,.5.1.,.Q Q E Q ~ >.,./.^ C Z Q.(.(.J.Q.! :.! ! ! !.(.wX}.].].}.~.|.mXKXGX%.X X   ; a +.$.+.j h s a k k j j h h j j j [ h h p 9 u y i h [ [ [ *.$.*.[ ] y = O O @ q 0 9 % & 8 @ $ + + #   o 1 %.1.5.0.1.Q ;.;.!.`.`.].cXVXNX:.l v ~ Y U U I I I ! Q./.).).].qXNXAXSXKXVX/.J < X > 3 < L 1.;.1.`.`./.`.(./.(.].].{.xXNXAXVXSXKXLXvX5 : 5 - * 0 u = = & = k $.9.q.kX:XkXkXzXzXfXq.9.*.f a f f j *.*.*.h 0 + O +   = - = 0 g [ j d d d g d d s d s s s 5 5 k k 4 X < d R W W R d d W W W W W T W W W >.3.>.6.5.`.'.'.[.0X0X0X0X[.0X/.'.7X6.:X6.T 4 : : : : * * & +       . . X < 6 H W d H 7 H '.AXAXUXzXq.k . : : . .     .   # 1 K <.<.8.`.0.5.`./.`.5././.[.'.`.hXzXhXnXnX..O h g j g a 9 a h T R j T 0XbX:X7 o W 6./.].`.].qXqXqXwXcXxXxXvX5.F [.VXL v c v D c m m v z l l z m c N m m m m ",
"] ] [ [ g g s F F F J U W J E ~ 1.Q F 2 > X X : . . .   $ * ; - s k j d k s a 4 - u a - a k k h f h f h h a % : O : * ; a K $.$.$.$.j d a - 4 a 1 a - ; ; ; ; - ; #   #     . . # + # # # q t # - # 1 # # 1 1 X < r H K K R R R E %.$.K j d k k a 5 4 X > > x ,.].U x 6 C H C J F H Z J J E >.6./.'.0.E 5 1 j j j R $.E R R K d F E >.4.&.E 4.0.4.$.s o o #   X . X ; K %.%.E R K H E >./.'.'.'.0X0X0XzXqX0X'.>.&.d 5 5 5 - = = * + :     : . . : : X : X o < 5 6 6 s H C H H H H W J J W J J Q E J 6 < > , > X < %.[.=.- ; f r # @ O O O @ 8 9 0 = 0 g -.<.<.-.$.R K $.%.$.X.j ] [ *.+.+.*.*.[ { ] q e e q r q q s =.0.0.5.`./.)./.(.].0XwXmXNXvXxXvXzXd . . X   @ . @ + % % % @ = % % % @ @ 8 = @ q r # # 2 K >.<.,.1.,.,.,.,.>.6././.:.J J Q E E Q ~ 1.! Z G :.~.Q.J.U J.! ! :.,.Q.(.}.}.|.(.}.}.yXZXGXmXU X X   * a j $.j f k a f a a k f k a k +.j ] h f u y y f h [ +.*.[ [ -.7.*.*.[ i 8 O O 8 9 9 8 8 q = 0 = = # X # s ;.5.1.1.2.;.U L 1.`.].[.cXNXvX2.> , Z I I U I G ! !.).).).(.].eXNXNXAXSXVXxX5.2 X > < x 1.[.>.>.`.`.`.(.`.].'.].].{.qXxXNXVXVXAXKXKX%.. 5 a $ u u = & u k +.w.q.q.9.w.9.q.q.q.q.fXkX=.h a f h j [ $.[ a @       + ; *     1 a a d d d H d d s d d d k 7 7 k 5 o o d R W W T W 7 W W H W W T W W W &.&.&.3.>.4.5.5.'.'.'.0X].'.7X'.'.0X0.q.6.&.k : : : : & * & $ O O .   X . X o 5 d H 6 H H &.cXUXvX0Xq.3.4 . : . . :   .   # X 1 j 2.0.1.0.`.5./.0.`./.`.`.`.`.8.`.hXhXnXfXf @ [ g g h g f a a k j k 3.zXbX6.5 7 Q 5.5.,.Q ~ /.`.]./.Q./.].cX].J cXKX(., c m N m v v v v v v l m N D N m m m ",
"..] g g g s 2 F C C J J J C C C H F 2 > < o X X X .   : * = ; - - a a a a a 5 ; - 4 - - a a h f h g h f h y % O O     $ r g K j s a a - u 4 a u u u u 0 9 9 - = 0 - * $ + + O . O + @ # @ # q q ; # # > 1 1 1 # o 1 1 a s s s 6 k k d k d f k k u a 5 ; 3 3 v U :.Z C F J H H H Z J J J J Q Q ~ 5.0X'.&.5 5 <.q.0XzXzXq.&.W H W R ;.5.5.4.<.5.4.4.<.K 5 ; X X   X . X 5 K $.$.R K R %.>.5.5.5.,.>.,././.5.&.R H H a - ; ; ; = = = # $ +   . : . . X . X o o < < 5 7 6 6 d C H H Z Z H J J Q W W Q J 6 < X X > > 2 E [.zX<.s r # % @ O O @ @ q f a 9 # a X.=.%.=.*.R X.X.[ j p a f ] { +.X.@. .*.[ { ] i i q r q 1 j <.0.0.!.,.>.Q ! ,./.).,.,./.[.cXvXvXL . . . O . @ . + @ @ # @ 8 % % @ 8 % % q # r q # 1 H %.1.1././././.1.1.,.1./.5.:.Q I Q Q Q >.,.,.L c Z Y Y U I U ! U Q Q ! :.!.].].(.Q.(.XXCXKXmX!.L P 1 - ; - k j j k a u 4 u a p h k h +.*.+.T h y p y i f ] [ [ [ [ +.*.7.*.=.7.*.[ q = + 8 9 y i p f h f 0 1 # # r >.<.1.>.2.Q U L 2.!.`.|.[.cXcXo.X > C C J J J Q !./.].(.Q./.(.eXwXwXmXNXVXNXqXJ X > F ;.qX[.;.2.[.!.1././.(.(.(.].].].qXeXxXwXqXvXKX5.. o 1 * u 9 u u k +.-.=.9.-.-.-.-.*.=.w.q.q.:Xw.*.+.[ h g h f u = * = *       * 1 a - 1 1 d 6 s d H s s k d 6 d 7 5 5 5 ; 5 k R R W H W W d H W W R W R $.&.E &.E &.E >.>.4.5.6.'.q.'.'.'.'.0X0Xq.0.6.W 5 o 4 : : $ * $ O . . O   . . X X o 5 6 5 d K R 0.:X9.9.=.T 4 : . . .   . . # + # ; 1 X.<.<.<.2.;.2.,.1.5.5.5.5.5.1.2.8.fXnX8.e q [ ..g g [ h h j T j d 6.zXzXE 6 E >.,.Q H F Z E E Q J 2 C L ].[.E vXPXxX, c m m m m m v v l l v v m N m m c m ",
"[ g g t a t 6 2 x 3 C Z C < < , < 3 > > < < X   +   . O $ * ; - * ; 5 a a - ; = - - ; = 9 u a f f g f f y q & O O O . . $ 0 r a r - r r u a u u u u y u 0 = 9 9 9 9 - & O O . . O O @ @ @ # e r # # # X # 1 # # # X # o * o $ : * 4 4 = u k a p y a t # 3 , v D c c G J J W J J H H J J J Q W Q >.5.5.R < d 0.zXzXnXcX0.W H W W W 6.[.0X0X'.0.>.%.4.>.s X # # X X X . X a K %.R K K %.>.5.5.>.E H E 5.'.>.W d d s 5 - o $       * + +   + . . . . . X o 1 5 5 6 6 6 s H C H H Z C H H W J W W Q E ,.5.,.E J G F J ,.hXVXzX-.r @ % @ @ 8 9 q i i f q % - f [ %.=.*.K h j j f a i f ] [ +.{ +.+.+.[ +.{ ] f y r 0 - X.<.1.1.5.;.J C C Q /.(.J x C ;.'.vXnX%.. X : . @ . @ + + % % = = % % 8 @ % % e q r r 1 g >.1.1././.5./.!.!.1.,.1.,.,.:.U U U Q U ;.:.! G G Z c G I G I U J U U I Q ! Q.Q.Q.J.|.mXKXCX}.o.;.1.E R j h h j j j f y 9 u u k h +.+.+.-.+.T h p a f p h [ ] [ [ [ [ X.*.*.7.9.q.q.*.] 8 = q f f h h +.j a 0 # X o R >.>.:.;.Q ;.Q L ;.1./.`.qXcXE > 3 H H H L J ;./.].(.!./.).(.qXwXmXNXZXVXVXwXE > L 1.].cX`.:.!.[./.1.!././.Q.Q.,.! ! ,./.].(./.0XAX0X6 o ; u - 9 u y h $.$.T j +.T T -.7.w.4.q.9.q.q.9.=.*.h j j 0 * * * : # ;   5 $.q.[.q.=.%.d s s d d 6 7 k 7 d 6 5 5 5 7 7 d T T W R T H H H H W H W W W W W 3.E 3.E &.&.>.>.6.5.5.6.5.5.0.'.0X0Xq.0.4.T o 4 : $ & : & O O O O O O   X   # X X o 1 s s s $.$.R R k : . : . .     .   . # # # X t %.<.%.%.E L E ;.>.1.>.<.<.2.X.=.hXhXX.e ....g g g f f h j K j R '.vX0XK s E ,.5.~ Q I J L ;.,.J x G ;.].0XE cXPXAXl c N D m m z m l l l v z N N M M m m ",
"[ g f r s 2 x F x x , C C C C H J J 2 < 1 5 1 * # . . . $ * ; - ; ; u u a u - = - % $ * % ; 0 0 f f f i y 9 @ & $ O O .   + = ; ; 0 0 a a u u y u u u u 0 9 - 9 9 9 = & @ O O O . @ + @ @ = # # # # # # # # # ;           .   : : : : & & 9 u u a q r 3 3 S v S c c I Z J J W W J J J J J W J Q E 6.3.H 5 s =.<.<.0.q.>.R W E ~ Q ].qXqXqXvXxX0X;.<.<.j o X #   . X X X 1 g K X.K %.<.5.0.5.>.W W ~ 6.0.>.W d d 5 - * #   . . @ + + + +         o 5 a d d H K K W H d H H H H H C H Z H J W W Q E 4.].cXvXxXqX`.].[.cXvXzX2.# # @ % @ 8 q q i y i q 9 8 9 a X.-.$.X.j j a i f f ] ] [ ] +.[ { { { [ [ { ..h f r r -.0.0.5.1.>.Q J Z ~ ].qX:.C Q 1.[.xXvX&.X . :   @   @ O + + @ % @ % @ @ % % 8 @ q q ; r %.5.0.0././.!.!.1.:.,.,.,.,.:.:.! Q U U U J Q Q G x v x c c G G G G G J G J I ! J.~.U ~.yXCXCX|.Y :.,.&.=.&.$.+.T d h k y u & 9 u k h T +.+.+.h f k y a f f h [ [ [ [ [ [ [ X.*.9.fXfXfX-.f q q f h ] j +.[ f 1 # # # K >.>.>.;.;.,.;.Q :.5.'.'.zXzX;.< 6 K H K L K %.5././.!./.).].eXeXmXNXVXCXVXcXQ P !.cXcX[.>.1.[.[.].!.1.!.,.Q Q ~ ~ ~ J Q 6.)./.qXVXqX%.1 o a = = u f T +.T k k k T T $.-.3.9.w.w.q.q.w.9.$.k j h 1 $ # . .   1 s $.q.cXbXvXzX0.K d s 6 6 a 6 6 k 7 7 s 5 7 5 5 T R W W H H d W d / W H W T R W W &.&.&.&.E E &.>.>.>.5.4.5.4.6.5.0X0X[.0.&.5 : * * : O O O O & + O @ + + + o # X X o X o ; ; k j k a : . . : . . .   O . @ + # X . 1 K %.L L K K H E E %.E E >.R X.=.hX8.e = ....g g f a a h h j j =.zXvX'.K F E ,.1.,.,.Q Q ,.].[.`.,./.qXxX'.E cXLXSXG z N D m m v v v l l l v N B D m M m ",
"X...g r t F J L J I J Q Z ~ ,./.(./.;.F F H a - : . . . + $ $ ; - = u k a u u 9 9 & $ + $ + = = q f i y q = & @ O O $ O O   + = - 0 a f f f f y i y y y y 9 q q 9 9 u 9 % & O O O @ @ @ @ = # @ # # # # # # # #   .   $ $ $ O : : : O : O & = 9 u 0 r 3 3 S m D N G G I Q Q E W J J J Z Z J J E E 6.4.R 5 5 s a d R %.W W Q 6.5.).].0XcXxXvXVXvX'.>.>.%.1 # # X # # < # # 1 s K X.%.<.4.`.0.6.>.>.6.4.>.R 6 5 5 ; o *     @   + O   + # - r a k R R &.&.&.%.E R K W H H H H C C H C H H J W W E E >.5.].VXKXSXVXmXcXcX[.[.=.# # @ 8 8 i i w i y i q q 9 = q f [ $.*.X.j f f y i f ] ] ] ] ] { [ [ @.+.*.X.[ [ ] g 2.0.0./.5.,.!.,.:.,.wXNXcX(.qXxXxXvXcX>.o . X O   O + O + % # % % @ 8 % % % e # q = r g %.<.5./././././.!.!.,.,.,.:.;.:.:.U ! :.Q L :.I x x v v x v x x F G Z G Z G G I U ! A N J.}._.~.Y U X.P K +.+.T j j j j f u u 9 4 p f T R [ h y y u y f f f h f f h ] h f ] ] [ =.9.hXhXw.[ i i [ +.+.[ *.$.j a - # < 6 &.>.>.;.;.>.:.>.,.`.[.'.zX0XE 5 5 H R K R E ;.1././././.).).].qXeXwXxXNXNXxX!.,.`.qXcX(.2.!.[.[./.1.,.:.Q I J Q ~ ! Q ~ ,.).qXNXvXqX0.R 1 - - u i h +.j h k d j T R $.-.9.9.q.9.9.w.9.q.*.j j a 1     . X : 1 s R <.0.q.'.4.%.W H s d s 5 7 s s 7 s 7 7 5 7 d W R R H d 7 / 7 H T W W W W W W &.&.&.&.Q &.E %.E E >.6.4.4.6.5./.0XcXzX0.R ; o * o : & : O & & % % @ +   # # : o X * : * o o 1 k a -   . . : . .     . . @     # . X r K K K L K E E E L K R E H %.8.fXX.q r ....f f t r r y a a k 9.vXnX4.W H >.,.1.,.,.,.1./.].xXcX].cXxXcX5.Q cXPXLXo.l m D m m m z z l l l N m B m M M m ",
"[ [ g t s P ;.:.~ ,.! ~ L./.qXqXxXqX/.;.Q %.F 1 X . . . $ + $ $ & - u y y y 4 0 u = $ + + O + = q 0 0 0 q 8 O O O & $ @ O O # 9 9 0 q f h h f f a p i y u q y q u 9 u 9 9 & O . O + % % @ # @ @   # + # # #     O .   $ * $ : O : & & & & O & & 9 q t t 3 S m D D N I ! /.5.,.E W J H Z H C J W Q 0.'.>.6 1 6 1 1 K E R W ~ 6.6./.].7X0X0XwXNXvXvX5.;.%.t # # X # o r 1 # . # s -.<.<.4.q.:X'.5.4.>.W 6 5 < 5 o o ; # + O   @ .   + @ = 0 h $.-.=.-.&.&.&.E E E R H H H 7 H H H C H H Z Z W J Q E >.6.1.].VXSXCXNXcXhX8.8.[.X.@ q 8 8 i i q i i i i q q % = 0 f [ *.+.] f y f i p p ] ] f ] ] { [ [ { +.7.*.[ X.g -.<.0.`.1.,.'.5.5.5.qXVXNXxXVXVXvXcXcX<.<   o #     O + + @ + % & % @ % = @ # e = @ = g K L 2.5.1.!././.1.,.,.:.,.:.,.:.! ~.o.:.Q.~.Q.G > v 3 3 x 3 3 x F F H J G J G G I U Z c z l c c C F x 1 5 a k j [ $.[ +.k f k p 4 k h +.+.T h k u k y y a f i f f f f f f y f ..+.w.fXfXq.*.] h +.7.-.+.*.$.h a 1 ; 1 6 ;.1.>.;.;.;.;.;.E >.'.5.'.[.E d d d d K R R %.1.`.`././.Q.! ,.!./.;.:.`.}.qX].[.`.(.].`./.'.(.`.5.>.Q Q I W Q Q Q.).).,.Q.qXvXVXvX0X[.<.5 - 0 u k [ T T T h j T $.$.$.R =.3.3.4.4.9.q.q.3.j k ;   . X o 1 1 1 5 1 d E >.R H F R W C 7 d 6 6 k 7 k 7 d k 5 7 7 R R d d 7 T 7 7 7 / W W W W W R R &.R &.&.W R W K E E <.1.>.5.5.'.0X0X:X4.d : o * & & 4 & & & & 9 % # + + # +   $ . ; 1 a g r a s 5 * : : . . : .   . . . . @ . X X .   t K K R ;.%.K H H s H E X.=.q.8.i = ....t i r q q 0 0 0 r a 0.bXcX>.H 6 E >.1.1././.1.!.,.cXcX].}.qXcX6.W vXLXLXQ., m m M m m v v l z v m m D M M b M ",
"$.g g g K L :.2.Q.!.!./.].].}.qXxXxX{.:.Q o.F # X . . : : $ : & & & & 9 y k a u u 0 = + O O : & % 0 y q = % @ @ 8 # @ @ O @ 9 q 9 = q i f f f f f f f y q q q u y q q 8 9 9 8 @ @ @ @ @ @ @ % % O O + + @ # @   . O @ * = % & @ + + & & & & & & 8 u r t x S m S x G U !.!./.Q.Q Q J C Z Z J J H W /.qX<.s 1 5 K R &.E H W 6.7X/.7X'.).'.).].wXNXvX'.%.&.K o X 1 X # 1 # r o . r %.<.=.=.4.q.q.q.5.<.R s 1 1 o X # # % @ O O O O O @ 9 q h [ -.=.=.=.%.%.E L L E H W W H H H H 7 H C C H C J L J E >.5.,./.].NXLXVXvXhX[.-.8.8...i i i e i w i w i w p y 8 q 8 = h h g f y i i f ..f f p ..] ] ] +.+.+.+.*.*.*.*.[ -.<.8.<.5.`.'.5.1.,.].qXqXcXxXNXcXcXnX4.5   = + + +   + # @ # $ @ % = = % = % 9 % % = ; < 2 %.1.1.1.,.!.1.,.,.,.;.,.!.~.Q.Q.J.~.^.}.mX!.3 3 2 3 1 > 3 1 2 P L L L G C J J I G c c c c c x > X X # * = a j $.*.+.+.T T T T T -.$.+.+.h a a f 0 y r a q y a f r a 9 9 = y [ [ 9.fXq.w.*.+.*.w.3.*.*.[ a 0 1 1 ; 2 K >.>.;.;.E L L K H E &.&.E j d d d g H L L Q :.1.!.!.,.Q Q U 1.(.o.F :.}.cX}.[.].`.[.].].].,.Q ~ Q Q Q E Q Q ,.,.0XqX! /.xXNXNXNX0Xq.<.a ; 1 u h j j j k d j R +.$.T R -.=.4.9.9.9.0.q.4.j a o X X # X 1 d d 6 5 6 H E W H H W ;.W 7 6 d 7 d d d 7 k 7 7 d R W W W 7 W 7 7 T H W W W R %.$.R R $.R j K K K d H R E E >.<.4.5.0.zXzX0.$.1 o a 0 - * % & & & & % % # + + + +   + + 0 h *.$.[ k f 1 - *   . . X . . . . . . +     # X # 1 t g j %.$.X.g s a g K X.8.8.[ # e i e t q # e 9 9 9 0 ; j zXbXcXR 6 6 E ~ 6.,./.,.,.5.,./.zX}.`.].`.;.3.vXLXLX)., c N B m m m z l z z m m N m b n b ",
"-.g r s K o.1.!.!.~.!.(._.{.qXeXwXqX].!.Q L F 3 X .   $ $ : $ $ & 9 4 4 u f a u 4 4 $ : . . . O $ 9 y 0 8 = 9 q q q ; @ @ + 8 q q 8 # 8 q f f f f i f q q q q u 0 q 9 9 9 9 = = + @ @ @ @ & @ % +   + + @ # @ # O O O + $ % & $ + & & O & & & 8 u u r 2 t x S v l x :.!.!.(./.,.E Z C H J E J J Q /.0X5.R 6 6 d W &.H d W ,.'.).,.,.,./.6.,.5.'.]./.>.;.E 1 X #   # # 1 r 1 X a &.<.9.4.4.9.0.6.9.4.&.%.d 1 o X X   O @ O @ @ @ O % q p [ *.=.w.=.-.&.%.$.W W H W H H H 7 6 H H 6 7 d H C H H W J W E ,.,.1.}.VXLXKXGXhX2.2.8.7.[ { w i i i w i i 8 i q i u q 8 q q q q q i f i i ] ] { ] ] ] [ { +.{ *.X.@.*.*.j -.<.5.0.5.5./.>.>.E Q Q ,./.5.[.qXvXzX=.1   * # #   @ @ @ % @ @ @ % + % = = % 8 @ + + # X 1 L 2.,.,.,.1.:.:.,.;.;.Q.(.(.|.^.(.^.^.}.mX!.F x r 3 X X 1 r s H K %.L L G Z G Z G Z c x v x F F s K K $.*.$.+.X.[ R R +.+.+.+.+.+.*.$.j a 9 ; 0 0 q q q 9 q q q 0 q - = + = a h w.q.q.q.=.*.*.w.w.=.[ a 0 r q - 1 o F ;.<.>.E R L H H K K R R d s s s s K K L L U ,.,.Q.,.,.! ! Q |.xX}.[.{.cXcXcX{.[.].(.`.(.1.J 6 J Q Q ~ >.Q Q E ~ (.{.)./.qXvXVXNXcX0X>.1 - 5 5 h j j k 5 a d K j K K K K %.&.>.<.4.'.[.8.a o # X X X ; 6 H H R H 6 H 5.0.>.H W 6.Q d 6 6 6 d 6 7 k 7 k 7 T W W T W H 7 W 7 7 7 T R R W R K K h f k k k k a a a g K R %.;.<.0.0.0Xq.4.R 5 : * * $ & & % & 8 9 9 # + + + + + + +   = a g f 0 ; 0 = # *   . . . . . . .   .       X   X # r s X.K j g g s t g g -.7.*.q + # t q e e = # % = % = : $.zXbX0X5 7 C E ~ >.5.Q.6./.1.;.1.qX}.].].1.J &.bXLXLX/.x N c B m m B b z l l l z m M n b n ",
"=.g 1 s K ;.1.!.Q.Q.Q.(.].{.{.].}.qX{.`.:.L F 3 X . . : $ $ : & & 4 9 4 ; u a a 0 0 ; $ : . . O O = 0 = # = 0 r r q q = + @ % q q e @ @ q y f f f f q f q y u q q q 9 q 9 9 8 @ & O O @ @ @ @ @ @ @ @ + @ # = @ + + O   $ $ & % + O O O O & & 8 u u a t 3 S S 3 , x :.!./.!.!.!.Q J J W Q 1.,.Q 5.'.0X0.&.K d d K W 7 C ~ 6.~ W W J ~ ~ ~ J C H '.'.1.%.%.s o #   X # # 1 ; # s $.=.=.&.$.&.&.<.4.4.&.&.d o . .   # @ @ @ @ 8 @ @ 8 q ] +.7.7.7.7.=.-.%.R E L W H H H 7 H d d 6 6 6 6 6 6 6 C H R H W >.>.Q U /.ZXJXGXcXfXO.O.*.7.{ ..w w i w q w p w p w u i q q 8 8 q i f f i i h ] ] ] [ { [ +.{ ] +.[ +.*.*.[ $.-.<.5.<.4.5.>.>.E F H Q 6.,.1.0XcXq.K * * = # + + @ @ @ % % & % $ & @ * = = 8 % # = # # 1 L 1.>.Q ;.,.;.;.:.,.:.Q.!.~.(.^.^.~.U.U.|.:.x t 2 1 X X 1 r s K K %.L L H C F Z G A Z x x L ;.8.8.q.[.hXq.q.9.=.*.$.+.$.T +.R $.-.-.T a 0 # + # r r r r r r a f a a 0 0 = $ $ - R 7.q.9.*.*.$.=.7.+.f % = - - 1 1 o 6 E <.>.%.L K s F d d d k 5 5 a a s d L E ;.;.,.1.,.Q.,.:.:.:.`.cXmXmXZXVXNXcX}.}.]./.`.].:.2 < J >.>.~ >.Q Q Q Q 5.].'./.qXxXAXAXVXzX<.5 1 a a d d k a - 5 a s 6 k d d s H K R K K <.kX<.5 X # # . X 5 R E %.E H H E 0XvX].E 6.5.0.E 6 k d 7 6 k 7 d 7 d T R T W T T W 7 d 7 T W W $.$.j j g 1 u - 0 0 a 1 a 5 a s j $.R &.9.q.0Xq.4.$.k * : $ $ & % 8 = 8 & % % % O + + $ O + + + $ = + + + $ * * #   . . . . . . .   . @ .   X   X # 1 f X.X.j f a r a g j =.X.g @ + # = @ @ @ e @ % % = = 0 q.bXvX'.6 H W W Q ,.6.5.6.1.,.,./.].qXqXqX1.W 0.vXJXSX1.C G N m B D n.N.Y D D N B u.A n.B h.",
"9.X.r s L 2.!.!.:.:.! Q.Q.Q.Q.! Q.].}.`.Q.U F < X . . : $ $ $ $ : & * & & ; 0 0 - 0 u & O . . O O $ = # + = q r r r r 9 # + % = y q # 8 q i f f f f f q i q u i q q = = 9 9 = 8 & @ O @ @ O O O + @ @ . @ = @ = % + O O O O + + + O O O & & & 9 u u a 1 t t 3 , > x ;.!.`.!./.!.:.~ Q ~ /.0XqX].0XqX0X5.E E W d H R 7 H 6./.>.~ I J Q /.~ Q H J qXcX4.E >.d X #   X #   ; r ; d j $.$.K H j +.-.-.%.%.$.d a ; ; + + @ @ @ @ 8 8 8 w w i ] { *.7.7.7.-.-.$.L W R / T H H 7 C C C d C C 6 6 7 6 6 H E J H W J C > P 2.8.-.8.[ e e 7. .{ ' ' w w w p w 8 u q i 8 i q r q q f f ] g ..] ] ] +.{ +.{ +.{ +.] { +.[ +.[ j j %.&.>.>.1.>.%.E H W >.1.5.5.'.q.%.1 ; r ; @ = # @ % & % @ & $ & & % % % $ % = ; 9 r o 2 L 2.>.;.U Q Q Q 1.>.:.Q.!.(.^.|.^.N.N.Y D G x s s r # # 1 a g F K X.L J F C C C c c x G J ;.`.[.'.q.q.q.fXq.q.9.8.-.$.$.+.$.+.+.-.$.h a ; * + ; r r g X.[ K j j s a a 5 ; ; * * - =.9.=.+.3.w.=.-.h & .   # = ; o X 2 R <.<.%.K K d d s s 5 5 4 4 0 1 1 s K ;.>.1.!.!.!.!.!.1.,.! :./.}.cXcXmXNXmXcXcX/.;.!.'.:.2 < W ,.>.>.>.Q Q >.~ 5.0X0X/.].qXVXAXAXqXR s s a a j j k 5 4 < 5 5 5 6 d d 6 6 s 6 1 o s <.4.j 1 1 < . X K &.<.>.E R W >.0XcX0X5.0XzXcX5.H 7 d d d 7 d k d 7 R W W T d / T T 7 k d W R R j j a a y q 0 9 0 0 u r - a a j X.K =.9.'.q.q.4.-.j a * - = & 9 & 9 9 = = + $ + + + O + @ + + + O O + $ + * * * o . . . . . . .     .         #   = t *.=.X.j t r t ] X.X.] q = # e @ @ = @ # @ @ + $ $ j zXvXnX0XW E E Q >.~ ,.1.Q.,.,.J ,./.(.qX].>.E 0XUXAXvXQ x c D D Y U.^.^.|.^.|.~.~.^.^.^.Y.^.",
"q.X.s K %.>.:.1.U I I I J.,.I Z I !.}.(.!.o.L 2 X . . . : * $ : : : & $ + = ; 0 - 0 0 - $ . . .   . . O + - 0 - r r a 0 - = = ; a y 9 @ = q a f h h f f y f y q q q q = = q 8 = % @ @ @ + @ O O + @ @ O @ @ + @ @ + @ @ @ . O @ O   + + * = u a 0 a a 1 t t 3 > > 2 Q 1./.`./.5.!.,.~ 1.].qXqX0X`.]./.W H %.>.R E E 5 H `.'.).'.~ ~ /.eXqX0X].qXVXvX5.R <.j X ; # . O   # a r g j j j j h k k $.$.R $.j g k r * + @ O @ 8 8 8 w w w w w i ' ] +.*.*.-.-.$.%.K L d H 7 H d 7 C 7 7 7 6 6 6 6 6 6 H W J F H E 6 X > P r f *.X...e  .w.7.{ ( p w w w p w w 8 i w q f y y i f ..] ] ] ] ..[ { { ] ] ] +.+.+.+.] j +.j a - d %.&.%.E E E K L Q >.5.5.5.0.0.$.a a a = 9 = = % % & % & & & & & % $ $ $ + % = ; 1 # t K %.>.;.E L U ;.,.;.,.Q.Q.Q.~.Y N N Y Y G P P P f s - o a g g K K K K F 6 6 C C C C x G L ;.<.1.8.=.8.8.w.9.9.9.9.=.*.+.[ +.$.$.$.T a - - o # ; a K X.$.K K j s 1 s s a 5 5 5 5 5 T 9.q.q.nXzXq.+.& O . . # * ; # X 1 K <.<.%.K d K s 5 4 ; 4 ; ; o # 1 a K ;.2.1.1.!./.!./.Q.,.,.o.~.`.jXmXmXbXmXxX'.;.Q ,.5.J > 7 J >.,.>.,.>.,.,.,.5.'.]./.'.xXVXVXbX5.6 5 k 5 s j d s 5 5 5 6 6 6 d H H C 6 6 5 2 < o K =.%.K s a X ; K <.&.&.&.%.R E ;.>.5.[.zXvXvX'.W 6 d d d d d 7 k d R W W W d H T 7 d 7 T R R T h f f f i i f i p p f f a f a g [ X.-.q.fXq.q.9.-.j 0 = & = = 9 & 4 & & % & + + : O & $ # & @ O & $ = = $ * * *     . . X . . . . . . #   # # @ # # r X.8.-.[ ..a i ..X...r 8 # # + @ @ @ @ @ + @ @ O + R zXvXzX0X<.;.E %.Q >.,.,.1.,.>.J Q ,./.[./.L E zXAXbXq.F F S S D Y U.U.U.~.U.U.Y.~.^.U.N.N.N.",
"q.-.g K ;.>.,.:.Q I I ! Q.(.).Q.Q.{.}.].!.!.o.H > X .   * ; ; * O & = $ * # = - - 0 0 - $ . . . . . . . * r r 1 r r t a r 1 1 0 g f r @ # q f ] [ [ [ ] ] j h f i q 9 9 = 8 = = % % @ @ @ @ O O @ @ O @ @ @ O @ @ + # @ . @ . . . .   # - u a f a a a 1 ; 1 # X X F L ;.1./././././.,.,.5.].]./.5.'.4.s 6 E 4.>.R H < H 5.7X/.)./.).].wXxXxXNXvXVXvX4.E 4.$.- - # . # * r f g [ [ K j g j s g k j $.R j j h u + % % 8 e 8 w w w ( ' ( ' w w w ' { *.X.*.*.$.K R W C H H C 6 7 < 7 2 7 2 6 6 6 6 d K K W L K F H %.9.-.7.fXfX{ w { @.gX#.' ( ( ( w w w w w 8 i e y y f f f g h ..[ ] [ ] ] ] ] ] ] +.] ] ] [ ] +.f 9 * a R %.&.R %.E K E >.5.5.5.5.4.<.K a a a 0 0 q 9 = 9 % = & = = % * = % * $ $ * = ; 1 < 1 F L :.;.U L Q Q ;.:.,.:.:.:.U A v D G U G t F s r f r r h X.j X.X.%.F s 2 2 C 6 x 6 C H H %.%.-.%.-.-.=.8.9.w.w.9.9.=.$.T +.*.$.$.h a - ; # o 1 F X.E L H K K K s s s 6 1 o o 5 5 5 <.0XnXbXnXq.p . . . O + ; ; # X o s %.&.$.j d k a - * * : : :   # 1 s %.<.5.`.1.,.Q.!.1././.Q.Q.!.[.xXbXmXZXhX!.L L 1.`.>.2 X 1 J >.1.5.5.6.1.,.,.1.(.].].qXxXvXNXxXK X o 1 5 k K K k 5 5 6 6 7 6 6 J E W H 6 d L E 6 < j %.K j 1 X 1 K &.>.&.%.W H H s 1 H 4.0XcXcXq.R d s d d d s k 7 W R W W T H d 7 d 7 d T R +.T f f h ] ] ] ] ] ] ] ] ] ] [ [ [ +.X.-.9.q.q.9.7.$.a = + $ $ & & & & & & $ + O O O O O O + + O + & = = % = * # #     . X . . . . . . @ . @ # # @ # @ = t [ [ g t y t g j f q = = @ @ @ @ @ # + +   # # + $.nXnXzXzX4.>.Q ^ Q ~ >.,.,.>.Q Q /.].'.(.;.H >.bXVX:Xs X 2 S S S D D D D D N D D B N V B N B ",
"q.X.s L >.2.,.,.:.! U Q.(.{.eX}.}.xXxX}.`.!.;.H 1 o X : : * * o * $ * * # * = 0 - 0 - - * $ . . . . . . ; r r 1 1 r a s a r 1 1 t g f 9 @ = f [ X.*.*.[ [ *.[ h i r q = 8 = % % % % @ @ @ @ @ O @ @ @ @ @ @ @ @ @   + +     # +   * * ; u 5 a a a 0 5 * ; 1 # X < P L H E 1././././.,.,.,.1./.1.5.5.>.6 5 K <.>.E H 2 E /.'./././.)./.].eXxXxXxXvXcX>.$.4.%.5 ; ; # r f g j j j j j f f h a f g k j R +.[ j f q O 8 8 w w p p ( ( ) ' _ ) ( ) i ( { { [ [ X.X.R R H H H 6 7 < 7 < < > < < 6 6 s s K R E %.%.X.=.fXhXfX7.w.gXdX} ' dXdX#.p ' _ ( w ( p w w i i i y r f f f g ] j [ ] ] ] f ] ] ] ] h h ] h h f f u % * a j -.$.R %.&.E R %.<.0.0.0.&.R g a a f a y 9 9 8 = 9 9 = = = = * * * * * = * # 1 1 1 1 2 F L L L J L E Q >.Q ;./.qXxX}.cX}.U G S 2 t g a a a h K *.*.$.$.$.j s 6 6 6 C 6 s F P K $.X.%.$.$.$.*.-.=.=.7.=.9.3.*.+.+.$.$.+.a a 1 o o 3 s L E %.L K E >.;.H 6 2 < o X < 7 7 s &.0.[.zXzX9.u . . O O * + # # o o 5 d K j s 5 5 ; *   : : : :     o r K %.1.`.1.!.1.,.Q./.Q.!.,.!.!.].cXxXcXzXC > L `.0.H X X 6 H E 6.5.6.5.1.,.4.5./.0XxXvXxXvXvX0XK X o X o s j d 5 6 6 7 6 6 C C E >.1.Q E Q 5.'.%.o 1 K $.s ; X 5 d K %.<.E R d 6 2 1 1 d &.5.0.>.%.j a 5 d d k k d R R R W T T H d d k k j T T h f f ] +. .+.{ +.] { [ [ [ [ [ [ [ *.*.7.w.8.=.*.[ f = & $ O : & & & : & O : O O O O O O O O O & $ = = = ; ; * *     . : . . . . . @   @ # q # #   @ @ # r q r # q y f g t q q = = @ @ # @ @ @ # + # + # T :XzXvXzX[.4.,.~ >.Q >.,.,.,.>.,.,.)./.~ F H 0.bX0Xd . X t t S S S D S m m D m V m b N m V N ",
"0.F s L 2.,.,.Q./.Q.J.Q.Q.{.{.wXwXwXhX}.(.:.U K 2 o X :     X # * * * * = o ; 1 - 1 - - ; : . .     . . * 1 1 1 1 r 2 s s 1 1 1 - a g 1 + = r f [ +.*.+.[ [ [ f f y q 8 = % % % = @ @ @ O & @ @ @ O + @ @ + @ @ @ @ #   @ # # = ; 1 a a a a a s a 1 - * o ;   . 5 %.E F H ,.5./.5./.5.,.,.>.,.5.5.5.E 6 6 H &.>.E H 6 H ~ 5././.,.)././.0XqXcX0XzX0X%.$.<.-.a ; u = j [ $.*.[ g f f a y f y u f g g h f 0 % O . O 8 8 w ( p _ _ _ ' _ _ _ ) ) ( w w { { [ [ $.*.K W W W H H C 2 7 < < X < 1 5 s s d K K =.<.<.8.fXhXfX7.gXkXgX#.{ dXdX| _ _ _ _ _ ' ) ' ' ' ] p f f ..f f ] g [ ] g [ ] ] ] ] ] ] +.] +.] h p u & +   * k K $.E &.&.=.%.<.q.0X'.0.%.g k j s f a q q 9 = 9 = 0 0 ; = #   X   # # # * * o 1 # > 1 2 2 2 6 J E Q 1.,.;.;.0XCXKXKXCXNXo.P t 2 a a a a h j *.-.-.-.j X.s s 5 2 2 6 s 6 s H K K K j $.[ [ $.*.7.=.4.9.=.w.=.*.T +.j T a 5 5 o o 6 L >.;.;.U L Q 5.1.L 6 6 7 6 R >.0.&.E &.K j $.=.=.a O . . $   O # ; * o ; 5 a a - o * * $ : $ $ $ O +   X X 1 s L ;.1.1.Q.1.,.,.,.Q U U U :.!.[.}.`.2 X d <.E < . X 6 d R E 5.0.4.5.4.,.5.'.qXvXNXvXcXcX[.E 6 o X 5 k K K 6 5 6 6 6 J H W Q 6.).'.5.`.'.zX1.o < $.K g 1 1 a 5 s R %.R H 5 < 1 1 6 5 5 R R R %.T 5 4 T d d 5 d T R W T H H T d d 5 k k j [ h f p ] { +.{ #.{ ] { {  .{ +.@.+.*. .*.*.7.7.*.[ ] a 9 % O O O : & : O O O O O O   O O O . O $ & & 9 u u - ; - # o # : o   # # # + # + + # q # # # @ # @ # @ @ @ # f g ..i q # e # @ @ @ @ # #         . X R 9.zX0X0X5.6.,.>.>.~ Q >.>.~ Q ~ /.,.E F &.vXzXR . . g K r P S Y S D S D m m N m N m N N A ",
"<.s > H 1.1.2.,.,.Q.Q.,.! Q.).{.{.{.}.}.1.o.H s 1 ; o o : X X . o . # ; ; # 1 ; 1 ; 1 r s f a . . . . X X # < 1 2 s P K L %.L K a r s g - + 0 q h h h ] h g f f q q 9 = % @ % @ % % + @ @ @ O O O O O @ O & & @ + O + # ; # # r s j K K K g d g a 5 5 4 * & & . d >.E s H E 1.'././.5.,.,.>.,.>.>.E H 6 6 E %.>.E F 6 C E ,.5./.1./././.0XwX0XcXcX5.E %.$.R j h h j [ [ [ [ f i q r i r q q i r q f ] h f ' ] ] ' ' w p ) ( p _ _ _ _ _ _ _ _ _ ) ) ..' ..{ X.+.R R R E R J K H 6 2 o X X X < 1 5 5 s $.&.&.8.q.kXkX7.@.w.dXgXgXdXdX@.} sXsXsXsX| _ _ ' { ' ] ] ] g j j [ X.$.j g [ [ j ] ] ] f ] h ] ] f y 9 8 O O     $ 5 j R %.4.4.4.9.0XzXq.&.j s g f a f 0 9 q = = q # = q # 1 r 1 1 # # X #   o 1 # # 1 1 2 < < F ;.1./.`.>.%.'.bXAXSXAXzX1.L 2 1 a u u p f h +.-.7.-.X.j j s t 1 2 1 2 1 s d H j j j K [ [ $.$.$.-.=.=.=.=.7.3.+.T +.T T k 1 o X < 6 L ,.:.>.Q L Q Q E J H E ,.'.qXvXVXVXvXcX<.6 X j $.h     * $ +   + # ; * ; - - 4 - - * $ + * - - a k a 1   X . X X s >.>.1.,.,.,.,.! Q :.! `.`.`.[.1.X > 5 6 1 X . X s 5 7 d &.5.0.0.5./.'.5.0XqX0X'.5.0X5.%.K s ; 5 k R K 5 6 5 6 H E Q W Q ,.0X0X'.'.0XcX'.s X 1 R %.R s s 5 5 d d s 5 o o < 1 5 1 1 5 s K j K o 5 j 9.d k d K R R H H T d d k 5 4 k h h h i ' ] ] { { ] { ` ] } +.+.@.+.[ @.*.+.+.[ *.[ [ { i q % @ $ + O & : O : O O O   O   O O O O O & % - 0 u 0 0 - - ; - ; - 4 1 a j h a = # # q e = + @ @ @ @ @ @ # q i t ..e = @ q q @ @   #   .     . # - 4 5 K 0.0X0X[.'.`.6.>.Q Q >.Q Q Q J W Q H E 0XbXq.  . f X.*.X.P S S S S S v v m m v m m v v v ",
"<.t X 2 ;.,.,.,.,.,.! ! ! ~ :.).].{.}.].,.U L H s 1 X   X   . X X X o 1 < 1 1 1 1 ; # o 1 s d a . . . . X < 2 H %.>.5.'.[.qX[.0.E K j g r # 9 9 q y i f f f y 0 q q 9 % 8 @ @ @ % % & @ @ @ & @ O @ @ @ @ O + + + # + # # # t F %.=.<.<.%.%.K K d d k 4 4 4 * : j <.&.6 d E 1.5.5./.1.>.>.,.>.>.>.W d 7 s J E ;.E s 6 H L >././.!.5././.[.zXqXzX[.=.j g j h a y a f f f f a q 9 q i q i i i q q q y f *.fXzXnXFXkX7.' ' ' _ ' ' _ _ _ _ _ _ _ ' _ ) ) ..' ..{ [ $.R X.$.R K K H F s 6 1 X . X X X 1 s j j j *.7.w.kX@.+.@.@.dX#.@.#.#.sXsXsXdXdX#.dX#.#.} { ' ] g h j j $.%.-.&.X.K j h g f f f h h h h p y 8 & & O O     * - a j $.=.$.%.-.$.$.a ; 0 a a a 0 = 9 q = = 0 # r t g X.2.<.<.=.P 1 o X X X < 3 < < 1 6 L 1.[.0X0X'.>.&.0XVXJXUX'.K 1 1 t a a a y u h h +.*.=.-.$.$.K g 1 < < 2 5 6 s g d j j g j j j [ X.+.-.=.=.=.=.3.3.$.[ h [ j k k a 1 1 6 W >.,.:.Q Q L J J E 5.'.qXqXvXAXSXAXKXVXVXcXE 1 1 1 .   * $ O   O # - - - ; - 9 = ; = * ; f h j j j j d s r < X X < L ;.,.1.,.>.~ ;.:.1.!.cXqXqXcX;.X > 1 6 5 o . X 5 5 o < d E 4.5.6.4.>.Q Q >.,.,.'.'.5.E E d < ; s R K 5 5 7 6 W E >.E W E 1././.5.`.0X0.6 X 1 K 9.=.K s 1 1 s 5 ; < ; 1 1 1 1 5 1 s s a k j - # d 9.q.j k R R R H T T d s 5 4 4 a p f p i ] ' { ] } ] ' ] ' { { { #.@.*.*.@.*. .*. .*.[ { f q 8 & @ & @ : O O : O O   O O O O   O O O & = & u u r a a r - ; 1 - a k j $.X.h 0 = e # = # @ @ + @ e = q q r ..f f # e @ @ @ # +     .   ; s K -.8.4.&.&.5.q.'.zX[.].'.5.,.>.~ ,.>.W Q E Q W <.zXcXR   0 K =.8.*.X.t S t 3 x S v v v z v v v l v ",
"2.6 X > F E ;.,.>.,.~ ~ I I ~ Q.(.].]./.U J L %.R s o .   : X X X < r 1 2 s s t r 6 1 o   k %.$.5 1 o X < s $.>.[.zX0XcXcXVXNXvX'.<.%.K a r - 9 q q i i i r y q q 9 = 8 % @ + O @ % @ % O O O @ @ O @ @ @ O O O # = # X ; s X.%.0.0.q.0.0.4.&.&.%.$.d a 4 4 4 : R 4.&.6 6 L ;.1.5.1.1.>.>.>.>.>.E H 6 6 d W E &.W 6 6 F L Q 1.5.1.5.5.1.`.0X'.'.4.R a a a a a y q q q q q 9 8 9 i q q e i e i i i w i ]  .7.gXw.w.#.' _ ' _ ' ( _ _ _ ( _ _ ) _ _ _ ) ) i ' ..] [ $.*.%.$.$.R K K d s s < . . . . . o r - 9 f +.#.w.w.#.` #.| | | | sXdXdXlXdXlXdXgXgX#.#.+.{ { h g j $.-.=.=.=.$.T j j j h f f f f f f y 9 % @ O & $ O O .   : : u k a - : $ : . * 0 0 = = 9 + q e = # 0 r t X.2.8.[.[.hX[.0.<.s 1 X X o > X 1 F ;.`.cXcXvXxX'.&.6.vXAXJXzXR : . # a a a u p u y f j [ $.*.-.-.X.K 1 X < 1 2 6 a d g g d g h g j j j T $.-.&.$.-.=.=.$.[ T h T j j d d 6 s W >.1.Q :.,.Q Q :./.].qXqXqXwXvXVXVXSXKXLXKXvX&.5 .   # * * + + + # 4 - ; 9 ; = ; ; - - a k j j j j R $.$.j g t 1 < K ;.>.>.>.Q >.,.,.,./.qX[.0XqX%.o . o 5 5 1 * : 5 o X . o H E &.>.E E L H F W >./.5.E E &.K 1 - k $.j 6 5 6 6 H E E W 6 6 C W >.1.>.'.0.s . 1 =.'.=.j 5 o X 1 o o o o 1 1 1 1 a a a s f d a u . * R nX4.k d R R T T d d k u 9 - u p i p i i ' i ' ' ] ' ' ' ' ] { +.+.@.@. .*.7.*.X.+.[ { i 0 q & & O O O O : O O   O O O   O   O $ + $ 9 9 u u u a a r - a a 5 k j $.$.*.g r = # q q @ @ @ # = r i r f [ ] ..f y q @ O @ +     # # # s X.4.q.hX[.'.'.q.5.5.'.[.0XqX0X/.>.>.6.5.>.>.~ E <.0X0Xq.5 r [ -.*.7.7.X...S t # 3 3 , l l l l l l x l ",
"0.P > X 2 H L Q ~ Q U I I Q Q :.!./.!.:.L L E 2.%.d 1 : X X < < < 1 s F s L X.H H K L 1 X 6 &.4.%.R s 5 s %.0.`.[.qX[.qXcXNXVXAXvX`.X.s a r 0 9 q q 0 i f i a y q q q = @ @ O O @ @ % % @ & @ O @ O @ @ $ O O O +     # 2 X.8.`.[.[.[.'.'.0.5.4.4.<.T 5 ; : 4 : j =.<.d 5 H E >.>.>.Q ;.Q >.>.;.E C < 6 F W E E H F F W ;.>.5.5.,.1.0.1.5.5.=.<.j k a k h f f f y f y y q i q i e i i i e i w i i w w e @ e @ e e w w ' _ ( _ _ _ ( _ _ ) ) _ _ _ ) ) ) w ( i ' ] [ $.*.$.$.K K K K K s a 1 o 1 # . . . . O 8 ] #.w.gX#._ _ _ #.| | sXdXdXdXlXdXlXlXkXdX@.{ ] [ [ K K R %.>.>.3.E R K $.$.j h f y a f r q % @ @ @ & & O O . . . . . :       $ - % = 0 - + + = 8 e r r q 0 r g X.8.0.8.q.0.`.[.[.<.%.6 # X X > K <.0.[.zXhXvXvX'.W kXUXbX:X$.4 : ; - a 0 a u u u 9 u f j j [ X.$.$.K 1 X < 7 1 1 s d h d h g j k h s j K R -.$.&.-.-.$.+.T h T h k T T d 6 H Q Q ,.>.Q >.Q Q /.0XqX{.0X0X0XeXNXNXVXVXKXKXKXVX<..   : = = ; = ; q = 9 u = - 9 u - 4 u - 5 a s d j j K K K K H 6 1 K %.<.>.Q E Q >.E Q ;.E K <.[.=.< X X ; k a 4 * 4 o . . o 5 d H d d d H H 6 W >.5.>.E R &.K 5 1 d $.R 5 1 1 6 d R H C < < < 6 E E %.4.<.2 . s zXzX-.o 5 5 X o o o o o < 1 a a s s f a g j r j - . u bXbX&.d d R T d k 7 a 4 = = 8 9 i i i ( i ' p ' i w w p p ' { ]  .+.+.7.@.7.7.@.7. .[ ] i i 8 8 & @ O O O .   O . O O O O O + + % = & - 9 0 r r a a a a 5 a k h j X.X.a q # # q q q # # q q i r ..*.8.=.{ [ [ { q e @   +   # t K X.8.0.[.q.q.0XcXzX'.'.0.5.'.qXzX'.6.>.>.6.5.6.>.>.5.zX0.j = j +.X.X.*. .X.X.X.X.S S 3 3 , , , , , 3 3 3 ",
"1.o.3 > > 2 H L Q ~ E W W J W Q !.,.,.Q J L ;.&.R K 5 o   X < 6 s H K L Q 5.0.1.;.1.0.K 2 5 E 4.0.=.K s H 1.`.[.`.].0XqXqXxXNXVXVXhX%.t r r r 0 8 q q i y i y 0 q 9 9 = @ @ O O @ @ % % @ @ @ @ O @ @ O O & $   +   X # H 8.hXzXzXqX[.q.'.0.0.4.q.q.$.4 * ; : : a $.&.R s H E &.Q &.Q E &.>.>.E W s 7 6 H W E E E W E <.5.5.5.4.>.0.'.0.4.&.R T d a a h h f f ..f h i i f i i q i e i e i i w w w i ' w w e w w w w ' ' _ _ _ ) _ ) _ _ _ _ ) ) _ ) ) ) ( ( ) ) ' ] [ *.X.X.$.X.[ K K K g g g g j g u $ O O @ w #.#.kX@.} | #.dX| } dXgXlXdXdXlXlXgXgXdXdX#.' [ j K R R E &.>.E W R E &.<.%.j k 0 a y 0 % @ @ @ O & @ O O O . O . . O : & & 9 a 0 $ = 9 & @ 9 a t f g f r r g %.8.8.8.1.1.8.1.2.5.<.K 2 > X s <.q.[.[.'.[.cXzX5.E 0XzX-.k : : $ : * - a j f y u 4 p h j g j g g K K s 1 2 1 < 6 a s g g j K g j g k g j T R &.=.3.+.-.T T +.T T k k k 5 5 C W >.>.Q Q Q Q ,.`.0XqXqXqXqX0XqXxXVXVXCXAXKXKXJXzX5     ; ; = 9 q r 9 0 9 9 0 - u - a u 5 1 2 a 6 s s d K H L K H s H E >.;.E E J W H F 7 2 < >.0X<.o o : 4 k k k 4 * * : . o 5 k k k 6 d H H H W Q >.>.E W <.K 4 5 g $.R a - o < s R d 6 5 1 7 d H K R <.%.1 . K bXnX%.  o o X o o o < ; o - s f r g d a s j j [ a . 9.IXIX=.d R R T k k k 4 4 9 = 8 9 p i i w w p p p p 8 i i w p ' ' ] { X. .7.@.@.7.*. .{ [ ] i q 8 & @ O O O O O O O .     O O + + & % % = = = - a a a r a a s d a s g f - = + = = q q 9 9 q i f f X.fXnXfX+.*.*.{ { q # + # # s K =.8.9.'.[.[.[.zXcXNXbXNX0X:.>.5.'.0X0.>.3.>.6.,.3.6.0X0X&.* * f g f [ ..+.*.*.O.=.2.X.P F x C x F G G J P ",
"1.X.t 3 > 3 6 J E E E E I I Q ,.5.,.>.Q L L E R K d 5 o X > r P L L Q ;.2.[.qX[.8.[.[.0.K 6 K %.<.<.%.H %.5.[.[.].].{.].qX].eXvXVXzX<.s 1 0 0 q q u q q 0 0 0 q q 9 = @ @ @ O O @ @ % % & @ @ @ O O $ & & $ + $     X s %.[.hXhX[.[.'.`.5.5.6.0.0X0X&.5 4 * : o o d &.%.d H E >.E Q E E Q >.>.&.W d 6 d H L %.E E E E >.6.0.5.>.<.`.'.0.=.%.j d k f f f f f i f i i i y q i e e e i w i e w w i i ' w ..( ..' ) ' ' ' _ ' _ _ _ ) ) _ _ _ _ ) _ ) ) _ ) ) ( ( ) e i { [ [ *.X.*.X.j [ g g g g g $.$.*.[ f q i ] w.dXw.gXdX#.#.dX} dXdXlXlXlXlXlXlXgXlXgXgX@.{ ] K K R H E E Q >.E >.4.0.q.9.-.j a r 0 9 % @ @ @ @ O O O O O O   O O : & = - & u 9 O @ 9 & @ 9 y f ] [ ] g f g $.<.<.<.<.1.`.;.s H K s 1 X < K `.[.[.q.'.[.qX'.E d $.a . . . : : + * a j j f h j h j [ [ [ g s t P %.<.K 2 > < 5 s d j j j j K g j g s k d R $.3.&.&.&.W +.T h h k 4 : o o 7 H E E Q Q E Q 5.].qX0X].qX].{.qXxXNXNXNXVXSXKXKXcXR # : ; = = 0 0 q q y q 0 = = 0 a a 5 1 ; 1 2 1 < 2 a 5 6 d g K R K X.%.>.%.E H H H 6 6 6 E 0X0XW o o - 4 j j k a 4 o : . : 4 6 d d d H H H W E E Q >.>.>.4.R 1 1 k $.R s 5 o ; k d s k 5 s H K K L R -.R < . s zXVXzXK 1 1 5 5 o - a s a r a s a f [ j f [ [ a   =.JXPXAXK j $.j d k k a u = 9 9 8 i i 8 w p w p w 8 w p 8 w w i w i ] {  .{  .7.*.@.*.7.+.{ ] i q e 8 & O O O O . @ . @ O O . O + + + % + $ % = = ; - a a a a a s a a a r = @ # = q = q q q r f i f +.nXFXhXX.@.7.*.X.f = + 1 r X.%.0.`.hX[.hXzXzXvXVXJXJXKXVXqX>.>.5.'.0.6.W Q 3.>.>.0.:X9.T * * r q f [ [ { [ { *.-.7.-.2.;.L E ;.2.2.1.1.2.",
"2.L x 1 > < 2 C J W J W Q E Q 5.,.,.>.E J E L d k 5 o : X < s L ;.;.;.U %./.[.[.`.`.qX0X>.s C K &.<.%.W %.5.].'.].`.(.].).,.,.(.cXcX[.R 1 - 0 0 y y q u 0 0 0 q 9 = 8 % @ @ O O @ @ % % @ O @ @ + $ @ $ $ & : $     1 K 8.[.[.[.`.'.5.5.5.4.4.4.0X0X&.5 1 o     : k $.>.E R E E &.Q >.E &.&.>.&.L H F 6 H L E Q E E E <.4.0.0.4.0.0.q.=.$.K k k k f a f a q q i 8 8 8 q y i i e q w e i w i w ..( ( e w w ' w ( w ) ) _ ( _ _ ) _ ) _ ) _ ) ) ) ) _ _ ) ) ) ) ) w ( i ' ..[ [ *.X.X.X.g g j g q a j *.*.+.+.+.7.w.#.dXgXgXdXdX#.| dXdXgXdXlXdXdXdXgXlXgXgX7.{ ] R H W H W E ~ ,.,.6.q.'.0Xq.=.R d a r = # @ O O O O O O + + +   $ & & & 9 & 8 & & O O & + & q u q q i h [ g g X.=.2.%.%.2.0.>.H < < < > X t <.'.[.q.'.'.'.5.E 5 < o . . . : & & 0 0 a r a f j [ +.+.-.%.$.X.g r X.8.`.2.K 5 < 2 s s s d g g g a a s s d d d T W R &.-.+.+.T T p u 4 : : X < 6 W E Q E E >./.].qX{.qXqX0X].].qXqXeXwXxXNXSXKXbX=.o ; ; = 9 = q r y 0 0 q 9 = - a - 1 1 1 2 6 F H F K H s s 1 s K K K K R E K K W W 6 d W q.zX9.5 4 4 5 5 k T h p 4 * : : : o 5 6 6 6 H H H H R W H Q E E %.K ; ; a $.+.k ; . o a a 5 a s g K R R R K K s o . 1 %.bXzX<.j j R R j d d d g d f s g f K j h X.h - j HXPXIX9.a d R k h k u 4 u & & u 9 p 9 w i p w w 8 p 8 w 8 i i w i ' { { [ @. .*.@.+.*.+.{ ] ] i y q 8 @ O O O   O . @ . O O O O + + + % # + # $ * ; 0 a 5 a a k k k a a 0 # + % = = = q q y f q q f [ w.zXw.[ +.*.X.X.] q # - g =.8.`.hXhX[.[.cXqXvXCXJXKXLXKXJX[.4.Q 6.0X'.6.3.,.4.>.6.q.=.a - - r = i ] ] [ [ X.*.*.-.%.%.%.%.;.2.<.1.1.2.<.",
"2.o.F 2 3 X < 6 H H L J E W Q ,.,.6.Q L H H K s < o X X X 5 H 2.2.>.;.L L 2.`.`.`.`.0XcX`.H s d E &.%.L E 1./.5.,.! /.].(.~ I ~ [.vXcX<.s r 0 f y q q q q q q q 9 8 @ @ @ O O O O % @ % @ @ & @ = % % $ $ : :   X o 5 %.0.`.`.`.5.5.1.1.6.1.4.q.:XzX&.1 ; o . . * 5 R =.&.%.%.E ;.;.>.&.E E E &.R E H d H W %.&.%.%.&.<.5.0.'.0.0.9.<.K s d - a a 0 q i i i i q q u q q e i q i w i e w w i w w w ) ) ' ) ( i ( ( ' ) ( _ _ _ _ ) ` ) _ _ _ ) _ _ _ ) ) ) ) _ ) ) i w w ..f ] ] [ *.X.h [ X.f % O % y j [ +.@.7.w.#.w.gXgXdXdXsX} sXdXgXlXdXlXdXgXlXdXlXlXgX7.+.K R L W W W Q ,.5.'.0X'.'.q.4.R g f r - $ + O O O O O & % @ + + :   : O & : & & O O O O @ 9 f f O O % f [ [ K -.=.%.2.%.<.1.<.;.s < < < < H 8.[.0.q.`.5.<.E 6 o . . . : : . : = - a r 9 0 k g a j R $.*.-.%.K g %.0.[.[.,.L C 6 a g g a s s s 1 1 5 s d s 5 7 k T &.3.3.R T k k 5 o : X X X 2 L E E E Q >.5.].0X0XqX{.]././.(.].{.eX].'.cXVXbX5.; ; ; ; = 0 q r q q q 0 = = 0 a a 1 1 2 s X.1./.'.[.0X[.<.s 6 H K s 1 s H d H W R H W W 0X0X&.: 4 5 a k h j T h u * : X * o 4 k 5 5 d H W d 6 C C H H d K s ; 1 f $.R a ; . . - 5 a a s d j R %.$.K K 1 1 X X a R &.K d R K R >.%.d a s s g a j X.[ g [ j k j nXPXIX:X- a j j j k k u 4 9 9 9 9 8 9 p i 8 w p 8 9 w p u w 8 p y i i ] ] { [ [ {  .[ @.+.{ { ] ] i i 8 @ O O O O @ O . @     O   + @ # # $ + + + * * - r a a d a a a a f 0 = # # = = = q a q f f i g ..X.w.*.[ -.@.7.X.[ t # r X.1.1.q.hXcXhX[.hXcXvXVXVXVXKXKXJXVX0X&.Q q.0X0X0.6.0.4.q.9.R 4 - 0 0 = r f ..X.{ [ X.*.X.$.%.R K E %.>.;.;.%.;.",
"U L P x 3 > o < 7 7 k H H H H J E ;.&.%.E K s 6 o o X . X a %.<.>.>.2.;.;.L ;.0.`.5.0.zX'.L 6 1 K E L d H Q >.~ E J ~ 8XeX].).,.cXVXbXzX%.g 5 0 q 0 q q q q q q = e @ @ @ @ @ @ @ @ @ & @ @ @ 8 & & = $ $ $ # X X < F 2.0.1.<.1.1.1.5.1.<.4.4.5.4.T - : : . . .   4 j &.=.%.%.%.<.&.;.%.E W E E E R E R E %.&.>.&.%.&.>.5.'.q.0.0.3.$.d a u a a y i y i i i i i q e q i e i e i i 8 w i w w ( w ) ( ) ( ` ) ) ) _ ' ) _ _ _ _ _ _ ' _ ' _ _ _ _ ( _ _ ( ) _ ) ) ( ) ) ( ( ' ' ] { [ [ { [ [ { @ O O O @ f [ [  .[ 7.@.gXgXgXgXsXdXdXdXdXdXdXsXlXdXlXgXlXkXfXw.$.%.>.E Q E Q 6.,.7X[.0X'.5.5.&.%.j $.j f - $ : O . . O O + % + O O O . O O O O O O O O & & h kXnXw.[ +.+.j f j -.-.=.<.%.%.&.;.%.s 2 X . 2 >.0.`.0.0.`.5.&.H ; .   . .   : $ - q a r r ; - a 5 a f s g j %.%.X.K %.2.!.0.1.>.E K d s g g s s s 5 2 1 s H L 6 < o 5 H R 3.$.d T k p 4 : : o X 7 K E E %.;.>.0.[.].0X(.`.).,.Q ! /.(.(.~ ,./.0XcX3.4 X 4 ; 9 9 r q r i 0 0 9 ; 9 r r 1 2 H 1.[.qX[.qXqXvXvXvX0.H H R 6 X < o X < 5 R W &.q.:X4.d : 4 k k p k k k p u 9 * & - * 4 - 5 5 s H d d 6 6 6 6 s 6 s 5 ; X 5 +.$.a *     : ; ; - - a k h k s a a 1 1 1 1 1 1 6 6 6 F E Q 6.6.Q H s H d s g j g j [ g h zXIXPXq.a a k j j j h f y 9 q y q e i q w u w 8 p w 8 w 8 8 p 8 i q i i f ..] [ ..[ [  .*.*.7. .{ ] i i q q 8 O O @ O . O . O = = # = = # = * * % $ = = = 1 a - a a a a a a q # # q = e # q i a i f f r f [ [ X.$.-.X.*.X.[ K r t ;.0.q.[.hXcX[.[.cXzXvXVXVXVXKXKXAXVXvX1.6 $.0XzXzX'.0Xq.9.&.k 4 u 0 % @ y ..[ [ [ +.*.*.*.$.K K K L E >.;.>.`.[.",
"P Y P S 2 > X < o 1 7 7 7 7 6 C W E E E R d d 5 o X X X X t %.1.1.:.;.;.;.L ;.`.'.5.0.hX'.K 1 2 F H L F H Q >.~ ~ Q Q ].mXxXqXqXvXAXVXcXq.$.r 0 r 0 q q q q q e e # q @ @ @ O O O O O O @ @ @ @ % 9 = & $ = o o X 3 K 2.`.1.2.1.<.>.1.4.4.4.%.R k * : .     X : : o s R &.-.%.>.&.<.<.&.&.E &.R &.E E E >.<.<.4.>.&.%.4.0.q.0.0.=.$.j k a a a u 0 0 i f i i i e y i i i y q i e w u w w i w i w ..( ) ) ) ) ) ) ) _ _ _ _ _ _ _ _ _ _ _ _ _ _ _ ( _ ) _ ) ) ) ) ) ( ) ( ( _ ' ' ` { [  .7.7.[ @ O O . . @ p [ { 7.{ p 7.kXkXlXlXlXdXdXdXlXlXdXlXlXdXlXgXgXgX7.$.=.5.5.5.,.6.].].].0XxXeX0X0.<.&.<.9.<.$.a - $ . . O . O O @ O   . . O . . O O O O O O = 8 3.FXJXnXzXnXhX9.*.j g X.%.-.%.%.%.X.K s 2 X > K 1.`.`.`.1.5.<.E 5 o X .       $ $ - 0 0 - - ; ; 1 1 a g j K K X.%.%.%.L %.2.1.5.5.>.&.j d s s s s F H H F L E E L 6 6 5 < k $.$.T k h k : X : X X 1 F %.;.&.>.>.<.`.5.,.>.Q ~ ~ ~ I ~ /.(.Q ;.,.`.0X4.5 : - ; - 9 r q r q y q - = 0 r a 1 K E 1.'./.(.`.'./.(.[.!.%.F d 6 X o . . X . k R 4.q.9.R 4 & u u u k h p y y u & & = = ; = ; 1 5 5 s H s s 6 6 5 6 5 5 1 o : 1 R K a   . . .   : : $ * - 1 1 u r 1 1 1 1 s s H L K J Q 5.].qXxXqX5.H K K d K g K j j X.9.nXbX=.k 9 h j j T X.[ h f y q q i q e i 8 i 9 w 8 8 w 8 p 8 8 p y y r a r 0 # # r f [ X.*.7.*.@.*. .{ i e 8 @ @ O O O . . . + r - = # # * # # :   * # * 0 r 1 a 5 0 r r g g t q # # q # # q r y t i f t g g g g g g $.X.X.$.%.s s <.0.[.[.[.[.zX[.[.].qXbXNXvXAXSXAXAXVX5.6 F 4.'.0Xq.q.0.9.$.u 4 u = q q f [ [ { [ [ [ X.X.X.K %.>.5.5./.'.{.vXVX",
"G S x F 2 < X o o o < o < 7 6 d K E %.E W K d d 1 1 X X X < K 1.2.;.Q %.E L %.1.`.9.0.[.5.s 1 1 6 K R H J >./.)./.,.,.).qXwXwXcXcXVXVXvXzX<.1 * q = q = = q q q q q # @ @ @ O . O O O O @ @ & % 9 8 9 & $ * # o > F 2.!.`.1.0.1.5.5.4.>.E W 7 4 : . : : : . . . . . ; d R $.&.=.<.4.5.4.<.3.&.E <.&.;.&.&.4.0.5.=.%.&.<.0.q.5.=.R j a 5 u a u u 0 f i ] f i ' i i i i e e i e i i w w w ( ( ( ) ( ( ..( ) ) ) _ ` _ _ _ _ | _ _ _ ' _ _ _ _ _ _ _ ) ) ) ) _ _ ) ( ( ( ( ( ( ' _ ' ' { +.7.7.{ @ @ e f y . O e ( 7.7.+.] w.gXgXlXdXdXsXsXsXdXdXlXdXlXgXgXgXfX7.+.<.`.[.].'./.].0XqXcXUXAXvX0X>.<.0.q.q.=.R k 0 O O . . . O O O . . O . . . @ + O @ 8 9 = & 7.bXHXbXnXnXbXbXnX9.h g j -.<.$.X.K K t < X 2 2.0.0.`.0.1.<.%.H o . X . . . . # = ; - # ; ; # # # a j <.8.0.=.*.%.<.%.L %.%.1.1.0.>.>.K H k s s H %.>.>.E Q >.5.<.E H d 5 4 j $.k k k 4 : : : : X < 5 H %.>.>.>.5.`.5.1.>.Q Q Q ~ ~ ! {.wX]./.1.`.vX0X5 X 4 9 0 q r q i q a 0 9 = 1 r r 1 K ;.>.Q L >.,.1.J 2 H Q L X 6 6 1 o X . . X o k =.4.$.a * ; 4 u u u p 4 9 & 9 & % = = * = * ; ; 1 s s s 6 5 2 1 o < 1 1 o X 1 K $.a . . . . . . . .   $ * + * * # 1 r s F K %.,.5.6./.0XqXVXVXAXvX6.E K d 5 j K j s j -.=.-.a a j $.j +.-.*.7.*.+.h i i y i i i w 8 8 8 8 w 8 8 e 8 8 9 9 0 1 # . # e t g f r { { *.7.7.7.@.{ { i 8 @ @ @ O . . . . 0 X.h ; #           # +   * - ; ; - 5 ; 5 a a a q # @ # # @ # q y f f y i y t f t r t 1 r s K %.8.K s 0.[.[.[.hX[.[.[.[././.0XqXqXcXVXVXAXbX5.5 s &.0.'.0.0.9.9.T u u u u y f ] h ] ] ..] [ *.X.X.%.0.[.'.].'.].cXNXCX",
"S x S F 2 < < X o o < 7 < 5 7 H W R %.E E R R K d 5 1 o X X 1 K %.Q %.;.%.%.L ;.0.[.[.0.%.1 < 1 s L H F W >.'.].).)./.:.,.(.{.qXqXvXvXbXbXq.s - 1 q q q q q q = = e e @ @ O O O O O O O O 8 8 8 9 9 % * = * # < 2 X.`.`.`.`.`.`.5.5.>.R k 4 o : :     o $ O O : . . : ; a d K &.&.4.0.0.4.5.4.&.E 4.<.&.&.>.<.4.>.&.E =.0.4.=.R k k a a a a a y i i f f ..f f i i i e q 8 q e e w w i w ( i ' w ' ( ' ) ` ) ` ` _ ) _ ` _ _ _ _ _ ' _ _ _ _ _ _ _ _ _ _ ) ) _ ) ( ( ( ) ( ( ( ( ' ( ' {  .7.{ @ @ e [ 7.] O O e @.kXgX+.#.dXdXgXdXlXlXdXdXdXdXlXdXlXlXgXkXfXw.+.<.'.0X0X].).].0XqXeXVXAXVXvX5.<.q.q.hX9.-.j a - : O . . . O . . O O O O @ % 8 8 8 q p y y +.kXFXFXbXbXnXJXIXVXzXX.K =.<.&.%.R s s # X H 0.[.0.5.1.<.;.$.5 o . : .     # + * # = X # # # # 1 K 8.zXzXnXhX<.-.%.%.%.;.2.1.5.1.&.R j s a 5 d E <.5.5.>.>.1.`.[.!.>.%.K 5 d T k h k 4 o .   # X X < s K %.%.>.5.0X[.].'./.~ ~ ! ,.,.cXNXmXcX0XcXbXcXd : - 0 t q y 0 0 0 q q 9 - - r 1 1 X.>.;.F C U ].qXQ 6 J 5.5.6 1 5 1 X X . X   X ; k k 5 * : 4 u 4 u u u & & @ 8 & & = = = = * * ; 1 5 5 5 5 6 5 5 o o o ; o X - j j - . . . . . . . . .     $ # # 1 1 a H K R 1.0.'.'.'.qXeXvXSXKXLXVX'.>.d 5 s s g K R X.j k f k [ +.[ $.=.-.7.7.X.] i i q e q q 8 8 w 8 8 8 @ e = e & $ # # # # r X.8.hX[.8.X.t t ..X.*.*.7.*.7.+.{ e O @ O O . O . g =.*.1 X . X X   X X X X # # o X ; 1 a s a h t #     # + + # r t f t t t t a t s s t 1 1 > # g 2.g 2 8.hX[.'.0.`.`.!.`.1.;.>.,.>.,.].vXvXqX>.5 s <.q.q.9.=.9.4.k u y u p h h ] ] g h ..f ] X.*.=.9.'.[.].'.].].qXcXcX",
"S x t x 2 2 o o 4 o o 4 5 7 7 s W E %.%.R %.R R j s 1 1 X . X r H K L %.;.%.%.<.q.[.q.<.j 5 1 s 5 6 s 6 W ,.`.'./././.~ ,.).{.{.].cXcXvXcX1.a 1 r 9 9 ; = 9 9 9 = 8 = @ @ + @ O O O O O @ % % 8 8 8 # % * * X o 2 ;.`.`.!.[.[.'.5.&.H 7 o o : o : : : O $ : @ $   . . : o 1 k K %.4.9.5.4.5.4.>.4.4.>.R R &.4.4.4.&.%.=.<.=.$.g a u a a u y a f i f f f f f i i p i i p i 8 i w w i w p ..' ) ) ' ) ) ' ) ` ) ) _ ) ) _ _ _ _ _ _ _ _ _ _ _ ) _ _ | | | _ ( _ ) ( ( ( ( ) ( ) _ ) ( ( ) {  .{ f e @ ' w.q. .w e [ FXbX*.{ w.gXdXdXlXlXlXdXdXdXlXlXlXdXlXkXkXw.+.5.[.0X]././.'.)./.).xXvXAXVXqX5.q.q.q.=.$.j a 4 & $ O . . O O . O O : & 8 q 0 f f i f i y f *.q.fXzXbXFXHXJXIXIXzX-.&.q.4.j s 5 1 ; 1 %.0.'.0.0.1.>.%.d 1 o   . . .     +   +   . # # # # s =.`.cXnXnXzX0.%.X.%.;.<.<.0.0.>.R d a 1 ; 1 s ;.<.5.,.>.>.1.].[.[.5.0.=.s 5 5 u k 4 9 : : . : . . X 1 s %.%.E 1.[.[.].].0X)./.,.,.! (.qXqX0XqXvXAXzXR o 4 u a 0 a i r 0 r q 0 q 1 r 1 t %.5.>.L L ,.xXVXcX`.].cXVX'.s 1 1 #       * : :   : : * ; 9 u u - 9 - % % @ & @ & 8 u 0 - - ; * ; 1 5 a 5 a 5 1 o . X ; o   - j h ; . . . . . . . .   + * * ; o 1 s H d L E 0.[.7X'.].7XqXxXVXSXPXSXvX0.E s s a g R +.j s j a a h j X.*.*.*.+.+.{ f q i i q q e 8 8 8 8 8 @ @ e # @   # # < t %.[.zXbXVXVXVXzX8.K t [ X.X.7.*.7.7.*.f 8 O @ O . @ . j 8.-.1 # X X X X X X o o > # < X X # 1 a s j g 0 +   + # # # r r t t f t t g K K K P F F 1 X 6 1.%.H 1.q.`.1.1.2.1.1.>.Q E Q >.>.J Q '.0X[.E < 1 $.4.0.4.=.=.*.a 9 f f p h ] h ..] f f a g g $.<.'.[.`././.(.].{.qXqX",
"G S S F 2 1 < o o o o o < 4 5 6 K R R $.R $.R $.j 5 ; ; o X X ; 1 s H K R X.%.=.9.9.<.K s g s 1 1 1 6 H E 1././.6./.Q.Q.).qXwXeX].cXbXvX'.d # # - - ; q 9 9 9 = = # = % @ + O   O O   O + @ @ @ # % % = * # X o F <.`.!.1.].]./.Q d o o o o : : : : & : $ & O O $   . . . . ; 6 K &.4.0.0.4.4.4.5.&.K d E 4.0.<.9.<.-.&.&.-.K k 4 k a y a u y f f f i p i ' i i i i w 8 8 w p w w i ( ' ( ) ' ) ..' ' ' ) ) ' _ _ _ _ _ _ _ _ | _ _ _ ' _ ) _ _ ) ) ( _  ._ _ _ ( _ _ ( ) _ ) ) _ ( ( ( )  . .@.{ ' e ' 7.w. .{ 7.nXHXfX7.gXgXgXdXlXlXlXlXlXlXdXlXlXlXdXlXkXw.T 0.'./.1.>.,.).0X~ E 6.qXVXVXxX0.0.=.X.j f a u a 9 = $ O O O + + O O $ 8 q i f ] +.] ] h p y h 7.[ ] 7.nXUXIXIXJXnX-.j q.q.5   5 1 o 5 R 0.q.1.<.<.%.j 1 : o : . . X     # # # # # # 1 1 t K 8.q.hXhXzXbXzX4.$.K %.2.5.0.5.%.d 5 1 1 X < d ;.1.1.,.,.;.,.5.].qX[.0X0.K - * 4 4 & & $ O : . : : X o s K R E <.0.'.[.].].'.(./.6.~ ! ).'.(.].vXAXvXd o 5 - a 0 q a 0 0 9 0 - 1 - ; 1 g 5.'.'./.,.).xXZXVXNXvXVXVXvXE 1 1 =   $ +   : :     $ ; 9 4 u - u = 9 8 % % & & 8 q y y y u - * * * 1 1 5 a 5 4 o X : o o   4 k k X . . . . . . . . + 0 0 r 1 - 5 j K K E >.'.].`.'.].qXeXxXvXSXLXLXNX[.E 5 6 s s s s k a u h j X.*.*.$.*.X.h ] f i e i i i q q e 8 8 8 e @ e @ # # # # t s 2.[.mXbXbXZXGXVXVXJXbX8.X.h [ [  .{ 7.7.{ ..@ @ O O . . f =.X.o X > < < < 2 2 s s s t 1 1 X X X 1 s j k 1 +   .       # 1 r s t s s F P X.U L K F 3 3 ;.cXcX`.`.5.1.1.>.1.,.>.,.Q Q Q.0X[.5.,.`.[.[.%.o X 5 j -.*.-.-.+.0 9 i p f h ] p f ] ] f ..t t X.8.[.[.`.'.'.(.].].{.qX",
"G S S x F 2 1 ; 4 4 o 7 4 4 5 5 s j K K K j R j k 5 * o # # # o 1 1 r r s s g K K g d r a a f s s d K &.<.4.5.5.Q./.5.!./.{.}.wXxXxXVXcX%.< X o # ; # = = = 9 9 @ = # % O O . . O . . O @ % @ + = @ # = #   X < L 1.`.!.!.`.`.,.R 4 o : 4 : : : $ : & $ & O O O $   . . . . X ; K E =.5.0.3.&.&.E d 6 &.0.q.0.9.9.<.-.%.$.K h k k y a y u a p h f i i f i i i i i w w i i w w p p ( i ( ( ) ) _ ) ) ) ) ) ) ) ) ) ) _ _ _ _ _ _ _ _ _ _ ) ' _ _ } } ( ( ` _ _ ) _ ( _ ( _ ) _ _ _ ) ) ) ) ) { @.@.@.{ '  .@.@.7.dXfXHXnXw.q.gXgXdXlXlXlXlXlXdXdXlXlXlXlXkXkXkX3.4.'.5.>.Q ,.0XyX'.~ /.wXVXVXvX[.&.s * # * # * u u 9 = % O + $ % $ @ % q y i ] [ [ ] [ ] ] +.9.nXq.& O j q.HXIXJXzXh a 9.kXK : 1 ; o 1 d <.4.<.=.K j 5 1 # #     . .   # # # # # 1 t a r s =.0.[.8.q.zXbXbXzX<.X.%.<.8.1.&.j 5 o - < X X s %.1.>.>.>.Q Q ;.5.[.[.zX0.E 5 ; : * : & & : :   X   X X 1 d H K >.`.[.'.'./././.1.!.,.,.].].].[.vXVXzXd o k 5 0 0 y u y 0 0 - q 1 1 # 1 F 0.[.].]./.`.qXqXvXVXVXVXbXvX<.1 ; 1 = * & $ $ * ; ; = u u 0 0 0 % % = = = = 8 & 8 y i y y u = = $ * ; ; 1 r - ; * X : # : : a k a   . . . . . . . O - r a a a 1 s K R E E 6.).].)./.).].qXeXqXNXAXKXbXqX<.6 5 5 5 a k j j j $.-.7.=.*.$.X.[ f f i i i i i q e q e e e e e e = = # # # t K 2.[.[.cXcXcXxXmXNXCXKXPXVX9.j g { X.[  .*.7.{ ' 8 @ . @ . r K t X X 2 F P L L E ;.>.>.%.H L %.K s 5 s g s 0 #   .   X # r s P K F F F P G L o.L P 6 F ;.cXVXVXqX0.1./.`.`.`./.5.!.,.>.Q.qXNXxX}.cXcX0X&.1 . # - a j ] [ f i i f i p p i p i p ..f ] f t X.8.'.`.[.].].(./.].{.}.",
"G S S x t 6 1 o o o 4 4 o o o 4 a d k k d j k k k 1 *   X   X # 1 r r 1 0 1 = * # ; ; a 1 a s j $.E %.<.5.<.5.5./././.!.Q.(.qXxXNXvXxX].s X X # # # = + = = = = = = = #   O . . .   O + % = % % # % = =     # 1 2.`.[.!.1././.>.7 o o o : : : 4 : & & & O O $ &     : . . . . : a d &.4.4.&.$.E 5 < d q.vXzXq.9.4.=.$.$.j h a a a p a p a f f p p f i p ..p i p u w p 8 w p w w w w ( w ' ) ) ) ) ) ) ) ' ) ) ` ) ) ) _ ) ) _ ) ' _ _ _ _ _ ` _ lXnXdX) _ ) | _ _ _ _ _ _ _ _ _ _ ) ) ) ( ) ) .. .@.@.+.@.' ) { { 8.FXnX9.w.w.7.dXdXlXlXlXlXdXsXsXdXlXlXlXlXkX#.0.[.0X5.6.'.vXAXVX0XxXVXVXAXNX[.K - . .   .   u u - - &   O & = & 8 q y f i ] { [ { [ ] ] =.kXHXnX[ & & p q.FXbX-.a a 9.zX9.a * ; ; 1 s $.<.<.%.1 ; - - ;     + # X   # # 1 1 q r t g a X.<.[.q.0.q.hXcXzXzX9.$.%.&.<.=.R 5 4 * ; o X X 6 E ;.>.;.;.Q H F E /.[.0X0.K a 4 : & : : : & : : : :     - 5 s d >.'.[.'.].]./.,.:.^ ,.,.qXcX].].cXNXzXH o 5 a a 0 y u a y r q - q 1 1 1 L 1.'.[.].(./.;.Q [.cXmXmXcXbX0.o # a 0 - - & $ $ 9 4 - u - u = = % & @ @ e = @ & & 8 y y u u = $ + * * = ; - - - ; : * ; ; * a h a   . . . . . . O + 0 a a a f a s K E E E >.).'./././.).].0X/.].qX0X0XqX/.K 6 5 a s s s k R 9.fXzXq.7.*.] f f i i q y i i e e i 8 e e e e @ e q = 9 t L <.'.].].(.}.hXmXxXVXVXJXKXJXzX%.f g { +.*.*.*.7.{ q @ O .   0 s 1 X > H >.0.1.>.,.`.`.`.5.2.0.cXzX0.s g s a 1 ; o   . # 1 K %.8.%.X.P P L L L U L G U 1.cXVXVXmX[./.1./.`.[.[.`.`.`.,.! Q ].mXvXcXvXvXcX&.1 ; 1 ; # q r q q f ] p i f i i i i i p ..g t g X.8.`.`.`./.!.Q.Q.).].].",
"S S S x F r 5 5 4 4 4 4 4 4 : 4 5 4 - - 5 u 4 5 ; * * +     #   - 1 1 r r -   . . # ; a r a j =.9.3.=.=.%.E ;.1.`./././.Q.,.Q.6.[.'.[.5.6 X o X #     * * ; = ; # # = = :       . : O : & $ % % % @ 8 = + . < s >.1.`.1.!.`.1.H 4 4 : : : & : & & : O & O O @ O O :       :   X 1 5 R 4.&.R W d o d q.bXbXzXq.3.=.-.j j f a a a y k p f p a i p y i i i i p 8 8 w w 8 w w p w p w w ( ( ) ( ) ) ) ) ( ( ( ( ( ( ) ) ( _ _ _ ( _ _ _ ( _ ` ( w ) gXnX@.} ` _ } _ _ _ _ _ _ _ _ _ _ _ _ ) ) ) ) ) `  . .7. .} {  .` 7.zXzXq.7.X. .#.dXgXgXlXlXgX#.dXgXgXlXlXlXgX=Xq.zX0X0Xq.0XrXUXNXvXvXNXAXVXVXcXK # # *   .   = u a 0 @ O @ @ = % 9 0 f ] [ { [ { [ [ { [ *.fXHXFX-.h +.= a w.9.h h h =.q.q.a * ; ; * 1 d K d k X 5 =.[ * = =   # X # # t r r t t f r g K <.q.'.`.0.<.=.<.9.3.-.$.&.%.j 5 1 ; 4 o # X X < s %.>.;.Q L F F L >.`.'.&.g k 5 ; : & & & & & 4 : ; : : # X # X s 5./.`.].(.`./.,.>.,.,./.(.[.].xXNX[.s < 5 a k y u a q 0 - - r ; # # > L 1.`.].]./.1.L J ! {.xXvXcXcXhX%.# # u 0 = = & $ & u u u u u 9 = % @ # % @ @ % & & 8 9 u 9 = O O O   $ $ = * * : + *   : * - k +.j ; X . . . O .   0 f f a a a r s L E W E ,./.)./.~ >.6.,.Q.,.6.,.1.qXqX5.6 1 1 6 s s k d $.9.q.zXfX8.[ r f i i i i i i i q i e q e q q w q q q q f =.`.[.[.`.].(.qXqXeXxXNXNXVXSXVXVX[.[ f [ [ ] { *.*.@.[ e # @ @ X # 1 < H 1.[.`.`././.5.[.[.[.'.hXcXvXbX`.j g a 1 5 :   X . r $.8.8.`.2.2.;.2.;.o.U U Q `.cXNXNXNXcX[.!.!./.'.].`.].'./.).,.~ ,.5.].qXxXVXcX$.o a s 0 9 @ = e q q i i f f ] f f i i i r f t r g 2.`./.:.U I I Q ! /.).",
"S S 2 F s s 5 4 4 : : : : 4 4 4 - ; * * * * $ & $ $ :     #   + = = 0 - - #   . . . + ; a h *.<.9.&.R H a 1 5 H 1.1.>.~ Q J Z Z U ,.0X`.C X X o o           $ + . . . +   :     . .   O O $ $ = = @ # ; r ; r s E 2.5.1.1.1.&.6 o 4 : : : : : : : & : & & & & @ O       O   X   o a j &.%.R R 4 5 0.zXvXvXzX9.=.*.$.j h f f f y p a a p a p p f i i p i i i w i i 8 8 p 8 8 w w w p p ( ) ) ) ) ( ( ) ( _ w _ ( ) _ ( _ ( _ _ _ | ` _ ) ` ' @.lXFXdX' } _ ( _ #.| _ | _ _ | _ _ _ _ _ ) ) ) ( ) ) )  .@.@.@.@. .{ 7.w.q.9.q.=.7.#.#.#.gXgXlXgXdXdXgXgXgXlX=Xw.w.0.q.:Xq.0.4.4.=X0XcXbXVXAXVXVX0Xs # ; *     $ = y y y # @ @ 9 q q q f [ [ [ [ [ [ [ { [ { [ 7.FXFX+.u h p a [ j a f k +.7.=.u ; ; ; :   * - 1   * j =.*.a - 9 # X # X # r t a t a t s s g $.8.0.<.*.d k j $.&.=.R $.j s - 4 4 ; o X X X X s L >.%.E L J L ;.5.'.5.R k s a - ; & & & 4 & & * & * o o o < < 2 L %.`.].'././.,.,.,.1.(.qXqXqXvXVX[.2 1 6 5 4 k u y y u 0 - ; 1 # > 1 L 1.0.'./.1.~ Q J Q /.cXmXvXcXzX8.X.s a = 0 = & $ & 4 u 9 u 0 0 9 8 + @ @ @ @ @ & @ & 8 8 & $ O O O + $ % % = * $ $ $ * + $ - d $.h - :   .   O .   a f g f a a r 6 K E L E ~ 6./.6.~ Q ~ ~ 6.,.~ E ~ ].zX5.d . X 1 5 5 a s j [ $.=.*...r q q i q q e q i i e i e e e e i i q q q r X.8.`.'.[.].{.].].{.0XqXqX{.xXVXVXVXnX2.j [ ] ] ] { { { ] a e + # # # 1 F <.`.].'.`./.1.`.[.hXqX[.zXcXcXcXq.j d g 5 ; . . . X s 2.0.`.`.`.`.!.!.!.,.:.!.!.(.(.].].cXmXqX!.,./.`.`./.`.`./.Q.,.! ,.!.].qXcXVXcXK X ; r y a q q = = y f ..f h ] { ] ] h i i t r # P <.`.!.o.G Z Z G ! /./.",
"S 2 x t t s a 5 4 4 : : 4 : : 4 ; $ : & & $ : : $ $ O : $ + + : - 9 0 0 - = + O   . . = f -.9.9.9.-.j a X . X > H %.E J Z C C Z ~ '.cX0XW X o o ; *   . : a j $.a ; . . . . . . : :   O   + $ * = # e 9 a k j H K %.<.2.;.%.K 5 4 : : 4 : & & : & & & & @ & @ O O           : X : 1 5 d -.&.k < &.zXbXnXnX'.3.*.$.j k f a p f a p f i i i i i p p i y i p 8 w 8 w 8 8 8 w p 8 w w p ( ( ( ( ) ) _ ( w ( ( ( w _ ) ) _ ( ( ' ) _ ( _ ` } ` ` gXHXIXlX` w #.#.( _ | _ | _ | _ _ _ _ _ _ ) ) ( ( ( ( ( '  .@.dX@.@. .X.*.-.9.zXfX9.#.w.@.@.gXlXlXdXdXlXgXdXdXgXw.gX9.9.4.3.&.R T T 4.6.zXvXVXVXvX8.X   0 - . + = = a f i 9 + % 0 r q f f ..X.[ [ { [ ..[ [ [ { *.zXnXR & h h y y u y a a f j [ = - 0 * * * a j +.g k $.=.$.a r # = > # # 1 s g t s r s s r r g $.&.X.d s g *.3.3.=.-.$.j 5 5 4 9 ; ; # # . X 1 H R E R E %.;.<.0.'.%.R k k j k 4 & 4 4 & u u & = & * * 1 # < > 3 C !.].[./././.5.6.].qXNXNXxXVXVX/.2 < s s u a u u u 0 0 - - # # # 1 L 1.!././.~ ~ Q ;.:.1.`.hXcXcXcX0.K s - 0 a = - $ % = u u 9 = 9 9 % $ @ + + + & @ @ $ & & @ @ O O O O $ & = = $ + + = $   + - - a 1 * :   . . .   = a g h g s a r s K >.E E ,.Q.6.,.~ ~ ~ ~ ,.(./.>./.zXxXcX0.K o . o s s a k f f f f q q q f t q q q i i i i q q q q e w e i q q f *.q.[.'.[.].8X].).].].].].].].xXvXbXbXq.r f ..] ] ..] { [ f q # = # X 1 %.0././.5.5.,.,./.0X[.[.'.`.[.zXzX<.t a k a ; .   X X s =.`.`.`.`.`./.!.!.!.:./.[.].`./.).[.NXNX{.,.'.]./.`./././.Q.Q.5.Q.`.qXvXcXVXzXF . X # r t g i q q q r f f h ] [ ..f f i i f # 1 X.8.0.1.1.U J I ! Q././.",
"S 3 2 x t s 5 a k 4 4 4 : & 4 4 - * = ; ; $ & O : O : O O   O $ - 9 - 0 0 9 - 9 +   . % j w.q.q.4.$.s 1 o . X X 2 W E J J W Q ,.'.qXbXqXH X o o : o   . * $.q.zXzX4.j : . : : . . . . . O + + $ # @ # # a j j g H H %.>.%.K d 1 4 4 : 4 : & : : : & O & & @ & & : O         . . X   ; k -.&.k R zXzXbXvXzXq.$.+.h k h f f f f p f p h p p y i i i p i y 8 p u 8 u p 8 w 8 w p p w w w ( ( ( ( ( ( ( _ ( ( ( _ ( ) ) ( _ _ ( _ ) _ ` _ ( w ) gXIXIXlXw ' #.' #._ #.} | | | | | | _ _ | _ ) ( ( ) ( ( ( _ @.7.@.@. .[ =.9.q.vXzX9.+.#.@.w.gXlXgX#.dXgXlXdXgXw.w.=X=.-.T h T T T 3.R R 4.'.zXvXcX>.#   1 - . + # = f h a 9 + + q f h g f f ..[ { [ [ ] { [ [ [ [ w.kX+.y f h y u y a h h a a a = u = . 0 +.9.zXzXq.*.$.X.k g f 0 r # # > r t g g t a t a 1 ; 1 k K K g j &.9.9.9.9.3.-.R a - 5 4 4 - ; o .   1 s H K L L E >.>.5.<.R s a k j j y - 9 9 9 4 9 = 9 ; * o ; 1 r 3 > F !.[.(.`./.'.)./.[.xXbXNXNXCXVX1.3 3 s 5 a a a u - 0 0 ; - # > > t K ;.1./.,.Q J Q ;.,.,.1.(.[.hX`.K 1 r 1 r a - u = = = 0 9 = = = = @ $ @ @ @ @ @ & % @ % & & + & & & & $ & % & % + + = = + + = - *     X . . X   : - f j g f f s r s %.<.Q Q 6.).,.)./.>.~ ,./.0X0X0XqXvXVXVXVXbX<.s 1 a a g a g g f r r q r r f f r i y q 0 q q e e q i r i e i q g =.hXq.'.[.'.'././.).)./.(./.,./.hXvXVXq.r r i f ..] { ] ] f i q # 1 X 1 %.5.5./.5.5.1.,.1./.`.[.1.9.hXzXhXH 1 a s a a $   . . t %.0.0.5.`.!.!.`.!.!.!.!.`.].].].`.qXNXbX`.,.].qX`.(.`./././././.!.].qXcXqXxX'.1 X #     - r r r r q r f h f f f q q i i a r r g 2.8.1.!.`.,.,.,.!./.,.,.",
"3 3 t x s s f k k p k p k p 4 4 - & & & & & : & O & O :     O : 9 9 9 = = u 9 4 $ O O * k =.9.9.-.j 4 o : X . X < K >.>.>.~ 6.).0XvXvX'.d X . o o ; : . : j q.nXnXvXq.+.o . . . . . : . :   O O + + O . % a k k a s L =.&.j 5 4 : 4 : & : & : & & : $ & @ & + & O           . X . . o d &.T k q.bXzXnXzXzX3.+.k k f f f f p f p p h f ' i p 8 p i i p 8 8 p p p 8 8 8 w p 8 w w w ' ( ( ( ( ( ( ( ( ( _ ( _ ( _ _ ( w _ ( ( _ ( ` | _ { dXgXHXIXPXHX| w | #.#.| } #.| | } | | | _ _ _ _ ) ) ( ( ( e w ( } 7.dX .@.X.q.zXzXbXzXkX3.+.#.w.gXgXdX#.dXgXlXlXgXw.w.w.T +.T T T +.T T $.W -.3.9.zXbX'.s # 1 9   .   = u a y & O @ r f [ ] f r f f f f ..g { ..[ [ [ *.7.[ 9 9 u 0 q a f h g y q r q ; = = X.fXnXzXzXq.*.$.h j [ X.j f r 3 # t t g t f f t r ; * * 4 5 d k T $.3.3.3.w.9.3.$.j u 4 4 9 = 9 - : # : 1 a 5 6 s H K %.%.%.d k 5 k T j f & & 9 & & = & 9 = * o 1 1 2 3 > o.!.[.].`./.`./.).`.].].wXmXCXNX1.2 3 s 6 - a u u - 0 - ; # # > # 2 2 C E ,.,.~ J I E L Q ,.!.!.`.P X X 1 1 ; ; 5 u - = - = % $ % + + @ O O @ @ & & $ + % = % $ $ = & = & & @ % % % O @ = 9   + # -         # X # * * a h h f f a f a F ;.1.,.~ ,./.6.).,.^ >.5.(.qXqX0X[.qXzXbXVXVXbXzXL 1 r j s g k f r 9 = q r ] f f f i q q q 9 e q w e q e i y q ] 8.hX[.[.].].(.!.,.,.! ,.(./.Q ~ [.cXVXnXX.e i f ..f ] ] ..i f q = - X o d %.<.5.5.5.5.,.>.;.,./.0.[.hXzX`.r s g j j j a . X . # L 5.0.`.1.!./.`./.!.:.,./.`.].].].0XxXqXI U ].]././.]././.!.,.,.,./.].].[.cX<.> . X . . # # ; r t a a f g r i t y y q a i q # t -.8.`.`.`./.!././.1.Q J ",
"x t 2 t H g g j T T T h T k a 4 * & O & & & & : & & & O   O O & = ; = = = = - u * & : & a j *.*.$.k : . . : X X o H <.5.5.>.,.6.0XxXvX0XW o : : : o o   . ; T 4.zXbXbX:XT o . . . . . .         @   O O   = u 1 ; 1 K =.=.T u & 4 : 4 & & : & : O & O O $ O + + O O   O +       : . o s k 5 $.zXnXvXzXzX4.*.j a h f p f i ] f h p p p h p i p i p 9 8 p w 8 8 p u w 8 8 8 8 w w 8 w w w w ( ( ( ( ( ( ( ( ( _ w w w _ ( ( ( w _ ( _ } dXlXlXFXnXFXPXFX_ w } | } } } #.} } | | | | | _ _ ) ) ( ( ( ( e e ' @.dX7.*.{ q.zXzXzXzXzXw.#.#.3.gXdX#.dXdXgXdXgXgXw.w.+.p +.+.p +.+.+.+.+.+.-.&.=.'.VXJX=.a r r = O . + u a 0 8 @ = i f g f t q q q r f f f ] g ..[ [ [ [ f = @ 9 9 9 % y 0 f 0 q q # = 9 r =.fXq.8.*.7.j $.j X.j j j g t t t P K s t t g r ; * * ; 4 4 a k k T T +.*.3.9.9.w.$.k - - 4 = = = ; * o o 1 1 1 1 s K K E $.k k k d T +.k 4 & & & & % % = $ ; - ; 1 t > t :.2.|.].]./.5.5.5.,.,.,./.cXmXhX:.C 3 2 1 1 a 4 u u - * ; 1 o X X > > 3 F ,.~ J Z J Z J I L U ;.1.;.3 X X 1 X   - u 0 u 9 = % $ = & $ O O O @ + $ + + + $ $ % % % 9 = u 9 % & & % + O + 9 =   + = + # 1 j j g a ; ; - a k k g a a a t K %.5.5.6./.).).).,.,.,.`.0X0X[./.5.`.`.0X[.qXbXnX0.K a a g g k r - + # q t g [ ] f a q q q y y q q q q e q i i g =.q.[.`.].(.).Q.Q.,.:./.wXmXqX0XcXVXHXbX7.q f i i ' h ] ] i ] y q - o X o 6 E >.1.1.<.>.;.;.>.0.`.'.zXhX<.  s X.j X.$.k # . X X t 2.`.`.!./.!.!.!.1.:.1.`./.].qX].{.qX,.3 6 ! /.1./././././.!.,./.].[.].[.[.%.X . . . . . # # ; r r r 0 r q r f y i t i r q # # X.8.`.`.1.`./.!.,.U H F ",
"S t S K H j h T T +.[ T +.h k u = 8 9 & & & & O O & & & : O @ $ 9 = q 0 - = 0 0 u ; = - 4 u k j j a : . . X X o X 5 W 4.5.6.,.6.0XvXrX0.d o : o : : o : X X o s 3.zXvXzXq.R 4 : . . : :   O . O   + O   O : $ * * o d -.$.j 4 4 & = & 4 & O O : O : O & + + + + : O O O   + :   o . # - 4 k :XbXvXnXzXq.=.R h j f f f p f p ..p ] i ' p p p i i 8 p 8 8 9 p 8 8 8 8 & 8 8 8 8 8 w e w w w ( ( ( ( ( w ( ( ( ( ( ( _ ( ( ( ( ( _ ) ) ) `  .@.#.p w gXHXHX#.( | #.#.} } } } } | | | _ _ _ ) ( ( ( ( w e e w  .7.dX@.[ w.zX0XzXzXfXw.#.#.#.gXgXdX#.dXdXdXgXgXw.+.T #.T p p p T +.+.+.T -.$.-.4.bXJX9.j g j a u = = y a y 9 # 8 q q f t q y r y t ..f f f f f [ [ h [ h q 9 9 9 % = 9 = r q 9 9 = q q f X.+.j f f j a j h j f h *.K K F P X.X.g s g a r * : * ; - - 5 k T T T +.+.3.3.w.4.-.h ; = = & $ = = * : : X < ; 1 1 d H R R j d j j +.R T y u 9 = 9 9 9 9 # - 1 1 1 1 > S 1.:.!.].|.(.1.>.,.>.:.;.(.wX}.(.!.J 2 2 r 5 a - u u - * # 1 1 < < X > 2 J ,.Q C Z 2 6 C Z C G :.[.cX0.F X > ; o 5 a = ; = = = $ $ O $ O O O . O + $ + $ $ $ $ $ = = u 9 = % @ @ % @ @ @ = = +   - # ; K =.=.<.R a 4 5 k s g f g r a s s K <.5./.6.,.)./.,.,./.0XqX[.'.5.<.5.5.'.0.0.zXzXzX[.R 0 j h f r - # # r f f g [ g q q 9 q i y y q 8 q q q q q f *.[.[.`.].(.(./.Q.!.!.].xXVXVXvXNXVXVXzX*.r f i i i f ] ] f i q 9 ; ; o X < F E %.>.;.%.E Q >.5.5.5.[.0.X.X g $.X.+.$.g * . X . > K 1.1.`.`.1./././.!././.1.`.[.qX[.1.C > > C Q ,.,.Q.1.,.,.1.1.!.].cXcX[.1.L 1 o X X . X X . X # 1 r 1 # # r r t r q q # = * # g ;.0.`.1./.!.,.X.K H H ",
"t S F g j d j h T h h T T h k u 9 9 = 9 u & & & O & & & & O $ $ # = 0 0 0 0 a 0 a - ; ; * $ ; u a - * . : :   X : < d >.5.6.6.5.0X0X0X=.7 : . < o o o ; : . : ; +.&.q.zX0X=.k : : : . . . : O O + + O $ $ O :   $   - j k a u & & & 4 & & & : & O O O $ O + + + O : O O : +       . . : . h zXbXvXbXzX9.=.[ a h f h h h f f f f i p p i i y 8 p p 8 8 w 8 8 8 8 p 8 8 8 8 & 8 8 8 8 e e w ( w ( ( w ( w ( w ( ( ( w ' ( ( ( w ( _ ) _ ) w e w ( ( w sXHXFX@.#.} } } } #.} } } | | | | _ _ ) ( ( e w e e w { @.7.@.{ fXzXzXzX[.9.p p T #.gXgXdX#.dXdX#.gX@.#.+.p p +.p p +.p T T +.+.$.+.$.+.zXnX8.h j j $.[ h k f f f 0 q = ; 8 a t t f t f t f ..r t g f g g [ [ f r 0 q % 8 q q 8 0 q = ; 0 q a [ [ X.[ X.[ h j g f s f X.q.8.X.X.%.2.X.P t g a - + # & & 4 4 1 k T T T T $.+.-.=.=.$.h = : $ $ & & & * $ # * o o ; 1 a d j j j T k k j [ h y p u u u 9 0 q q ; r 1 r 3 X P ~.U !.].].].,.>.~ ~ 1.:.(.}.].~.(.o.x 2 s s a u a 5 - = - r t t 2 , x J ,.Q.Q C < > , > < 2 Q qXNXVXCX[.x 3 1 1 5 5 = $ ; = = * % : & O O O O @ $ * * * * $ $ = = & & u = % & $ $ = @ @ 0 0 # # r # ; g K K K H 5 5 a h k s f a g s a t H <./.5.,.~ 6.Q.6.,.).'.].'.`.1.1.5.'.[.'.[.zXzXcXnX<.1 k g a r - q = q r f g [ g r - 9 u f i i y i q w q 8 9 r X.q.hX[.`.(.].(.).(.!.(.{.wXxXcXcXbXbXhXg q q i i i ] ] h f 9 9 - # ; o o o 1 6 d H d F K K E 1.8.<.q.4.k # j $.$.-.j a # . X . . 1 L 2.1.!.1.1./.1.>.Q ;.Q ,.'.qX/.C > > > > J ,./.,.! Q.,.,.,.! ,.{.[.!.;.Q P P s < # X X . . < s g s t 1 r r # # = r - . # r t X.<.`.`.1.2.Q P F F F ",
"t F F F g s f h T h p k h h f u & & 8 9 q % % & O @ # % # # = ; ; q # ; r r r r t r 1 0 #   # = 9 # $ .       *   # 1 K >.4.5.4.'.'.6.R o : o o : ; * * ; *   * k %.0.q.0.R o . . .   : :   :   @ # & @ O & & O @ & & = & & & 9 9 & & = & & @ & O @ @ % + + @ + O : O @ $ $ + + # * . . . 3.bXbXvXnXq.3.$.k h g k h f f p f i i p u p p p p 8 8 8 8 8 8 8 8 8 8 e 9 8 e O @ e O @ e e e e w w ( w w ( w ( ( w w ( w ( ( ( ( ( ( ( _ ` _ ) ' ` } @.' e ` kXgX#. .} #.sX#.} } } } #.} } | _ _ _ ( w w e e ( ) ` 7.*.[ fXzXhXq.[.9.p 8 p #.7.kX@.#.#.#.dXw.#.+.T p p p p p p p p +.T +.+.+.*.*.*.-.h j j +.=.w.=.$.+.j h f s -   # r F X.X.%.X.X.L X.K g a f g g [ [ h f q % 8 e @ 8 9 8 9 & 9 4 u g j $.*.X.X.$.*.%.g a r # X.zXbX1.2.%.%.&.X.j f r = # + = - u 9 u k j j +.T +.R +.+.j k u - $ $ & O O O : $ # $ + # + - r s g j j h h a k h [ h h h h f i y 0 q t # t r > > F o.Y ~.~.(._.(.!.~ >.~ Q.{._.~.N.}.}.F 1 g a g j a r r ; # r t t S x o.!.Q.!.!.,.H 6 3 > 1 ;.[.cXcXhXVXGXhX;.X.j d a - * = - u u & @ & @ O . O O : $ : + * * = % % = & & 9 & & & : +   = - 1 # # t 1 > > 3 3 > > < ; r f s k j h a g s t s L ;.>.1.6.~ /.Q.5.'.0X[.5./.5.1./.'.0XqXcXvXbXcXvXzX1 r f r - = ; * = 0 r a g j f a r a g h f f i q 8 q 8 = r -.q.[.`.(.(.(.(.(.(.!.:.! Q /.].[.[.cXzXg # q q e i p p i 0 y 9 = - ; * ; o # < # < 1 < 1 s R >.4.4.4.$.4 5 d K +.K K a # . X . . X X F >.1.1.1.,.Q H F J J J 1./.C > > > > , x Q !.,.~ Q Q Q I I G ~ /.Q G U ,.;.P K t t > > 1 F 2.0.8.8.2.F 1 1 3 1 # # # r 1 a s X.5.<.;.%.F F H F s ",
"t t g s g f a f h k h p h h k u 9 = & & = 8 8 9 % & = + +   # #   # 1 r t t g g a r r r q # #   = $ $ . O   # * X   o s $.&.4.5.4.4.&.6 < o o o o o ; a a 1 # - a T 4.q.q.&.5 X . . . X * $ + $ + % $ O O & & O @ & & = 9 & 9 & & & & & & O @ O @ O @ @ & % % @ $ O $ $ O $ $ +   * . . : :XbXbXnXzX9.-.j h h h f h f f f i i i 9 p 9 8 8 8 p p w 8 8 8 8 8 8 8 q 8 8 @ @ O O O @ @ @ e e w w w w e w e e w e ( ( w ( ( ( ( ..) ) _ _ ' ' ' ' ` #.@.` w _ #.#.#.} #.#.sX#.sX#.#.sX#.| | | ` ' ) ( w ( e e ( {  .@.{ 7.fXfXq.q.8.3.T p p #.w.@.@.#.dXdXw.#.#.p p p p p p p p p T #.T #.3.+.*.*.*.+.$.+.-.w.9.w.7.-.*.$.$.X.a # t P X.%.2.8.1.>.2.;.%.K g g a f ..[ [ f 9 @ = 9 8 8 & 8 9 u 9 + # # r j X.$.*.X.X.X.t g K g K 9.9.;.X.X.X.X.X.g g 9 # + + % = = 4 u f T T T +.+.j j k y - * $ $ % & O @ @ & + % # # # # # 0 r t g f h h y u p h h h ] h h f f a r q t # 1 # # x G I N.~.~.~.(./.,.>.^ Q.^.~.n.N.}.mXP 1 s j j X.g t r r ; a s F x x ~.~.~.,././.6.>.L H &.'.zX0X`.}.mXVXmX`.;.K R j k 4 & u a f y & & O O .   O : : :   $ = = % % & 8 & & u : o ; # # # t 1 X > 3 > > > > > , , , 2 t g g h f f a s 1 # > 6 K E ;.Q.,././.).].{.]././.,././.'.].qXcXvXVXcXbXcXa 1 a r ; - = = = - - 0 a j g a a g a f f q q e 8 i 8 q r X.0.'.`.!.(./.(.(.!.Q.,.,.(.[.qXcXcXbXzXX.# = q 0 8 i i i q q u = = = * * #   X X . X X X o k =.q.4.&.d ; ; 5 a a f h a = #   . X X X t L 1.2.1.>.Q J Q >.,.E H C < , x F C C J ;.,.~ ~ Q Q L J G C ! |.!.G J o.L H L L K F H 2.`.hXcXmXcXcX`.:.X.g t 1 X 1 s r t 1 s &.;.;.H 2 2 F F x ",
"F g P h g a a a k p p u k p k u 9 % % 8 % 8 = 9 % 8 #   + # 1 1 1 t f X.-.=.2.%.$.j r r # - 9 = = $ + O O     * +   . 1 s R %.&.&.R d 7 o o o o 4 ; ; 5 a a a K =.4.q.zX0X0X0.4.s o . . . .   $ % = = @ O @ O & % & = % & 9 9 9 8 & & & & & & O O & @ % @ % % @ O & $ & $ $ + $ + : . . k zXUXvXvX:X=.T j k j f f f f f i i y q p 8 p p u 8 u 8 & 8 8 8 @ 8 8 i O 8 8 . O @ @ @ @ e @ e e ( e ( w w ( ( e ( w w w ( w ( ( ( ( ) ) _ _ ` ` ` ` ` w { @.} } @.} } #.sX#.} sX#.#.sXsX#.} | _ | ` _ ( w w e w ( ) @. .X.7.fX0.q.q.9.q.9.+.p +.#.#.#.#.dXw.w.w.p T p p 4 & p p p p p p +.T +.*.*.*.*.$.$.$.7.9.w.q.w.=.7.=.7.-.g 1 g X.;.2.8.`.2.2.2.1.8.2.X.g r r f h [ f 9 @ = # 8 @ 8 9 u 9 = = # q g X.X.X.$.X.g X.X.8.q.'.<.L g s t F K K g s a = +   + = = & = 4 k h j j j h k k u = $ & & % % $ O & @ + @ % # # @ @ # # ; r ; y k h f y f h h T +.h h ] f f q r # ; 1 > X 3 x I Y N.N.J.(.).Q.,.~ ).~.N.D N.jXVXU o s K X.[ s 0 - - 1 1 2 x x G |.~.U I Q.].].5.1.5.'.zXzX[.!.}.mXZXcX[.o.X.<.&.T a * u k j h u & O O O     O : $ : $ * = % & 9 & 9 u - # o # > # 3 t 3 > , 3 3 , l v c D N v 2 2 F s g a a f a r X X 2 H E Q ,.,.).6./.].qX]././.5.5.`.'.].].hXcXcXzXcXbXK . t r q ; ; = = = # * r a a a a g s f q q q q e e q = = g <.`.`.(.!./.(.!.Q.!.,.,.].{.{.cXzXvXcXg   = q 8 9 q e q q 9 & 9 = * # # X X . X . X . .   1 E 4.R d 5 o * - - ; r a y 9 +   X . X X > s E ;.1.1.,.>.>.! >.U C 2 2 L :.:.,.1.:.Q./.Q.,.,.Q Q I J I (.xX{.G C I L G P X.;.%.2.`.zXxXVXZXVXVXbXhX[.8.%.s X # t a 1 X < s R H 6 X 2 6 6 < ",
"X.$.X.X.X.h a u u u k k p k p y % % @ & % % % 8 = # = # # 1 s X.%.X.X.%.8.[.q.0.0.<.%.g r - 0 = $ $ * + . . O *   X .   ; 5 d d s 5 o o : : : ; o 5 5 1 5 K <.q.cXzX0X0XzXnXnXvXzX5.d o .   * - = 9 - = $ + % & % & & % 9 & & u = & O & & O O O O & @ & % @ % % @ + & @ % $ % + # $ . . +.UXnXnXzX:X*.[ j j j h k f f f f i y i p 9 8 u p 8 8 8 & 8 & 8 8 8 9 p [ w.w.i . O @ @ @ @ e e e e ( w w w e w w w w w e ( w w ( ( ( ) ) ) _ ` ` ` } ` } ` } @.dX#.#.sXsX#.sXdX#.sXsX#.} } } #.| | } _ ( w w ( ( e i  .*. .*.7.9.9.[.q.q.kX+.+.#.#.p ' #.dXgX#.#.#.p p p p p 4 4 p p p p p T +.+.+.$.+.*.$.+.=.4.w.w.9.9.q.q.9.8.t 1 K 8.5.0.`.`.`.1.1.`.`.[.<.X.s t r a j h = @ @ @ @ & 8 8 & = r r # a $.-.*.X.[ X.[ [ =.[.bXbXnX[.0.%.L F g P g f r # + O + = 4 & & 4 a h T j h u 4 u u 9 ; - = * $ @ @ @ + = % % % # @ # + @ # # @ $ = = u a h h f p h h h g j f f r = ; q ; < < 2 G Y N.Y Y ~.(.).).).(.J.N.N.^.mXZX;.3 s g K g t ; #   # 1 2 t x Y |.|.Y I Q 5./.5.5.4.0X0X].`.[.hXZXZXCXmX!.%.%.-.-.j ; & k [ +.h & O O O O . O + : $ + % % % 8 & & & - o # > > > 3 l v v v v m D m D N.N.U.N.Y N S S t s f t a f r # X 6 K ,.1.,.^ ,././.].].].(.5.5./.).].].[.cXcXcXhXcXbX%.. a 1 - ; # = # * # # * - r a d f f r q 9 8 q q i i r = r X.1./.`.(.(./.(./.!.:.Q.:.`.[.[.{.bXhXf @ # 8 9 8 8 8 8 8 9 = = * + #   . X X X X . X X X ; d T s o . : : ; ; ; a f r = $ # #   X X X 1 F E <.1.5.,.E H J W J J E 1.1.!.(.`./.1.5.!.6.1.,.U Q :.Q.qXmX!.J G U U L F G ;.:.0.[.}.cXcXVXVXKXVXVXVXcXhX;.r # r s 1 X X 2 6 5 < 1 6 H C 6 ",
"=.=.=.=.-.$.k y u p k p u p p y = & 8 9 8 & % = e # > # # r X.2.2.2.%.%.8.[.[.0.`.hX[.7.g r 9 # = $ $ + . . O + O     . . : - 1 ; X   X . . X - 5 5 5 5 j 4.zXcXbXzXzXq.zXzXcXvXVXvXq.$.5 * o * ; q q 1 = # + = % = 8 = 8 % = 8 & & & @ & @ O O O @ $ @ + % + @ @ & % & 8 # % + + *   . 4.bXvXzXzX4.R d j j j k h f f f i y i u u 9 i 8 9 8 8 8 8 8 & & & 8 p T fXnXFX:Xy . O @ @ e @ e e e ( w w w w e ( e w ( e w ( ( w ( ( ( ) ) _ _ ) ` ` `  .` ` } _ |  .} #.sX#.#.#.sX#.sX#.sX#.} } } | | ) w w ( w w ( ` *.{ *.7.*.8.fXq.fXkX7.+.+.#.#.w p @.kX#.p p 4 p 4 p & p & p p p T p p +.+.+.$.*.[ X.[ =.=.-.w.9.q.q.q.q.8.a r 2.0.`.8.`.`.[.`.`.`.[.}.[.8.%.F r 1 a a -     + + @ O O = r r # . q X.7.7.[ g ..X.X.`.hXcXbXbXvXcXcX`.%.g s s a r * O   O & & * & & u k j h a u & = - u - & = $ + @ @ @ @ @ # 8 # # # @   @ @ . @ O   # 9 r a f f h g ] g ] ] g f r q ; ; ; 1 1 x G Y N.A Y J.Q.Q.Q.Q.~.J.~.N.^.}.mX;.t s K g g r ; #   # 1 3 t S o.}.}.o.I U ,.>.5.>.&.<.5.1./.!.U.jXZXCXZX!.P X.-.-.$.u & u T +.h u O O O . O . +     O $ + & & @ = = # > > > , l v D S D D D h.k.M h.M.M.M.Y.Y.N.Y G S t s f 0 y y = # s E >.,.! ,.Q.Q.).].0X'./.,.1././.].qX0XcXvXcXcXvXVX8.. - ; # ; = ; * * * # # o 1 a s g a = = = q e q q q r # 1 t X.1.`.(././././.Q.,.:.! /.[.qXcXbX'.r . # = 8 % 8 8 % % % % % + # +     . X . . . X . : X 5 5 * : X :     $ ; 0 a a 0 - ; * # ; # X < s H E ;.Q E H 6 6 W E E >.,.,./.`.[.qX'.1.~ ,.,.,.Q ;.Q.].NX}.! G G I U G 2 P ;.1.`.[.}.cXcXNXVXCXJXSXSXVXNX'.X.1 1 r s 2 < < < 6 E >.<.>.;.E ",
"8.8.9.7.w.=.+.h k p p u k f a y 8 9 8 9 u = = = # 1 # # 3 F ;.1.`.1.2.<.`.zXzXhX[.zXzXq.g - - - $ $ $ + O O + @ # +   . .   o ; o   . . . . o 4 a a a d =.hXzXzX0X0X0X0.0X0XzXvXvXbXvX0.g 1 ; 1 r - r r ; ; ; = - q 0 0 9 9 9 9 % & @ & & O O O O @ @ + % + + % @ & @ % % @ % % % $ . * q.bXvXnXzX=.T j j j h a f k a y y i u u 8 i u 8 8 8 & & & & O & & h +.w.q.nXFXnX=.: . @ @ @ @ e e e e w w e ( ( e ( ( e ( w w w w ( w w ( ) ( _ ) ' `  .' ` }  .} } } } sX#.sXsXdX#.sX#.sX#.sX#.} | | | ) ( ( e w w e ` @. .7.7.*.8.fX[.:XkX7.+.+.+.p ( p kXgX+.p p p : & p 4 & & p k p p +.T p +.T *.7.$.j h $.*.$.=.9.q.kXzXhXq.K t <.`.`.1.,.!./././.`.[.qXhX[.0.X.g < 1 2 1 X # #   @ O O 8 @ O # t 8.fXzXhX8.2.%.-.0.zXcXzXzXhXzXzXhX[.8.K a t a 0 $ . .   & * & * & 4 a h k u - = = = = = & $ $ $ @ @ @ = = 8 @ 8 e = @ @ . + + + + = = ; = 9 y y g h g ] g g g a a r = ; ; 1 1 2 x A D Y Y U.~.^.~.L.^.^.^.N.Y N.|.L 2 g j g s r q # * # # 3 3 S U.|.|.~.G G >.>.E R R R R ;.1.~.o.}.ZXZXZX2.2 K $.3.$.k 9 9 k +.[ a O . . O . O   +   O O O @ & 8 = # > 3 > , v m D h.k.k.k.k.k.k.t.g.z.j.z.C.C.M.M.n.S S g f q 8 u 9 ; 6 H Q ,.! ^ ~ ,././.).,.>.E Q Q E ~ 5.,.`.[.[.cXvXbX=.# ; ; ; # # - ; 1 X   X     ; 1 a r = O + 9 q q q q q q # r F %./.!./.!.(./.Q.!./.[.{.mXvXcXcX<.1 + # = 8 @ e e @ % & $ + + + +     # . . . X . . . . . X . . . . .     * 0 f f r u 0 - - ; # X o 1 d %.%.E E H C F J E >.5./.`.[.cXNXVXNXqX5.,.,.,.;.Q 1.cXxX!.G I I U Q Z 2 U !.`.`.].0X{.qXxXvXVXVXCXAXAXVXzX0.1 X < 1 5 5 7 5 >.'.0X0X`.5.5.",
"=.9.9.9.9.w.=.+.h h h f p f y u & 9 u u y 0 q r r 1 1 1 F L 8.`.`.`.`.1.`.hXcXvXzXcXzX9.a = 0 r * $ +   O + % # # = = . . . * 9 = # :   + * ; 1 a 5 s %.q.[.'.q.'.q.'.'.'.'.0XcXvXbXbXcX<.K a s 1 # # # 1 # # r r a f r q 0 8 = 8 % & % & @ O @ O O + + + + + + @ @ @ % @ % = @ $ O . k zXbXnXvXq.T j R j j d a f a a a y 0 u 9 8 u 8 8 8 & O & O : & 9 h +.w.:X:XzXbXFXnX+.O O @ @ e e e w w w w w ( e ( w w ( w ( w ( ( ( ( ( ( ( ( ( ' ' ` { @.{ ` ` } } } } } sXsX#.sX#.#.sX#.} sX#.#.| | } ` ` ( ( ( e ( ) 7.{ @.7.@.7.fXfXq.9.*.[ { +.' { w.kXgXp p h p & & 4 4 & 4 p T +.p p T T h $.3.9.$.j a g h j $.$.=.q.q.q.q.X.s ;.`.'.5.,.1.!./.!.!.(.[.zXhX[.1.;.t 3 2 t > X #   @ + @ @ . @ X.hXnXbXbXnXnXhX[.[.hXhXzXzXzXhXzX[.q.0.<.K s s r * +   O $ ; 4 ; : = u i k k y u - 4 = = % $ $ % % @ @ % @ @ = = % # @ @ @ @ # = # # # r r g g f t f g f g g g f r a q = ; 1 1 1 3 , c Y N.N.^.|.}._.^._.^.^.M.N D o.C 2 s s a r r ; = ; 1 1 3 2 S o.|.}.~.Y C ;.;.H R R K L ;.1.!.T.jXZXMXZXjX3 2 T T +.k : $ a +.+.h = O O O O . O   O O O O @ % = + # 3 3 3 v m h.k.k.k.k.j.j.h.t.r.y.l.z.z.c.z.C.Y.U.D S t i q q i q ; 5 H W ~ >.~ ~ ~ ,.6.! W J C H Z 6 C J Z H J %.`.hXzX%.< # o # o ; 1 a r X : # X o 1 a a r * .   8 9 q q q q # r 1 1 F ;.,.!.!./.`././.].}.cXNXmXcXzX%.# # 9 q = 9 8 % 8 & @ @ + + +     # X . . . X . . : . . : . . : : : X * ; 0 a f f y y 0 0 1 ; o ; 1 H <.<.&.W F H W >.5.'.qX[.cXxXxXVXKXKXVXqX6.Q ,.>.1.`.xXxX:.F I I I Q G x ,.].qXqX].{.qXqXcXwXmXNXVXAXVXVXNXzXH < o < < 1 < 6 6.0X0X'.0./.6.",
"8.w.9.w.9.q.w.-.+.h h f f k y u 9 & 9 u 9 0 r r r 3 > t P 2.`.[.[.[.`.1.>./.].[.hXzXzX0.s 1 ; # $ $ O   + % % % + q q =   + # ; q 9 = % $ - a a 5 a j 4.0X[.5.5.0XzXcXvXzX'.'.0XcXvXvXbX0X%.s 1 1 X . X   X # 1 t a a f a q q 8 = & & @ % + @ + O : O + O @ + + @ @ % @ % @ @ + + . . j nXvXvXnXq.j j R R j f k a f y u u 9 u = 9 8 8 & & O & O & & u h +.7.3.w.kXnXzXnXbXfX8 O @ @ e @ e e e e w w e ( e w ( w ( ( ( w ( ( w _ ( ( w ( ) ( ( w e w i ( ` } }  .#.sX#.sX#.sX .sXsX#.#.sXsX#.} }  .` ) ( e w ( ) @. .*.@.X.7.fXfXw.[ ] ] +.] ] +.w.gX+.u p +.p 4 & & p 4 p +.+.T p T p T h +.w.:X-.j r r a f d a a j $.<.0.$.t %.1./.1.>.:.1.5.!.!./.[.}.{.hX[.!.G 3 F G > X # # O @ @ O 9 @.zXFXhXq.7.8.q.hXhXzXhXhXhXzXcXcXcXcXhXq.<.K a a r   + . : & u u 9 4 - u a f a u & - & & & $ % = $ O @ @ @ @ e = e = = @ @ @ @ = e = g r t $.9.q.8.*.f f g r f f f f r q ; = r 1 2 2 v S Y U.^._.XXXX.X_.^.~.A.Y m Y U F s s g g a - 0 - 9 a t t x G o.|.jXXXU G >.;.E %.R H %./.`.U.U.jXjX|.mXZXU 2 k j j k 4 o a +.*.j q O . O O O + O + O O O & & = # # 3 3 v m D h.k.h.t.t.i.i.t.t.t.t.r.r.l.x.z.i.A.U.D x t i i w p y ; 1 s L Q 6.~ ~ ~ ~ ~ Q H Z C J H 6 F J F 3 < t &.5.0.%.1 # # 1 # ; 1 a r 1 a 6 a a g F d t 1     + 8 q q q q q 1 1 o 2 L >.,.,.!.!.!.(.].!.`.cXhX[.`.P o r r r q = = % @ @ @ + + O + + #   . . . . . . . . X ; 5 ; X . . : * r r f a f f a a 0 - 0 = * ; a %.0.0.%.F d H ;./.qXcXqX0XqXcXxXVXSXKXLXVX0X,.2.1.!.[.NXxXQ G U U U :.U Z !.].qX].].`.].{.}.wXxXNXBXVXVXVXVXxX0.W F 5 < < 5 H '.[.0X5.6.5.5.",
"9.9.7.9.9.fX9.7.+.] h h h h i u 9 & = q 0 q r r t # t P ;.`.[.|.].`.!.,.;.:.1.`.].zXcX0.s   * ; * * * $ @ % = q 9 q q 0 9 # = = 0 q q r y y a a 5 a R 0.0X'.'.'.'.cXvXbXvXcX0X0X0XcXvXbXcX`.L 1 > j %.2.O.%.s 1 1 1 s h q = q = = 8 % % @ +   O O O . O O O   O @ @ @ @ @ @ @ + + O . w.bXvXnXzX9.R j R R d k h a a a u 9 - & = & & & & & O . & & h -.3.w.3.-.w.:XkXzXnXUXnXT : @ e e e e e e ( w e ( w ( ( w w ( w ( ( ( ( ( w ( w ( ' w @ w _  .' _ ( e ( #.} ` } } } aX@. . .} dX} #.@.} }  .`  .{ w ( ( e (  .{ @.7.{ { 7.[ y y q i p ] ] ] #.p p 8 +.+.+.f p u u u p T +.+.h [ j +.-.7.q.fX=.r 1 - 0 k j g k a a d %.-.P X.>.1.>.;.Q ;.:.,.!.1.`.}.[.[.[.|.I G o.,.S X X X # O . 8 w.nXzX7.r r q 1 t X.8.zXzXhXhXzXhXcXcXzXcXzX4.K a r - * O . $ 9 % - a * = u u a u u 9 = % # = % = @ % @ 8 @ @ @ = = e e # = # @ q r i f t g O.nXnXhXzX=.t r t r r r r y r q q # r 3 3 2 v S U.|.^.^.^.^.N.J.m.n.A B N.|.,.F 1 s a s a a - 0 0 a s t P S o.U.}.ZX`.S L >.&.&.$.E <.'./.~.n.XXjXT.|.ZX! > s k k 5 * ; k R [ j h ; . . O . O + % % @ @ + % = # > > v m m D B M u.M t.t.t.t.e.e.e.e.e.y.a.i.z.M.N.D t t i i ..i i 9 1 2 H >.,.6.,.Q ~ ~ ,.~ J J H C J E 1.'.L F L ;.>.<.&.X.1 # X # 1 j &.%.K K %.%.%.%.&.=.%.g 1 + O @ q q = = ; ; X X < 6 Q >.:.,.:.,.1.Q.Q U U ,.1.<.X.s r r f q = 9 e @ & @ O O O O         @ . .         - j *.j   .   a j j [ j h g f y y u = $ $ * 1 a %.q.<.H 6 R >.5.[.cXcXcX[.cXvXNXxXVXLXKXSXxX1.L L 1.[.VXxX,.G U Q ! ! G U !.{.].].(.].].qXwXwXxXNXNXVXVXAXNXNX0X5.<.6 < < < C >.5.5.6.~ 3.~ ",
"w.9.9.w.w.fXq.w.*.T h h h h h u 8 & 8 = = = r r t t s ;.!.[.[.`./.!.!.Q.:.1.'.]./.qXzX4.6 X o 1 ; : # * # # = q r q r q = = 8 9 q q q q q a a a 1 k &.'.zX[.[.0X0X0XcXvXvXxXcXqXcXvXVXvXvXqX0.1.`.hXcXbXVXvX[.8.t # # r r q q = 8 % % % @ + O O O . . O O       + + + # % # % @   . $ :XbXUXbXzX=.R T R j k k a 5 u 4 - - * & $ & & O O O O & 9 +.-.w.9.w.3.3.3.:XrXrXkXnXkXh O @ @ @ e e e e w w ( w ( p ( ( ( ( ( w ( ( ( ( ( w ' ' 8 8 @.lXHXIXHXFXkX' @ w } } } @.@. .} }  .} #.sXsX@.aX} }  . . .( e ( w (  . . .*.] ' f i u 9 8 u i i p p p p & 8 h +.+.+.h h p k h h +.+.+.*.=.w.q.fXzXzX2.a 0 r a j $.$.$.j j g K %.X.%.<.1.1.;.L Q ;.>.1.1./.`.|.[.[.`.Y N o.|.:.3 X # . . p =.nXkX*.8 + = # #   1 s X.0.[.cX[.[.[.zXzXvXzX=.s a a r - : . . . u u % k - u u u u u 0 = % % % % % = % = @ @ @ @ @ e # = @ @ e r f r t r g K fXbXfXhXzX=.r - q q r q r q t # 1 q q t t 3 3 c Y ^.Y.N.C.u.V u.V b b b ~.mX!.F 2 r a a 0 r 9 - 4 u a s s x S S U.jX|.L J ;.>.%.R E 4./.!.:.Y XXZXjXZXZXo.> 5 a k s 5 5 5 a j j a ; # O @ . O + + + % @ @ = # 1 # 3 3 S D D m M M b m M M M n n n n n e.t.y.i.m.N.D S t i w w i i q r r F Q /.).Q.Q Q >.,.,.Q Q J J E >.'.cX(.5.5.0.0.<.1.<.K ; X 1 K &.<.=.&.%.%.$.K R %.8.<.$.a ; # = q # q @ # ; ; # 1 6 L >.1.>.Q :.U U Z C F Q 2.1.X.s a r r r q 9 q % & & & @ @ + + +     . # * $ +   . ; j 4.-.-   5 j R $.[ h j f f y 9 9 + O . * * 5 K &.K 5 s %.0.0.'.[.0X[.[.{.xXNXVXVXVXSXAXVX[.H 2 H 5.hX[.L x L U :.:.I U (.].].].].`.].].{.eXwXwXNXNXNXVXNXxX[.5.<.d < < < 7 E ,.6.,.>.W Q ",
"=.w.w.=.9.q.q.w.*.+.h [ h ] h y u 8 8 = = = r 3 # t L 2.`.}.].!.(.,.Q././.].wXxX].cXcX5.K 5 5 5 - : : * ; ; ; 0 0 r i q q = 8 q q q q q 0 0 u 5 5 k 4.0X0X0XqX[.[.0X0XqXqXqXqXcXcXvXNXvXcXcX[.[.hXbXbXZXGXJXVXcX`.K # # r 9 8 @ = = % % @ + O   . . . .   +   O O   + + @ O . + + . k zXnXnXvXq.R R $.$.j d k 5 4 4 ; - & : : : O O O   . . - k w.3.:X9.3.3.*.3.:X:XkXkXnXnXT O O 8 e e w e w e w e ( w ( w ( w ( w ( ( p ( ( ( ' w w @ @.HXPXPXHXnXlXIXIXgX8 w #. . . .@.@. . .dX .@. . .} sX . . . .' e ( w (  .O.7.@.] i e q 8 8 8 q q q u 8 & & & 9 h +.+.$.[ h h h h h T j +.-.7.9.9.q.zXzXq.j f a s j $.=.=.*.K j K X.%.%.>.1.1.<.;.;.;.>.,.2.!.`.`.[.[.!.I G o.mXhXU # X . O [ kXnXw.q O # 1 r r 1 1 t s %.[.zX[.zX[.'.hXzXzX<.a 5 a - = & i 9 . . O $ 0 u 9 0 0 u y 0 9 @ % @ = % 8 8 = @ @ @ @ = = = # q q q # e = r t s X.hXbX8.8.zX7.1 1 q r r 0 q r q r r ; 1 t t t 3 v c Y D D h.B n n b b z N ~.xX,.3 X ; - u ; u = = = ; r a t t , v S ~.`.U P 2.<.%.K &.<.5.,.:.Y ~.MXCXZXmXP > 1 s 6 5 1 1 1 1 1 k s a # O . . . O + + + % 8 = @ # 1 3 , G D c b b z b m N b V b b b b b n M B u.k.Y S S ..f w w i w q 1 1 6 P ,.5./.,.>.,.5.6.,.,.Q J Q ,./.[.[.`.0.'.0.0.9.<.K 1 X s %.<.<.&.j H K H F d R =.<.%.g 5 = ; = 9 @ @   +   X X 1 L >./.1.Q Q ;.U G G J U 1.1.%.s g s t q = ; q # = & & @ + + + + @   + # = * + O @ # h =.-.5 * a j +.K j h h f a 0 9 & O . . + $ ; a s 5 o s <.0.'.'.'.[.].].].cXcXcXmXVXVXKXVXNX>.o X 2 F C < 2 F U 1.!.L I (.].].].]./.(.Q.Q.,.Q./.].wXNXVXVXvX0X'.1.6 < < < C >.6.6.5.6.6.6.",
"=.=.w.9.w.9.w.9.-.+.h h h h h f u u 8 # q = # # X S ;.!.`.`.(.(.!.Q.:.:.Q.!.].].'.].].5.E H F 5 5 1 o ; ; 1 q 0 q i r 0 q 9 q q a q q q y u a - a d 5.zX0X[.0X'.'.'.).).0X7X0X0XqXcXvXNXcXcXqX[.xXbXmXcXVXCXJXKXVXzXL # # 0 ; = 8 % % % @ + O O . O . O         #       # # r r ; ; 3.nXbXvXzX4.R R $.R R j k a ; ; ; : $ &   .   .   .   4 h *.3.4.w.w.3.*.+.3.w.;Xw.:XzXzX*.O 8 e e e w w w ( ( ( w ( ( w ( ( ( ( ( ( ( ( ( w p w w ` nXPXIXlX( @ @ w.IXIXfX@ { @.} } } | dX@. .} }  .@.sX . . . .7. .( e ( w  . .@.7.w e 8 8 8 % 8 q 8 u 9 8 & 9 8 8 f j +.+.h ] h h p h h p T +.*.*.-.w.fXnXhX-.X.X.j h j $.-.-.*.K K %.X.$.X.<.<.4.<.>.>.2.;.2.2.8.`.`.1.;.c Y !.jXxX2.> . O q w.kXfX[ @ q # ; 1 1 1 r 2 6 F `.cXzXzXhX[.fXzXnX=.* # 0 r a -.q.zX7.$ . 9 = = u = = - u 0 9 % % @ 8 % # @ = & @ @ 8 8 q q q # r g g X.*.X.X.# # 8.hX`.q.hXX.r ; r r q r 0 q r q r r 1 # # 3 S , v c b V h.i.V V V B m D |.}.U X X o * = ; ; = # $ % - a a 2 t x 3 U o.U U 1.`.>.E &.>.>.:.U o.D XXZXCXmXS > 6 d H H H H s s 1 1 a 1 ;   . . . . + + + @ # = #   # > 3 U o.D c v v l v z v z m z b z z b N m D Y Y P t i i i w ) q q q 1 1 S Q :.,.,.,.,.,.,./.,.;.E J J E :.>.Q >.5.[.[.<.K s 1 1 j $.%.K s 1 6 5 6 6 s s H j d s a 1 = + = # # # # . . X < K 1.`.1.;.:.;.U ;.U Q 1.1.0.2.j g t r r q q r = 9 8 & & % + @ # + + + % = = = * q ; s $.+.a 0 k h j h j h f f y 9 8 @ @ O O $ $ * ; 1 o 1 K 8.'.`.'.'.[.[.`.,.1.5.`.`.'.cXvXVXVX[.L 2 X X > 2 ;.P L 1.`.U G !.].].[.]./.,.,.I I Z Q Q.].xXNXNXNXqX'.>.6 X > < W 5./.'./.'./.).",
"-.7.7.w.=.9.9.w.7.+.] h j ] h p p 8 & & q # # # g 2.`.`.!.(.!.!./.Q.:.! I I ! Q.,.,.>.Q W L E W d 5 ; o ; - 9 0 q r r q q q q q q 9 q 9 r 0 r - k T 0.0X0X0X0X'.6.)./.5.6./.).'.'.0XwXxXcXzX{.[.hXmXmXcXVXZXVXKXKXVX[.a . = 0 9 = 8 @ @ @ O . @ . O .   . .   . #   o 1 a j $.$.j X.=.nXbXnX0X=.R $.R R R $.$.j a 4 * : : : . . . : & 9 k T -.9.9.9.3.3.3.+.$.&.3.3.:XkXzXnX:X& q i e e e w w w w ( ( ( w ( w ( ( ( ' w _ w w _ w w 8 w.HXIXHXw.@ ] w @ gXPXIXw.w @.` #.dX.. .aXdXdX . . . .aX|  .@.dX7.) ( ( ( ` { { gXw @ e 8 @ 8 8 8 8 8 & 8 & u 9 9 y f f h g f h h h h h f h [ +.*.*.7.9.hX9.*.*.%.$.j ] *.*.=.=.-.-.%.-.X.K $.>.2.<.%.;.>.%.X.%.<.<.8.2.F x Y Q.}.cX2.> # 8 +.kXzXw...@ q 1 ; # X < 1 2 1 1 %.zXcX`.0.zXhXbXzX=.. # [ 7.fXnXbXJXHX9.$ . = 9 9 9 9 q u 9 9 = 9 9 % = @ = @ @ 8 % 9 q 9 q 1 e t X.7.8.hXq.q.8.P X.8.8.8.O.g 1 r r ; # = = = 9 = r r r # r 1 t 3 x c m m B n.p.M V b z N.}.(.F o o o   = $ $ & : : & - 4 4 1 3 F S G U U o.`.'.1.;.&.&.>.Q Q o.Y ~.}.mXZX!.2 H ;.1.`.`.5.1.>.E s 1 X ; 1 # . . . O O   # @ # #   X > 3 :.|.,.c v v v v C l v v v v v v N v m c G P P t i ..w w i e e t # # t K U o.;.,.,.,.,.,.,.Q E L J L L E L Q 0.zX0X%.r X s K K s s 6 1 2 5 < < 6 5 < 1 < 1 1 r r * 1 g *.*.*.X.f 1 1 1 H <.`.5.:.2.o.U U U ,.[.hX[.<.X.s r r 0 ; q q q = 8 % % $ % @ @ # @ # = 9 u a h j j [ X.K h f h a k f a a f a q 8 = % # % % % $ * ; ; < 1 H 8.'.`.'.[.`.`.,.L Q ,.!.,.J U `.cXNXcX2.E s 2 L 2.hX:.E 1.[.Q C :.`.'./.>.Q Q :.Q J J ! `.qXvXVXvXNXxX0X>.6 < > < L /.`././././.'.",
"=.=.8.w.7.9.w.9.9.$.j ] h [ [ p u u & & = @ # P 8.[.`.:.2.!./.!.(.Q.Q.:.I Q ! ,.! ~ Q W W Q Q &.E d 5 < o o # = q q q q q q q q q 9 9 0 u a 4 ; 5 R 0.0XqXqX0X5.,.,.,.~ Q Q Q ^ 6.6.].0X}.{.cXcX}.cXxXxXNXNXZXVXJXKXbX%.#   = = % = % @ O O @ . . . . . . O .   X : ; a K $.%.*.$.K $.0.zXzX9.%.R %.R R &.4.=.=.$.T a 4 : : : & 4 5 j R =.w.9.3.4.9.9.3.3.3.T 3.3.w.:X:XkXbXkXp e i w e e w ( ( ( w w ( ( ( ( ( ( ( ( ( w _ _ w ( ' w gXIXIXlX#.w @.+.8 ] HXPXlX' ' w gXFXgX .) { @.gXdX_ )  . . . .gXgX` e w ( ..` ..gX .e i 8 @ 8 8 8 e @ & @ & 8 i u i p y h f f f g f f h h h f j j X.*.7.8.7.X.X.-.*.X.[ -.=.9.=.8.=.=.=.P g H K K K K X.X.K F P K L %.L F F x P `.zX<.1   q q.nXfX7.f # # X . . X X 5 5 t X 2 [.bXq.<.[.zXcXnX8.*.q.bXFXJXJXHXHXIXHX7.. . = 9 0 9 9 9 0 9 q q q q 8 @ % 8 8 & = 8 0 q q r q X.8.8.X.[ 7.hXbXhXhXq.8.g # t r r - ; # + + O % # # = ; 0 r 1 1 2 x S c N B u.u.V b z V ! (.:.> X o o : & &   & : & & & & 9 - # S S P P G ;.!.1.1.%.E %.>.>.>.Q.:.U A :.xX[.;.Q ,.[.[.qXqXqXzX[.1.K r #   . . . . . . @ @ # + # #   . 3 X.`.!.Z C 3 v , l , 2 x , v v v v v v S G P g f e e w w w e e # # # t F L Q ;.;.,.1.,.,.>.Q L H J J L Q ;.>./.qX0.P X X K %.s < < o < 5 6 5 < 6 s 6 d K d 1 # 1 j =.fXzXfXfXq.q.w.$.d K %.1.1.1.,.:.Q U :.].xXVXcX[.<.f 1 0 r r q # = & & 8 & $ % % # + q 9 0 a h +.*.*.-.$.*.$.+.K j j f u y q r q q = 8 8 = - = = * - - - o ; F 5.'.`.'.[.[./.2.Q :./.xXcX:.L /.cXcXzXq.>.F K <.[.cX8.H o.`.Q x Q 1.1.;.L H Q !.(.!.Q.).qXwXxXNXNXvXbXcXE X X X > E 5.1.1.>.,.,.).",
"-.7.=.=.=.9.9.w.w.*.h h ] [ [ h p p & & = # t `.cXcX`.P I ,.,.!.Q.:.! ~ Q I Q ! ,.~ Q Q W E Q >.&.R d 5 ; # # - - = 0 q q q q q = = 0 0 u a - o 5 W 0X0X0X0X7X5.,.,.^ Q W W E ~ Q Q ,./.].{.qXqXcXcXcXcXxXmXNXVXVXCXVX[.s   = % = % @ + O O O . . O . O   # # : ; 1 s j K X.[ K $.g d X.=.<.<.$.&.&.%.$.4.4.4.3.4.&.T d k a k k $.$.3.w.4.9.9.3.w.9.3.-.-.$.+.3.3.w.9.:XkXnXzX+.e e w e ( ( w ( ( ( w ( ( i ( ( ' w _ w ( _ ( ' ( ) ( kXIXIXkX{ w +.#.8 | HXPXHX@.@ | FXPXIXgX_ ( )  .dX . .} |  . .7.gXaXe ( ( ` { ..fXfXw i w 8 8 8 8 @ @ @ & 8 y p a f f i h f f f f f f h f h g ] [ *.*.-.-.*.O.7.-.-.*.j [ *.7.8.7.7.8.=.g r t r r r r a g s t r r t s F 2 H , > L 1.2.t + j fXkXfX7.t e t r t j X.<.1.0.5.s 2 8.bXcX8.<.kXzXzXzXbXHXIXIXIXJXIXHXJXPXFX*.O + = 0 q 0 9 q q 9 q q q 8 @ % = % % 9 9 0 0 0 q r -.q.=.r X # S 8.hXnXcXcX8.r # # r r = = = # + @ % % # = 0 0 r r 1 3 x c z m B f.u.n V c I :.H X . X : . : O O : O & & & & & 4 1 1 t G S G o.:.o.L H H R W E E :.:.! v x ! ,.,.,.Q.`.].[.qXcXxXvXcXzX4.s . . . . . . .   # +     +   X s <.0.2.G x , , , < , , x , x x x , v x t s g f i i ..w e e e t t e 3 t S L 2.,.1.,.,.>.>.;.Q L J H L Q ;.>.<.0.[.`.d X 1 H H 1 o X o 1 6 H H 6 H E >.'.cXzX=.a j 9.fXzXzXfXq.fXkX0Xq.4.%.%.2.1.1.1.:.:.,.`.cXcXvXvXcX8.g r - r q # q = 9 = 8 & = % 8 = = q r f h ] +.%.*.*.*.$.$.$.X.+.$.h a 9 0 q y 0 9 q y q u 9 = = a - ; X # d 8.'.`.[.[.[.].!.!.`.].VXVXxXhXxXVXcXcX0X5.K K X.<.bX[.X.H ,.F 2 ;.1.1.;.J J :.[.{.{././.].}.cXxXbXNXvXxXE X X X < ;.1.,.Q ~ ! ,.,.",
"*.=.=.7.9.7.8.9.9.*.[ g h [ [ h y p & & = @ X.nXVXVX(.F C J Q Q.,.,.:.Q I I ~ Q ~ ~ ,.,.>.Q 6.5.1.&.K s 1 o ; 1 ; q = 0 q 0 q r q = = - a a - : 5 4.zXcXzXqX).6.,.6.,.>.~ Q ~ ~ ~ Q ,./.[.qX{.qX}.}.}.mXxXxXcXNXVXVXJXzXK . # = 8 = @ @ O O O O . .     # # o ; s s d j K j K K K s K j d K -.=.&.3.-.&.4.9.4.9.9.=.=.-.$.$.-.3.3.3.4.3.w.9.9.w.4.w.3.3.&.$.T -.3.3.:X:X:XzXkX+.e w w e ( ( ( ( ( w ( ( ( ( ( ( w _ w _ _ w ( ( ( w ( gXIXIXfXi ..@.{ p @.FXIXHX} w kXHXIXIXhXfXlX..( @.dX .| | ` ` @.gXdXe e ( `  .e fXhXe 8 q 8 8 8 @ @ O O O q y f i h i y y f f i i f f f f [ f f [ *.O.-.7.=.-.-.-.=.*.g h h $.-.=.-.=.=.f r # 1 q ; 1 0 r r 1 # 1 1 r f a 1 1 3 1 g K j a [ nXhXfXO.# # t K %.4.'.0XzX0XzX`.H %.bXbX9.&.hXnXnXbXHXJXHXJXJXIXHXJXHXIXPXnXq O + 9 9 9 9 q u 9 q 9 q 9 @ % % % % 9 9 0 = 0 - X.9.8.t # # # X # t -.hXFXGX`.t X # - - - - = & # % + + = = - 0 1 1 > x c v m V n.V z b z A ! U 2 . . : . : : &   O : & : & $ : 1 X 3 G P G U P F 6 6 s H H H W J :.(.:.G F H ,.1.1.!.].[.qX{.cXNXVXVXzX%.- . . . . . O     # #   # # 1 &.[.[.1.C 2 > > > > < , < x 2 3 > , , F 2 a f r i w w w ..e e e e # # # t X.2.`.`.1.:.;.Q Q Q Q L J L 2.>.,.1.'.cXzX%.> 1 s 2 o < > < < K >.>.E >.5.0XbXKXLXvX=.<.q.q.9.=.=.-.<.9.q.hXq.q.5.<.2.,.1.:.:.|.}.hX}.hXhXhX0.P r 1 # = # # # = 8 = 9 9 = - 9 q 0 f h [ [ [ +.X.[ [ $.$.j +.-.-.[ a 0 0 0 a f f f f f y y 0 u - r 1 o 1 K <.'.`.[.[.[.[.].].[.(.xXNXVXCXKXVXcXcX[.8.L s 1 g cXVX<.P ;.6 3 o.1.1.1.:.;./.[.cX{./.!.!.].hXmXbXNXbXVX/.C G F H ,.5.>.>.Q >.~ ~ ",
"-.-.7.=.=.9.8.9.8.-.[ h h ] h ] h f u O   r <.bXZXVXmX:.x G ~ >.Q Q Q J J J E I Q 1.)./.'./.,.6.5.<.K s s ; - 1 * = ; 9 u = = u q # % # a a * ; E 0XvXzXcX0X6.,.,.,././.6.,.5.'.)./.`.].].qX].].].{.(.{.{.qX}.xXNXxXVXcXW . : ; + + @ O O O O O . . # # 1 1 5 1 a K R K K K K K g g j d j K &.&.-.4.<.-.4.4.4.9.4.=.=.3.=.=.=.-.7.3.=.=.3.9.9.4.9.3.3.3.-.$.$.&.&.3.3.w.:X:X:X+.e w w ( w ( ) ( w _ ( ( ( _ ( ( _ w _ w w _ _ w ( _ w ) FXPXFXw e ' e O kXHXIXnX8 ' nXFXHXPXkXkXIXIXdXw  .dX}  .` ` ..gXgX( e e { @.e @.kXe i i 8 @ 8 O @ O @ 8 0 f ] ] f y i f f f f f f f g ....j g ] X.*.*.*.7.-.-.*.*.*.[ h r h [ X.+.$.X.a u 9 = @   = ; q % % + = = ; r f r r ; # # 9 f j w.zXfXfX=.q > P X.%.>.5.[.0X1.&.5.%.H [.bXq.-.zXbXbXbXHXJXJXbXHXJXHXHXJXJXIXJX0X% . y 9 9 9 q 8 u i 8 8 8 & @ & @ e = # q r q [ 8.8.g # # # 1 1 r # X t 8.bXGXhXP @ X t ; & u : = = + % = % % # = # > 3 3 x c c N.A m z m G U ;.L < . : . : : . . : : : O O :   # # 3 t F S G F 2 F F s 6 2 2 6 C J ,.!.! C C :./././.).[.}.{.qXcXcXxXcXq.R . . . . O .     O # # X 1 <.[.zXcX;.2 X > > > < > 2 J Q [.[.1.2 3 F a u 9 q p 8 i w ( e e e e # # t S X.!.hX`.~.2.! >.Q ^ >.;.;.>.`.`.`.].[.zXbXcXK 3 F 2 > < > > 6 E ,.6.1.5.`.qXvXSXJXvX0.<.&.j k g h [ *.-.7.q.q.q.8.<.%.X.o.1.!.hXjXhX|.hXhXhXhXaX....t t r + q = ; 9 ; 9 = 0 q - 0 f f ] j j j j h j [ [ [ $.*.-.[ a q 0 r r f f g f f f a q u - a 1 o 1 P 8.[.`.'.[.[.].`.!.:.,.:./.}.NXVXVXxXzX`.0.<.1 X 5 0.vXzX2.P 3 2 L 1.5.`.`.5.1./.!.1.:.,.1.Q.`.qXcXxXxXcX[.`.0.`.`./.0.5.>.Q >.Q Q ",
"X.-.=.=.8.8.8.9.q.=.h k [ [ ] h h f u & O 9 8.VXVXZX}.o.G I Q ~ Q W J Z Z Z I I ! /.'.].].'.6./.5.5.L d d 1 ; # ; ; 9 9 u 9 = u = = = 9 - 5 5 j 0.zXcXcX0X'.>.Q ^ ).).6.6.).).].7X].).].0X].].(.(./.!./.(.{.[.(.[.0XcXzX%.: : : # % @ O O O O . . O # 1 a s s d H R %.R K K H j j H g H g K $.&.&.9.4.=.4.9.9.9.<.3.=.-.&.-.&.&.&.-.-.=.3.9.9.9.9.9.3.-.$.R T T T 3.-.3.3.w.w.T @ w w ( ( ) ) ( _ w _ ' _ ( ' _ ( _ ( _ _ ' ( _ ` w ( w @.HXIXkXe . q @.FXPXIX7.e lXHXlXFXIXkX' @.IXIXgX{  . ...) _ ` @.gX| e ( ` 7.w 7.kXi q 8 @ 8 8 @ O @ 8 8 i i f h y q 0 r f i f f f i f f f g ] f [ [ +.X.[ X.*.*.*.-.*.h f h [ h f f f y 9 % O O @ @ % = # + % = 9 q q h f f q = = r h *.w.kXfXfX7.3 # X.L E L E '.cX0.L >.<.<.zXbXq.<.[.bXbXbXnXnXbXHXJXHXUXAXJXJXIXIXFX*.O = 9 y 9 y y y u u u 9 = $ + # @ = @ = q r X.8.=.t # # @ 1 r 1 t 3 X 3 8.ZXHXcXX.. . 0 a & = = + + + % = = % +   X X > , 6 Z Y D N z v Y U ,.>.5 . . . : . : . : .   O O       < 1 2 x 2 x C H H H 6 6 < 7 6 J ~ !././.Q J ,.!./././.].{.[.qXxXxXxXcX0X&.o . . . . O . O       # r <.hXzX[.H X X 6 C C J H J >.`.vXVXzX;.F 1 a u u u 8 i w w e e t e # t # t S o.[.|.`.:.,.!.6.,.>.>.>.>.`.[.].`.{.cXcXVXGX2.t S x > > X < 7 >.,.1.6.5.`.cXVXVXvX'.&.X.d a 1 h j K *.-.=.=.7.9.9.8.=.o.;.!.|.hXjXhX|.hXjXjXhXT...e t # # q # q = q q 0 0 0 0 u 0 f h h h h f h h h h g ] j +.*.+.h a q a a f f ] f f f q a u 0 5 1 ; 1 K `.[.`.[.[.`.`./.!.,.Q :./.[.qXcXvXmXhX5.1.=.5 1 1 <.zXhX1.t > 3 F L 1.1./.1.2.>.;.Q ,.;.;.:.1.`.].'.[.`.!.1.1.5.0.5.'.5.5.,.1.>.>.",
"X.$.-.-.-.=.w.4.w.=.h f h h f j ] h p y 8 1 2.VXGXjX|.o.Y G E Q J J Z C H J I ! ,./.].].qX0X'./.'.0.%.K K a o = = = 4 u - 9 9 4 9 = 0 - - u a &.'.cXcX0X0X0.>.~ 6.Q./.6.Q././././.)./.].(./.!.!.,.,.:.! :.].].!.,.`.qXzX&.4 . o $ @ + @ O O O O . O ; a s 5 s s E $.%.$.K K j s K g d g j d K $.-.<.<.4.9.0.4.9.9.=.=.&.-.&.=.-.=.3.3.9.w.4.9.9.9.9.3.3.R T T T R $.+.-.3.3.w.y 8 e ' w ( ( _ ) ( _ ( ( w _ ( ( ' _ ( ' _ w ' ( ) ( ' w @ @.HXPXHXnXkXIXPXHXw.w gXIXIXFXHXIXFX( _ FXIXIXlX@. .| ` ) ) ` gXgXe ( `  .i @.nX{ 8 e 8 @ @ @ @ O 8 y f f h f y 0 y i f f f ..f r y f f i f f f g ..[ [ ] [ +.*.*.X.[ h j [ f 9 = q 9 % + O O + + + O + @ O % # 9 q f [ f f r a g [ *.fXfXfXq.8.r t &.%.;.J E qXVXxX`.hXcXhXcXcX[.hXnXbXbXbXnXnXbXbXJXHXbXHXHXHXJXJXIXzXi @ 0 i 9 y i i f p y u 9 $ % @ @ # @ # # t X.8.*.# X # # 1 r r t t # # t 2.GXKXnXO.. . a 4 $ = # + % = 8 = # @ .   X X > 3 S Y Y c v c A ! 1.0.K . . : . . : : . . : . .   . X X X > 2 3 , x L L L F H H J Q ,./.0XwXxX].:.,.,./.Q.Q.(.{.}.wXmXvXvXzX[.4.5 . . . . O .     : . X # %.[.[.`.2 > C ;.>.>.Q Q >.!.[.xXVXcX5.L t r 0 u w i w w q q e # t # 3 > 3 P !.|.!.~.:.!.).)./.5.6.6.'.zXcXcXcXxXxXhXJXKX!.3 S 2 > > > < H 6.5./.5./.'.qXvXcX'.;.H s 1 1 s j j $.$.=.7.=.-.*.=.8.2.;.o.|.hXjXhXjXhXjXjXhXhX`.S 3 # # q 1 q # q q 9 0 0 a 0 a y k j j h h h h a f h h h j [ +.j j h f f f h g f f f y a 0 0 r ; ; < 1 K `.[.[.[.].`.`./.!.,.:.!.[.}.qXcXcXNXcX1.<.<.s o - &.zXzX`.t X > s F ;.1.1.1.;.Q Q ;.;.:.U Q :.,.,.,.2.,.,.>.>.<.5.5.6.5./.`././.5.",
"[ T R $.-.-.=.9.w.=.h y h h f [ [ [ j h f t -.cXjX|.o.D N A G G J J H Z Z E Q Q Q.(./.].].].'.5.'.0.>.K K 6 # ; $ * = ; 9 9 u u u & = $ - 1 a E q.zX0X0X/.6.>.Q ,.,.,.6.~ >.~ 6.6.,.,./.).5.,.:.Q.! :.U ! {.qX(.!.[.zX0X5.d . : $ $ @ @ O O . . . @ 1 r 1 1 s K &.%.%.L $.K K H j H g H j s d j $.&.4.9.0.9.9.9.4.4.3.-.$.&.=.=.9.9.9.9.q.9.4.9.4.3.3.$.R d T T T +.3.3.:XkXw.p @ e ( ' ) ( ( ( _ w _ ( ' ( _ ( ' ( _ ( ' _ ( _ ( ' ( ' ( e ( fXIXPXPXIXHXw.i gXIXIXFXFXIXPXIX#.' HXIXFXkX} } dX{ ` ( ..dXdX( ( ) *.' @.nX] @ i & @ @ 8 @ 8 u f h ] h f y i i a i t i f f i y f i a f f i f h f ] [ [ X.+.*.+.[ +.[ [ f 9 = q 0 % O O . @ % @ @ O O O O @ % 0 f h ] [ h [ [ +.*.q.fXfXfX7.X.X.0.<.5.>.1.qXVXJXNXvXVXcXcXbXcXzXbXbXnXbXVXUXbXbXHXJXHXAXJXJXHXJXIXbX] O q a 9 i i f f f f i y = = @ + e @ # # = X.8.X.  # > # # r t 1 t P P 3 3 hXGXGXbXO.X   a $ * + # + = % % %   # # X X X > x Y A c v l G o./.'.>.5 : : : . X . . . .   .       X X P 1.:.C C H L E Q Q ,././.].qXxXNXVXmX].,.,.)./.!.(.{.{.}.cXxXNXzX'.9.k .   . O . O . . . . X X F 4.'.>.< d 1./.5.,.1.5.5.`.'.qXcX[.`.;.s r 0 q q 8 u w i e r q e # 3 3 2 P |.|.o.Y ! Q.! 5.6.).0.0X0XcXcXmXcXmXcXjXCXGX2.3 2 , > > < C E ,.1.5.,.,.6./.0X[.<.K 6 1 1 r j a j j $.-.=.=.*.] X.<.%.o.O.|.hXhX|.hXjXhXjXjXhXhX|.O.# # r @ = @ # = - 0 0 0 0 a y f h [ j j j a f f a g h j [ [ X.[ [ g g f g g f f q y y u * 0 o ; # < P 8.[.`.`.`.(.!./.1.:.:.1.`.].{.qX{.vXxX<.5.0X&.. . &.cXbXhXK > 1 t s L >.1.5.>.Q ;.;.E ;.;.Q Q ;.Q L U ;.2.;.Q Q ;.>.>.,.5.6.5.5.5.",
"K K K j R %.&.3.9.:X=.h k +.j j h +.[ [ j g X.2.U.o.S m N c c G Z C C C C J U ! :.,.,.1./.)./.;.1.5.<.K K 1 # * * = = = u u & 4 - % $   $ * ; d 9.[.0X'.>.Q E Q >.6.,.,.>.~ >.,.>.! Q./.].(././.!.,.Q.:.:.{.xXhX[.qX[.zXq.R :   $ % O O O O O . . . * 1 r 5 K %.<.=.%.R R X.K K H K K K g d d K g R =.0.q.4.0.4.=.=.=.&.&.-.3.3.3.9.9.q.9.9.9.4.3.3.-.$.T j T T +.3.3.:X:XkX:Xh 8 i ) ' ( ( ) _ ( ( _ ( ( _ p ( _ _ ( _ _ _ ( ( _ ( ( _ ' ' w @ ` fXIXIXgX@ { HXPXHX{ w kXIXIX#.#.IXIX#.8 ( gXgX . .` ( )  . .e .. .i 7.nXp 8 q 8 & O @ 8 8 u i h h i f y 0 y y y y i y i y y i q i q q 0 i 0 f f h [ [ $.+.*.[ [ [ X.[ f a f q 9 = O O @ O + @ O O O O + % 0 f h ] [ $.+.[ +.*.q.fXfXq.8.*.=.0.0.`./.1.'.xXVXVXvXbXcXbXvX'.<.<.9.4.q.cXbXbXbXHXHXJXHXHXJXJXHXJXJX7.% y y u i y f i f h f a q = + @ # @ # @ q X.8.g #   # # # 1 1 1 t t o.X.t S hXGXGXhXX.. # 1 # # % + = 8 8 & = # # X X X > > x c v l l S :.[.'.`.%.5 o X . X . . . X . .     . X t '.VXcX:.G L >.1.1.`.[.].qXqXxXNXNXCXVX{.:.,./.).Q.Q.Q.Q.!.U ,.[.qX0X0.T : .   : . . . . . . . . 2 <.0.>.< J 5./.5.1.5.5././.5.qXcXcX'.>.s r q q q q q i q y = # t F H C v Y }._.^.J.Y I ~ ~ ~ 6.~ 4.6.'.7X].mXyXwXjXCXZX|.G S 3 X > < H >.>.~ E W J J W >.5.>.d < 1 1 1 s a j j j j $.%.$.g j X.X.2.8.|.hXhX|.hXhXhX|.hXjXjXGX|.......@ # @ @ # = q 0 r - a a f h j j h f a a u f h h j j h [ X.K [ g f f h f a u a a u & - * * o # 2 X.5.`.!.!.`.!.!.!.:.U Q :.,.!.].cXNXcXE <.vXzXR ; 9.bXJXbX8.5 1 5 6 L %.<.1.>.;.;.%.;.;.>.>.;.;.Q E Q Q ;.E E E E Q &.>.>.>.>.6.4.",
"E W J H H L R E =.zXbX3.u y +.+.[ +.[ j [ g P P P D m N N c c S 2 x 6 C C J U U Q Q :.:.,./.1.Q E <.8.%.H a     = = = 9 & 9 & & $ $ $   : * ; d 0.[.0X'.E d F W Q ,.,.~ Q ,.6.,.,.>.1.`.[.].`.(.`.!.!.Q.!.}.mXxXcXqXqXqX'.$.*   + + O O O . . . . . # # 1 6 K <.<.>.%.R L K K F K P H g g s s s d j =.0.0.9.4.4.4.=.=.&.$.&.&.3.3.9.9.9.4.9.3.w.=.3.R R T k T T 3.3.3.w.9.:Xw.] y ) ' ) ' ) ) ) _ _ _ ' _ ( _ ( ( _ ( ' ( _ ' _ _ ( ` ' w ' @.] e ( nXPXHX[ ' fXkX@.w @ @.HXIX+.#.IXIX#.e w.IXlXdX7. .( ( { 7.( ` { ' { gXi 8 % 8 @ 8 8 8 8 y i h h f i f i y f q q q q q = # q 9 8 q q q 8 0 f f h [ [ [ $.+.$.+.*.+.*.[ [ h h a q = + O O O O O O O O @ % u f [ h [ +.$.j [ *.w.fXfXfXw.=.<.8.`./.5.1.1.'.qXcXmXvXmXbX`.K F F K %.&.4.kXvXbXAXUXHXJXbXHXHXHXJXHXq.y 0 u i i y y f i f f f q q # O   . # # # X.=.f # # # # 1 # 1 t 3 # X.2.P 3 hXGXVXGXcXg . r - # # % = % = = = @   + # # # > 3 x x x x S 1.hX[.zX0.K < X X . : . . . . . X   X # s `.vXhX:.U >./.[.[.].0XqXqXwXNXNXVXCXVXxX:.,.~ ~ Q I G Z I l , H 1.0.4.d o .   . . . : . . . X . < >.`.E 3 L 5.1.Q ! Q Q ,.,.E ,.].].5.;.s r q q q q q q 9 r # o H >.,.Q Z N J._._.Q.N A ! Q J W J H C H W ).mXmX}.ZXCXZXjXo.U x > < 2 J >.,.E Z C 6 6 C L 1.E 6 < > ; 1 o o 1 5 o 1 5 a s g g s K 2.`.|.|.|.|.|.jXjXjXjXjXhXjXjXgXt @ r @ # # @ @ - 0 0 r r a a a j X.[ j 0 - - a a s h g j K $.+.[ j f f f f y y y y u ; - * ; o X o P E 2.1.!.!.!.`.1.:.Q :.,.!.!.`.cXxX5.1 s :XvXbXzXbXJXJXbX[.g < 1 s K E >.>.>.<.;.;.;.>.1.1.;.Q L U L E ;.Q E ;.E >.>.>.>.>.>.>.,.",
"Q Q Q J U I L J 4.AXPXbXk : h *.*.+.[ ] K P t S S D S D c c c c 2 2 2 2 F U o.,.:.:.:.;.,.].[.:.%.0.'.%.K g ; * 4 u u 9 4 8 = $ O $ *   5 j $.=.q.zXzX5.C < 7 F W Q >.~ >.,.,.,.>.>.,.].qX[.].].]././.!.!.(.].cXqXhXcXzXq.R o . + O O O . O . O . . X X o a R >.%.%.%.E %.K K K K X.K s s g j j d d &.q.q.4.9.4.<.3.&.&.&.&.3.3.9.9.9.9.3.3.3.3.=.$.$.T T T R -.3.+.3.*.3.3.3.] i i ' ' ' ) _ _ _ _ _ _ _ _ _ ( ' _ _ _ ( ' _ ' _ _ _ _ ` ' _ ' ` e ) FXPXHX..e e @ { +.w.HXPXgX' IXIX@.#.nXPXHX7. .7.( w `  .{ ( ` 7.{ { i 8 8 & @ & % 8 8 u i i f f i a 0 q 0 9 8 @ 8 @ O @ @ @ @ @ @ % 8 q i f g [ +.[ *.*.*.*.+.*.*.*.+.*.[ [ h f 0 % O O O O @ + % @ = f ] +.[ j +.+.[ +.$.w.fXfXq.7.=.<.2.5.1./.1.1.'.cXcXvXNXxX[.;.K ;.1.1.4.<.&.4.zXbXJXHXAXHXHXbXFXbXHXJXkXf 9 u y f y i q r f f f y r # @ @ . = # # X.=.t # # # 1 ; 1 r 1 3 t P L P x ..mXGXFXbXhXt X - = * % % = 8 & 8 + O + # # # X 3 3 3 3 x P 1.hX[.zX0X4.s < > X X X X . X . X   # 1 1 P 2.,.;.;./.[.[.`./././.{.qXqX{.].eXNXxX(.Q ~ I J Z Z I ! Q x C E 1.>.d o . . : : . . . : . X . X >.'.E 6 E 5.Q E W C Z Q U 2 6 W E ;.Q s # q q q ; - - 4 4 7 C E L.^ / A Z ~ J._.J.N.J.~.! I I Q Z Z Z I |.mXjXjXMXCXMXXX~.U L H C H Q ,.,.Q H H H Z H E >.E 6 X > < X X X X X X o o < 1 s s s P O.`.8.U.O.|.|.hXjXZXjX|.hXjXjXhXO.# t # #     # = 0 r q r a a f j -.-.j 1 - - 1 a a a s h j [ $.X.[ g f h f f y y y u ; = * o ; X   1 s X.1.`.!.1.!.!.!.;.:.`.].`.'.[.'.6 . . 5 9.UXJXJXJXbXbXkXK 1 5 k s K %.%.%.&.<.<.>.>.>.E E L W H L L E W L W E E W Q Q E >.>.Q ",
"! U ! J.N.J.~.~.xXSXPXJX&.: u +.9.*.j g [ g P P S O.Y D S c S x 2 6 C x J ;.!.`./.!.!.:.,.[.cX].>.[.hX;.K X.a a a a u u a y u 9 $ : $ $ j q.'.zX0XzXzX5.6 o 2 6 W E >.>.>.5.5.,.~ Q ;./.].qX].[.(.(.!.!.Q.:.:.`.}.cXcXvX[.H   . + O . . O . O . . . . . < s %.<.<.&.%.%.;.%.%.%.>.%.K d s H K R K R 4.q.9.4.4.=.4.=.3.-.-.$.&.3.3.4.4.3.9.3.3.=.&.$.R $.R $.&.3.3.3.*.3.3.7.w.+.] ( ' ' ' _ _ _ _ _ _ ' _ ' _ _ _ ( _ _ _ _ _ _ ( _ _ ( | ' ( ` ` ) e ..{ gX( ( +.' #.' ( FXPXkXw.IXHX#.gXFXIXIX .{ dX( w ( ( { e } fX{ 8 w @ q @ 8 & 8 9 q u y y y q y q q = % @ @ @ @ @ O O @ O O . O @ 8 q f h ] [ [ *.[ *.*.*.*.+.*.X.*.*.+.*.*.[ f 9 % O O 9 % = 9 9 y h $.+.[ +.+.X.j [ *.q.w.fXq.8.-.-.<.:.1.`.`./.qXxXxXvXNXcX5.P L 0.`.'.5.1.%.R =.0XnXAXHXUXJXUXHXHXHXJXzXf 9 u f i i y i f f f f a q = + .   ; 0 # j 8.r > # # 1 ; r 1 r r t t t X.t t hXZXnXbXAX2.# r ; = * % % = 9 8 @ + +       # # > 3 > 3 F 2.`.[.[.0X'.E < < X X o X X X . X   # # 1 1 H >.5.1.`.qX].:.Q U Q ! /.,.Z , J ].cX{.,.Q I I I I ,.{.xX/.5./.0.5.R o . . . . . : . . X X . X >.[.>.H J ~ E J C > 6 ~ ! 6 , C F ;.>.F 1 r 1 # ; ; 5 4 < H ~ 6.L.~ ~ ~ f.P.P.N.J.K.^.Q.J.Y ! Q.! I ! L.}.yXXXjXMXZXjX|.~.U Q ;.Q E ! ,.1.~ Q ~ ,.>.Q 1.,.E 3 > < < > o 5 5 5 6 6 1 1 r a 2 2 F O.O.~.2.hXT.O.|.ZXZXjX|.jXhXhXjX8.t @ e @ O O @ = 0 r r a s a a K -.-.g 5 - - 1 6 s t a s g X.$.$.[ h f f f a y u y 4 & - :   ; o X o 1 L ,.`.5.1.,.`.`./.1.[.0X'.[.0X<.s 2 o . k kXbXnXbXbXvX0XR 1 5 k d d K R K E %.>.%.E H F F H C 6 F H H H F H C H H H H H L W W ",
"Y J.~.^.^. X X~.^.CXLXPXvXa k 3.w.*.[ g X.g P t S P P P S S x 2 2 C F P E ,.`.[.`.]./.!.:.!.[.}.`.hXzX<.K X.d j *.j f f h h f k - + . - 4.zXzXzXzXzXzX5.H o > < 6 H E Q >.5.5.>.>.,.>./.qX[.`.].'.(./.!.!.1.!.cXcXhXVXcX<.g . : % O . . O O O $ . O   . X d ;.0.>.&.%.%.5.5.8.'.[.zX[.<.=.9.0.9.%.R <.0.9.4.4.<.3.&.&.&.&.$.&.3.3.3.3.3.3.-.&.3.&.+.$.R 3.3.9.4.w.3.3.3.w.:Xw.+.p ' p _ _ ' _ ' _ _ _ _ ' ' _ ' _ ' _ _ _ _ _ ' _ _ _ ` ` ` } ' ` { { ) ( e e gXFXHXgX` ' w gXfXlXPXlX4 lXlXHXIX' @.FXgX( ( ( ` e { HXdXe e i @ 8 & & 8 9 y y y i i 9 9 9 = & @ O O O O O . O 8 O . @ 8 q f f f [ [ [ [ [ +.*.*.*.*.*.+.*.*.*.7.*.*.*.+.h u 0 q q y y a f h ] [ ] +.[ +.+.X.+.*.q.fX9.9.8.*.%.<.%.`.`.`.].xXvXvXNXVX[.L C J >.>.5.1.E E E K %.q.bXVXHXbXHXFXFXHXHXbX[ O q i f i f h f f a y r a r a r - g r # P -.r # X # r - a r a a t s t t P t 2.cXzXnXGXhX..; - ; = % % 8 & % % 8 % = @ # + # > # 3 3 t P 2.'.[.q.0.0.E 2 < X X X X X X X   < 1 < s ;.`.5./.[.]./.;.J Z G ! !.Q.Z , C !.}.qX(.Q Q ~ ! :.Q.].wXcXqXcXvX0.d o . . . . . . . . . X X X E [.E W >.E H C C 3 J 5.'.,.J H 1.0X`.E t # ; 1 o o o < 7 W ^ L.~ ~ / ~ P.L.f.V f._._.n.Y N.~.^.Y A N.J.J.A ^.MXMXMX XJ.Y U ;.>.>.>.! ,.6.,.5./.6.,.>.;.Q s < > > o s L >.5.5.>.;.%.K 6 s 1 s F F o.1.U.2.|.o.|.jXjXhX|.jX|.hXjXhXg # # + + # + # = r r r a s s g g s 1 1 5 a s s s 2 s t s K X.-.[ g f a i 0 q % 9 = = $ * * : * o # X H 1.0.<.<.>.;.1.;.<./.0.5.5.%.E <.q.&.  : 3.kXnXUXnXnX:XT ; a 5 a d K K K K H H s 2 6 6 6 6 < < < 6 2 < < 7 2 , 7 7 3 C 6 C J ",
"N.N.^. XoX XR.C.V |.CXPXbX-.+.-.7.X.X.[ [ g g P P P P F t 3 2 2 1 2 d L >.2.5.`.[.[.`.,.;.,.[.`.0.[.hX&.g F g -.4.*.j k h k f s a   . g q.nXzXzXzXzXzXq.K < X o < 7 H R E E Q E J H F Q [.].`.`.`.`.`.(.(.!.|.xXxXhXcXbX0.s - : . . 9 [ *.-.$.+.X.-.X.d d %.4.<.%.;.%.<.0.0.hXvXbXbXcXzX[.[.[.q.&.R =.4.3.4.4.3.=.&.$.$.&.R +.&.-.&.-.3.3.3.&.-.R T $.-.3.9.9.q.:X9.9.:X:X:X:X7.+.p _ ' ' ' ' _ _ ' _ ' _ _ _ _ ' _ _ ' _ ' ' _ _ _ _ _ _ ` _ _ ` ` ` ` { ) 7.nXIXHXgXgXnX .' ' kXIXnX+.HXHXIXIX+.{ IXHXdXe e ` e 7.HXfXe e 8 @ 8 & & 8 8 u y y 9 u u 9 = 8 % $ $ O O + O O O @ @ 8 q r f g ] [ ] h ] [ [ *.*.+.+.*.*.*.+.*.+.*.*.*.-.*.[ g a y f f h h h h [ +.+.[ +.j [ j K X.*.*.X.7.-.-.%.%.;.1.`.`.[.0XcXxXVXvX/.L F J >.1./.>.L E ;.R H %.zXnXHXJXVXHXbXbXHXbX+.@ q y y y f h f f y a g [ X.-.-.-.=.g - X.-.1 # # # 1 1 r - u 1 r g g s t # t 9.hX`.bXnXj # ; ; # % = = = 8 8 = 9 % % % # # # > # 3 3 s %.0.'.'.0.'.5.H H < > . X X . . X o r a K 1.0.0.`.].[.'./.,.U Q Q.qXwX].,.{.xXNXcX].,.,.! :.~ ! Q./.'.,.`.zX0XE X . : : : . . . . : . X . s >.L E Q >.E W W I Q ].xXqX/.`.cXxX[.<.K # o X X < 7 C W ~ L.~ L./ P.~ J.P./ Z A K.N.V B K.XXoX_.m.V b z n.XXMXjXoX^.N.Y I Q ~ Q ! :.! ! ,.Q.5.,.~ Q E H 2 > 3 2 6 L 2.<.5.0.5.5.>.E K H 6 2 t P o.2.2.~.~.o.~.hXhX|.|.T.|.jXhXhXO.t = + + +   + # r r r a r 1 a s s 1 g K R E R F s 2 s 1 # ; g [ f f i a y 9 9 9 9 = $ $ +   : * ; * r <.0.0.<.H 1 s s F H K K K E %.[.nXnX-.k +.kXbXbXnXvXkX$.5 u a k d j d g d k 5 5 < < 1 < < X > 6 C Z H F C 6 6 2 6 7 C C 7 H ",
"A n.K. X XD.Z.z.u.N (.KXAX9.=.w.=.-.[ [ X.g g t t s t 1 1 r j %.X.E <.0.`.1.1.5.!.`.1.1.2.1.[.[.'.[.`.L 1 1 s =.9.%.j k k k a k a o o %.zXnXzXzX0XzXzXq.%.5 X . X < 6 6 s H d 6 < > > 2 ;.`.`.`.!.`.!.1.,.:.1.].[.vXvXhX$.; . . = -.kXq.w.=.-.$.*.-.$.R &.<.1.>.&.&.9.[.[.zXzXcX[.[.`.0.0.9.4.4.&.R =.4.=.<.4.<.3.$.R $.R $.$.&.R $.R &.$.&.&.R T T 3.3.q.q.:Xq.;Xw.:X:X:X:Xw.*.] ' ' ' _ _ _ _ _ _ _ _ _ _ _ _ _ _ _ _ _ _ _ _ _ _ _ _ _ _ _ ' | } ' { ) aXlXFXHXFXgXkXHXFXnXgX:XkXkXlXIXFXIXIX@.@.IXIXkXw e ) e dXIXFXi O e 8 8 8 8 9 u u y y y u u 8 - = & % = * * % + + % 9 q q f f ] ] ] j ] h ] [ [ +.[ *.+.*.@.*.*.[ +.*.+.*.*.7.*.+.[ h h h h [ [ [ [ [ +.+.[ +.[ X.X.X.X.X.X.*.=.%.%.%.;.1.`.`.`.5.[.cXVXcX>.E H W ,.5./.>.E Q >.;.L K =.zXbXAXFXbXbXnXHXbX7.= 9 y 9 i y f f f r f g X.=.9.q.q.q.$.r j =.t # # 1 1 # - a - r 0 r r t g P 3 ..2.8.bXcXg # = ; = = % % & = & 9 % = % % % # # # > # > 2 K 5.'.'.0.0.5.>.;.K F 1 ; # X   X 1 a K E 1.0.5.'.[.qX].`.(././.{.wXNXmXxXNXCXNX}.(.!.!.,.! Q I ;.Q./.1.5.'.0X0.; . . . . . . . . X . X . < K H E E ,.>.,.~ >.,./.qXqXqX[.qXzX[.0.H X X X o H ~ 6./.).L.L.J.P./ P.J.L.J.V V V B n h.XXjXCXMXXXK.M.A.oXMXjXoX^.m.B N I ! ,.Q.,.,.! ~ ,.,.1.Q Q J H C 2 > < 2 H Q >.L E 1.1.,.Q L J L d > < F ;.o.o.2.o.o.!.~.|.2.o.O.|.hXjXhX8.r @   @   . + # - r r s a 1 6 s s g R %.;.>.;.%.o.2.;.X.1 # a r q f f f y 9 9 9 9 % $ $ +   + * = * ; T 9.q.&.5 X # a 2 6 d H H %.8.zXbXbXzX+.-.:XkXnXzX:X7.j - 4 - a a s a a 6 1 1 o X X X > < 1 F E >.,.>.>.Q L J Z H C C 7 2 C ",
"A n.M.C.s.z.z.i.m.z x ].0X-.-.-.7.*.X.[ j X.K t j g K K -.9.0XzXzX0XzXcXzX[.0.0.1.2.2.1.1.1.[.[.'.`.8.F < < 5 X.-.X.s a g d s j s ; a <.nXcX'.q.[.[.q.[.<.d > . : o < < 5 < < < X X X > H /.`./.`./.1.:.Q :.:.`.[.`.zX'.1 .   9.bXnXzXw.=.-.$.+.a - 5 j X.R R %.&.&.5.'.[.0X0.%.K k a s d d d K $.R &.4.4.3.4.=.3.W $.R 3.&.&.R W T R T $.T R +.&.3.4.q.:X:X9.w.w.w.3.w.w.w.7.+.+.+.' #.' _ #.' _ _ _ _ ' ' _ _ _ _ _ _ _ _ ' _ _ _ _ _ _ _ _ _ _ ` ` ' ` gXHXHXHXHXnXkXFXFXFXnXlXkXw.lXHXgXFXIX@.w.HXFXlX@.e w ( gXFXHXi O 8 8 y 9 q y y p f y y y y u u 9 0 = u u 0 = - q q r f i f f g h f ..h h h [ [ [ +.[ +.[ *.[ [ *.+.*.*.$.*.-.7.*.$.j h [ h [ j [ [ [ [ [ [ X.X.X.*.-.7.8.7.7.7.<.;.%.%.8.'.`.5.5.0.0XqX'.>.E L E 5.5.1.:.;.>.2.<.;.;.X.hXbXbXFXbXbXbXbXbXkX= 8 y 9 q q i y q 0 0 f [ *.=.8.9.9.X.r K <.g o o ; ; # = & ; - - a %.0.hXhXfXP g 0.nXhXt ; - 0 = = = = $ = = = 8 % @ + & # # # # # # 3 s <.q.q.5.4.1.>.>.1.&.E K d a a a s X.$.%.<.5.5.'.[.{.].].(.(.].{.wXmXmXxXVXVXVXxX`.1.,.,.! ,.:.,.'.qX[.'.5.[.0X$.. . . : . . . . . X o . X R >.Q >.>.5.>.>.Q Q E ,.5.[.'.].[.[.0.K o X > 6 >./.7X7X(.Q.L.L.~ ~ / ~ ~ I A V V n n n..XoXjXMXBXoXoXjXCXMXoXM.h.B N A J.(.(.Q.Q.! I Q ~ ~ ~ Q J H F C 6 > > 2 L ;.L J E ,./.1.;.;.>.5.;.2 > F U U o.o.2.!.!.8.|.|.~.U.|.|.hXhX|.3   + +   @   # ; ; r 1 1 s K %.%.;.%.>.2.<.>.1.`.[.hX[.0.X.t # r [ ] f i q 9 q 9 % % & + + & = u - : 4 $.9.$.1 1 1 s s s H g F E 8.9.q.q.9.w.w.w.q.kX9.+.4 = = = ; a k a a a s a 1 < X > X < s E >.5.5.`./.1.Q E L Q W H H C 6 W ",
"A Y n.u.r.r.i.M B Z , < s R $.$.*.+.$.[ [ X.X.[ X.-.9.q.zXnXnXnXvXzXzXnXnXzXzX[.'.5.>.2.;.;.`.'.'.'.1.s 1 1 1 s s a t s g s s d s 1 g 0.cXzXq.zXzXq.0Xq.5.$.5 . . o o o o o o X > > X X 6 >.`.5.5.1.,.1.!.[.[.xX}.[.zXK : =.nXJXnX9.*.=.=.h y h a ; - 5 s 5 6 H R &.>.&.K E K d 1 1 o 1 ; < 5 d d R R &.=.4.=.&.-.R R &.3.&.&.R T T R T T W 3.3.3.9.9.q.9.9.4.9.w.3.w.3.3.3.+.+.] +.} } #._ _ _ _ _ _ _ _ _ _ _ _ _ _ _ _ _ _ _ _ _ _ _ _ _ _ _ _ ( ' _  .nXlXdXnXIXFXlXFXlXlXFXHXIXlXw.w.#.w.IX#.dXIXlXnX@.w e ` fXnXkXw @ i u p u y p f f p f i y y u u u u u a 0 r a 0 a f g g f g f f ..] j h ] h [ [ [ +.*.*.*.+.*.*.+.*.+.+.*.+.*.-.7.*.+.[ [ [ h h [ [ [ [ [ [ X.X.X.X.2.8.8.8.8.7.2.&.X.2.0.[.0.0.0.5.0.q.6.>.W W E 5.0.1.,.;.2.,.2.2.;.%.0.zXbXVXbXnXbXbXJXzX9 8 u q 8 q a f r r a g g $.%.<.9.<.X.r g 9.X.r # ; # o     $ ; * f 9.cXnXbXVX-.1 8.zXq.t ; 0 - - = = = & 9 4 = & % $ + $ $ * # # 3 3 # t K 4.0.5.>.%.&.<.<.>.4.4.=.&.$.R $.=.=.=.>.4.5.'.].].'.].].(.).{.(.wXwXqX[.mXNXcX`.,.,.:.;.,.Q ;.1.].qX[.5.'.zX4.k ; :   O . . . . . X . s 5.5.E E >.>.>.Q E J C 6 Q 1.`.0.`.0.1.H o < H ,.].].7X).).~ ~ ~ J.J.! / ~ ! A B V V V A. XY.C.jXjXjXoX XMXMX XV V A N.(._.{.(.~ ~ I Z I ~ W ~ J H J Z C 2 > > F 2.1.2.Q Q /.{.{.`./.].0XqX,.6 3 L U P :.`.[.`.[.].|.].hXU.O.|.hX[.t   # +       # # 1 1 # t X.8.8.8.5.<.5.5.`.!.`.(.[.cXhXcXhXf @ t [ [ ] i q q q q 8 9 % @ O % q 9 = * & k R k * 1 t t s t t t 2 t g f f f [ *.w.w.w.w.w.] . O % 0 a a k a a s a 5 1 1 o 1 2 F &.1.5.1.5./.1.Q J J J Q Q E J L Q 5.",
"|.N.B n n n p.A J.I 7 X o k j [ [ [ [ *.X.$.+.$.=.q.fXzXhXzXzXzXnXnXvXzXcXcXcXzXhXq.<.%.R ;.`.[.[.[.1.F 3 s r < 1 1 1 s s 1 1 1 a s X.0.zXfXq.[.q.q.hX:X0.&.k : . . o o o < o o X X < > 2 E 5.1.1.1.,.!.'.[.[.cXzX[.K K zXJXbXq.u k +.*.j 9 4 a j d a 1 o 5 s 5 s W <.R 1 o < 6 1 1 1 5 1 5 5 k k d d R R &.&.<.&.R $.R $.&.R T T R T &.$.&.3.3.9.9.4.4.3.4.9.3.3.w.3.3.+.3.+.] ' ' #.' _ #._ _ _ #._ | _ _ _ _ _ _ _ _ _ _ _ _ _ ' _ _ _ _ _ _ | ( #._ ) @.} @ dXIXIXHXHXFXFXFXFXHXHXkXkX#.w.IXkXkXIXIXFXdX( e @.nXgX7.@ @ i y i i a p f p f f a p y y y a y a u a a a a h h g g ] h ..f h [ ..f h h ] [ +.[ *.*.+.*.*.*.7.*.*.*.[ X.+.*.*.*.*.[ [ h h g h [ [ [ [ [ X.X.X.X.O.O.8.2.7.<.2.%.L 2.q.[.0.4.0.5.<.5.5.<.E K E /.`.,.Q ;.,.,.1.>.L X.1.hXbXVXnXcXnXHXHXkXa 9 y y y i f g ] g f g g $.$.-.=.<.K 1 a 8.<.s = ; * * #   * *   # X.q.8.hXzX2.t X.9.<.r = ; - = & = - & & & = & % + + O   $   # # # < 1 d 4.q.4.&.W R W &.<.4.4.9.=.=.-.=.<.4.4.4.0.`.'.].'.].).(.!.Q.Q.:.(.eX].].qXzX].>.U E Q Q Q J G J ;.1.q.0.0XzX9.h 9 O . . . O . . . . s '.zX5.H W E E E W J H 6 7 H ;.>.2.>.>.&.s > s >.0X0X,.Q Z G Q ~ ,./.(.(.J.J.J.A A V n M A.XXA.B.oXjXoXW.e. XCXXXn.n.J.^._.^.J.I V Z A ~ Z J I Z C C H H F < > 6 :.[.].!.2.!.].cXcX[.{.[.cXxX0XH , E /.o.L 5.`.`.`.0.1.,.U.|.O.O.2.[.X.@ + + + .   # # # 1 1 s >.`.'.`.0.5.1.`.`./.!.`.[.}.}.cXhXg 1 ] j [ ] f f i e q 8 9 8 % % 8 q u 8 & . & u = * 1 r r 2 t # 3 3 3 > O O = i +.+.w.w.w.9.X.r # = r f s a a a s a a 5 a 6 s s E 5.0.0././.`.1.Q L L Q ;.,.,.,.~ 5.].",
"mX(.Y V b V N._.qXQ 7 7 k 5 5 K h ] [ +.$.[ X.*.8.hXzXkXzXzXcXnXnXvXzXnXnXzXnXzX0XzX0.<.%.1.[.zXzXqX5.6 > < 1 X X < 1 1 2 o 1 s H K =.8.q.[.q.zXzXzXzXzXq.9.$.5 X : : o o < < o X < < < < L <.1.>.>.;.;.>.Q :.1.[.s s bXPX:X- & a [ +.h y h j a a g a - 1 7 s 6 5 R &.4.E 5 X < o o o < o o ; 5 5 7 s d T R R &.R R T R $.R $.T W R T &.-.3.3.3.3.3.3.3.=.3.3.3.3.3.-.3.+.T T p p ] ' #.| _ #._ _ | _ _ | _ _ _ _ _ _ _ _ _ _ _ _ _ _ _ _ _ _ _ _ _ _ ' ( ' ' ' ' 7.nXHXIXFXFXFXkXgXFXFXlXw.dXHXHXlXIXIXlX{ ' e @.nXgXw 8 e i y p i f f f f p a y y y y y y a y a a g f g j [ [ [ [ [ [ [ g ] f f f ] [ ] [ +.+.*.*.+.*.+.*.@.+.*.+.[ [ +.*.*.*.X.[ j h f h ] [ [ [ X.[ X.X.X.X.X.=.8.2.=.=.L s %.0.[.0.0.0.5.6.0.0.6.>.H E 0.0.;.U ;.,.1.,.2.E ;.1.zXbXbXbXnXbXJXHX7.y q y y y f f g ....g ] g j j H j K a # ; <.9.X.1 o # # : *   # # # P %.K ..X.X.P P %.X.# ; - - = 4 & = - 9 = 9 = $ + + + O :   # # 1 # 1 s R =.R R d R E 4.<.4.4.4.4.=.4.0.q.q.q.0.0.'.`.'.]././.(./.,.! ! !.{.qX{.cXqX`.U K L Q ;.Q H H J E <.'.zXzX0X-.k u & . . O O . X . X %.zX'.;.K s 6 F H F F H 6 F L E K K E E %.2 2 %./.,.J 2 , x Z U :.!.(.{.(.(.~.J.N.n.B B B M..XY.Y. XoX X Xr.A.MXjXJ.J._._.J.J.A c v Z Z Z Z Z Z 7 C 7 C H C > 3 L `.[.[.`.`.(.|.[.}.qXqXqXcXcXcXE > 2.NXcX;.P E >.5.>.E F U 2.~.o.o.8.P # # @ + @   X # ; # 1 s <.'.0.0.1.5.0.1.1.!.!.!.|.[.hXzX1.t t ..] [ ] { { f f i q q q 9 9 9 y y 9 & : O & = - r r 1 t 3 3 > > > # @ e q i ] +.+.w.w.9.7.] r q r f a a a a a a 1 5 5 d H s H 4.`.`.'.'.(./.1.,.:.,.,././.`./.'.0X",
"yX}.(.N.A J.yXCXtXH o 4 5 5 d h h h h [ [ [ X.$.w.fXzXzXzXzXzXzXzXzXvXvXnXcXcXvXzXcX0X`.1.`.[.[.qXcX1.2 X X < < # < < < < < 1 H K 2.8.0.q.hX[.q.[.zXzXzXzX'.4.T o : : X . X o o 1 5 5 < 1 L 4.1.>.;.%.E L F P ;.%.2 cXbX$.* a j +.R +.j j [ h k a a 5 s k d s s d s R 0.'.R o X o < o o o o 5 5 1 a 5 5 d T R R R W T T R T W T $.T T R 3.3.3.&.&.&.$.$.-.3.=.3.3.*.3.3.T T h p p ' #.' | #._ #._ _ | _ _ _ _ _ _ _ | _ _ _ _ _ ( ' ( _ _ _ _ _ _ _ ( ' } '  . .( w (  .gXlXHXFXw.kXlXlXFXkX#.kXFXIXIXHXfXw ( @ ` nXfX8 @ 8 i p a y y f f f a p y y y y u a y a a f f g j [ X.j X.X.X.+.X.{ g g ] h h ] [ +.*.+.[ [ +.+.*.+.X.+.[ [ [ j +.$.*.*.+.[ h f f h g [ [ X.X.X.X.X.X.P X.O.2.7.8.2.X.2 X.0.fX0.4.9.0.q.q.6.5.4.E %.6.1.Q U :.,.:.:.:.o.o.5.[.cXbXbXbXbXbXbXj = 9 % 8 y y f f g j j g g s r a r r < . X =.0.-.s ;   ; # ; X # ; 1 s X.g X.P X.g g P r # - - 9 - * ; 4 & - & 4 = $ $ $ $ + +   # ; - # 1 o k s 5 5 k H <.9.4.4.4.9.9.q.fXzX:XhX:X0XzX0X'.[.]././.).1.! ! ! :.].qXqXqX[.1.;.L %.>.;.;.U ;.>.1.0.[.zX0X9.k a y & . . . O O . X . r R s > 5 < 1 6 d 6 6 d 6 6 H H H H K F s < 5 %.>.6 X > Z Q :.!.(.(.|.|.[.}.].(.!.J.N.u.B Y. XE.T.jXjX XoXZ.x.jXCX.XJ.(.).J.~ A A Z V Z Z Z Z Z 3 , 3 x C < > 3 o.[.[.`.(.`.!.!.!./.].qXxXcXqXxX;.> `.KXKX[.J d <.0.0.5.Q :.|.mXhX;.2.t 1 # . . . . . # # 1 1 a 2.0.0.1.5.`.1.!.!.!.!.!./.}.cX`.X.g g g [ ] [ +.[ ] ] f i i i q e i i i u & & : O * 1 1 3 3 3 3 v t , 3 3 r t f i p { @.+.w.7.*.[ f f f r r u a a a 5 a s 1 s s < 2 >.0.'.`.5./.`./.,.,.,.,././.].'.'.eX",
"Q.}.yX{.{.NXBXBX7XW < o 4 7 k T h h [ [ j j [ -.9.q.q.q.zXzXzXzXzXzXzXzXzXzXzXcXcXcX0X0.>.1.1.0.5.[.5.2 X > > 7 2 6 s 6 F F K L ;.<.<.0.[.[.hX:XzXzXzXzXzXzXq.=.k : . o X : o 4 1 5 s 6 5 s H K %.K ;.E E R E <.o 0.PXR . $.-.+.T j h T h j f d a a k s k k 5 k 5 s d j =.q.&.. . o o o - ; o ; 1 5 5 5 5 d d R R R R $.R R $.R R T d T R &.-.R R W $.T R $.R $.R +.T T p k p p p ' #.#.` #._ } _ #._ #._ _ _ _ _ _ _ _ _ _ ` #._ _ ` | ` | _ ` _ _ ) _ _ _ ` ` ` ( w e w ` fXFXlXFXFXlXgXgXfXgXgXFXHXlX` ( ' e ( nXdX8 8 q i y y f a a a f p f f q i a y a y t g f h g j X.X.$.*.X.*.X.X.[ g g ] h ] h [ +.[ [ +.[ [ [ $.*.+.[ [ [ ] f f [ [ *.$.*.X.[ ] h g [ ..X.[ P P X.X.P O.%.8.-.X.2.P # E q.q.9.4.q.9.0X[.q.'.'.>.%.<.6.;.;.:.1.:.:.:.U o.!.!.[.hXcXbXbXVX8.r 0 O O & O e r r t f t r r r # # # # . X # =.zX<.a 1 1 # # 1 # # t r K o.X.F P F F X.%.X.# - ; 1 ; * - 0 * 0 % $ = % + @ + $ O O $ * ; *   ; # X X . . 5 R &.&.%.$.$.-.9.q.kXzXzXzX0Xq.q.'.'.'./.`./.Q.,.~ ~ Q ! ,.].qX`.E K K %.;.<.<.%.>.<.<.0.zXnXq.j 4 f f u & . . O O . . X . . . X X X # < 1 5 1 5 7 a 6 a s 6 2 5 6 > 6 1 > > > G :.:.:.~.~.|.|.|.|.[.|.hX|.^.Y.k.h.Y.XXY.T. XoX XjX XU.XXBXXX! ~ )._.~ I I A Z Z Z Z Z 3 3 , , < < > > 3 Q [.`.!.`.`.:.U U :.!.[.cXqXcXcX1.2 1.JXLXVX4.$.0.zXcXzX[.}.cXZXmX`.U F X X . . .     #   1 # 1 X.1.<.>.1.1.0.1.:.:.!.!.!.|.[.X.t g P g [ ] { X. .[ [ ] f i i w q i i ] ..i u q 0 # t 3 v l N D Y Y Y S x t t g f [ { +.@.gX7.*.[ f f f r q a r a a a 1 5 X X < 5 6 J >.`.5././.!.,.,.Q.,.,.,.!.(.{.{.].",
"I ].mXwXyXNXUXtX8X7X^ d : 4 k T j j [ X.+.[ $.-.9.q.fX0X:X0XkX0XkX:X:Xq.0.7X0X0X0XcXzX`.>.L E 2.>.5.Q < X < < 6 H H H H E E E %.%.<.8.5.q.[.[.[.hXq.[.zXq.zXzXq.R 5 : o o o ; 5 a k k k 5 1 5 s d F E K %.>.0.&.; bXzX* R 9.$.j [ j j k j k k s k d k k k 5 k 5 d k s d $.q.q.R . X o ; o 1 o 1 ; 1 1 1 1 5 s k j R R R R $.R R T T T T W &.$.R R T T T T T T T T k k p u 9 8 p ' ` ' #.| _ _ | | | _ _ | _ _ _ #._ _ _ _ _ _ _ _ _ _ _ _ | ` | | | | ` ` ` ` ` _ | ` ) ( ( _ ` gXFXIXFXnXlXkXfX@.w.FXkXw { ) @ 7.gX{ q i y f k k a a p p a a i y i a i a f f a k a s g j j +.X.X.*.X.*.*.[ f f g h g h j [ *.$.$.*.*.$.+.+.X.[ [ ] h f f ] [ X.*.*.*.[ g f t g g t t t t g X.o.X.X.O.O.O.X.3 # F 9.[.[.q.q.q.q.hX0.0.0.&.E 4.0.,.>.:.:.:.:.o.o.U o.o.!.|.hXhXmXhXX.> # ; O & O + @ # q 1 - q # #   X     . . X $.9.%.q # # # r > # r F H X.<.2.O.%.X.g t 2.[.s # 1 a 5 # * 1 = ; = 0 9 = + @ $ $     + = = * # ; #   # : X o ; s 5 a - - 9 a h =.3.=.$.j k d H >./.0./.).!.Q.,.:.! ,.1.`.0X1.s s j K R &.<.<.>.4.q.zXvXnX4.5 $ a f p 4 +   . .   O   . . . . X X X : o o o o o 1 ; 1 1 5 1 < 7 1 1 X X > F Q 2.o.U U U.~.!.U.|.!.|.}.|.|.T.k.D Y. XY.T. X XY.E.M.V N.MXmX(.)._.L.I A I Z V Z Z Z Z Z , 7 , > , > > > C 1./.`.1.:.;.J J Q ,.].].qXqXcX1.s 5.JXKXbX%.6 &.zXvXcXqX[.cXcXcX!.F 3 1 o * : : * ; - r r ; 1 H >.1.1.>.1.>.;.L Q :.:.!.`.:.F 3 t ..f ] [ { +.7.*.] ....i i i i w i f ..p y 0 t 3 3 v v D h.T.Y.Y.Y.U.N.P P g [ [ +.@.7.7.7.X.[ f f i i a f r r a a 5 5 4 W <.4.E H W ,.1./.5.1.,.Q.,.,.:.:.!.{.qXhXxX",
"Q Q.8XqXeXtXtXqXtXvXrXW 4 4 T h [ [ [ [ $.$.-.=.9.9.q.0.0.9.4.<.&.E &.W E E <.4.'.[.[.'.>.E %.1.1.>.F X < H C F E E Q E E Q E ;.E 2.<.0.[.[.hXcXzXzXzX'.fX0XzX:X=.d 5 5 5 a 5 k a s s k a 5 a 6 1 s K $.<.=.<.o R LX+.; 9.9.[ $.R j j h k h g f d k f s k a k a k s k d K 4.q.9.o . : 4 o ; ; o ; 1 1 1 - 5 5 5 d T $.R $.R R R d d T W R R T T j T T k k k k 4 4 u 4 & 8 8 8 p ] #.' } #._ | | | _ _ _ _ _ _ } | _ _ _ _ _ _ _ _ _ _ _ _ _ _ _ _ | | | | | | | | ` _ `  .{ ' ( w w.nXFXFXkXkXnXw.' kXkXw ' w ' kX+.' f p q f y y a y a a f i a f y f a f r a f f s f g g j X.X.[ j X.X.-.X.f a h h j j j [ [ *.*.*.*.*.*.[ +.*.+.[ j f a f ] [ X.7.*.[ g g f t t r t K X.X.O.P F t S S P P t t F X.5.q.:XkXq.9.[ j &.0.4.&.3.4.`.1.,.:.:.o.Y Y Y Y Y U o.~.[.hX[.S X 3 ; $ @ O # # q 1 - # # # #         . . . f %.K # # # > > 3 s P K X.o.2.`.<.P X.P X 2.nX%.. # 1 a ; 1 0 9 * ; ; ; $ + $ + + O $ $ = = % +     # - 5 1 X X   X X . . . . O O . . . . X o < W 5.0./.'.1.Q.Q.].].qX].[.cX>.1 1 s a s %.<.<.4.9.[.nXvXq.j * $ u f h a a q 9 + +   #   . . . X # # o   o X . X # X o o o < 5 < 1 < X X 2 L ;.,.o.! o.~.~.|.~.!.|.[.|.|.XX|.D T.|. XY.Y.Y.k.D k.m m ^.CXSXSXCXyX).I A Z A Z Z Z z Z Z v C l , Z L G F L >.1.!.Q ;.U U U :.,.5./.[.[.'.>.%.hXAXJXAX[ . o R `.0X[.[.{.}.hX1.3 > 1 o - 5 a a r 0 a 1 # # 1 K <.1.<.;.>.L L U :.Q.!.1.P 3 # r g f ] ] ] [ [ { [ ..f i w w q i e i i 0 r r # t , v D t.k.k.c.Y.Y.~.U.Y P g ..] { #.+.+.*.[ [ f f i r y f r a a a 5 a &.0XcXcX'.H C E ,.1./.,.,./.Q.,.Q.,.!.].hXxXcX",
"! ~ ~ ~ /.8XqX8X0XqXqX6.T k k T j j j $.$.-.%.-.4.<.9.4.<.&.R K d d 6 s 5 6 F H Q >.5.`.1.1.1.`./.,.F 7 J >.E W ;.>.Q ;.Q E E >.2.0.`.'.[.[.zXzXcXbXcXzX[.q.:X0X3.d 5 k k k k k k k h d d d a 5 1 1 2 K =.%.5 . nXAX4 $.q.=.*.*.+.j h k k k k k k g k k k k k k a k j j R $.9.q.R .   1 ; 5 ; 4 ; 1 ; # - 1 1 a d j R $.R R j k 5 k d d k k k k d k k a k 4 4 4 4 4 4 u y 8 p p #.] #.` _ _ #._ #._ } #._ #._ _ _ _ _ _ _ ( _ _ _ ( ( ( ( ( _ _ ) _ _ _ _ | } } ` ` } | ` `  . ._ ( | gXFXFXnXlXgX{ @.gX#.e e @.kXi ' ] p f f y a y a y f y f i f y q i a f f a s f a t g s g t g s g -.9.7.[ g [ g h ] j [ [ +.X.+.+.$.[ *.*.$.+.+.] f y i f h [ *.*.X.X.g g r r g O.8.8.8.8.8.o.~.!.o.~.`.|.hXo.G X.;.'.zXzX$.. : R q.0.4.4.q.`.,.:.!.,.N.o.Y Y D Y o.U.U.U.~.2.P t r #   + + @ @ # # # + . . . # #     #   . 1 g r # 3 # # # s L X.%.2.;.2.[.5.P ;.1.P 2.bXcXK X . X o   * 1 0 = = + + % % + $   + $ = = # + + O = r k f 4 * o o o   O . . . . . O O : o - o d 6.'./.]./.,.)./.qXxXqXqXcX<.6 s a 1 1 K &.=.-.4.q.'.9.R * O - u f h [ h h f r 0 - =   . . X   ; ; o * o   . X . . X . X < < < < X < F L 2.2.1.!.:.:.o.o.!.|.|.|.|.jX|.|.|.U.U.|.XX~.o.G l m U.}.mXKXKXLXLXLXNXL.~ / A Z Z V Z Z V v Z G C Z Q ].`.!.|./.;.:.;.;.Q Q ;.,.,.,.5.5.`.<.%.5.nXJXKXbX<.1 . . 5 E 1.[.hX}.[.[.H 3 2 a a k f a a 0 0 0 1 # < a L >.>.<.1.>.;.,.1.1.,.2.x X # r f ..f ' ] [ { { { i i i e 8 w e i w w q r t 3 t v m D M g.g.j.c.U.M.U.Y O.S g ] ] ] { { { ..g f f i r i r r a f 5 5 a 9.0XzX0X0.< < 2 L ,.5.!.1.Q.!.:.,.:.,.!.`.{.].",
",.~ ~ ~ ).).).7X'.7X7X6.W k T j j j T $.$.-.-.&.-.%.R E R L K H F F 6 C 6 6 2 < 6 C H ~ 1.1.5.'.5.,.Q J Q >.>.1.,.6.1.>.>.Q ,.5.[.[.cXqX[.[.0XzXbXVXbXbXzX0.4.9.R d k s k k j k k k g k d k a 5 a 1 o a %.%.o 1 JXq.: -.7.-.7.$.$.T h k s f s k s h h d k j k k k d d j T $.3.:X9.; . o o o ; 4 1 ; ; = - - 1 a a k j $.$.R j 5 o o - 5 5 5 5 4 4 5 4 4 4 4 & : 9 u u p u p p ' ] ' ` #.#._ } _ } _ _ _ _ _ | _ _ _ _ _ _ _ _ _ _ _ _ _ _ ( ) _ _ ) ) ) _ _ _ | | | | |  .|  .@.@.' ' @.gXFXHXFXgX@.` #.` e e gXdXe  .X.] [ h f k a a i y f p a i y y y a a a a r a a r r 1 1 # r r g =.q.8.X.j j f f s f h h j [ +.[ h [ +.+.[ ] [ f y q q f h [ *.*.*.$.[ g r g *.hXfX8.hX|.|.hXhXZXjXjXjXjXjX|.o.o.P >.0.9.a : . k 9.q.6.:Xq.5.>.:.:.:.Y Y Y Y D D U.U.N.U.U.U.2.O.X.t # = % + # # # # .     . @ . @   # . . ; g s # # < t K %.8.2.2.<.2.2.hXcX8.[.bX[.2.zXVXzX$.1 X   . . # - - ; = + * +   + % @ = % = @ @ @ @ r g j h r ; # # X O   @ O O = 9 0 u a 5 - o d 5.5.`.]./.,././.{.qXqXzXqX>.1 1 a 1 5 j R j d g $.-.a % . + q y p ] ] [ j ] g f r q = #     # = # 1 1 ; o   . X     X X X < 1 < X d 0.[.0.1.;.;.U U P U o.o.2.2.~.}.hX|.}.|.U.~.~.c v G U }.CXSXLXLXLXLXLXVX~ A G A A Z Z Z V c A Z v A c U !.[.[.!.1.:.J ;.;.Q Q Q ;.,.,.1.,.>.,.%.<.[.bXVXJXbXzXzX$.. . > 6 <.[.hXcXcX:.H s j j k a 0 = 0 0 ; = # # ; 6 K ;.5.0.5.1.1.1.:.E H < X # = q f i u i ' h ..i i i w w 8 w e i i t t t t v S m M k.k.y.y.g.y.g.j.M.Y O.S t f ] ] ] ] f h f f t f i t r i t f 1 a k q.'.9.q.4.< X X C Q 5./.1.,.,.;.Q Q ! ! ,.!.!.",
",.,.,.Q.).6.L.6./.'.0X4.R 7 k T j +.+.$.-.&.$.$.d s 5 6 s H H F F H H H J F C C > > 2 J ,.5.`.`.>.Q E J E ,.,.,.>.,.>.1.>.>.1.'.0XqXqXcXcX0XqXcXvXVXVXbXcX0.%.R K 5 a d k s g k j f k g g s a a ; ; ; o X.=.- j nXR h -.-.-.=.*.+.[ h g k k h d d d d d d d d j j d d j j R $.9.0XR X : 4 ; o ; ; ; - 1 ; - - 1 1 a d j R $.j 5 ; : : o 4 4 4 ; * - 4 u - ; : : & & u u p 8 p p #.#.#.} #.} | #._ | | _ } _ _ _ _ _ _ _ _ _ _ _ _ _ _ _ _ _ _ _ _ _ _ ) ) ) _ ) _ ) _ _  .dX . .` { @.@.} gXHXHXgX@.@.` ( w w gX+...w.[ ] [ h a p a y a f y y y u y y r u r 0 a 1 1 r 1 r 1 1 # # 3 s X.<.%.f a j f a f f h s h [ h j h h h h h f f y 9 # 8 0 f g X.$.-.*.j g g 8.hXhX`.hXhXO.O.~.|.hXhX|.U.hX|.|.~.2.P t F $.k 4 : k 4.q.kX0Xq.1.o.U U Y Y Y D D D D N.U.T.U.U.U.8.8.o.X.g t = # @   @   #   + . . . O @ . @ . j $.K 1 X X K 1.1.[.`.1.1.,.8.cXZXcXmXVXzXL 2.[.zXhX0.<.%.H 1 . . # = - +   O * + + @ @ % % @ @ @ # y ] [ g f r # # . @ + # = = = = 0 0 - - 1 o 6 5.'.5.5.6.~ Q Q ,./.`.cXcXE o ; 5 a a j j a - * a a * O @ 9 q f h g ] [ h j h g r = #       # # # - 0 - ; * +   # # # X X o 2 > 1 ;.qX[.;.P F F P S P S U G G o.o.|.|.|.hX|.2.!.~.G o.cXZXKXPXLXLXLXLXLXNX)., Z A Z A A A z Z A A v c c U 1.{.cXmX2.F F F U H L E J E Q >.>.>.%.%.%.1.zXbXvXnXvXnXbX:X6 X . X F [.[.cX[.;.F 1 1 ; ; ; - 9 - ; ; ; 1 # X # s K 2.8.<.;.;.%.P F 2 X # # % 9 i q w i i ' ..i i ' i 8 w 8 e i t i t t S v S m D g.t.y.y.r.r.r.y.k.N.Y S P f ..i i i p f f f g f f i f f f a a a R q.0X0.q.>.5 o < < J ,.1.1.,.:.! ! Q ;.,.,././.",
"/./.).6.6.,.6.6.7X0X0X6.d k k j [ T +.$.$.$.$.%.H d s F H J L L L W L Q Q L I W Z J L >.5.`.`.0.;.L J C Z ,.5.5.,.>.~ ,.,.>././.[.0XqXzXcXqXqXcXvXNXVXVXbX'.H 6 d k k k d h j j h j h k k h k k r ; r - j =.k K zXT -.-.-.-.-.-.*.R h k f d d h s d d d j d d d k d j d R j R R q.9.5 . 5 o 5 5 = 1 - - ; ; 1 0 - 5 a d R $.T a o o X : ; * * o * ; 4 a 9 - $ $ & & u p p p p ' ' #.#.#.#.| } _ | _ } _ _ | _ _ _ _ _ _ _ _ _ _ _ _ | _ ` _ _ _ | _ _ _ _ ) ) ) ( ) ) ) ) _ | } dX@. . .| | lXHXgX_ _ ' ( e e fXfX{ 7.+.+.[ j f f y y y y y y y q y y a u a r 5 r 1 1 1 1 # 1 # > X # t g t < o a k a a k g g h h j j h h ] h h f f y 8 + % 9 0 g [ X.*.*.X.X.*.hXhXhXhXcXhXO.S S D D k.U.D o.U.U.o.o.U 1 r j h T p T -.9.0XzX[.,.U G U N S N D D D D k.T.U.T.U.U.~.U.2.;.X.g a r =   @ @ . . . O . . O . . + r *.-.K r # t 2.0.5.`.`.!.`.!.!.}.cXVXmXcX`.L E `.[.zXnXcXzXhX=.g #     # *     * + @ @ = @ @ @ @ O @ y [ [ [ f f - ; # = q q r i f f f 0 0 - = X 5 5.'.'.6.,.E C 2 C E 6.zX0XR 1 ; 4 a k +.j h s - 9 = @ + % q f ] h h j g g f g f r # # #     #   # * ; ; - - - 0 # # # # X < 6 6 6 >.`.L > > 2 t x F S P G S S S L o.o.hX|.U.hXZXbXNXJXLXPXPXLXLXPXLXNX6.Z v C Z A Z z Z Z Z A Z A c c Y 2.cXZXKXKX,.2 E L J H F H J W W E ;.E L K R 9.zXzXhXzXzXzXbXnX4.d 5 < H '.hX`.2.L H s   : : : = - 0 ; q # ; ; ; X 1 s K X.L g H F t 2 1 X # # & 8 9 w w w i ' ) i i ' w p p e e ....f t S 3 S m D t.t.y.r.r.a.r.r.i.j.M.D P P t f i 8 8 y i f f ] ..t a f f f a r j =.'.q.q.6.E 1 < < > C L ;.,.1.,.Q ;.! ,.`.[.'.`.",
"/.'.'.'.).'.)./.0X'.0.4.R 5 k k h j R T $.%.%.%.<.5.5.1.1.1.,.,.:.,.,.:.Q :.! Q././.].].[.].`.5.Q E H 2 6 Q /./.1.,.,.,.,.,././.[.].].qXcXqXqXcXcXcXvXVXAX0XW 5 d s s j d j T j j j k a k a f k g ; $ a 5 j h j nX=.$.-.-.+.*.+.$.[ j g a d d d j d K j d j d d d K R d R R K R 9.0Xd X 5 5 k 5 1 - 1 1 # < o 1 - 1 5 a R *.K a ; o X   X o   : : $ 0 4 9 & $ @ : & 8 u 8 w p ' ] #.#.} #.#.} #.#.} _ _ #._ | _ _ #._ _ _ _ _ _ _ _ _ _ | | _ | _ _ | | _ _ _ _ ) ) ) ) ) _ | | } @. .dXaX_ sXFXFX} e ( ' e e nXnX{ *.*.+.[ +.h a a a y q y 9 9 0 q a 0 a r a 5 1 < # < > # > > X X X X > # X # # 1 a a k g h k g j ] h h h h ] [ h h 9 + + = 0 f j [ *.X.[ *.9.nXhXq.fXcXhXO.x S O.S D D D Y D Y U U o.s s k h T T k u a -.q.'.:.U Y G S S m D m D D D D Y k.U.o.o.~.2.2.O.X.X.X.g r ; 1 = + # @ O . @ O @ 9 g X.$.s 1 s ;.0.5.1.1.1.8.1.2.2.`.hXcXcXhX[.0.[.cXzXhX[.hXzXvXzXhXd < . X # *   $ + + @ % # @ @ O @ e y g ] h f f 0 9 8 ; q f f i y y f r 0 0 - * o >.0X0X0.,.~ H C W ,.'.qX0.5 . ; - - a j j [ $.h y @ O O O 9 ] h ] ] h h f f a f r # #         .     # o - a a g q # # X X 5 W E E E L < X 2 t 2 s t x t F F 2 t P x S |.|.~.jXKXLXLXPXLXKXKXSXVXvX).Z 7 C Z Z Z A A Z A Z Z Z I Y Y I U (.VXKXKXKXL X E H 6 d d s d H K W L H W K j 4.hXq.q.fX0X:XnXUXvXq.&.R ;.'.[.1.%.E >.=.s - # . + = 0 u 1 q - ; 1 ; o 1 s K F 2 2 6 2 # 1 #   # & 8 8 p i i i ] i i i ' p w i w q e i t S S S m D M t.y.y.a.r.a.a.a.a.z.T.M.o.S g a 8 8 8 q i a f g j f f f f a a a +.9.0Xq.0X'.&.6 o < < 2 F Q :.,.,.:.Q ;.!.].qX[./.",
"5.'.'.'.0X0X0X0X0.0X0.$.d 5 5 k T T [ $.T K %.<.q.[.qX[.`.`.`./.,.!.!./.!.Q.(.cXqXcXqX0X[.[.'.<.E Q E C < J 5./.!.5./.'./.1.).`.'.'.].qXqXqXcXqXcXxXvXVXVXcXE 7 d d s k d j j h j j h k k u a a a 0 a * * 5 g 0.bX&.-.$.-.$.$.h $.j j d j K T K R W R W K W E &.E R R W W R R H R 4.&.5 X o 7 6 o 1 1 5 1 1 ; o o 1 a 5 &.$.s o X X X X X X # X : # : * * $ $ $ & & O & 8 i ' ] #.#.} #.#.} } | | | | | | _ | _ _ _ _ _ _ _ ) sX| _ | _ _ _ _ _ _ _ _ _ _ | _ | _ _ _ _ ) ) ) ) ) ) | aXdX{ ( gXnXsX( ` w w e fXfXh 8.-.h [ +.+.h a 0 y 0 = 0 a u a a j a 5 s ; 1 X < 1 X X X 2 P K ;.<.8.`.8.K < o k d d h s k j h h h h j [ T [ [ ] f = O   ; a f X.[ [ X.-.9.hXfX8.`.hXhXX.3 S S S S Y Y Y Y o.o.2.!.O.a j j h k k - : 5 X.1.o.U D G N c m v m S m m D D D D o.o.o.o.o.o.X.P [ X.+.[ K [ g f r q & @ % a [ [ j a t j %.<.<.8.>.1.1.2.;.;.:.:.|.hXcXcX`.`.cXcXq.hX[.zXzXzXvXbX'.g . . * o :   # + + @ @ @ @ @ @ e t ] ] f f f i r q y q i f y f y f q 0 0 = * o E '.zX'.5.1.>.5.5.0XzX[.R o # * - u k [ +.$.*.[ [ h 0 q i h h f h [ [ j f t a a 1 1 # # = = ;   #         * r - q X . X X 7 >.>.E H C > < 2 6 2 2 S t F P F P S S S 3 O.~.8.jXPXKXKXVXvXVXcX`./ Z , 7 Z Z Z Z A Z A A A Z / Z I Y J U o.;.1.`.1.F X < H d d s 7 d 6 6 6 d H K K H X.4.q.q.hXkXzX:XzXnXzXq.4.&.1.>.;.E L K %.>.$.%.j 0 + = u r * - - 0 r * # ; t j X.s s t 1 1 #     @ & 8 8 8 i p i ' i i ' i ' i i w q i ..t x S S m D t.t.g.y.r.a.a.a.s.x.V.C.M.U.U S ; q @ % q y f f g g f f i f a r r $.[.zXq.q.q.&.6 o < 3 > , J >.:.,.;.:.,.'.zXcX`.1.",
"'.'.q.0X].q.'.cX0X0.<.K 5 & = k h h T +.R j $.&.0.[.[.].].].(.!./.!.!./././.[.mXmXxXcX].0XqXqX'.5.>.Q C > 2 Q 1.,.,./.].].].`.).].].0X{.qXqXqXqXqXxXxXvXvXqXE 6 H d H d g k j R j h h k a a a a f a - # ; a j 9.0.$.9.=.=.$.+.T T j j j j H H R %.%.E W W &.&.&.W K W W R R H H s W 6.>.d < o o X X o 1 1 6 5 2 1 s 6 d 0.>.1 . X X X X . X X   : # * + + * * + O O & & 8 i p #.#.+.#. .#.} } } | | | | _ | _ | sX_ | _ _ _ _ _ _ _ _ _ _ _ | _ _ sX_ | _ | | | sX| _ _ _ _ _ ) ( ( ( _  .dX( _ dX} _ ) ' { e i @ . X.*.k K $.X.h a r a u 0 0 a y 1 * 1 a 1 6 1 1 < > X X 3 L 1.'.[.[.cXxXbXvXcX4.K o 1 d s k g d h s h j h h h h [ h y = O @ = q a k j [ j X.=.8.8.8.8.2.2.O.P U X.U Y o.o.o.2.!.!.hXzX<.g j +.f 4 &   # t P L Y S S c S c v v v v v v m m m D D D Y o.O.P P g g g g [ *.-.-.*.X.h y y { X.*.X.[ a r g X.<.<.5.1.1.1.>.:.o.;.;.!.`.[.[.!.1.0XhX[.[.hXq.[.zXcXnXbX0.s X .   X X .     # # @ @ @ @ q i f g ] f f f f y q f f y f i f f q 0 0 0 ;   d 4.0X0X0.4.>.5.'.zX[.4.d o ; ; u h j [ [ *.*.+.+.+.[ ] [ [ ] [ [ g g g s a a 1 1 # o 1 1 1 ; ; ; ; # #       # #   X X o 6 ,.,.W Z < > > 2 2 2 s F H P L X.L K X.S 3 S o.2.hXZXZXcX[.[.[.:.J 3 l C Z Z Z Z A Z V Z Z I I Z J J U U L H 2 3 o . . . 1 k d s 7 5 5 < o < 5 6 s K R >.9.0.q.q.q.zX0.9.=.3.W %.&.%.R F F K H d s R &.=.-.$.k - = u - 0 - ; - ; 1 s K X.X.K a 1 * # + + @ O 8 8 w p w i ' w i i ' ] ' i i e t t ..S m m D M k.t.t.y.y.a.a.d.s.z.V.C.M.M.o.t t q % % 8 0 a f g f g f f f f a a =.q.[.0X0X[.>.F < 3 3 > < Z J Q :.,.,.>.1.'.`.>.K ",
"4.q.0XzXq.;.%.0.q.0Xq.*.k * - y h h T T [ K j R 0.[.cX[.].].'.Q.!.!./.(./.(.qXmXxXxXqX[.qXcXcXqX].5.E C > > 2 Z ~ >./.].].].]././.).(.].].qXqXqXqXqXxXqXqX0XQ 6 H s d d s d j j j h k h a a 4 a a a a a s a 5 s s K q.<.=.$.R R j d j d R R W W W E W &.>.>.>.Q E E W W H W J W d H 6.vXqX).5.Q < < X . . X X X 2 o . H bX0Xs 6 < X o > X . X X X . . .   + * * . O O O 8 8 p { @.+.#.#.#.#.} | | _ _ | | _ | _ _ _ _ | _ sX_ _ _ | _ _ ) _ _ _ _ _ _ _ | | | | | | | | | _ | _ ) ) ) ( ` dX| ) } | ` ) ' ..q X.=.r   a X.R f j f a u u r 0 0 a 1 - ; X ; 5 < X > X > < 2 ;.`.[.[.cXzX[.[.`.[.[.0X1.6 W >.R K k s k a k h k p a h f a 0 + . @   = 0 a f h f g j g P K X.%.2.2.`.0.!.!.2.1.1.`.[.hXhXzXhX<.j $.[ a 9 $ # 1 t S S S S N S S S S l x v v v v S m S D O.D Y P O.P t r q r j $.-.=.-.7.*.$.X.7.-.*.X.f r # 1 K %.<.<.1.>.>.2.1.;.U ;.1.`.[.`.;.K <.<.q.'.0X'.[.zXzXzXbXcX9.j 1 o ; . . X # # # = # @ = q f ..f f f f i f y y f f f f a f a f y 0 9 = o 1 R 0.0Xq.<.>.0.[.0X0.X.5 # o = a j [ *.[ *.*.7.*.*.7.-.*.*.[ ] g a f a r a 6 1 1 1 1 5 r 0 1 r 1 o   X # X . #   # X X o H 6.6.~ C > > < 3 2 F H X.L L %.%.E X.o.P 3 x o.2.hXhXhX[.!./.,.I x Z Z Z Z Z Z Z Z Z Z Z Z Z / W J J L P H s 2 1 < X ; 1 a a a a k d 5 o . X 4 s s K &.9.0.q.0XzX[.4.$.j T d k d W H s 1 2 F F s 1 d K %.4.<.$.a : * ; r - ; - r # f X.<.=.X.a # + % + O @ @ 8 8 e i i i w w i e ' ' f ..f f t g S S D D D D M t.t.e.r.i.y.y.a.z.x.z.j.M.Y S 3 # @ @ = q r r f f f g f a f r a R <.0.'.`.5.;.F 6 2 2 , 7 < 2 H E Q Q Q E %.L 6 < ",
"$.:XzXq.R 5 5 j 4.q.zXq.$.k u u h h [ j j k s 6 >.`.[.].].].(.Q.!.!.!./.(.`.].qXcXcXqX/.`.zXcXzX0.Q C 2 > X > < C J ,././.1.)./.5./.).].].qXqX{.qXqXqX].'.0X5.J K H H d s d j k k h g k k a a a g a s a d K K R E 4.0X0.<.%.R K d K H R W E Q >.~ Q W Q ~ >.>.E Q W J J W H W W W Z C 0XUXvXUXqXqX1.W C C 7 > X X X 1 5.VXcXE E s < > o X X X . . . X .   . . . O : & - p 8 i ] +.@.#.#.| | #.| | | | _ _ | _ | _ _ _ _ _ ) _ _ _ _ _ _ sX_ _ | _ _ _ _ _ | _ | _ | | | | sX| | | | | _ ( |  .aX@.@.{ ) f e f fXbXJX8.s =.q.K 1 a 1 r a a - - - ; o o . 2 d < X X X > 6 %.1.1.>.;.,.!.:.U C F >.`.'.>.0.0X4.E K d d a a a a a a f f y = O O @ # - 0 0 a a a a - q # # > 1 t P X.o.X.X.X.X.%.X.;.X.2.X.K g h j h p y a r t F P S S c S D v v S v x v x v x v S m D D D O.Y P P t 1 = = f +.$.%.*.-.=.=.7.=.*.[ ] r + . # r X.%.>.2.>.;.;.2.;.o.1.8./.!.8.K H &.<.9.q.hX[.q.[.q.[.zXzX0X4.$.E R d 1 # # # = # # q = r f h ] f f f f f a i f q y y i f i q q = % O ;   - E 9.0.5.0.0.q.0.&.5 # #   = f [ +.+.[ +.+.+.+.*.*.-.7.7.*.g r - 1 1 1 5 s s 6 s 5 1 1 1 r a 1 o X   o # . X . o X . < W 6./.~ C > > < 2 P L o.%.o.;.%.o.o.L L U t S o.!.[.hX|.!.2.! I Z Z Z Z Z v Z v Z z v v v Z C C Z H P H s s r 1 1 r r 5 - o * 5 s d j s 5 o < 5 d R <.9.0.q.q.q.fXq.R j j R j k d s 1 1 2 s s s s s 1 s g j -.<.$.a .   ; a r - r r r -.9.=.g # + = & @ @ O @ e e p i ' i i i w e i ' ] ] f ..t ..S S D D m t.t.t.t.e.e.p.u.p.i.s.l.i.j.M.U.D 3 # # # # ; 0 r f f f f f f t 1 1 r d E ;.E H C 6 C C C x x , 3 x C C H F H 6 1   . ",
"$.q.:X$.- * - 0 j =.fXzXq.*.a q h h h T j a 1 1 d >.[.].]././.!.Q.1.!./.].].].].qXqX`.H E [.zX1.F 2 < 2 < < > > > C >.].]./././.)./.].{.qXqX}.qXqX}.cXqX].[.5.E H E %.R s s j d d g d k h k a a k k a 5 s K R H E 5.0X5.<.E T K d H T H E 5.0X0X0X7X/.6.,.6.,.6.,.~ W W W ~ ~ Q ~ ~ Z 6.eXqXeXeXNXxX0X0X0X0X,.Q C >.].vXVXqXL < 6 X X X X X > o X X o 1 # X X   : . * f h 8 & ' +.#.#.#.#.} | | | | | | | _ | _ _ _ _ _ _ _ _ _ _ | _ _ _ _ _ _ sX) _ | _ _ | _ _ _ | _ | | | | | | sX| ) | | |  .gXaX( i ] X.8.zXPXPXhX0.hX=.; ; ; r r r 1 - - # X X X L 6.H o X X 2 L >.>.U F F Q ,.!.1.L J 1.'.xX0XcXvX0X0.5.&.%.R k j k s k f f r @ . . @ @ # = 0 r a a a a r 1 X X X # X X # 3 1 1 1 1 1 1 1 r 1 s s g [ j k i u 0 t S P P S S S S S x v S l S v v S v S m S D D D Y O.S 3 # # 9 f X.*.*.-.-.-.=.=.7.X.f q = # @ # r K X.<.%.%.L %.>.;.<.[.hX[.1.%.F H -.4.0.q.0.q.q.'.:X'.0X[.q.&.E &.0.0.$.d 1 1 ; # # # = q a f f f f f f f i y y i y y y i y u 9 = = & # . . 1 j &.<.4.0.&.K 5 . .   # 0 f f [ [ [ [ [ [ [ $.+.*.=.-.[ a - # o 1 6 H J K H 6 5 5 s s 5 s 5 ; o X o X X X . X > X 7 ~ ).6.,.Z > < 7 J ;.;.;.o.2.2.<.2.2.2.;.o.G G 2.!.|.!.:.U J G Z Z A Z Z v v C v Z v v l 7 v x 6 C 6 s s r 1 r ; ; # ; $ + # - - r a j $.$.K K K %.<.q.0.q.0.9.<.-.X.s s j d k 5 5 5 1 6 6 2 2 1 1 6 2 1 1 1 d %.=.$.- : . ; - - - - - -.8.g *   + = @ @ @ @ 8 q i e i ..i e e w i i ] i ] ] ..P P P D D D D t.t.t.t.M e.e.e.t.r.y.y.y.i.k.N.P l # X   # # r 0 a a p f a f s a 5 1 2 C H C 2 < 2 C G G C C C Z x 2 C C s F s 1 o # ",
"$.3.*.h a a u a a r [ q.fX*.f f h h h j k s 5 1 < K 5.[.].`.!.1.!.,.!./.[.{.{.[.[.qX1.F R '.<.3 X < 2 2 3 < < C < 2 Q /./.]././.,.,.!./.(.].qXcXqXxXmXcX{.'.Q H J >.`.<.s s K d k j g h s k k s a s s s s s F < 2 H %.E W K d H H H H W ~ 5.8XeXtXqXeXeX7X).).).).).J.^ ,.^ ~ ~ ~ 6.~ ~ 7X].7XeX8X8XeXeXeXeXeXqX0XwXvXxXcXxX'.6 > X X < X X . . . X . X : X X #   o a $.+.u 8 i #.#.@.#.#.| #.| | | | _ _ | | | _ | sX_ ) sX_ _ _ _ _ _ _ | _ _ _ _ | _ | _ _ _ _ _ _ _ _ _ _ _ _ _ ) | _ | _ ) ) aXgX..w ..7.8.`.bXLXKXzX%.&.a X # o 1 - - ; o X X o F [.vX,.< X > C E U L J F J U 1.cXxX}.].zXvXAXNXrXqXzX0X0Xq.9.&.&.R j j h h f f = . O @   = - 0 a r s f a r r r ; 1 - 1 t 1 t 1 - 1 1 r a s j g [ X.j X.$.h y - # q t P S S m S S v S S 3 S x x S v S v S m D P S Y P S # # + 9 h $.-.=.-.$.$.$.-.7.*.f = = % # # 0 t K %.$.L P L o.;.8.[.zX[.%.H s g %.0.0.q.0.4.0.q.'.q.q.9.%.K d K =.0.<.%.K d r #     q r f f g f f f f f i i i y y y y u u 9 9 9 9 9 +   . . o 5 a 6 d 5   . . . # q i a f f [ { [ [ ] [ +.*.*.*.$.g r *   < 6 K E %.Q W C 6 K >.%.d 5 < < o < o   X X . X X o Z 6.6.L.~ I < , x ;./.1.2.2.8.1.1.!.1.1.:.o.U Y o.~.!.:.U J G Z Z C v V Z Z Z Z v 7 x 7 l l 7 2 C 6 6 1 1 1 1 1 r r r r 0 0 r a * # ; k -.9.=.%.=.=.<.<.4.0.8.=.K a ; a a a a ; o 4 < < < < 1 1 2 1 1 2 1 1 5 5 s j %.-.s . . # ; = - r [ [ q O + % @ % % @ e e e e i i i i i i ..i ' ' p f ......P X.D D M M t.M t.M e.e.p.t.t.y.y.y.y.y.h.n.o.S > X   # # # q u f f a f a a a 2 1 2 x 7 2 v x x x Z G G Z G Z C C C 6 6 s s a u 5 ",
"+.T h h h g y y y 8 q +.*.[ h f h h h j j k a a < 6 E 1.`.(./.Q./.!./.[.qXcX{.].[.'.1.L ;.<.K X X < 6 5 2 < 2 H J H J Q >.,.,.~ I Q Q ,./.(.{.{.qXwXxXcXqX].;.J ,.5.0X0XE s d K j j j d h a k k s s 1 5 6 E 5.>.F E E E W 7 H d W H H W 6.5.].7X0X8XeXqXqXqX8X0X0X).).).).L.L.).).).~ L.].7X].8X_.7X8X7X].8X].7X0XqXeXqX0XNXVXVX{./.5.`.,.E K d < X . . . . . X o 5 a j [ a i p +.@.@.@.#.} } | | | | | sX_ | _ _ _ _ _ _ _ _ _ _ _ _ _ _ _ _ _ | _ _ | | | _ | | | | | _ _ _ _ _ | ) _ ) ) _ _ ) | dX ...i 8.`.[.[.VXJXcX<.'.K . X X ; ; 1 1 o o d &.'.vXVX].< X 2 E 1.;.Q Q ;.,.:.'.VXVXNXmXNXVXSXNXqX].qXcX0X0X0Xq.4.=.-.R h j g a = . @ O . % = - r a f a a 1 - r 1 1 1 # r t # 1 1 # r r r g K K K g g [ [ X.[ h a t t P P S S S x x S v 3 x x v S v S S m S m D D Y S t 3   + 8 a [ *.-.X.-.$.X.$.*.X.f 9 = # # # ; r s K X.K K F K X.%.2.<.X.t 1 s H -.q.q.q.0.4.4.4.0.q.5.<.%.R K K R %.<.=.&.%.K s # . # r r f f f f f f f a i i f y y 9 u 9 % 8 9 y u - =   . . . . . . . . . # = q y r a i f [ ] ] ] ] [ +.+.[ $.[ a * X X 2 R >.>.>.>.,.E E 5.zXzX5.d 5 o < 5 o o o X X X X < W 6.Q.~ ! ~ Z , C ~ `.`.`.`.!.!.8.!.!.2.!.:.U Y o.!.!.:.:.,.Q.! ~ I Z Z v v C 7 v C C v 3 3 2 2 2 t 2 r 1 ; # # ; q q = 0 0 - ; = ; r a $.=.=.-.&.%.j d &.<.=.K s 5 ; 1 1 5 5 4 o - o < X < < > < < 1 1 < < 2 < o 1 R =.-.- . * ; # 0 q f r @ + = @ O 8 @ 8 8 9 e e f i i i q i i ' ] p ..f ..P X.S D D m M M t.t.t.e.e.M e.e.t.t.t.r.r.r.t.h.Y S > # X # # # 0 0 p f f f a r 1 6 1 2 6 x 2 2 C v C x Z G I I I E J H s F s a a a a ",
"+.+.T h f f f a i r q i f f h f h [ j [ j j s s 1 < 2 E 5././././.`.].qXNXxXcX[.qX`.>.E E K s 1 < 2 1 2 2 2 s ;./.1.5.1.,.Q ;.Q Q U ~ ,.Q./.(.].{.0XqXqXxXqX/.1.[.'.cXcX5.K K j d K d h d a a a 5 k 5 s K >.].5.Q Q Z Z 7 C H H H H W Q 6.).7X_.).7X).7X8X7XeXeXeXeXeX8X).).).).).).).Q.L.).).).).7X{.).).8X8X].8X).].xXqXwXxXVXVXqX`.].qXcXcXqX[.1.J d 6 < X X X X X X   O O & @.7.dX@.dX#.#.} sX| | | | | | _ sX_ sX_ _ | | _ _ | _ | | | sX_ sX_ sX| sX| sX| | | | | sX_ _ _ _ _ ) sX_ ) ) _ ` { dX7.{ X.fXq.`.hXcXVXbX'.zX0.X X # o ; 1 1 1 H 8.0XvXNXvXqXC X J `.[./.!.`./.!.!.[.mXNXxXNXNXAXNXvX).>.`.0X0XzXqX0X:X0.=.$.H f h a =   + +   .   + 9 a h f a - - 1 ; # # > # # # # # 1 r 1 r 1 g g g K g h j +.7.*.$...t t P v S S S 3 3 x x v 3 S v v v v m S S S D O.S t @ . $ = 0 h *.-.$.$.$.$.+.j j f q e q # = ; r r a s g s s F s t t s 3 1 ; s j $.0.zXzX0X0.4.9.q.0.4.4.4.0.9.<.&.>.;.>.<.0.<.$.r X # 0 r f a a y f a i y f f f h f y 9 9 & & = u y 0 - = # X . X o . o   . # # = r i q i f ] ] ] g ] [ [ [ j [ j 5 # X 1 H E 5./.1.6.`.'.5.cXAXAXcX>.H 5 1 6 5 o < o < X < 7 ~ ).^ ~ ^ ~ J < Z :./.!.`.`.!.!.`.1.2.2.!.:.G P o.|.|.!.!.cXNXNXwXqXL.~ Z C l 7 C x Z 7 v 7 3 2 r 2 r 1 9 ; 0 0 q 0 ; 0 0 r 9 0 r r ; u j X.g s j k # 1 %.9.%.k 5 s a a 1 - 5 o 5 1 > o < < > X X X < > X X > o < 1 s R <.j : * ;   - # r q = = @ + @ @ 8 @ q e q i i i i i i i i ' ] ' f ..g g X.O.P S D M m M M n n n n n n n t.t.r.y.r.e.D U.S > X X X # = - u y f y y a a a 5 6 2 6 , x x Z Z G Z Z I ! ! ! ,.:.J F H s 5 1 r a ",
"h +.*.+.j [ ] f i f i y i f f h j [ +.j +.j j j 5 5 < < H >.5.5././.`.].qXqX]./.`.`.>.K E &.K 1 o 2 s 6 2 1 F L ,.`.0XqXcX].,.5.~ ,.,.~ Q././.].).].].0XNXNXcX/.qXxXcXcXcX>.s R K j R d f k u k a d d H E ,.J ! Q.~ ~ Z , Z J Z W W ~ ~ ~ )._.7X).).)._.2X_.8X8X8X8X8X8X8X).8X).8X)._.).L.L.).L.L.).).8X).).).).).).qX7X].qX6.Q `././././.`.'.].xXxXvXvXvXqX0X5.Q W W H s o @ i w.dX@.#.#.| | _ _ _ _ _ _ _ _ _ | | | | | _ | | sX_ ) sX| _ ) sX_ sX| sX| sX| sX} sX| | | | | | | | _ | _ | | `  ._  .7. .7.hX[.'.}.qXvXVXcX0XzXg X X ; 5 j &.4.0.0X0XzXqXqX'.H X J '.].].[.`.(./././.(.].].].xXNXNXvX7XQ ~ ,.^ '.0X0X0X0X'.<.X.j 5 - : .   + + @ . O # a f h a 1 - * ; # X # X X # # # # 1 # # ; 1 t s a g g a h *.9.9.X...F S t S t l 3 3 v v 3 x 3 v 3 x x v S v S S P t 3 # . # % q h [ X.$.$.=.-.*.*.h q q q q = $ = - a - a s a s a r 1 # > # r a g j R $.9.zXzXkX0.q.0.4.<.4.4.0.[.q.q.<.<.&.>.4.0.0.&.-   - r f r f i f f i i t f f f ..y q % = & @ = y 0 0 0 = # # % + # = = @ % @ @ @ 8 q f [ ] ....f ] ] [ [ s h f 1 X X 7 L 1.'.'./.].].].'.0XvXVXvX5.%.H H K R d 5 5 5 < < Z ,.).~ ^ ~ ~ I C x :.(.!.`.`.!.!.!.!.:.~.,.1.U G U !.!.}.xXmXxXcX{.qX{./.!.C , v 3 Z x x 2 6 6 1 r r a q r e r # q q q q 0 r q q r 0 r u a a # ; - . : j &.-.j k a a s 1 1 1 ; < < < < > > X > X > > 3 F C J 2 X X X 2 s %.k 5 o - ; - r # q q # @ @ @ e e 8 8 p p 8 y w 8 8 w i f ] ] i ] f ..P X.P S m D m m m m m n m b n n M M M e.e.e.M B D G 3 X X # # = 9 u a i a a a a s 1 2 F F C x Z J U U J I ! {./.,.,.5.Q E K 6 1 a 1 ; ",
"4 k [ [ *.*.X.[ [ { f a f f h f [ ] [ [ [ [ j j a 5 o X < H E Q >.>.:.,.,.!.!.!./.!.,.;.;.&.d 1 1 5 s r 1 2 6 d H E 0.xXVXxX].).!.,.,.5.6././.)./././.(.NXNXqX].cXvXxXvXcX0.H H d j j j j j u k k k K R H 1.).wXwXeX8X)./ Z Z / A ~ ~ ~ ^ (.)._.8XL.).L.L._._._.(._.).8X_.8XL.8XL._.L.L.^ J.Q.L.L.L.J.L.L.).).8X_.).).,.0XqX~ J ~ ~ ,.,.6./.).).6.).0XqXeXxXwXwXwXxX0XcXzX0X[.kXgX7.} _ _ _ ( _ ) ) ( ( ) ) ) _ _ | _ | _ sX_ | ) _ _ _ _ _ _ _ _ ) ) _ ) _ ) _ _ _ _ | | | |  . . . .| | | |  .| ( ` 7.w.fXhX[.].[.qXxXVXbXzXq.a X X 5 R 6.0.'.q.'.7X'.0.`.1.C < Q ].].[.].`./.Q.1.,.!.(.!.|.].NXNXNXwXQ./ W ~ ~ >.q.0X0X0X0.<.R 5 ;   .     @ +   @ @ - a a r 1 1 X # X X 1 # # > # > > # # X X < d X.K a a a f j 8.fXq.=.X.g x x v t x 3 3 3 x 3 l , 3 x l t x v S S x t t # # 9 = = y g [ *.$.-.*.$.X.j r q q = % * = ; = ; ; 1 a a s t r # 1 r s j g d j $.-.q.0Xq.:X0.0.0.0.q.0.0.q.q.q.0.<.<.4.4.4.q.<.R ; - y r y r i t f g f f f f h h f q 9 9 % @ % 9 9 9 = 8 q = = 8 = = e # = 9 = 8 8 i ] ..] [ ] ] f h ] [ h j g o X > 2 E '.].'.6.,.,./.~ ~ 5.].].5.;.K J E E L d 6 H 7 Z W ^ ^ ^ P./ L./ Z C U !.`.`.!.1.!.2.:.:.2.1.2.U G Y !.|.!.!.o.J G G ;.:.!.Q.Z x C x v 7 2 2 2 1 r r q y q q r # q q r r r q 0 i a y 0 0 - - - + $ $ . - $.=.$.k a 1 - 1 o o X < < X > > X , 2 Z I ~ ! Q.(.].qX[.Q.Q 6 . X K &.g - 4 * u 0 9 = ; e # e # 8 @ & w p 8 i 8 8 8 8 8 0 ' ..] ] i ] g ..g ..S S m m S m m m m m b m n n n M n M M M D D G x X X   # ; - u a a a y u 1 a r s J F F L Q !.!.!.:.,.(.{.{.(.]./.&.E R 5 1 1 1 - ",
"* - a h [ X.*.*.X.[ g f f f g f h ] +.+.+.[ j j f a 1 o < 7 d W L J J H J U :./.`.!.,.<.<.$.5 o 1 1 2 a 6 6 6 1 2 6 J /.xXxX0X/.).6.5.,.,.5.Q./.>.~ ~ /.qXxXqX].qXvXcXqXcX0XE s s d j T R $.h k k 5 j R H ).qXwXeX_.eX8XQ.Z 7 / / Z ~ ~ L.).].8X_.).)._.L._.L.L.).)._._.L.8X_.L.).L.L.L.J.~ ~ ,.L.L.~ L.L.L.L.L.^ (.].).qXxX,.H I Q ~ Q ~ ~ ~ 6.Q.).).).'.).(.].7XeXqXqXcXzXnXzX@.` ' _ _ _ ( ) _ _ _ _ _ _ _ _ _ _ _ _ _ _ _ _ _ _ _ _ _ _ ) _ ) ) ) ) ) ) ) ) _ _ _ | | |  .|  .sX .sX . . .aX} _  .gXfXfXfXhX[.}.].].xXAXVX9.> . . 6 &.0.q.6.0.'.6.>.Q >.Q 7 F 1.].`.].].(./.!.Q.Q :.1.!./.].eXvXNXNX).J J / H / Q 6.0XzX[.'.3.T a o . . . O . @ + + # = - a g g t r 3 t s t t 1 # # 1 < < # r P %.<.R a - j a f $.q.hX8.8.X.P F S 3 3 x l 3 3 l 3 3 3 x 3 3 x S S t t 3 = # # 0 0 0 a r a a [ $.-.$.[ j a q - # % = = $ $ * o ; 1 1 a a r - r r g g d a k j j *.9.q.q.0.9.q.zXcXzX0X'.q.0.4.&.<.=.&.4.5.0.=.s a r a i r i f ..g f f f g f ] f f y 0 u % & % % = = q q q 9 = = q e = = # 8 # q f ] f f f ..{ ] f ] h h j g ; < < H ,.'./.1.~ Q W W ~ J W E Q E K H H K K K H K W W ~ 6.).6.~ / ~ J.~ Z Z I ,.`.!.1.!.1.Q.Q.!.~.!.2.U S U 2.|.Y , , , x U :.1.`.:.x 3 v 7 3 x 2 2 1 1 a r y r r q q q r e r e q i 0 y 0 y 0 0 - = = = * + - $.=.-.k 1 1 # # < o X o < < < 2 C L :.(.{.qXqXqX{.qX}.qXNXVXKXVX<.X 5 &.j 5 u 4 a r q q # e # e @ e 8 e 8 p w 9 i 8 8 @ 8 i ] ' i ..f f f [ X.g S S m S v c c m v z b m b m V b b n m m D D Y x 1 X # = - 0 u y k a 0 * - 1 s H E E Q 1.].].qX].{.].{.wXwXqXqX].Q H d 5 < 1 1 1 ",
"; - - r r f [ *.-.*.*.[ g ] h ] [ [ h [ j [ h h a a 5 5 < < < F C H J J J ;.1.].`./.1.5.<.L 1 X 5 5 s s d s s 6 6 < < H >.6.1.5.,.,.,.,.,.Q.,.,.>.Q Q ~ ).0X]./.0XcXzXqXcX'.E s s 5 5 j $.3.R k u k R H L 0X].! Z Z A ! L.I C Z ~ ~ ~ J.).).).).L._.L.L.).L.L.L.L._.L._.L._.L.L._.L.).).L.J.).8XQ.).).L.(.).).)._.).(.eXwXeX5.~ ~ ~ ~ ~ Q ~ ~ ~ Q.6.).).).).).).].).0X0X0XcXfX7.8 w _ ` | _ _ | | | | } | | _ _ ) ) ) ) ) ) _ ) _ _ _ ) sX_ _ _ _ _ _ _ _ _ _ ) _ _ _ _ ` | | | _ | _ _ _ | | |  .@.gXgXgXfX8.8.[.].].].[.vXbXhX6 5 5 R 0.0.6.>.>.>.Q W W W ~ J J /.].`.`.`./.1./.,.:.Q !.(.].(.0XqXyXqX~ I Q Z W W W &.q.0X0XzX0.&.j - . . . . @ . @     + ; 1 $.2.%.%.%.X.X.X.P F t F t t s P %.`.q.$.a r f $.j f $.8.q.0.8.8.2.O.S S x 3 t x 3 3 3 3 3 3 3 3 3 3 , 3 1 1 # # # - 0 q f j h j j $.$.[ [ h g f f q = = = + $ * ; * o # r a t r t r a a a 4 a d k R &.=.4.<.4.'.zXbXbXbXcXzXq.9.4.4.>.R R 4.9.4.j s r r i r y f ] g ] g f f f f h f f f y 9 % % = = % = ; e = = q = q q q q 8 q f f [ ..i t f f f ] h h s h s 1 < < H >.,.E J J J J I W Q L J W J L H R R E W R W W W 6.6.).~ ^ ~ ~ ~ / I Z Z ,.`.!.1.!.1.!.!.`./.!.~.o.G Y :.~.l , , x G /.].}.}.;.x 3 , , , 7 3 2 1 1 1 0 0 i i q r e q r q q q q q q q q q q 0 = - ; * * k 7.*.j 5 # ; 1 ; ; o < 1 2 6 F Q '.qXqXqXqX{.qX{.{.].].].cXNXSXLXKXE < K R k 4 u y f q # q @ # @ @ @ @ 8 w i i u i 8 e 8 i { ] i 8 8 e i i f P ..P S S v S c x c c v v v z z z z m m b N N G P F t # ; - q u y a a a ; # o < a K L L Q !.].qX}.[.{.{.{.qXqXxXcXqX<.H s 1 < o 1 1 ",
"s 1 1 1 1 r f h *.7.=.7.[ [ h h [ [ h ] h f a a u - 0 5 1 o o < 5 6 H E ;.,./.`.`.(.5.1.<.%.K a s d d d s d s 6 5 7 < 2 6 J >.,.~ >.~ 6.6.,.,.~ Q W J Q ~ ).).5.].qXcXzXcX7X%.R H 5 k R w.q.3.5 o j R H Q qX~ Z I I J.L.8X).~ ~ 8X7X).].)._.7X).).L._.).^.L.L.L.L._.).P.L.L._.L._.L._.L.L.).).8X].{._.]._._.8X].{.).eXNXqX1.,.~ ! ! ~ ! ~ ~ ~ ~ ~ L.).)._.)._.8X{.7XqX].'.[.7.f 8 ' } | | | } } } } } | | _ _ _ ) ) ) ) ) ) _ ) _ _ _ sXsX) _ sXsX| _ | _ _ _ sX_ _ _ _ ) _ ) ) ) ) ) ( ) ) ) ) ` dXgXgXgX8.O.t 1./.]./.J 2 %.%.R R E 4.0.6.6.&.W W W H W W W Z C ,.`./.1./.!.1.1.,.:.Q ,.(.]./.].eXyXqX~ I ~ I W Q Q 3.4.:X0XzX:X9.=.a . . . .   + + +   # = - X.<.8.<.8.2.2.=.2.%.o.%.%.L %.8.q.hX=.1   a j $.j ] -.9.q.8.9.`.`.8.o.X.P S 2 3 3 3 3 3 3 3 3 > 3 3 3 3 > 1 - 1 0 h [ [ [ h g f h j j j h j [ h g f u a u $ : $ * :   : ; 1 a a a r 1 - - 5 k j T -.&.&.&.=.<.4.`.qXvXcXzXcXcXzX`.0.3.R R &.5.4.&.j a a f 0 f g ] [ [ f f i f f f f h h f y 9 % 8 = = 8 = e # q q 8 = = q q q y y f ..[ f f ..g ] ] f f k g s d s C W ,.,.Q W I Q Q ! ~ W J H J H H J W E W &.&.E &.6.6.).^ ~ / / / A ~ ~ A x U `.!.`.`.`./.(.|.[.!.o.U D Y ~.|.Y v l l U !.}.xX{.Q 2 , 7 , 7 2 3 1 1 1 r r q r t t e i r q q q q 9 = q = e q q = = = = + - T =.j a - - < < ; 1 o 5 7 2 6 ;.0XxXwXqX].(.(.].(._._.{.8X].qXvXNXLXvXd K =.j   u a f q 8 = = e e @ @ @ e i f f i i i e i ' { ] w @ 8 8 8 e y f g t F x F x F x x c x v l l l l l v z v v c S C s 1 1 u u u a a f a 0 *   o o a H J H L 1.qXxXqX[.wX{.}.qXqXcXcXNX[.H 6 1 < # 1 1 ",
"R s 1 # - 1 r r h X.7.=.*.[ h h h h h h f i y y y 9 - - * :   o < < C W ,.1././.`.`.1.;.>.>.%.H s j d d d F d 7 < < < 7 7 C W >.Q Q Q Q ~ >.Q ~ Q Z J E ~ 5././.qX0XcXxXcX'.&.E &.E W 4.:X0X9.5 4 j d d Q ].Q ~ 8XyXuXNXNXyX).8XyXyXeXeXeX8X8X_.8XL.L.L.L.L.L._.P.L.L._.L.L.P.L.L.L.).L.Z Z I Z L./.8X8X{._._.).(.eXwX].Z Z ! ! L.! ! L.L.~ ~ ~ ~ ~ ~ L.Q.L.).).{.{.7X0X0X'.2.i w } } } | }  .| | _ | _ _ _ _ _ _ _ _ _ _ ) _ _ _ _ _ ) _ _ _ _ ) _ _ _ sX_ _ _ ) _ _ ) ) ) ) ) ( ) ) ) ) ) _ ` |  .aX7.fXfX7.r X.5.:.F X X < ; H R &.6.5.6.3.E W W H C C C Z 7 3 J /./.!.1./.!.!.:.,.,.,.].{.].(.7XyXeXJ.Z Z ~ ~ ~ 6.4.&.6.0XzX0Xq.9.T *   . . . . . O # * * 1 %.0.8.<.8.<.2.2.2.2.<.>.2.2.8.`.'.<.s . ; j $.$.+.X.*.<.=.8.8.8.8.!.`.0.2.;.P F S g S x S t t 3 3 1 1 1 # # r j [ -.=.$.a ; = 0 r u k h k h h k f a a a a a ; $     . X # 1 1 r 0 = * ; - a d j $.=.<.=.&.&.>.<.>.4.'.q.q.zXzXcX'.'.4.E K &.0.4.<.$.g h f t f [ X.[ ] g f f f y f f f f h a 9 9 = = @ # = = q f f q = = # = q q y a f f j ..] [ p f f f a a f %.5.1.5.`.]./.6.,.,.1.~ W ! Q E J H C C H W Q >.>.>.>.,.6.5.! ~ ~ ~ A ~ J.J.Y c J o.,.1.!.`.[.`.].(.~.I S S U ~.|.~.N , l Y !.|.}./.J , , , 3 , < < 1 1 1 - r q q q e q r e r q q 9 9 = % = e = = # ; * = $ u $.*.j 5 - - # # 1 o < 6 6 7 J /.qXqX].{.{.{.{._._.(.(.(.(.].wXwXcXAXLX<.%.9.-.a k a h i 9 8 e # # e e @ e i ] ' f ..' w q i p w 8 8 @ @ @ @ q t f t t t 2 2 2 2 2 3 2 3 2 x 7 x 3 v v l l 2 3 3 1 1 r a y a a y a y a $ * X X 2 H H J ;.].wXxX{.(.].(.}.{.(.(.qXNXcXH < X < X 1 r ",
"1.E s < o 1 1 r ; f [ *.[ [ f f f f f y i y y q u u 9 ; * o # X X o < H E 1./.].`./.>.L %.;.E K d j j d d d s < o o < 7 7 7 W Q ~ W W W E E W J H C H Q Q 6.5./.[.0XqXvXvX'.3.E 4.0.q.0X0XzX:Xd o k d H W ).Q.)._.8X8XeXuXtXeXuXNXtXxXyXeXeX8X_.L._._.L.).L.L.L.L.L.L.L._.L.L.).)._.).A v 7 , > l Z ~ J.)._.(.).8X{.~ < , ~ ! ~ Q.! J.~ ! ! L.! ~ ~ ~ L.J.).Q.).).)./.).[.'.*.y ' ' } @. . .} _ | _ _ _ _ _ _ _ _ _ _ _ _ _ _ _ _ _ _ _ _ _ ) ) _ _ _ _ _ _ ) ) _ _ ) _ ) _ ) _ _ _ _ | | sX .aX . . . .7.hXhXO.O.[.Q 3 C %.>.%.R R >.0.0.4.4.E W 6 d 7 7 < < > > C ,.(.1.,./.,.,.,.,.!.!.].wXqX].(.}.}.Y A c Z Z Q ~ W d W q.:X3.R R j ; $ . . . . . .   . : o X.8.2.2.2.2.%.%.;.2.2.2.2.2.1.`.<.s X o a $.$.+.+.j [ X.*.$.-.=.2.2.8.`.`.8.2.;.X.o.L L K P F t 2 3 1 s t a h [ j +.g $ .   r g % : = f u u u 9 u u y a k k a ; X :   . . # ; - ; ; ; u f k j T -.4.4.<.<.>.&.>.>.<.<.5.4.5.'.0X0X'.5.E H &.4.4.9.&.R h a a g ] ] g g ] f f i r y i a f i f y 9 q = = e @ 8 y [ X.h r q r q f g j f a f f [ ] [ h h f k a * a >.0X'./.'.'./.,.! ,.~ E Q /.[./.,.>.W H W E &.>.6.3.3.^ 6.^ ~ ~ ~ A ~ f.)._.~.G F L G L 2.1.!.!.!.2.G x v c U ~.U.^.o.l l G :.!.`.1.F 2 < > , > > 3 1 1 - ; q = q t e e r q q q e = 8 e = = = e = = 9 = = * u *.*.h - - 1 : o # < < 7 C d Q '.{.{.eX8X]._.).(._.(.).{.8X{.qX0XqXVXLXVX9.9.q.=.*.h h u 8 8 @ @ q @ @ e 8 i ..f ..f i i i w w i 8 e e & @ 8 8 0 f t a 2 1 2 1 2 < < < 2 6 C F C C 6 3 , , 3 > # X ; u a u a y a f a u * * * X 5 E K J ,.0XwX].,.Q U ! (.(.,.J >.zX[.E < X X # 1 1 ",
"1.>.E H 1 < ; ; 0 0 a f g ] f f a f i y u q i u 9 9 y u = = = : X X o 2 H >.`.].`./.;.E %.>.%.R K R K d d d 5 o o X 7 d H W &.W W W J W Q W W W C C H / E Q 6./.].0X0XcXcX[.6.W >.6.4.6.6.6.q.T o 5 K L C /._.eXyX).P._.yXyX_.8XyXyXtXyXeXeX8X8X_.).).L._.L.L.L.L.L.L.L.L.L.L.L.L.).L./ v Z Z Z , < , l Z ! Q.).J.Z > l ,.,.~ J ~ ~ ).(.)./.Q.L.Q.,.! J.Q.L.Q.Q.Q.).).'.0X0.[ i ' ` } } #.} | } | _ _ | _ | | _ _ | | | sX_ | _ _ _ _ _ _ _ _ ) sX_ _ _ _ _ _ ) _ _ | _ | | | |  .|  .sX . . .sX| | ` |  .gXfXfX`.cX:.P >.1.9.'.E H &.5.4.4.<.R s < 6 < > < < > > 3 ;.`.!.1./.2.!.:.,.,.!.].qXqX{._.{.~.A A V l l C J 7 o d $.k : . . o : . .   # = #   . . . X s -.%.X.;.%.2.2.2.;.>.2.>.1.8.0.d ; # a j j +.j k f j [ [ X.X.X.%.=.2.8.8.<.2.2.<.%.%.X.K F s 2 1 1 1 s $.j j k 0 u =   = 0 - = - . & 4 - 4 4 ; = 4 - ; a j j a 5 5 ;   . + = u - 0 a g k k T $.&.4.4.=.>.&.>.<.4.5.5.`.5.4.4.0.'.0X'.%.F W 4.4.0.<.$.g f r f [ [ [ ] ] f i a i f f a p f f i 0 q q = 9 @ @ f X.*.[ f f ] X.*.=.7.*.f g j X.[ [ +.h f f a . 1 &./.`.'.).5.~ ~ /.,.,.~ 5.qXxXqXqX/.Q H H W Q &.E ~ Q Q Q Q ~ ~ Q / I f.(.}.(.Y c c x F G L Q Q U G x , x Y N.~.U.}.jXo.l G ~./.!.`.J C 2 > < 3 < 3 1 1 1 - # 9 q q q r e q q = = 8 = = @ # q = r = = % 9 % 0 $.$.f ; * o # o 1 < 7 7 W ~ >.).0XeXeX{.{.{.8XeXeXeXeXmXeXwXwXwXvXxXJXPXcX0.q.q.=.+.i u 8 & @ @ e @ @ @ e i p ' ..i p w i i i 8 8 8 8 O @ O 8 r s g s s s 5 2 r 1 1 < 6 s H K H F C 3 3 3 < # X * - u u y y a y a a a : * o . 6 E E E /.qXqX!.Q Z G ! {.{.,.Z L qXqX0.s X < X X ; ",
"5.1.,.>.R d r 1 a q a 0 q q f y 0 y q q u q 8 q u 8 u 8 9 % % $ . X o X 6 1.].'.`./.>.E E %.%.$.R j T T d d d d d W %.3.Q ^ W W W W W W W Q J C 7 H C C W W ~ '.0X].0X0X].5.&.W >.6.q.0.;X0X0Xq.R 4 d W > ~ wXeX8X_._._.8X8X8XyXeXyXwXyXeX8X8X_.8X7XL._.L.).L.L.).).8XL.2XL._.L._.8X).Z , Z Z , , > , , , Z ~ I Z Z Z eX].Z 2 x 3 Z Z ~ ~ ~ ~ ! Q.Q.,.Q.Q./.).).).)././.[.8.[ i ] ` } } } } } ` _ | _ | | | | | _ | | | | _ _ _ sX) _ _ _ _ _ _ _ _ _ _ _ _ _ sX_ _ _ | ` | | | | | | | |  .| | | | ` ` `  .8.hX8.hXhXhX>.3 X H s E 4.0.0.9.X.s 5 5 1 3 < X > < > C L 1./.1.,.1.,.,.,.,.:.:./.(._.(.|.J.A Y A l , , > X > H W k 4 ; * 4 4 - a k j K j $.j * . . . t -.<.2.<.%.%.%.=.<.>.2.4.<.L < - 1 a k h h h a h j [ j [ $.[ X.X.%.%.-.2.=.2.2.%.K P j s s 1 < X o K -.j u u O - f a 0 + # ; - = & * * - & : : : ; 1 a k k d T K j 4 * * - r 0 - a k g k j &.4.5.4.4.>.>.>.5.,.5.5.5.5.5.1.<.0.zX0XE 6 W %.<.0.<.$.j j a f j h h f ] f i f i f p y f f f f y y q q q 8 = a [ *.7.=.-.7.9.q.fX9.9.*.$.X.[ [ [ j h a u *   1 K ,././.6.,.,./.,.~ ,.Q.0XxXcX{.[./.>.W C H W W J W E ~ Q ~ Q Q U A N.J.~.~.J.G c G F x C F G G C x , x c G U.~.Y |.MXmXU.N !.!.|./.:.S 2 > > # 1 t 1 r 1 - # % = # e e r = # e = # 8 # @ = q q # = 9 = - $ 4 $.$.k - o o X o 7 6 7 J ~ ^ ~ /.0XeX{.wXeX8X_.L.).8XeXyXeXeXyXeXqXrX5.0XcX[.9.q.9.*.h @ q @ @ # @ @ @ @ 8 i i i ' i i w i w i q i e 8 & @ @ = 0 a d j K K g K s 1 1 5 s H K K L H g < > X o X   : u p u u 9 u a a a y . o ; X s 1.5./.[.qXcX{.(./.(.}.wXNXxX].cXAXVX'.R s H g 1 . ",
"5.,.1.>.;.K s s a - q a y 0 y q q 0 q y 8 u u 8 8 u 8 y 9 9 = $ : o o < 6 5.].'.'./.1.,.<.>.E K K R d d R W &.3.<.6.6.6.3.&.W W W W ~ W W W W W 7 C 7 7 C W 6.0X0X[.'.0X'.6.>.>.5.7X0X0XzXvXvXrX0.W 6 X 7 eXNX).J.P.L.L..X8X8X8XyXtXwXtXeX8XeXeXeXyXuXeX).8X8X_._.L.8XL.).L.L._.).8X8X~ Z ~ ~ Z Z Z v Z v ~ ~ A Z Z ~ NX).2 x 6 7 3 2 2 3 2 C H Q Q ,.,.,.Q.!.!.,.Q.,.5.0.2.[ { ' ` } } } } | ` _ | | _ | | | | | | | | sX_ sX_ _ _ _ _ _ _ _ _ _ _ sX) sX_ | _ sX) _ | | ` | ` | | sX..` | ` | | | | ` .. .8.fX`.8.ZXxXE F F s 1 K 8.8.=.$.g r ; * r # # > # 3 > 3 P ,.!.1.,.1.:.,.:.:.Q ! ,.(.(.^._.N.B Y N.A l > X 2 H &.0.:XzX:Xq.4.=.R K j a s a H <.%.H K X 1 K %.=.=.2.>.=.;.<.8.0.0.%.a ; - a a a a a y 0 h j [ [ j X.X.R $.X.$.%.%.%.%.%.K s 1 1 1 1 # . : a j T a - 9 $ & = = +   # - 4 & ; * : : : : : X : - 5 5 a a j j R j a - = = 0 0 a d k h j $.4.q.0.5.5.4.,.6.5.5.5.5.5.5.5.`.qXvXcXE 7 R W >.4.&.-.R j f h j ] [ ] f ] f f f f f p f h f f a f r q q 9 y [ *.9.q.9.8.8.q.q.9.9.9.9.=.=.=.$.[ f y 9 - ;   o 6 6./.)./.).~ ,.~ ~ ,.(.qXxX{.qX].).5.Q C 2 7 7 Z J W E :.! Q ~ ! J.n.A N.^.~.Y Y c x 2 x F F C F 2 , x v Y U.U.D U.CXCXmX~.o.2.!.!.P 2 3 3 > 3 > 1 1 1 ; = # @ = # # = q = e # = 8 @ = = # # # e ; ; = = $ 1 +.+.5 ; : X o 4 5 7 W W >.,.Q.].wXeXyX8XJ.I Z v l Z I ).eXwXwXxXqX,.> . s 9.<.9.q.=.j 8 # +   # @ @ @ 8 8 e i i i q i i 8 i e i q e 8 8 & & % # r r g K H K F s s a s s d d g d a 5 o X X : :   & p k u u u u u y u u : * ; X s <.'.[.qXqXxXcXqXqX{.wXwXNXVXVXCXKXAX`.K s j j 1 X ",
">.,.,.5.1.&.K j a a 0 y y y 0 q 0 0 q y q q q 8 8 i y y 9 u u = * ; ; o 6 >.].'.].'.`.5.`.1.%.K R T d T R 4.q.:X:X0.6.6.3.W T H W &.&./ W W W W 7 7 7 H 6 W 5.qX'.'.'.6.0.5.6.6.q.0X0X0X:X0X0XzX0X6.H > ).SXBX_.J.J.P._.8X8X8X8X8XyXeXeX8X_.8X8X8X8XeXyXeXeX8X).8X).L.).L._.).).8X8XeX).L.! ).! ,.J.J.~ Q.(._.7X< x Q.xX;.2 L E U L P F F 2 2 6 2 F J L U Q ;.Q Q >.,.1.5.-.[ { { ` } | | } ` | | _ _ | | | | | | | | | _ | _ _ _ _ _ _ _ _ ) _ _ _ _ _ ) ) _ | | | | | | | | ) | ) | | ` | ) | `  .| ` ` { O.fXhXhXhXNX;.< 5.q.1 K 8.=.[ g y q 9 q r q # # 1 > > < L 1.`.1.2.:.:.:.,.Q.:.! ,.(.|.{._.~.A Y N.U G G G :.>.E E 4.4.0.0.4.&.$.d 5 - o X 1 K R R $.%.$.%.0.<.$.<.%.%.2.<.0.q.<.F X o ; 5 a a 0 - u i f h j j [ j X.[ K $.X.X.-.$.K g s 1 X   o . . . 5 j h a = $ % & $     . .   ; u ; = : o .   . : : o o a a 5 5 a s j X.j a - = 1 9 a h j k j R 0.'.'.'./.5.5./.5./.5./.[.0XqXzXxXNXcXE 7 s R &.4.&.R +.j j j j ] [ [ h ] f ] f f f a h h f f f f a f r a j -.9.q.fXfX9.9.9.9.4.=.=.=.9.8.8.=.*.f 9 : ; ; o X < /.qX].)./.~ /.).~ Q.].qXcX{.].[.].'./.Q 6 < < C 6 C J Q Q Q Q J.Q.N.A N.}.^.N c G x x F G F x G x C x c N.~.U.D XXCXZXZXhXU.o.o.S 3 3 3 3 3 3 3 r 3 r = # O @ @ e @ # = % % e # # # # # r t # 3 r 1 q r ; r +.X.; ; # X o 7 6 H ~ ~ Q.Q.).eXwXyX{.L.~ A I A Z v Z A _._._.0X/.W C 6 H &.9.0.9.9.$.# # # # # #   O @ @ 9 y i w 8 8 w q e q q e q 8 & & $ + # # 1 s L L j g j s s s s s 5 5 1 <   : : .     : = f f y u 9 u u y a 0 $ $ * o a <.zX0XqX[.cXcXxXcXcX{.].qXNXVXJXKXVX0.d 5 s s ; # ",
",.,.>.>.<.&.&.$.j u 9 9 0 y q 9 0 0 q q 9 8 i i 9 u 8 u y a u 0 4 ; 1 o s >.'.0X].0X'.`.'.4.%.R R j R R 3.9.6.0.3.>.&.W W W W H W W W W W W W W 7 7 7 C 7 W 0X0X0X/.6.'.'.6.5.5.6.q.0X0X0X0X0Xq.0X0X'.6.NXVXDXNX8X8X_.8X8XyX_.8X8XeX8X8X_.).L.~ ~ Z Z / J.).]._.).).).L.).).8X).).).)._.Q.~ ~ ~ Q.(.{.8X8XeXwXNX~ E 7XwXQ s ;.%.>.%.%.X.R K F s 1 2 2 2 6 2 t C J W E =.2.%.X.{ ` ` ` | ` } } | _ | | _ _ } } | | | | | _ _ sX_ _ _ _ _ ) _ _ _ _ _ _ _ _ sX| _ _ | _ | ` | sX .|  .| | | sX| | | ` | | { {  .2.8.hX[.VXcXE cXVX1 t =.X.f q r i y r i t t t q 1 < x 2.hX`.1.!.:.;.,.!.!.Q.,.!.(.|._.^.~.A N U.~.(.]./.%.d o X 1 ; 5 5 5 a 6 5 1 o X o 1 1 a K K $.>.&.<.0.<.8.2.%.%.<.9.&.d < . : ; - 4 * $ = 9 a f g h f j h f j j j j X.X.K g ; ; # X # X X . 5 d j a 0 = $ : $ $ + #   .   # 0 - ; & : : : X o o o 4 5 a s 5 1 1 s K j a r 0 9 - a g d a k %.0.'.'.[.[.0X`./.'.].].qXqXcXxXvXvXvX0XH < d W Q >.%.R R $.j g h h ] h f f f f f i i a h h h f f f f f a ] -.9.zXq.9.9.<.=.=.-.-.$.$.$.=.q.q.9.=.$.a + : o o X < 1.7X7X,.Q.).).Q.~ ,./.{.]./.1././.].]./.~ C 7 3 , 2 C J Q :.:.~.J.N.Y ^.MXXXo.c S x x F L U G G Z x x c o.U.D D jXZX|.}.}.~.!.O.x , , 3 3 3 1 2 t r r ; @   O O # + @ = = % # @ e # # > # # t # 3 # 1 1 # t X.K < 1 X X X < C W ,.~ ).)._.eXwXeX).! J.)._.L.P.Z A / ~ L.].J.J Q 5.`.0.5.0.0.9.0.-.1 > # > X X # @ @ @ 9 8 i 8 8 8 8 e e 8 8 9 8 & O @ : +   # ; s K K s s F s s a 1 1 - ; o X   . . .   . O u k h y u = u u a y - ; ; * o 1 %.[.zX{.qX[.qXcX{.{.(./.].qXxXNXVXvX5.1 1 a 1 1 0 ",
">.,.>.;.&.<.4.9.[ a = u 9 9 0 q q q q 9 q q q q 8 u q y y y y 0 0 - - 1 s >.'.[.qX0X'.'.5.>.R R R T R &.4.4.4.3.3.T T W W W W T T / k 7 W W >.6.W 7 < 7 7 W 0X0X0X6.6.,.6.6.6.0.'.q.6.0.0.0.0X0XvXvXUXVXVXtXNXDXuXyXtXyX8X8X8X8XyX8X8X_.8X).~ v Z Z Z C l Z ~ ~ L.~ ~ L.Q.L.J.~ J Z ~ ).).L.~ ! ).8X_._.8X).8XNXyX7XqX0XE R %.%.%.X.%.&.%.%.K F s 1 < X X X > > 7 2 C K X.*.{ { ` ` | _ | } } ` | | _ | | } | | | | | | _ _ _ _ _ _ ) _ _ _ _ _ ) _ _ _ | | _ | | | | | | | sX`  .| |  .| | | | _ | ` ` ' ' ....X.hXcXVXKXVXAXAXr 1 X.h f r i i ..t i ..r t q t # L [.vX[.`./.,.:.;.! :.! U ! ~.Q.|.~.J.G Y ~.!.!.`.;.6 X X X o o X X . X 1 5 6 X . 2 K 1 2 E K < %.R ;.[.0Xq.&.%.K K H 1 X X o : o ; * : O & u q y f a a f f a f f j j j g r # X . . X X . X 5 T j k 5 u - $ : +   = ; *     * 0 - ; * : : o   o o o < 1 1 1 1 a 1 1 s j g f a - ; a k s 5 g R 0.'.[.].].].(./.).].].].qXqXxXNXvXxX0XH < C W Q &.R K R $.j k a f f p y i f h h h f a f h h f f y a f k $.=.q.fX8.-.%.$.%.-.&.-.%.$.$.%.7.9.9.8.9.$.4 * o X X < J ).).! ! ).Q.~ ,.! ! !.!.:.Q Q Q /.(.'./.>.J C < 2 Z L ;.:.:.~.Y N.n.|.MXjX~.D l S S G o.:.:.o.U G c Y N.D k.XXGXjXU.U.|.|.|.U.~.X.S , 3 3 3 r t r r - # O O O + + % * @ + = + + # # # 3 # # 3 3 3 # t # t X.F 3 X X X > < J ~ Q.).).{._.}.wXeX~.J.I J.J./ A Z A ~ ~ 8XeX).W Z J 6 ,.0X9.<.[.0.8.t > 3 , X > > X # # @ 8 8 8 % @ @ e @ @ O O O O . O . X X X > F K P d s F g s a 1 1 ; o   : . . . : : : & u h p u 8 & u u u u 9 = = *   X s <.hX{.qXhX}.[.].`.Q.1.(.qXcXcXvXcX%.X o 5 a a 5 ",
"Q Q ;.;.>.4.9.9.$.a 9 = = 9 0 q q q 9 q q q q q 8 8 9 q u y a u 0 0 5 5 6 %.5./.qX0X].5.5.&.R K j R R &.3.4.&.W W 3./ T W W W / W T 7 T W W 6.6.6.H 7 W W 3.0.7X/.>.W W W Q 3.6.6.W W W 3.q.vXUXAXAXSXVXNXyXBXNXyXtXyXuX8XyXyX8XyX8X8X8X8X_.L.~ I I ~ ~ Z 7 , < , Z J ~ I C 7 , Z J ~ _.]._.8XeX8X{.).).8X).{.NXNX7XqX6.R E %.$.%.-.-.&.=.=.-.$.j s # . X X X X X X < 1 t X.*.{ { } _ | | } #.` | | } } } } } | } | | _ _ _ _ _ _ _ _ _ _ _ _ _ sX_ _ sX_ | | | ) | | | | | ` | | | | | | | ) | ` ` _ ' ) e e # = 8.!.`.[.cXKXKXg # X.j ..r i q w i e t t e t r > ;.cXVXcX[.`.!.:.Q I J I U Q.Q.(._.(.U Y !.!.;.C 6 1 5 5 1 < < 1 - o o o 1 1 5 H s d K 6 s %.d X W H d 5.zX'.%.K s 1 X . . X : : & ; $ $ & = = 9 9 q y y a a a a j j j g a 1 . . . . . . . * j -.j - * u a = & . O * = *   * a 0 - ; * : X o o o o o : o o X X ; o # a g j a r 0 - a j f a d &.5.'.0X[.'./.,.,.,.!.Q.,.!./.].cXNXNX0XW C H W &.W K K R R j a u y q u p y y p h h f f k f h h f f f k j +.=.3.9.=.$.j R R $.%.&.R T j R =.<.9.7.9.*.f 5 5 X . X 7 ~ ~ ~ ~ ! ).~ ! Q ~ Q.!.,.:.:.:.!./.].].`.,.L C Z J :.~.:.o.Y Y N.D M.|.~.U.S l S U U ;.:.!.!.:.~.~.N.N.m k.jXGXjXT.T.U.|.|.hX|.|.o.O.S t t t t r r - # O O @   + + $ # % $ # # X # # 3 3 t 3 S t S S S O.o.P > > > 6 Z Q ~ Q.Q.).{.eXeXeX{._.).I A ~ Z Z Z A ~ ~ 8XeXeXNX{.7 X < E 1.<.<.8.<.~.S v G Y S 3 > > X   # & & @ O @ @ O O @ O O . O O .   . X o < s H K F K K d s s 5 o o     . .   : O   O & u h k u 8 & - p y u & % $ # X . < F %.`.[.[.[.].[.(.,.,.1.].'.'.qX'.E - - 5 - - 1 ",
"H W L E <.0.q.4.+.a & = 9 9 0 0 q 9 q 9 9 9 8 q u 9 q 9 0 a 0 r r - a 1 s W 6.1.`.0X'.>.E R H T R R &.&.3.3.3.3.3.W T W W W W W W W W 7 T W 3.6.^ W W W W W 6.>.W W 7 7 6 W >.6.H < R rXAXAXLXAXLXLXUXtXtXNXDXtXyXyXtX8XyX8XeXeX8X8X8X8X8XeX8X).I v l v v < , , , Z I J 7 > , Z ~ ,.).).).).8X_.).).L.).).7X8XtXNXqX0XE R %.$.-.$.*.$.$.-.-.-.$.$.k # X . X X X X X o X # [ *.{ } | | | } } ` } | | } | sX| | | | | _ _ _ _ _ _ _ _ ) _ _ _ _ sX_ _ _ _ _ _ | _ | | | | | | | | ) sX) | ` | | | ` | _ _ ) ( e e # S F F 6 J NXJX%.# j f ] f i i i i r i r i e t # %.hXNXcX[.[.cX].!.:.U :.!.(.].].}.|.! :.Q.:.H 1 > X 1 r s a 1 1 1 5 s d d s d E K 6 2 1 < 1 1 1 6 s 3 F 5.<.L s < . . . .   # $ * * * = = 9 u 9 9 u 9 0 y a y k j X.[ j a 0 # X . . .   . 4 T $.d $ . - a = $ . . + * +   ; a a 1 - * : o o 1 < o X X X X X X X X # 1 g j g a 0 - r g f 1 j ;.5.[.[.]./.! Q Q Q ! ~ Q I J ,.(.vXNXcX~ 7 W E E R R R R $.j a u q 9 9 8 9 y p h f f f p f h f g h k k j -.-.=.-.$.j j T R R %.R T j d j K -.=.=.=.-.j a 5 o X > < Z ~ W I / ~ ! ~ ~ ! /.(.`.`.].[.].].].].].!.;.L L o.:.o.U Y G A N.D D D Y U.Y v x S U U ,.1.!.:.~.Y Y N m k.jXZXZXW.E.|.|.U.U.!.|.hX`.o.P S t 1 r r 0 # O . O   + + # + * + # # # # # t S O.O.o.O.o.2.O.2.~.P 3 > G Q.Q.).8X{.).(.{.eXeXyXwX_.8X_.L.).J.A Z J.).8XwXNXeXNXVX~ 2 qX'.s E 1.>.1.|.D S U.U.o.S 3 > > X . . O @ O O @ O @ @ @   @ . O .   X X X > 2 s K P H s 6 a 1 1 :   . . . .     O . O & y h f y & = u u u u $ + + +   X X X > L /.[.].`.].]./.).1./.5.6.'.0.4.$.%.j k a r ",
"< 6 H E 4.q.9.-.j u ; u 0 9 0 y q q 9 q 9 9 q 8 q q 9 u u u a 0 0 - 4 1 5 d E E >.6.1.R 7 s d T R $.&.&.W 3.W W 3.&.W W W T W 3.W W W W H T W 3.W H T W W W W 7 7 7 < < 7 W Q 1.d W cXPXLXAXAXAXSXAXtXmXeXNXNXuXtXyXyX8X8X8X8X8X8XyXyX8X_._._._.L.Z 7 , < v Z J ~ 6.~ Z > > ~ (.).L.Q.).)._.8X{.Q.J.L.(.eXeX8XeXNXtX0X6 H -.R $.$.-.-.-.*.-.*.$.j s o X . . . X X X X . . g @.{ } ` ` } } } } ` | | | | | | | | | _ _ _ _ _ _ _ ) sXsX_ _ ) ) ) _ _ _ _ _ _ _ _ ) _ ) | ) | ) | | ) | ) ) | ) | _ _ _ _ ' ..t q X.P ;.F C >.0.AX<.# g f f f i ..e i ..i i t r # 1 L hXbXVXhXhXNXmXhX}._.}.}.}.}.}.}.].!.!.;.P F < # 1 6 5 s d 1 6 5 5 6 s H H L >.'.%.L ;.J 2 F H H Q H 2 K K F 1 X X X . X * o 4 : ; 4 u u u = 9 u 9 9 9 9 9 q a k [ X.j k r 1 # X   .     = j [ k * . * 4 ; O O . + * * X o a r a 1 o o o o < 6 < o X < X X . X o 1 r s j j a 0 = a d a 5 g <.5.[.qX].,.Q Z J ~ :.Q.Q J J J ,.zXNXNX,.C J W &.W K R $.$.K f a 9 8 8 9 9 p y f h p i f f h h h h a f +.-.=.-.%.%.T d K $.$.R $.R d g k K X.%.-.-.-.R a 5 o o o X Z ~ Q.J.I ~ I I ~ :.[.{.].].}.{.qX}.zX{.{.(.:.:.:.:.! Y G S Y N D D D m h.}.|.S x l G 2.`.|.|.~.~.U m m h.T.^.jXjXT.|.T.U.U.8.~.~.2.|.[.8.X.3 t r t r = O . O       + $ $ $   X # > t F O.2.2.~.~.~.|.~.!.o.G 3 l :.}.!.Q.(.]._._.eXyXwXyXyXeXyXmXyX_.)._.L._.).eXeXmX8XeXVXeX].LXVXJ %.[.[.cX}.o.m D U.|.U.Y > > X . . . O O O O O O O O @ @   X . X X X > > 2 F F H s 6 1 1 1 * X X . . . : .       O - y h f u % & 9 u 9 & & O + # X X X X X H !.[.`.`.`.`.(.].`.`.>.>.5.<.4.q.0Xq.-.R a ",
"< < d &.4.q.4.*.j k u $ % 9 y q 0 q y 0 q q q q q q 0 0 u a a u - 4 4 a 4 5 7 d H W 7 7 o 5 d d W &.&.&.&.W &.&.&.W W T W T W W W &.W R T W T W T T / 3.3.W 6 o o o < < 7 U Q '.>.vXPXLXLXUXvXAXKXtXeXeXvXuXuXyX8XuX8X8XeX.X8X8X.X8X8X_.8X8X_.).7X).Q.,.Q.(.'.).].eX).C C ~ qX8X~ ,.^ Q.).)._.).~ ! ).8XwXwXeXqXvXcXW d $.K j $.$.*.*.$.$.*.-.$.X.k * . . X X X > # 1 X . % { { ` | | |  . .` ` ` | _ _ | | | ` | _ _ _ ) _ _ _ _ _ | _ _ _ _ _ _ ) ) _ ) _ _ ) _ _ _ | | | | _ _ _ _ ) _ | _ | _ _ _ ) ) ) f [ t P x 2 cXvX0.zX$.= g f ] f f ....f ..f f i r r r X.`.mXVXmXhX}.mXjXXXXX}.}.~.|.(.Q.Q./.1.E H d 1 5 5 5 s d F H K d 5 s C P 5./.qXcX[.[.NX[.2.zXcX5.zXbXL . s s 1 o o . o . : - 4 4 4 u a 4 u - u u u & u & u 9 a j j j h j h a a 0 + . + - a f j k =   * = - $ . .   - o X < ; 1 r 6 1 7 < 7 W Q W 7 < C 6 < 2 X X 1 j d j j a 0 $ a j a 5 d >.5.'.qX].`.!.! ! ! Q.].!.~ ,.].0XNXvXxX6.C H E E E R $.%.$.$.h a p & 8 9 & u p i h f f i i y y h h k a *.9.=.$.R j j K R K $.%.$.R d d d d H R %.$.$.$.K d - ; o o < ~ eX_.J./ A ~ ~ /.]./.).].].{.}.[.].}.[.!.!.o.o.U Y Y S G S Y D D N D }.MXjXY l U cXVXGXGXGXhX!.~.U.jXjXjXE.T.|.T.|.T.|.O.U.U.U.U.|.|.hX8.O.t r r r ; . . O # # + + $ $ O * X < 2 G o.o.~.U.U.U.U.U.|.|.~.:.l G (.wXmXZX_._._._.eXyXyXyXyXyXyXNXyXwX8XeX_._.8XeXyXyXtXqXwXSXqXSXSX6.,.xXVXGXhXn.m D T.Y.|.|.Y 3 X X . . . $ O O . O O O . . . X # X > , 3 3 x S F F t 1 < o o : . . . X . . . .   . O 4 f h k & & $ u u & - # + $ # X X X X > ;.`.`./.`.'.5./.5.5.1.>.>.>.<.<.4.q.zXq.q.9.",
"o 7 R W =.3.$.j h f u % = q 0 0 y y 0 y q i q y y y y y u u u u 4 - 4 k 5 ; o o o < 7 o : 7 T T 3.W &.W 3.W &.&.W 3.3.W &.W T W W W 3.W W T W W / 3.3.6.6.&.W < o 7 < , Z ! `.qXvXJXLXPXPXAXzXvXAXNXeXeXNXNXtXyX8X8X8X8X8X8X8X8X8X8X8X8XL._.).8X).).).).7X7X0XqXqXeX].).L.).0X).W ~ ).,.,.).Q.J.Q.~ A I Q ~ ~ ,.0X].L d K d j j j [ $.*.*.*.*.$.$.g # X X X > > P 8.<.g   O f ' ` ` | | | ` | ` ` | | | | | | | | _ | _ _ _ _ _ _ _ _ _ _ _ _ | _ _ _ _ _ _ _ ) | _ ` _ _ _ | | | | | | | _ _ ) _ | _ ' ....f g L ;.Q J 5.zXzX0Xj # j f g ..f ] ..f ] i f i y q # X.hXnXVXbX|.o.|.^.U.U.M.U.N.Y G G U 1.>.L K d s d F d K K K K K K H K E 5.qXqXNXNXcXcXVXcX[.NXVX0XVXKXVXj X d a ; 5 * : o 4 a a 5 4 - u 4 9 4 9 & u 4 = & 9 9 a k j j k f s f a a ; + * a h g j a - + $ ; = & $     - o X X X < < s H H H H W W C 7 H ,.5.,.`.W X s E j X.j h a 9 0 k a 1 K %.5.`.qXqX{.(.].(.(.].wXwXqXqXxXmXNXvXxX>.7 C J W &.R R R j $.j [ u u 8 u i i a f h h i y f f i f y u a -.9.&.R j d d d d K K K K d s s d d K R R K R R $.K j a < X X Q ].L.~ A ~ I ~ /.)./././._.[.}.}.[.}.].!.:.o.U G G P Y Y D S D D m o.jXjXo.S 2.ZXKXKXPXPXKXCXjXjXmXjXZXZXjXU.T.|.T.U.T.|.|.8.8.U.2.U.8.|.O.P t r r q @ . # @ # # + % $   : # t P U U.~.U.U.U.U.U.|.U.~.|.|.l x {.mXNXwX)._.yX{._._.{.yXeXyXyXeXyXwXeXeXeXeXwXyXmXyXmXmXNXDXNXwXNX(./.VXKXCX|.D D n.M.U.U.^.o.2 X 1 s 1 . . . O O . . . . @ X X > 3 3 S x S 3 t x F s 6 1 o X X : X . . .   . . .   & 9 f k y ; & & 4 9 u & $ # X   : X X > 2 ,.[.[.5.1.4.>.;.;.Q ;.Q &.&.E >.<.0.q.q.q.q.",
": 7 d R d j k k k f a 9 = 9 9 0 0 y y q y 0 0 0 q y y 0 u u u - 4 4 k T 5 o o : : : o o o 7 W W 3.W R R 3.&.Q &.3.3.W W W W 3.W 3.&.&.W T W W W 6.4.6.6.0X6.W C o > > 7 J Q 1.1.6.VXPXPXLXLXvX0XtXNXtXNXiXxX8X8X8X8X8X8X8X_.8XL.8XL.8X_.L.).).).L.(.(.).].eXeXqXeX7XqX).(.8X].I Z ~ ).Q.).Q.).(.Q.J.I , , < C J ,.,.J K K d R T K $.+.K X.*.-.$.X.s # X X 3 F %.`.8.2.9.8.*.] { ` | | | |  .` ` | _ _ _ ` | _ | _ | _ _ _ _ _ ) _ _ ) ) _ _ | | | ` | _ | _ | | | ` | ` ` | | ` ) _ _ _ ) _ | _ _ _ _ ( w ..O.X.1.2.].'.`.'.zXq.- 9 j g g ....{ { ] ..f ..f i r # $.[.zXAXKX(.N N.T.M.M.M.M.~.~.c A ! !.>.E H H d K H K L R R L H R L E <.qXVXxXVXmXqXmXSXvXcXVXvXVXLXPXPXcXX : d ; 5 r * 5 a T j k a a a u u a u u u u 9 9 9 = y f k j j h j h f f a = = f j g g a 0 # $ - - = # * * 1 1 o 2 2 < 3 Q ,.5.).6.Q.).^ :.).qX0XxXAX'.X 1 d 5 j k j j h u a a d q.zX[.'.[.qX[.].(.(.(.{.wXNXmXxXNXVXNXvXqXQ < 6 Z R R %.$.$.$.[ j h h f 9 & u 9 = h i a y y y f f a h a a -.q.-.K K s s s s g K K d k k 6 s d K j j j K R $.-.$.k ; < X 7 ~ L.I A ~ I ~ ).].!.Q.(.{.{.].[.}.[.|.:.U Y G P Y P Y Y D Y Y G S U.jX|.v !.ZXKXKXKXGXZXGXKXZXjXjXY.jXCXjXU.Y.|.U.|.U.U.U.T.|.8.U.O.|.8.hX2.P r 1 # # . . # # + + # % @ X < F o.o.U.o.U.U.U.U.U.n.o.o.~.(.U c J.}._.J.J._.BXyX8X{.eX_._.yXeXyXeXyXXXeXyX8XeXyXwXeXeX8XeXeXeXeXNXxXmXCXKXCX|.D D h.k.D D D ;.G d $.=.-.k + . O O O @   @ # # > t x S S S v x , 3 x x 2 3 < X X . . . . .   . O . . $ 9 a h p - $ $ & u u & = * + # X X X > F 1.}.[.`.5.>.5.E L K E E >.E E &.>.4.0.[.q.[.",
"X o o o o 4 a k h h f u 9 % 9 9 y y q f f i y q y q 0 0 0 u u 0 - 4 h R T 7 o : o o 4 7 7 d R 3.&.3.$.W W 3.3.3.3.W 3.&.3.3.W 3.W Q 3.&.W W W 3.3.;X6.6.6.6.>.H 7 7 7 x 2 7 5.vX7 H KXPXLXPXLXrX7XxXNXNXtXeX8X8X.X8X8X_._._._._.8X_._.8X8X_._._.)._.).).(.{.qXeXqX{.{.Q.(.qXL.Z Z J ~ L.Q.).J.L.Q.J.J.~ Z Z J I J H s j H k j j R [ K $.X.X.%.%.X.P t 2 2 P X.1.2.F 0.zXnXnX+.{ { } | } | | `  ._ _ _ _ _ _ _ _ | | _ _ _ _ _ _ ) ) ) ) ) ) _ _ | _ | | | | ` ` ` | ` | | ` ` ) | | _ ) ) _ _ _ _ _ ` ( ) [ *.O.F C F Q `.[.cX<.  a [ f ] ] ] { ..{ [ ] g f t q 1 K q.hXVXLXmXD U.^.Y.A.Y.U.^.U.Y o.!.:.L K d d s s H K E %.E %.E &.;.>.`.cXVXxXVXNXvXNXVXNXNXVXNXKXLXLXPXPXE . k a * a 5 f j $.$.+.k k k h k k a a y y u u u u a k j g h j j g j k f a a j *.f r r ; # = - 0 - * o 1 1 2 6 ;.>.X 2 ).0X'.8XeXeXwXNXNXwXwXwXNXSXVXE s s s $.h f f j a f a j cXJXcX[.'.].].].(.Q./.(.].eXqX7XqXNXVXvXqXE 7 6 C d E E &.$.$.T X.h j y * $ u % + a y u 0 a a a a - a - 1 &.q.=.K d s 6 2 s d d d d 6 6 5 d d d d d d d j j $.$.j - < X > Z Q.L.~ ~ I ~ ].].,.!.].{.[.[.}.}.|.2.o.G P P U Y Y Y P P P D D Y ~.}.jXhXZXCXVXVXVXbXbXGXPXZX~.o.z D jX}.T.|.T.|.U.|.|.T.|.O.U.U.|.2.|.hX0.O.S # # # @ .   # @   = # X # 3 o.Q.U.U.U.U.N.k.k.D D D D N.o.J.x J.}._.(._.{.NXuX_.{.wX8X_.8X8XeX}.8X8XeXyXeXeX_.(.L.~ I Z I Q.mXNXNXVXZXVXZX~.m m D N.U.m l x F K -.=.=.X.k q % O . @ # 1 3 x S S S m S v v x , , , 2 3 2 2 > X . . X . . . . .     & u f k f - & & & u u u = * # : o o < < P /.[.`.`.`.<.>.Q E J J E E E E E %.<.0.q.q.q.",
"X X . : o 4 a k k h f a 9 % % 9 q f f f f f q q q q q q u 4 u 4 4 u T $.R k 7 5 7 7 5 7 7 T W &.3.W W W 3.3.3.3.3.3.&.3.3.W 3.W W &.3.6.^ &.^ 3.6.6.6.6.5.6.>.W I G J Z J 0XAXPXqX  5.LXLXPXPXSX0X0XtXNXeXeX8X_._.8XP._.L.K._.7XP.J.L._.L._.8X)._.).)._.{.{.{.mXmXeX0X).].{.Q v Z Z Z J.~ A Z Z I I I ~ Q./.,.Q C 6 6 d s d j d g j R X.%.X.;.o.X.U P G P o.L S 3 8.HXbXzXfX] w } | | |  .| ` ` _ ` _ _ _ _ _ _ _ ) _ _ _ _ _ ) ) ) ) ) ) ) ) ) ( ) ) ) ` _ _ _ ) _ ` ` ` ` | ` | ` ) ) ( ( ( ( ( ( ) ' ..O.7.fXhXhX(.G > K 0X-.# g [ f ] { ..[ ] ] { ....g f r 1 $.0.zXvXLXKXN.h.XX^.C.A.M.^.U.N.! Q.;.H s F H 6 H H K %.;.;.%.>.4.1.5.[.cXNXNXNXCXAXNXNXNXNXNXAXAXSXPXLXPXvXo o K - k a k T R $.R j j j j j [ j j h k h f a y a f a h g h h h j f h f f *.*.h 0 r - = - a a - 1 1 < 1 2 H /.qXC I ].8X].8XtXNXtXyXNXyXtXNXNXNXAXcXK < K 9.=.; % a f g r - <.`.[.[.].`.].].].,.,.,.Q.].]./.(.cXxXNX[.E 6 6 d H &.%.R K j $.X.$.+.- . . . . . .   . . ; 1 ; a ; : * 1 &.q.5.R 6 1 6 2 s s s s s k s 5 d d d d d k d a k j j k - : < X C Q.eX_.).Q I Q.!.:.Q.(.|.[.}.].].!.o.U Y Y o.o.Y U Y P Y G Y G S o.|.mXKXKXZXVXCXcXcXZXPXKX}.Y ~.U.U.XXY.|.|.U.U.U.|.U.|.U.U.|.U.|.U.|.|.|.`.O.t # # X .   # * # ; ; # > P ~.|.U.D M.n.D D h.D D D N.~.~.:.A J.qXeXmXmX_.yXeX_._.eXyX8X}._.8X}.8X8XeXyX_.8X_.J.~ I I I ~ wXVXwX}.mXNXNXmXY z N D U.^.G , > 5 R R j X.*.=.7.[ = . . - F P P S S S S m m S D S c x S S P L 2 3 X . . . . . . O . O * u k h a u $ & & u u u = * # # # o < 2 x 1.{././.'.>.L K L W E E E E Q E E ;.4.0.0.<.",
": o X o a d d h j h h f y = % % q q q y f q q 9 q 8 0 q u u 0 u : 4 T -.R T k 7 7 7 k T W T W 3.3.&.T W W &.3.^ &.3.W W 3.^ 3.3.&.&.~ 3.&.3.W 3.6.6.'.6.'./.>.I Y A Y Q qXLXPXLXLX6.X '.PXPXLXPXUXeXrXyXtX8X8X_.L._._.L.L.L.)._.~ / ~ J.~ J.L.Q.Q.).(._.wXNXmXwXqXwXqXQ.! Z , 7 Z C Z ~ I v , v Z Z Z Z Q ! ! ~ H C 6 C F d j j K K K P P P o.o.o.o.o.o.o.!.2.X.2.VXVXzXnX8.] (  . . . .|  .} | } } | | _ | _ _ _ _ _ ) _ ) _ _ _ _ _ _ ) ) ( ( ( ( ( ( ) ) ) ( ) ) ) ) ) )  . . . . .| ) ) ( ( ( ( ' @.@.8.hXhXvXVXCX[.3 o 0.<.9 ] [ h ] ] ..{ ..{ ] g [ ] g r 5 $.0.zXxXKXLX_.b  X XC.C.M.C.^.Y o.:.;.F F d s d H K L %.;.%.<.5.5.4.0.0XcXNXVXAXAXNXNXNXNXNXxXNXqXSXLXKXLXPXW . k k k a k +.g T h g j j j j j +.j [ +.h h h k f a a f h j j j h g g a g $.*.r r 0 0 = r a a 1 o 1 < 3 2 J ].NX_.).eXwX8XeXeXyXwX8XeXtXNXyXyXNXKXVXE . r q.q.f @ 9 0 j a ; a a H >.`.'.`.(.(.,.! ! ).].].6.,.].cXvX[.K H d C K R R %.$.$.X.j h o o ; - .   - ; a o . X . . X X 1 5 a %.0.1.%.s 6 6 6 5 6 1 6 1 6 6 d s d k d k T j k a k k k *   < < > W ].wXwXQ.C I !.(.(.(.].}.].|.`.~.U P o.U Y Y P P Y D Y P U D v G ~.mXKXGXNXxXhX1.hXKXLXKX|.|.mXjX|.U.|.U.U.U.|.U.|.|.O.|.O.U.U.O.|.O.|.!.hXhXo.# . .   . # # # 1 1 3 x o.!.U.D D D D m M M D M Y ^.}.}.~.G A ~ (.BXBXeXyXwX_._._._._.}.{._._.{.wXyXeXyXyX8X_._.8X8X8XNXSXSXeX}.}.mXZXmX~.A Y Y U U c > < 5 d k k [ -.=.8.=.[ r # t t S S D D D D m D U.U.~.o.Y Y :.~.8.,.%.s < . . . .   .   : ; u f a p u $ O = & 9 9 - *   : o # < 3 x :.cX[.`.qX5.J J E ,./.5.,.>.,.6.>.>.1.<.<.<.",
"o o 7 d R T T j k h f f y 9 % & = = q q q q 8 8 9 = q q u 9 u 4 4 4 T 3.W T d 7 7 T 7 H T T W W W W T W T W 3.&.3.W ^ &.&.3.3.&.W W W &.&.>.3.^ 6.6./.).).Q.Q.Q.N.J.J.Y Q.NXLXPXLXLXW < vXLXLXPXLXvX0XeXeX8XL._.P._.P.L.L.^.).L.~ J.L.L.~ L.J.L.Q.(.(.).).yXmXwXqXqXqX/.C > < , < x J ~ J Z J I I ! ! I A I Q ~ Z C C 6 6 s d H K H s P U U o.~.U.o.U.o.!.}.].!.VXAXhXhXhX7.{ {  .}  .}  .| } ` } | | } } | _ _ _ ) _ _ ) _ _ _ _ _ _ _ _ _ ) ( ( ( ( ( ( ( ( ( ( w ( ( ( ( ) ) |  . . . . . .|  . .7.dXfX8.fXhX[.hXVXAXvX[.5.k q [ g { i { ] { ..] [ ..] g ..r 1 &.0XqXwXSXKXMXu.Y. XR.C.M.M.N.Y Q.:.Q F F d d F K E %.>.2.>.<.4.0.4.[.xXxXVXSXVXBXVXBXVXNXNXNXNXNXAXKXLXLXPXvX1 o a k k k j k k a d k k k j j j j j j +.j j h a a f k j j j j g g h f j $.h = u u a - a a a - < 1 < 7 < ~ ].wXNXNXtXtXwXyXtXtXyXtXuXNXyXyXyXNXKXKXzXo X q.nX7.y 9 f [ [ f a 1 2 L 5.[.`.`./.,.,.,.,.!././.,.5.cXxX`.H H H F K R %.&.%.$.$.s 1 . d 0.0Xq.4.4.4.0.5.R K 1 o < . 1 H H ;.4.<.>.>.E J s 2 2 1 1 < 1 5 s d s k k k T j k k j R k 4 o 1 X X < J Q.{.Q.x U ].{.{.(.|.|.(.!.~.o.U Y P P Y o.Y Y Y Y o.D U G S U }.CXGXZX}.!.G G cXPXPXKXwXjXhX|.U.U.U.U.U.~.~.U.8.|.|.|.|.8.U.|.U.U.|.U.|.[.8.F # .   .   + - 1 1 3 S o.N.D D M m M n M D B N D |.mXZX(.A v A J.yXMXyX_._._._._.8X_._._._._.8X8XyXyXeXyXyXyXeXyXyXyXyXBXBXmXxXwXmXmXmX~.! U G S I G X 1 4 4 u j -.8.9.w.8.*.[ g t 2 t S m Y T.Y D U.U.|.|.~.~.~.!.|.!.`.8.X.1 . . . . . .   O - y k f k u % & & 9 u u = & $   : X < 3 3 o.cX}.].xX].,.W >.].0X0X'./.6.'././.5.5.5.5.",
"7 7 d T $.T j k p f f k f 9 9 = 9 9 q 9 0 q q q 9 9 9 9 = u = & & 4 T 3.W T d d 7 T 7 T 7 7 T T T T T 7 W &.3.3.&.^ &.W 3.3.&.^ ^ 3.W W 3.W W ~ 5.,.! ,.! Q.~.^. X^.^.N.v I NXLXPXPXAXo 7 AXPXLXLXKXrX)._.8X_._.).L._.P.L.J.L.~ I L.).L.J.~ ~ ~ Q.).).Q.J Z ,.wXcX5.5.cXW X < < , C Z G Q :.:.,.Q Q ! ! ! ! U U J G F C s H F %.2 2 x o.~.|.|.U.U.U.o.o.U.!.o.P GXzXzXzX[ w ..}  . .|  .|  .} ` _ ` _ _ | _ _ _ ) _ ) ) ) ) ) _ _ _ _ _ _ _ ) ) ( ( ( ( ( ( ) ) ( ( w ( w ( ( ( ( ) ..) ..` ` ` {  .{  . .7.7.8.;.;.L 1.vXvX0.k 0 h ] ] i ] { ] { { ] g ..[ t 1 1 >.cXxXmXCXSXMXf.B. X XB.m.A.N.~.:.:.L F 6 F s K K %.2.1.<.4.'.0.[.'.cXNXVXNXAXNXDXNXNXNXNXNXDXDXSXDXSXKXKXLXPX0.. - j j s a k a d k g k f a g j j j j j X.[ j h a a j X.[ [ X.j +.j j X.+.g = ; u u u u a 1 ; < < < < , Z /._.eXyXyXyXNXNXyXBXuXmXtXNXyXtXNXNXSXLXKX;.X 9.zX=.j i f *.$.X.g s 1 F >.`.`./.,.Q ,.~ W Q ,.5.1./.zXvX0.K H H H H %.E R K d K K s <.cXbXbXcX'.5.0.0.0XzXcX0X0.5.d . 5 %.5.'.5.5.`.1.>.H 6 7 2 < X < 5 s d k 5 k k k k a k $.3.-.d * o o o > X < W J < Q }.].{.].!.!.!.:.o.U U P Y o.Y Y O.o.S P Y Y P Y G o.hXZXCXmX|.Y , S mXPXKXZXU.~.D S U.U.o.|.|.U.8.|.U.2.~.U.O.U.|.U.8.U.U.|.8.|.|.2.t X . .   # 1 1 > t G o.D m m M m n D D B m m D ^.ZXKXCX!.x v Z ! _.8X_.J.(._._._._.8X8X_._._._.}.yXeXeX8X_._.L.J.~ ! ).NXmX8XcXmXhXyX:.Y c x Z :.2.d 4 k k +.=.q.zXfXfX9.*.X.g P S x m D k.U.T.N.T.|.|.~.U.~.|.~.~.!.!.2.F > . X . . .   O : = y a f f u % & & & & u = %   # # # < 3 3 U xXwX}.hX[.,.! /.].eXeX)./././././.`.].[.[.",
"d 7 7 T R T j h p k p k y u & & % 9 q y y i a i y q q 9 9 - = ; : 7 T &.3.k 7 T 7 7 T 7 T 7 T / T T 7 T T W &.3.&.W &.3.3.3.3.3.^ W W &.W W Q ,.,.~ ! Y ~.^..XXXXX XC.^.~.z c NXLXLXPXvXo W JXPXPXLXDX5.).7X8X).J.~ P.J.L.J.J.L.~ L.).~ Z C 7 l Z I ~ ,.~ 7 < ~ 5.d qXLXcX. X < > < x F G ;.:.H 2 v , x G I v Z c Z U G Q ;.1.X.2 x !.U.U.|.U.T.U.k.Y o.o.S , G vXzXnX-.@ @ .. .{ } } } } | | _ ( _ | _ _ _ _ _ ( _ _ _ _ _ _ | | | | _ | | | ` ) | ) ) ) ) ) ) ( w ) ) ( ( ( w ( e w e w ( ( ( e ) ( w w { X.7.X.H s > H 0Xq.; 0 ] ] f i { { ] ....] ] ..X.g 1 < ].NXmXXXyXXXXXi.i. X XA.m.m.N.N.1.:.L J s d H K %.>.<.0.'.'.0XqX0XcXxXNXVXBXNXNXNXBXVXBXVXNXBXwXeXeXNXNXAXSXJXVXd 5 k a j d a s a a s a s a r a s g g j j K [ k k g j $.*.$.+.$.j j h [ *.j f y u u 4 4 u 5 1 5 < 7 C Q 6._.{.8XeXuXNXyXyXyX8XNXtXNXyXNXwXyXNX)./.vX'.> 9.9.+.[ [ +.+.*.X.g f # < K 1.`.1.,.Q >.Q E Q 1.1.1.5.cXcX>.F K K K W W K K j K d =.0XcXvX0X5.<.J 5.'.>.~ 6.0X'.qXVXvX6 6 5.`.5.].`.5.5.Q W C 6 5 2 o o 1 5 - 4 7 k 4 4 4 p T -.4.-.j   . : o X X > > C Z ! /.(.!.Q.:.! U o.Q.U Y Y o.Y Y o.o.Y o.O.D D D P Y Y ~.}.ZX}.}.~.N Y mXKXKX}.l , S D U.~.U.~.!.O.2.!.o.U.|.8.|.|.O.|.U.U.|.8.T.hX8.|.O.. # X   X # # > 3 G D N m m m m m M m m m m N ~.mXCXKXNX~ , V Z ~._.J.I ).8X_.8X8X_._._.)._.8XyXeX}._.L.I A Z A Z A Z ~.xX}.}.cX[.(.c G x C ,.qXq.$.k T *.w.9.fXkXzX9.*.+.j j P S S S D T.U.N.D M.U.~.Y N.U.!.~.~.!.o.x X X : . .   O . . O 4 y f h f y = & & u & & = * $ : # X > 3 , F |.(.Q.!.!.!.! /.).).).6./.6.6.).0XqXxXxXxX",
"E R d k d T k k k k y y y 9 8 = % = q y f y y f f q q 9 = 9 4 & : 4 T 3.W T T 7 7 T T 7 7 7 7 T 7 7 7 T T W W &.&.&.W 3.W 3.3.~ &.&.R W Q ^ ~ ~ I N.^..XXXXX^.^.C.C.j.c.C.u.V Y SXPXPXLX0.o '.LXLXLXLXtX~ )._.).P.J./ ~ J.L.L.J.J.L.L.A x x v < > 7 Z Z ~ ~ 3 X X >.JXPXAX: : < > > > 3 s L <.2.C C Z G I Q.U m U U ~.{.|.].`.`.!.|.hXY v N.M D D k.Y U.Y x > X.cXzXhXX.e e ' } } } } } } } _ _ _ _ _ | | } _ _ | | ` | | } | } | | | | | | ` | | ..| ) ) ) ) ) ( ( ) ) ) ) ( ( ( ( ( ( e ( ( ( w ( w e w { *.7.9.9.5.%.%.q.&.- r g ] q i ....{ ] { ] ..g [ g # , |.CXmX^.f.S.A.S.i.K. XA.m.m.n.U :.Q L L F H R ;.&.5.0.'.zX0XqXcXzXvXNXVXVXAXNXDXVXDXBXNXeX).~ Z Z C W 6.qXvX>.E 4.d s K s a s s s s s s a 1 1 k g d g K K K j g k j j $.$.$.$.X.j +.j $.-.j h y u u y a 5 - o < < < C ! qXeX7X].eXNXeX).~ / Z I Q.7X8XyXtX_.^ < X < E E zX9.j [ +.X.X.[ [ g s # > s <.0.1.>.>.>.,.5.`.[.`.5.4.zX0.$.H H H K 6 2 5 6 4.0X'.'.0.1.4.5.E E >.5.1.H C H Q E ;./.vX/.Q /.].0XqX).5.>.Q L H C 6 < < X < o : : : : 4 : 4 4 T -.8.=.E X . . . o X . < C Q Q I U I G G U U U Y o.Y P Y o.o.Y Y o.Y Y P P Y Y S S G U Y U.|.XX~.^.ZXGXCX}.c m N.U.~.~.~.U.o.|.|.hX|.hXU.O.U.U.U.U.U.U.U.U.U.U.hXhX8.S   X     X 1 3 x G S v m m m m m m m N N c N G (.}.mX_.~ v Z Z J._._.J._._._._._._._._._.8XeXwXeX_.L.J.J.J.L._.8X8X).{.}._.}.}.mX}.G 2 x E 4.5.%.j j -.w.q.q.q.9.<.*.j h j K t 2 v m M k.k.D m D N.N.Y Y U.~.~.~.o.2 > X . . : . O   . . % u u a f f u = & & 8 9 9 9 & + + X X X 3 3 l G G x G U ,.Q./.6.,.!.).Q.Q.)./.].qXxXxXwX",
"6.R k 4 5 k k h u u u p u 8 8 = % % q q r i y f f q q 9 0 = u ; : 4 T &.W W 7 T 7 k 7 T 7 T 7 7 7 7 7 7 7 W W W W &.W &.W &.W &.W E W E Q I I A N.^.XXXX XT.Y.R.A.Z.B.l.l.C.m.l Q.SXPXPXLXT o xXPXLXPXLX^ ~ 8X).~ J.~ A / L._.L.J.! ~ Z I Q.L.~ Z Z 7 , 2 C > X >.JXPXPXLXk X X 3 X > , 2 L 1.[.qX{.{.}.wX~.A N.}.^.U.~.~.}.}.jXZXZXCXM.z k.D M m U.k.P v , > L cXzX8.*.{ ..` ` | | | } | | | _ _ _ _ _ ` | ` #.} ` _ | ` _ _ ` | _ ) ` _ _ _ | | | | | ` ` ` | _ ` ` ` ` _ ) ) ( ( ( ( ( ( ( ) ) ) ) ( ` *.w.8.9.[.zXzXvXzXR . r f r e q q ' { ] ] [ ..f [ ..# x ~.}.^.B n p.B.s.i.K. XA.N.N.Y Y ! U U L F H E <.5.'.[.qXzXqXcXxXxXxXVXAXNXNXUXNXVXNXmX_.~ ~ Z A Z v Z ~ qXeXX 6 <.s d K a s s s s s s s s s 6 s d g d d d j K g j j R $.$.$.$.$.+.$.X.=.-.g a k u 4 u - ; ; < > 7 7 C 6.eXtX8XyXNXeX(.^ ~ Z / Z Z I Q.].8X).! ~ ).'.0X'.zX8.[ *.+.*.[ [ j a a 3 X s %.q.1.%.%.>.1.<.5.0.1.>.>.<.X.H F s K F 5 H 5.[.VXvXzXcX0.5.5.].6.Q 6.5.Q H W W Z E Z 7 ).qX5./.].].]./.,.>.Q W W E L 6 X o X X : : : : : : 4 k $.=.q.[.q.&.j o . o X X 2 Z I I v v l l S Y U U Y U P Y P Y o.o.o.o.Y o.Y O.D S G x x l z b n.Y.U.|.MXCXCXXXo.N.~.~.U.o.o.~.hXcXZXhXhXjXhX|.O.U.U.U.T.O.T.U.|.O.|.hXhXhX# . . X # > t x S c c m N v m N Y U.^.|.!.~.~.U U J.I Z l v v A eXNX_.)._._._._.8X7X_.8X_.eXqX_._._.)._.L.L.~ ~ J._.wXwX`.[.mXVXhXF 2 6 E %.j a k T *.9.w.9.=.*.$.h y a f g 2 3 l D M M M n z v D Y N.U.J.o.:.U t X X X X   . . . O . . & - y a p a u u & = 9 % 8 = & + +   X > 3 3 , l v l Z I !./.)./.Q.).,.J.).Q.,.Q.).].(.(.",
"4.W k 7 k k k h u u 9 u y u & & @ 9 q 0 y y y y y 0 q 9 9 - - & : 4 T &.W T T k d 7 / 7 k k 7 7 4 7 7 7 7 T W W W W W W R W W W W E ~ Q J A N.^.XX.X X XR.Y.Y.R.E.D.Z.z.r.z.A.n.l ).LXLXPXNXo d KXLXLXLXNX~ L.).L.L.~ Z Z I L.).L.J.~ ~ L.{.7XQ.).Q.Q.Q.~ C Q (.KXPXPXPXPX4.X < > 3 , , > , H ;.5.].[.`.!.N l Y A.~.D z z ~.jXmXMXXXXXh.M k.M t.M T.D v , , > s zXzX=.7. .` ) | ` | _ | | | _ _ _ ( _ ' ` } } ` _ _ _ _ ( _ _ ( ) ) ) ) ) ) _ ) ..` | ) | ` | _ ` _ ` ) ) _ _ ) _ ) ) ) ) ) ) _ ) ` | }  .dXw.fX9.8.0.0XvXnX%.. a t r = q 8 q ..f ..] [ P ..t 3 v D n.u.V e.S.G.S.d.F. XK.A.N.n.Y U U J J H F >.`.].qXqXqXcXzXcXvXxXvXNXNXAXBXNXNXNXwX).! ~ ! ).~ ~ ^ ).(.vXVXQ 6 L H 6 6 r s s F K F K H H g F H d F s s s H j d h j R $.$.R j +.K j [ =.%.a a a a 4 4 4 1 5 < < 7 < Z ).wXxXNXyXtXeX8XeXyXyXNX8X).L._.8XeX(.).vXSXSXNXzX0X9.X.*.$.[ [ ] g f r a t g &.8.<.%.%.%.%.%.%.%.%.E $.F s a 6 H d 1 E 0XVXVXvX0.'.cX'.0X,.5.~ J Q 6.~ ~ ~ J < W ~ Z ~ qX).7X0X7X'.).5.~ >.Q Q Q E K < X o . X : : : & 4 k T 3.q.hXzXcXcXzX>.X . X > F J ~ Z v l l x G o.o.Y o.o.Y Y o.S o.Y o.o.o.D o.D Y D G D G c v m b n u.T.Y. X|.U.n.U.U.U.o.~.~.hXhXGXGX[.hXZXbX|.O.o.U.O.O.U.|.o.U.~.~.|.jXFXP . X # 1 # 2 2 x l v D S m N N.~.}.}.}.jX}.].!.:.Q c v < v v z ).BXeX_._._._.8X_._._._.8X_.8X_._.J.L.J.~ A v Z v Q.wX}.`.}.VXNXU 2 2 1 s s a a p h [ T k f f j h f f a a r X , v U.k.M M m z z v D Y Y o.o.G 3 > > X   #   . . . . . . % 0 y f k i u u 8 = 8 & & % $ $     # > > v v x c A Y U !.!.).Q.,.J.~ ~ ~ Q ~ Z Z Z Q Q ",
"3.T d k k k k k k 4 & u y u 8 & % 9 q y q i y y 0 q 0 9 & - 9 : : 4 T W 3.T / 7 d 7 7 T 7 7 7 4 4 4 7 4 7 7 T W W W W W W R &.W Q Q I Y N.U..XXXoX XR.R.R.R.A.Z.Z.Z.x.x.d.a.z.^.B c mXLXLXLX'.> 6.PXLXLXPXtX~ ).).L.^ / C Z ~ Q.^ ).).~ ~ ,.).Q.(.(._.{._.}.ZXKXLXPXKXPXPXcXX > > , l , > > > > 3 > 2 c l l D n.b h.N.b z D U.^.n.m m n t.h.M h.k.U.Y v , x > 1 q.zX7.7. .` ) _ _ | _ | | | _ _ _ _ ( _ _ _ | _ _ _ ( ( ( ( ( ( ) ( ( ( ( ( ) ) ) _ ) ) _ _ | | _ ` ` _ | ` ` | _ ` | ` | } } } } } @.@.7.7.gX7.X.X.X.R <.0.X.- t r r # q e e t f ..[ X...g g t v D h.u.r.r.d.G.S.S.A.R.Y.A.N.n.D I :.I C J U ;.`.[.qX}.{.{.qXqXxXmXvXZXVXVXNXBXBXtX8X).).].).(.~ ~ 8XeXwXVXVXVXJ 2 E 2 6 s 6 H X.E %.X.%.%.;.;.E K F 6 6 s F d j d j j K T j j j j j R -.$.d - 4 a s 5 a 6 2 < 2 C 7 ~ 8XmXtXBXyXeXyXyXeXyXuXyX{.8X_.yXwXyX8X).).~ ~ /.zX0X4.j X.+.j h f f r r a g j K X.R R %.%.&.%.R K K s a s 1 r s H 6 L cXVXvXqX>.E /.0XQ Q Z J 5.,.>.).~ Q ! ,.C H ).~ ,.].].].{.].].5.,.~ Q Q Q Q >.E d < X   : : o 4 4 u k R =.'.zXcXbXvXbXcX2.> X 3 F J G Z v v v c U ~.U Y P Y o.O.Y Y D o.o.Y o.P D Y D G D G G c b m b M t.t.t.T.^.^.Y.|.|.U.U.~.o.[.mXFXcX|.hXbXZXhX2.2.U.|.U.U.U.U.~.2.O.|.jXGXhXX X X 3 1 t F 2 , v c c c G ~.|.}.}.[.}.}.`.!./.!.U I , v Z l J.mXwX(._._.)._._._._.(.8X_.)._.).).).).).)._.{.eXwXeX].`.xXVX1.> 2 1 1 ; ; 0 a f p k r q 1 9 r a f f a a # > , m U.k.t.M b z l l v S D Y G 3 > X #   .   O . . O . . O = u a y a y y 9 9 8 & 8 & % @ O   o X > > x c v l c c Y J.! Q.! Q I Z Z Z J I Z v C U Q.",
"&.W W T d k k h u & & 9 y y = $ @ = q q q q q q f i i 0 = & - ; : 4 k 3.T T 7 T 7 T 7 W W 7 7 7 4 o o 4 7 7 T W T W T T R W W W Q ! I J.^.XX X Xz.x.C.V.z.z.Z.R.V.Z.s.s.x.s.t.S.A.A N mXLXPXLXE X qXPXLXLXLX).W ).,.! ~ Z Z Z / Q.Q.).Q.,.J.! J.Q.! ! U Q.wXCXPXPXPXLXPXPXAX2 , , l l , l l > > < 3 > , , z D N.D h.M.h.M m M b n M M t.h.t.t.u.B D Y G , 3 X X [ fXfX@. .} | _ | _ | _ _ | | _ _ _ _ _ _ _ _ _ _ ( _ ( _ ( ( ( ) ( ( ( ( ( ( ) ) ) ) ) ) _ _ | | | | ` ` | ` ` | | ` | | } } #.#.#.@.dXdXgXgX8.r # 1 1 s X.t 1 r r # 1 r # e e i i g ..[ g t 3 S M h.u.r.r.d.x.H.d.V.F.K.Y.N.n.N A Q.U G U ;.:.!.qXcXxXxXxXcXqXmXvXmXNXNXNXVXVXSXNXyXwXwXwXeX{._.).eXyXvXNXmXKX].X 6 C F 6 C %.1.>.1.1.1.5.0.0.1.&.L F F 6 s H d j d T T R d j d K j j $.-.$.d 5 s t 1 < 2 2 < 7 , C Q.NXNXNXNXyXeX8X8XL.J.~ , Z ! ).eXyXVXwX).~ < 7 ,.0X<.$.$.[ j f f f q q 9 q g t = 1 r j -.9.=.K s s 1 < # a < s s 1 &.zXAXzX6.0.>.).6.W < Q W Z /.'.).].6.J 6.7X~ J ).6.~ ~ ^ ! ^ ).8X).~ W ~ Q Q E E E W s 1 X : : * u k T T &.q.[.zXhXcXNXvXbXzXX.X 3 L Y A N V v v Y U.~.o.G Y o.Y Y S P o.Y o.o.D Y P o.P S D c S v l b n t.t.y.Y.oXjXjXjX|.Y.U.|.~.o.|.nXZXhXhXhXhXbXhXO.U.2.O.U.~.O.O.U.U.|.2.hXhXhXt X X # 1 2 s 3 2 3 x v G ~.(.(.}.!.!.].[.`.1.:.1.!.Q.Z l c l I yXyX_.)._.~.L.).7X).8X_.]._._.]._._._.eXwXeXyXNXSX(.G :.cX[.t > t 1 # 1 r 0 y f h h ] [ [ g f 0 r r a a < X , N A.k.t.t.n z l , l v x S x > X # . . . @ O O O . . . + 9 y a f y y u 9 = 8 & & & O O O +   X > > 3 c c c N A Y ! Q.Q.J.! I I Z I ~ L.Q.~ ! ).qX",
"W &.&.&.$.j k u & & & 9 u u % % @ @ q y y y i r f y y u u & = & : 4 T T W T 7 7 / d 7 7 7 7 7 4 4 o o 7 4 7 d W W R R W W &.W R I Y J.N.^. XC.a.H.x.b.s.z.v.Z.F.R.F.z.s.D.V.s.i.B.A.z A mXKXPXAX6 7 NXPXLXLXAX~ / 6.Q.^ Z Z C Z ,.Q.,.).).Q.,.~ ! A G A Y Y o.|.CXLXLXLXLXLX,.c A N z l l l , , (.VXG , v D n.B k.t.t.k.h.t.M M M h.y.u.t.t.u.M M D Y U > 3 # . - 7.fX*.}  .| | | | | | | | | | _ _ _ _ ' ( ( ( _ _ _ _ _ _ _ _ ) ) ) ) ( ) ) ) ) ) ) ) ) ) ) _ | | |  .| | | | } } | | }  .@. .dX@.@.@.@.7.7.7.r # X X > s S r 3 1 # # q e # r r r ....g g t 3 c B M t.a.r.d.H.d.d.V.K.Y.A.m.n.D c ~.! Z U !.!.{.mXmX}.NXNXNXmXxXmXNXNXVXNXBXBXNXNXNXNXNXmXNXmXyXeXyXNXNXmXtXVXSXL X 6 2 2 J 1.`.`./.`.[.[.[.[.[.5.>.E H 6 6 F d d d j j K j R d j j j j &.9.K 2 1 > X X < 3 C x < Z (.yXuXvXuXeX_.L.J.L.J.I z A L.8X8XyXDXNX8X).Q.0XNXcX5 s %.j f y y y a 0 - q r =   #   1 $.q.<.a X X X # ; 1 5 s d s 5.vXvX0X6.'.7X6.J < o '.).Q ~ Q.6./.0X/.~ Z Z / ).).~ ~ W W ~ (.7X0X).~ W W E E &.&.>.E d - - 4 4 k T $.+.6.q.zXzXcXcXcXcXhXmX8., 3 J I c N c z D o.U.Y Y P Y D P D O.P D o.D D o.O.D D Y P P G c v z m M g.j.Y.oXjX XXXjXY.U.o.~.~.o.8.jXZXnXhXhXcXZXhXT.o.U.o.2.o.U.o.U.U.2.U.hXhXjX[.t X X # 3 2 3 3 3 2 G :.|.(.!.,.:.:.`.[.[.!.:.!./.!.Y v Z N A mXyXeX).Q.L.L.L.L._._._.7X_.8X{._.{.8XeX8X(._.qXVX/.G E %.F X 1 1 # 1 a a f f h +.*.=.=.=.7.$.g r r r 2 3 > l D M.k.t.n n z l l v v x x > > X . O O + @ @ O . . . . @ 0 f f u a u u 8 % & & O @ @ O O O # X > , , c G Y ~.U.:.! ~.).Q.Q.J.! ! J.Q.(.].(.].}.qX",
"W W &.3.3.T a 4 O : & & 8 8 9 8 9 q f f f f f ] f f y y 9 = = * : 4 7 W W T T T 7 k 7 T T 7 7 4 4 o o 4 7 7 T W T W R W W W E W I N.N.^.C.j.v.v.H.D.W.D.V.s.z.x.Z.x.s.x.Z.Z.B.s.B.B.^.z c mXSXPXNXX W LXLXLXLXvXC ^ )./ Z Z Z C Z ~ ).).).].]._.~.(.^.^.^.^.m m D }.mXZXKXKX(.A D D V m b l A ~.LXKXx l v m m n M M u.j.t.n M h.t.k.u.g.g.t.h.M D B Y Y > > 1     ] fX@.} | | | | | _ | ` | | | _ ' _ _ _ _ ' _ _ ` ` } ` | _ #._ _ | | _ _ ) ) ) ) ) ) ) ) ) ) ) ) ` |  . . .aX . . . . .@.aXdX@.dXdX@.@.@.@.*.r X # 3 > 3 3 x 3 3 > # # t # e i e i f g ..t t v M h.g.a.r.r.x.H.x.V.A.A.C.h.Y A l U N.G ! ~.!.cXxX|.Q.(.wXZXNXmXxXNXVXBXVXVXNXNXNXNXNXNXNXNXNXyXNXNXNXNXNXNXcXVXVX, > 2 2 J 1.[.'.`.[.[.[.qX[.qX[.'.>.L C 6 F d k d K j T j R T R j R d -.q.$.< X > 3 3 , , 2 v C ~ 8XNXNXyXNXyXuX8X_.yXyX8X8X_.eXyXeXNXNXBXyX).7XyXLXSX< o j h f u y a a 0 = r q # = ; O $ h zX=.r .   # 1 r s a 5 R >.>.5.5.0X'.Q >.J C 7 C Q 0X0X'.)./.~ ).7X~ Z J ~ ~ ~ !.L.~ Q ~ Q.).'.).,.Q J W Q Q >.>.4.R s k k k k T $.&.4.:X[.[.[.}.[.}.[.hX`.2 > c N z b N N D ~.o.o.P D Y P Y P D Y O.Y O.O.Y Y o.P D D P S c c z n e.z.R.oXoXY.M.U. X|.U.U.U.~.2.!.hXcXZXbXcXZXGXhXo.2.~.U.|.O.U.U.o.o.U.~.O.|.jXGX8.1 > 1 1 5 3 > 3 G U !.[.}.(.(.1.:./.}.xX].!.`.(.(.:.c c Z G eXyX{.(.).J.L.J.L.J.L._.)._.].{.eXeX_.).Q.Q.,.! wXxXqXqXP > > > # o 0 a h j j [ [ =.7.-.=.8.9.*.t r r r 1 > l D M.j.r.n n b l l l x l > > #   . . O O . . . O O . O @ q f f y u u 9 9 & & @ & O & O O :   X X > 3 c G U.~.Q.Q.Y ! Q.~.(.).Q.,.J.).(.(.{.].{.eX",
"T T %.3.&.+.a ;   O 8 9 i q i 9 u p h [ [ +.[ +.[ ] f r 0 q 9 * * 4 k T W T 7 T T 7 k 7 7 7 7 7 4 o o 7 7 5 W W T T T / W Q I A Y ^.A.C.A.Z.H.l.x.D.v.D.D.a.x.s.s.x.x.z.V.Z.Z.B.i.B.Y.A.V b _.LXPXcX> 1.PXLXLXLX9XZ 6.~ Z Z Z , , Z ! ~ 6.).,.Q.~.~.^..XjXY.E.T.m.D N.~.XXKXXXB m.h.m.B n.B N yXLXyX, N z z z B h.M t.m.h.u.e.t.t.t.e.r.u.u.t.n M N N G 3 X X # = q 7.gXdX@.#.| | _ #._ #.#._ } ' #._ } ` #._ ` | _ #._ #._ _ _ | _ _ | ` | | ` ` ` ` ) ` ) ` ) ` ) `  . . . . .@.@.aX@.aX@.@.@.aXaX .} } { *.O...S 3 S m v S o.o.U.o.t > # t ..y q q i f t t t v M M k.y.r.a.x.H.s.B.A.^.Y.N.~.~.U :.Q.U o.~.{.wX}.wXmX(.].mXxXwXmXmXmXNXNXNXNXNXNXNXNXNXBXBXNXuXNXNXNXNXNXNXVXmXKXqX> 2 2 K 1./.!./.`.[.{.{.[.{.zX0X1.L F F s 6 k d d R R K K j K R R j >.0.>., > !.[.,.I C v x v Z J.yXmXtXBXNXuXNXuXyXNXuXeXeXuXNXtXNXNXBXSX8X).eXAXPX>.. j a u a u u 4 u - - 9 % * u : O h :X-.9   * u a a 1 1 6 4.6.4.>.7XVX5.W 7 < C ~ Q W ~ 5.].eXqX0X).].).~ ~ Q ~ ^ /.).~ /.).6./.eX'.6.,.W J E >.>.>.&.R d d k k k j T R 4.'.[.[.[.`.!.(.`.[.[.J > l c m m m m Y ~.o.Y Y P Y Y S D P o.D o.o.D o.S P D P Y S F c c b n t.z.Z.Y.oXXX^.}.jXGXjXY o.U.~.o.!.|.hXhXhXZXVX|.2.o.~.2.U.o.U.o.o.o.U.8.U.hXhXbXcXt # 2 1 2 1 < 2 G 1.[.}.cX[.].|.(.].}.cX].(.`.|.}.! v Z G Z qXNX{.(.L.J.J.~ / P.~ ~ J.L.L.L.L.J.~ ~ A A Z I qXVXAXAXH X 1 X   1 0 f g f [ j X.*.-.7.7.8.8.=.X.r # # 3 > l k.Y.M.t.t.m z z l v 3 , > # X # O @ @ . O O . . . . O $ u f f u 9 & O & O O : O : O @ O O . # X # > 2 S G ! Y Y ! Q.Q.Q.Q.Q.Q.Q.Q.J.,.Q._.].].}.",
"k d T $.%.+.a 9 & & y p p p p ] h ] [ *.+.+.*.*.+.{ ] f 0 q 9 = * 4 7 T T W T T T T 7 k 7 4 7 < 4 4 4 o 7 7 d W W T W T W W I Y ^. XM.A.A.V.b.b.H.v.x.v.v.x.z.b.x.x.V.x.B.B.B.C.B.B.A.K.m.n n N.KXKX[.X qXPXLXLXLX6.C / ~ Z v Z v , < x 7 C C Z Z N u.^. XoXoXE.C. X^.C.n.MXjXC.B.u.m.A.f.n.A B BX~.N |.m b b b k.h.B m.j.j.h.y.y.p.t.p.p.e.e.B m N G S x > X # O @ [ gX@.#.#.| | _ _ _ _ _ _ _ _ _ _ _ _ _ } _ ` | ` _ ' _ _ ' ) _ ) ) _ ) ) ) ` `  . . . . .| `  . ...`  . . . . . .|  . . . .| _ | _ ) ` { 7.O.o.S D U.|.|.U.U.|.jX|.o.x # t r f q = q g r > v M D t.t.r.r.a.B.z.j.^.XX}.}.}.}.|.!.~.Q.~.Q.].}.xXNXCXyX{.}.yXwXeXwXxXyXwXwXvXmXyXNXNXNXNXNXNXNXNXNXNXNXNXNXxXVXLXVXH 2 3 L 1.>.;.;.!.(.(.`.!.,./.5.;.J C C 6 s k s K %.$.K K K j j K K &.5.;.3 X.NX}.{.(.Q.:.Z l , ~ yXNXBXNXNXNXNXuXNXtXyXyXyXyXyXNXNXuXyXSXAXeXeXvXLX6.o d a a p u u a - - - 0 & = u O : h 9.+.y u - u u a d < E q.0X0X5.0XvX5.C < < W /.6.~ ~ /.8XwXqX0X(.7X).).^ ~ ~ ^ /.6./.).).(.0XeX'./.,.J W >.>.>.3.E R d s d d k k k $.<.5.'.[.`.5.`./.!.[.{.Q l v N m m m D o.~.U.P o.D O.O.Y S O.Y o.Y P o.P Y Y P Y P G G G N m t.r.y.g.k..XXXmXjXZXZXZXU.o.U.o.o.2.2.|.|.hXhXhX|.O.o.~.~.o.U.o.o.D o.o.U.~.O.hXbXcXP # > 2 2 > 3 2 G ,.[.].}.qX].].].].qXqX{.`.(.}.!.U x Z Z , ).wXeX{.).J.J./ A A V Z Z Z Z Z Z Z Z Z Z Z Z ~ SXAXAXq.X 1 > > 1 a a j g f g g [ X.-.9.0.fX8.7.X.f r 3 > > v U.^.k.g.t.M b z l , , > > X # . @ . @ @ . O . . . . O + 0 f a u - : & O O O O O O O O O O O   # > 3 2 l x x x A ! Q.~.Q.(.(.Q.J.Q.~ ! Q.Q.(.(.|.",
"5 5 T R $.j k u 9 y p ] +.] +.+.+.+.+.*.*.*.+.@.*.*.[ f y q = = * 4 4 d T d d d 7 T 7 7 4 7 7 4 o 4 o o 4 7 W T T T / W W I I N.}.A.C.Y.Y.v.x.W.G.v.x.b.v.v.b.x.x.x.V.V.V.s.Z. Xz.i.i.A.A.m.V z U LXKX>.< vXLXLXLXNX7 Z / Z v Z Z Z < ! Z X , Z v l N N.^. XY.Y.A.^. X XT.Y.oXY.A.i.j.A.m.m.A.N A B ^.CXU.z b b f.B b u.j.m.C.z.y.p.r.u.t.e.M B B N c c x 2 3 # @ @ { gX@.#.#._ _ _ _ #._ _ _ _ _ ( ' _ ' #._ #.#.` #._ _ _ _ _ ) ) ( ( ( ( ( ( ) ) ( ) ` ` ) ` ` ) ) ` ) ) ) ) ..) ) ) ) ( ) ) ) ) ) ( ( ( { O.8.O.O.T.U.|.|.|.D k.T.|.|.o.3 # g t = = a f t t S m D t.u.y.y.i.t.m.u.^.mXmXjXjXjX[.~.U !.(.Q.`.wX}.wXNXmX{.eXVXNXyXeXeXwXeXeXyXeXyXyXxXmXNXNXNXNXNXNXmXmXeXQ.Q L /.'.C 3 2 L 0.,.E J Q :.:.I G G J E E H 6 6 2 s 6 s H L X.L K K K R $.K E <.>.> G mX`.xXmXmXyX_.L.Z J.eXNXNXyXuXBXNXNXNXuXyXeXNXyXyXmXBXyXyXDXLXDXNXxXKXq.o 5 u u a a k a 4 - 0 u = - u & - h +.T a u a a - 5 a s 5.0X0X0X>.'./.W 7 C Z >.7X].6.).'.8XeX7X'.).].].).,.~ )._.].'.).6.).qXeXeXqX0X,.W Q 4.,.Q W R d 6 k k k k k R 3.4.5.0.0./.5.1.`.`.].qX:.x c D m m m D U.:.U Y D S D D Y D D O.Y o.o.o.Y Y Y Y D G G G c N m M y.r.y.y. XMXmXZXZXZXGX~.D o.U.~.2.~.2.~.o.O.U.|.2.U.2.o.2.o.D D o.D o.2.o.U.8.hXcX`.t > t F 3 2 F F :.].[.|.}.{.].].].{.].[.!.!.].(.G x C > C wXwXeX7X~.L.L.J.f./ Z Z v Z v l , , Z v Z Z ~ (.SXPXvXo . 6 > X 1 s F K K s s r g K %.9.q.8.8.=.$.j r 1 X > , U.Y.c.t.M n b z l , , > X X     . O O @ . . . O . . . $ 9 y u u & O O O & O O O O O O O O @   # X > > , , , , l I Q.~.Q.(.!.Q.! ~ I ~ U ! Q.~.!.",
"5 a d T R j f u y p h [ ] +.+.] +.+.*.+.*.+.*.*.7.*.+.] f 0 9 = & o 4 k T d d T T 7 k 7 k 4 4 4 7 7 o 4 7 7 7 W 7 W T W J I U ^. XC.C.R.D.v.D. XW.v.x.x.D.D.d.x.b.d.V.Z.B.s.B.R.R.V.i.j.A.B.m.n.z Q.LXKX/.7 NXLXLXLXL.I Z v Z Z Z I ~ SXNXC X , , z b N. X XY.T.Y.C.T.oX XT.E.Y.B.z.j.C.A.h.n.K.D V m.MXMXh.b b V p.b e.i.j.B.B.j.i.i.i.i.t.t.M V m c S x 2 > X @ e +.7.@.#.} } _ _ _ ' ' ' _ ' ' ( _ _ _ _ _ ' _ _ #.` _ #.' ' | _ _ ) ( ( ( ( ( ( ( ( ( ( ( ( ( ( ( ) ( ( ( w ( ( ( ( ( ( ( ( ( ( ( ( w ..[ 7.2.O.S D D B k.T.k.D D D Y.|.D 3 t g g r r g t 1 v v D D B n M n V m.V N.XXjXjX|.|.}.~.U ~.~.~.|.wX].}.mXBXNX}.BXSXNXeXeXmXyXyXwXeXwXwXwXwXeXyXNXBXNXNXNXeX!.~ G Q > , < < 6 E `.`.:.J U :.Q I C C J Q >.E F 6 2 2 F s 6 F X.%.K R K K $.L $.1.1.x x cX}.mXwXeXwXNX_.J.).yXyXxXyXyXtXuXNXNXNXyXyXtXyXyXeXyXNXeXyXSXSXSXNXAX'.: 4 5 u p u y y u 0 0 0 - 0 u u 4 h h k u a a a a a g 0.q.0X0XQ W 6.W C H H H ~ /./.).1./.7X0X).).).).).).eXeX_.].qXeX).! ).qX0XqXxXqX5.Q Q >.>.W d d 6 k 5 k d d T &.$.<.q.'.0.1.5.1.1.>.,.5.U Z I N N m N Y U.o.U P Y S G S P O.S Y P o.Y Y o.P P Y O.G G S c N m n g.l.l.j.^.jXjXjXjXjXPX}.D Y U.U.2.2.~.8.2.!.U.U.8.|.~.~.U.U.O.o.S D o.U.O.~.|.|.hXhXS 2 F 2 3 F x 2 Q [.}.[.[.[.].'.'.'.`.!.1.!.!.`.L C > 3 NXSXwX{._._.).L.J.J./ A I A Z Z 7 Z C Z Z ! Q.).qXNXPXAX6.< X > > t S P K P F t P t g X.*.2.7.=.%.$.j j r 3 > l U.^.T.M M b z l , , > > X .   . O O O @ . O . . . . . O - u u 9 = & O O O : O O O O O O O . @ # X # 3 , , , l G Q Q.(.].(.(.).! Z I I ! I U U Q.",
"k 7 d T j j h p k p p +.+.+.] ] +.] +.+.*.+.+.X.*.7.*.[ ] y 9 = ; * 4 k k d d d T T 7 k 5 4 4 7 : 4 < 4 < 7 7 W T H W J I A ~.XX XC.R.E.D.v.W.oXD.x.v.Z.W.D.a.x.x.b.s.D.A.s.s.V. XF.V.B.B.A.A.N.Y l XXLXLXJ.Z NXLXKXBX~.A A I N.(.Q.J.SXLXmXI ! _._.N.U. X X XY.Z.Z.v.Y. X XE.Y.z.s.z.Z.A.B.n B.^.m.u.^.XXK.b V V f.p.V p.y.z.g.C.B.i.S.B.m.u.M m m c c S , # # @ e +.dX7.@.#.| _ _ _ _ _ ' _ _ ' ' ' ' ' ' ' #._ _ ` #._ _ _ _ | | ` ` ` ) ) ) ( ) ( ( w ( w ( ( w ( ( w ( ( ( ( ( ( ) ( ( ( ( ( ( ( ) ` { { *.`.O.D S M m m k.T.T.Y.Y D |.|.D , # 3 t g g t t x v G N m m D D A.XXJ.Y }.jX}.}.}.XX|.U.Y !.}.{.}.{.wXmXSXBXeXwXSXNXeXeXxXNXwXwXwXtXmXwXeXeXxXeXNXNXNXNXwX].].qXNXJ X , 3 2 E `.[.!.:.:./.!.:.Q >.,.5.`.5.L 6 < 2 F P F P P K X.K $.K $.E %.5.[.:.x (.cX{.Q.Q.wXBXeX)._.eXyXNXyXtXyXeXuXuXuXNXyXNXtXyX8XNXBXNXyXNXVXAXUXKX0X  5 u a y p u a u 4 9 u & u 9 u y h h k p a a k a a $.[.0.0X6.6 W W W H C C 6 J Q ^ Q Q ~ '.0X{.].{.eX0XeXNXxXeXeXyXeX).).0XeXeXxXxX/.,.,.>.E E H d d d d d T T T T T T %.0.0X'.5.5.,.;.C C H J G Y c z m Y U.~.o.Y D S S S S Y D P o.Y P o.Y U Y o.o.Y P S S c N B t.g.l.y.g. XjXZXhX|.ZXKXjXD Y o.U.~.2.~.U.o.|.O.8.o.U.~.~.U.o.O.D S D o.o.U.~.2.U.[.hXO.S S x x F F , G !.[.{.{.'.'.`././.!.,.;.,.1.:.,.J > wXPXVX(.]._.).).L.L.J.J.L.J.L.J.~ ~ ~ ~ J.Q.)._.(.).cXAXPXLXcXF x X.x , x , , , 3 3 3 2 t 2 s g K j g h j s 2 , v k.Y.k.B M N z v , > > X . . .   . . O . O . . . . . O O % u 9 = & & $ O O & O : O @ @ @ @ + +   X > > , , x U /.(.{.{.wXwXqX8X/.Q J ! ! ! U U ! ",
"k k k T T j k y y p h ] ] ] ] ] +.] +.#.[ @.+.*.*.+.*.[ f i 9 = - * - a h s k d k 7 k 7 5 5 < 4 7 4 o o 4 7 7 T / W W I A ! ^..XT.E.E.R.v.v.W.W.v.x.Z.D.D.v.b.b.x.s.x.Z.R.F.A.Z.Z.F.C.z.B.A.A.M.K.n.N.BXKXZXz A yX^._.J.K.n.N.J.^._.Y ~.yXmX}.mXKXCXoXXXoXXXjX XR.R.C.l. XoXE.W.Z.r.s.V.A.F.S.V K.m.f.n.K.f.f.f.p.K.S.V e.p.l.i.Z.B.s.j.B.j.u.u.m m v c v 3 > X @ y @.7.@.} _ | _ #.' ' ' _ _ ' _ _ _ ( _ _ _ _ #.` _ _ #.` #.` _ ` `  .} ` ` ` ) ) ) ) ( ( ( ( ( ( ( ( ( ( ( ) ) ) ) ) ) ) _ ) ) _ _ ` ` { { [ O.|.o.v m D M M k.M.Y.Y.k.k.T.hXU.S > # 1 F K F S x c x v Y _.XXmXCXmX~.|.}.|.|.|.^.U.N.D ~.jX}.}.].}.wXNXNXmXmXmXyXwXeXeXwXyXxXmXwXmXwXyXwXxXmXNXNXmXBXNXwXeXqXNX1.> > > 3 Q ].].5.1.`.{.]./.1./.5.[.0X/.H < 3 x 2 S o.:.L P F K K K K L R 0.hX{.J U {.)._._.yXCXyX_._.yXyXuXwXyXeXeXyXtXNXyXtXyXyX8XyXNXyX_.L.J.8XNXNXSX:X. a a a u a a u u u - - u 4 4 u f k h h a u a a a a $.4.q.0XE H W C H C C H J J Q Q J J ~ (.qXeXeXeXeXwXyXwXNXNXNXNXwXeXqXqXqXvXNXqX6.Q 6.>.E >.W H d R R R R T j d k d T R <.0.4.;.L F 6 6 H Q L Y v l N N.:.o.U G G S S v S S O.Y P o.o.Y o.P P Y D P S G G c N D t.j.g.g.t. XMXMX}.|.jXCXZXD Y o.U o.o.o.o.|.U.U.|.U.o.~.2.U.o.Y S D S Y o.o.U.o.o.U.o.S P S S L U S > 3 U `.[.[.'.`.5./.5.1.,.;.;././.L X H LXLXeX).8X].)._._.J.L.).).L.).L.).]._.7X].(._.)./.].qXcXLXPXPXVXL |.~.N.Y D v l , , , , 3 3 3 2 2 2 s 5 d s S x v Y U.h.D B N c x , > > X X .     O O . O O O . . O O . O = & u = = & % $ & & & & & @ % % & * = # # X X 3 x ! `.wXwXqXqXxXwXxXxXeX).Q I ! J.Q.~.~.",
"k k k d j h k k y p h h ] ] +.] ] +.{ +.+.@.+.@.@.*.7.+.] q q 9 - & * u k k k k k k k 4 4 - ; 5 o 4 o 4 < 4 d W T H Q I A ^.XX Xv.W.W.v.v.W.oXW.z.x.D.E.W.b.a.b.d.s.s.s.Z.F.F.A.D.F.Z.V.z.Z.B.m.C.h.n m. XM.f.b b b b V u.m.i.f.u.N.u.b n B u.A. X XY.R.R.oXoXE.E.R.v.c.W.E. XoX Xx.r.s.s.A. Xe.B.u.u.f.B.m.f.p.f.K..Xn e.i.i.z.s.B.B.i.i.i.t.M m m m c v 3 3 # @ i  .+.#.} _ _ #._ _ ' _ _ _ _ _ ' _ ' _ _ _ ` _ #._ #._ #._ ` ` ` ` } `  . .| ` ` _ ) _ ) ) ) ) ) _ _ ) ) _ ) _ _ _ ` ` _ | | } | ` } ` ' { { { O.|.S m D k.T.Y.c.T.Y.T.k.k.jXjXXX~.t X s X.1 t 3 x G Y |.mXVXZXKXCXU S U.k.Y Y D N D c Y }.}.|.(.wXmXmXNXCXNXNXwXeXeXwXwXwXxXtXwXeXwXyXxXmXNXNXNXNXNXwX].(./.xX].> > > < L [.].`./.(.].].!.,.5.5.'.0X5.H < 3 l x P o.`.!.o.F F K g K K K 1.[.cX:.J.wXwXmX}._.yXyXeXyXyXNXNXyXyX8XeXyXtXyXyXwXuXyXeX8X8XA Z Z , ^ yXwXAX5.. s a u a u u u u ; 9 - u u 4 u h h j k a u 0 a 0 - j 0.zX'.d J J 7 6 C J Q Q ,.,.~ ~ 6.].eXwXtXxXmXNXNXCXSXSXSXSXNXCXSXSXVXVXNXSXVX,.W >.Q W Q W R d R R T T d T k k T d 7 R W R 6 6 6 H H >.,.,.Q Y c D U o.o.U G S S v S S S G P o.o.U P U P Y Y G G G G C c v m B t.y.g.k. XjXjX|.^.}.mXZXo.m Y U o.o.Y o.U.2.|.~.o.U.8.U.~.o.Y S m S o.o.o.U.Y o.S v v S S S 2.`.S > 2 x P !.[.(.0.5.`.!.,.,.;./.`.1.< . [.PXLX].(.8X(.).L._.).L.J.L.J.J.~ J.L.L.L.).L.Q.).).(.0XcXJXKXKXLX2.~.jX}.|.^.^.|.Y D S c c G U G S F F x t x F c x N N m m D c v l > > X . . :     . O O . . . . . . . . O # u = 9 & 9 = = & = & 9 & 9 9 9 0 u 0 r 1 > X x :.`.{.eXqXwXqXwXmXNXSXVXxXQ.~ I U J.! Y ",
"s 7 d j j j h h p k h p h h +.p ] ] +.[ +.X.[ +.X.*.*.*.[ r q = 9 & - a a k a k k k 5 k a 5 4 - 4 4 7 o 7 7 T W / Z ~ Y Y ^.oXZ.v.oXW.H.v.D.W.v.z.v.V.E.R.l.x.H.x.x.a.r.r.i.s.r.x.Z.D.Z.x.B.B.S.B.B.i.e.n S.h.m.e.B.i.e.n A.V.i.h.C.A.m.j.i.j.e.r.y.D.Z.Y. XE.Y.E.Y.E.c.c.c. XoXoXE.d.y.y.i. XB.i.m.B.m.S.V V P.P.uXuXp.p.S.s.s.y.B.A.B.p.u.t.M m m z c S v 3 > # i *.@.} } #._ #._ _ ' #.' _ _ _ #._ _ _ ' _ ' _ ` _ ` _ ` _ _ ` ` ` ` ` ` ` `  .| | _ _ ' ' ` _ | | ` _ | | | | | | | | | | | } ` | ` } ` @.@.....8.|.S m T.Y.Y.T.g.c.E.T.T. X|.|.hXjXL 3 s H 2 S 2.`.].cXNXmXmXKXCXU z o.m D N m m Y z z ^.}.}.{.}.{.{.}.CXNXNXwX{.qXwXeXeXwXmXxXwXyXxXwXeXmXyXyXNXeXeXqXeXeXVXmX> > > > J ].qX[.`.].].!.!./.6./.'.'.,.6 > > l D o.~.hXjX`.P s P d d s K <.[.hX(.Q (.wXyX}.eX{.{.8XyXyXeXuXyXyXyX_.8XyXyXeXyXyXNX8X_.J.Z A ~ J.eXAXqXKX'.. 5 a u y y a u - = u 9 u u u a h h h h k u a - a 0 k cXcXE 7 7 < Z J Q >.5.5./.).].eXeXxXNXNXxXNXNXNXmXeXeX_._._.yXwXNXNXNXNXeX7XxX/.J E Q E >.W H H R d 7 k d k T T R R =.>.&.R 7 5 d W H E ;.!.(.~.o.I U.Y Y U G S S x x x S P o.P Y P o.P U P P U G P G F x x v m M M u.g.^.XXjX}.|.}.MXmXU.l Y Y Y Y o.o.o.U.o.U.2.~.U.!.|.U.S S S S D o.Y Y o.U.D S D D N o.}.}.G , x l 3 :.(.`././././.1.:.:.5.5.> K [.KXLXLX0X).8X].8X)._.L.L.).).L.J.~ ~ ~ I ~ ~ L.).).)./.0X6.AXLXCXPXhXv ^.M.^. XXXXX^.n.^.N.U.^.^.~.Y U.G c c x c x v c v l N G G Z C < X X o     :     . . O . O . O . O O @ = = u = = u 9 9 = & & 9 u 0 u 0 y y a a r s 2 L '.qX].qXeXwXqXxXNXVXSXLXBXqXQ.G Z G A c ",
"5 s k d j j j h a f h h h ] h ] ] [ h ] [ [ [ X.[ $.*.+.[ f 9 = = 9 = 0 r a a u a - 5 u 5 0 a ; 4 5 5 4 7 d T W W J ! A M.oX XZ.R.E.W.v.D.E.oXb.v.z.R.E.x.x.b.x.x.a.s.s.r.y.r.e.r.a.x.D.D.V.V.x.x.V.G.V.S.V.A.V.S.C.Z.B.s.A.E.Z.V.R.A.c.B.C.Z.F.Z.F.W.H.W. X XE.E.Z.Z.R.l.r.Z. XoX XV.y.y.s.B.B.S.C.e.f.p.V I.uX.XuXuXf.n f.z.y.s.i.B.A.B.e.B n m m c v v 3 3 t 1 ] *.@.#.#.} | _ _ _ | _ _ _ #.#._ _ _ ' #.#._ ` _ #.' _ _ ` _ ` ` ` ` { } { } } { } { } ` ` ` } } #.{ } } { } | | } ` } ` } } | } } | } } @.@.O.e t 8.|.O.O.Y.Y.Y.T.g.k.T.R. X^.Y.o.jXcX3 > F 2 F [.cXcXmXcXZXNXVXCX~.x G Y D D B D m Y l G }.wX{.wXeXQ.! (.eX_.{.{.8XwXwXeXwXwXwXwXeXwXwXwXtXNXyXwX].(.(.Q.,.wX]., > > , C /.[.].].]./.!./.1./.5.'.'.E < > , l U.U.U.~.hX!.P F L j a H d K 1.(.!.! G }.BXNXNXyXyXeXeXyXyXyXeXeX8XyX8X8XyXeXyXeXuXyXeX8XyXNXBXSXKXNXtXAX>.X 5 a u u u a u u 1 u = - y y k h T h h k u a u r 5 k vXzXH < < C W J Q ,.`.].].qX].qXeXxXNXNXNXmXwX8XQ.I Y ~ l l I Q.(.NXwXU J Q qX,.C ~ 6.Q E W H d d d T d T R R -.3.4.9.q.6.R 5 5 5 7 d H E !.`.!.:.U Y o.U P G S S x x x x S U U U X.o.;.2.2.,.1.2.1.1.<.,.~ ! Y n.M b h.^.XXXX|.|.}.jXCX}.l D Y Y o.Y o.U.o.U.U.o.~.!.|.|.|.O.x S x v S U.|.|.U.D D U.D S U.ZXjXo.x c , , G !./.`.(.(./.Q.~.2.1.3 E KXVXJXLXPXwX).7X8X).).).).).).L.L.J.L.! ~ / ~ J.).).).).].7X>.AXPXVXLXGXY ^.h.h.A.M.A.m.h.^. XY.M.^.^.M.XXXXU.m v c c l S x S x x G J > 2 X . X . . : : : . O . @ O . . O O . + = 9 9 = = & u = u & u u y a y u y p a a a 1 P `.cXcX{.qX0XeXwXeXeXNXSXLXKXVX}.U l v c v ",
"d d j j T +.T h a p f h h h [ h ] g j h h h h g X.[ X.$.j a 9 = 9 9 9 q 0 0 0 - a - 4 0 a 0 0 0 - 4 ; 5 5 d H J E ~ ! n. XXX Xv.E. XZ.v.W.oXW.H.Z.b.R.R.H.b.b.d.b.a.Z.Z.V.Z.V.V.x.r.r.a.x.V.s.a.d.V.G.H.y.s.G.Z.z.Z.R.Z.B.F. XZ.B.F.R.V.V.Z.D.D.v.E.W.V.v.W. XW.R.v.Z.D.s.r.b.F.E.oX Xz.y.p.r.r.e.i.e.n V p.uXBXuXuXuXS.b e.i.S.i.i.s.A.m.e.B b b v z v S x 3 > r +.@. .| _ | | #.#.} _ #._ | _ _ ` ' | _ _ ` _ #.#._ _ ` #.#.#.} } ` } } } } }  .}  .}  .#. . .#.#.} } }  .} }  . . .}  .} { } |  . . . . .@.@.@...e O.O.|.T.k.T.Y.Y.c.g.k.Y. X XXXT.U.ZX[., 2 3 S [.cXcXcXbXcXvXCXKX`.c D D D D N B N U U.~.wX}.}.mXNX}.(.).Q.{.(.(.].{.eXeXwXeXwXwXwXtXwXwXwXNXyXeX).).{.(.]./.,.3 < > > 3 ,.qX].`./.,.1.Q.,.,./.0X5.H > > x S U.U.o.!.jX[.P X.%.K s d s P ;.1.!.,.x C Q.mXmXyXeX_.yXyXeXyXyX8XyX8XyXeXyXyX8XyXyXBXNXNXBXBXNXNXBXwXxXAX6 X s a a a u 4 u T w.j 0 u y y k h h h h k a a a a - g zX0Xs X 7 Z C J /.].].[.].].qXqXwXxXxXxXwXeX].)./.].eX_.I Z ~ Q.qXNX{.G ~ (.xX~ 7 Q ,.3.Q E J H H R R W R 3.&.3.3.4.4.9.4.W 5 5 k 7 s s J Q ,.Q.U U Y U Y Y G S S x 3 x t G P P X.;.1.8.'.[.[.qXhXzX0XzXqXzXqX}.|.~.m k.}.mX}.XX|.XXjXCXjXD D o.Y D Y Y Y o.U.o.U.U.|.!.|.|.D x v x D U.hXjX|.U.D O.T.D D hXjXjXo.c G c v c U Q.(.|.|.^.(.!.~.x L JXLX'.bXPXPXSX'.).].).).8XL.L.).).).Q.L.! ~ ~ L.L.).).).).].6.Q SXLXNXLXKXU.M.j.B.A.j.B.j.e.Y.R.Y.g.Y.R.C.Y.E.XX Xk.l v G , 3 F F F 6 2 , X X X . . : . . : . . . . . O . . O O @ = 0 9 9 0 9 & 9 = 8 u u y a y u u a a a a r 2.qXxXxXcXeXqXqXqXqXqXNXSXKXKXBXNX{.Z v N V ",
"d H H j j T j h h f f h ] j h h g f f a t r r s a f g X.j f 0 9 8 9 = 8 9 0 0 - = ; = = = - a 0 - 5 4 4 4 d W W J I Y n.XXXXY.Y.E.R.x.Z.W.oXv.b.x.Z.E.E.v.a.a.b.a.s.V.D.x.B.Z.Z.V.s.a.s.x.s.a.s.y.S.G.A.r.r.V.A.i.V.R.A.B.R. XZ.V.D. XZ.V.Z.F.Z.H.E.E.D.x.W. X XR.C.V.F.b.y.a.Z.v.oXoXZ.r.r.e.r.e.e.n n n V .XBXiXBXuX.Xf.p.r.s.s.i.i.B.i.M n b z m v x , , t 3 g *.7.#.#.#.} #._ | _ _ _ _ #._ _ ' #.} #.#._ #._ #._ #.` _ ` ` ' ` ' _ ` ` ` ` ` ` ` | ` } } #. .}  .} { #. .} |  . . . . .@. . . .@.aXdX@. . .7.` e t O.O.O.D U.U.U.U.T.T.Y.|.Y.Y.Y.D |.GX|.3 3 s hXNXcXcXbXmXcXVXVX[.c G D D D D N N |.mXmXmXxX}.NXZXNXmXeX{.eX].(.(.(.{.qXeXeXwXwXwXxXwXwXwXwXmXwXeXwXxXmXwXxXQ.J x > , , Z [.[.`.,.Q./.!./.5.'./.E > > 2 I D U.U.U.jXKXZXo.%.%.K d s r s K 1.`.`.U 2 , Z ).eX_.J.8XuXeX8X8XXX8XyXeXyX8X8XyXyX8XeXyXyXeXeX8XeXeXeXNXVXX X s u a f u - u *.q.+.a ; y a y p k k k u u a u u 5 j '.zXK < H J H Q '.{.cXcXqXxXqXeXqXxXmXxXwXeX{._.(.).J.I Z I ~.).yXSXVX).J Q /.W < J W Q Q E W W W E >.&.=.3.3.3.3.3.3.6.3.%.d 7 5 7 6 6 C J Q o.U U U U P P G S v x S 3 S S X.o.;.8.`.[.[.0XzX0X0XzXzXzXnXvXxXxXmX}.U.U.}.mXjXmXjXXX|.jX|.D S D Y Y o.Y Y Y U.o.k.o.U.2.hXO.S 3 l S o.hXjXhX^.T.D D k.S D }.jX^.Y D G N c N c Y ~.~.}.|.|.|.~.o.mXPXKXR >.PXPXLXNX/.).eX7XL.).L.)._.L.Q.L.Q.L.L.Q.).).).).).0XW ;XLXAXcXLXLX|.u.A.A.A.z.C.i.r.a.R.D.l.c.Y.v.Z.T.E.oXjXU.z , x 2 s 3 6 2 X X X . . . . . . . . . O . O . . O . . O O = 9 u = 9 = u 9 & 9 u u a y a u u u u a 1 s `.vXmXNXxXqXqX{.qXqXeXwXVXSXCXNXZXxXY l v c ",
"H d d j T j j j k f f h g h g g a r r a j K X.%.%.K K j j g a - 9 9 = = = 9 - 9 = * * = = 0 r a 0 u 4 4 4 k K R E I I ~.^.Y.k.Y. XY.c.Z.W. Xb.v.v.D.E.W.x.a.a.b.b.a.s.s.r.i.x.B.x.x.x.D.V.s.s.z.s.s.V.V.i.s.A.V.B.A.K.Z.B.A. XF.B.Z.F.A.C.F.R.A.V.Z.E.Z.s.v. XoXR.Z.B.Z.x.a.s.D.a.R.jXE.e.p.r.e.r.n e.p.n V V P.uXBXBXuX.Xp.p.s.V.B.i.i.m.p.V b b l l l l 3 , t [ { +.{ #.#.} #.#.#.#.#.#.#.| #.| #._ ' ' | _ ' ( _ ' _ ' ' ( ( ( ( ( ( ( ( ( ' ) _ ` ` ` ` ' ` } { }  .#.@.@.@. . . .@.@.@.@.@.dXdX .aX . . .#.dX{ e e # ..O.U.U.U.U.Y.~.T.T.T.k.k.k.D D jXmXG 3 F hXVXcXcXcXcXvXbXVXjXG A D Y D D S v }.CXZXxXmXxXxXNXNXNXNXNXeX8X(.).).].{.{.qXeXwXxXwXyXxXwXeXeXyXxXNXmXeXNXxX! ).:.Z > > 2 ,.].].5.!././.`.'.].5.J > > x G D M.U.U.hXGXGXO.X.$.j d s 1 s P 1.[.`.(.,., > J.yX).J._.eXeX8XyX8X8X8XyXyXeXyX8X8XeXyX8X_.(._.8X_.].qXNXxXX 1 a a y k y u u j +.j u = u u u u y y u u u a a a a f E zX>.6 C J J !.].hX}.}.wXqXqXwXxXxXtXmXmXxXeX].Q.J.! I J._.yXeXwXCXSXNX! ,.].Z , J H J W J W W E &.>.>.&.&.&.&.&.=.3.4.4.&.T k d s s 6 6 H J J J U G Y Y P G S x x 3 3 3 S X.2.8.q.'.q.'.q.:Xq.q.q.0X0XrXzXcXqXxXcX}.~.!.|.XXjXXXjX|.^.|.U.D Y Y o.D D o.D o.o.U.o.U.U.U.o.S l 3 m |.hX|.U.D k.D D k.m k.XX|.D N m m N N N z z N A U.^.^.|.U.:.LXLXLX].< AXPXPXLXvX6.).0X).).).L._.).).L.).)._.L.).).).].7X'.W vXLXUXqXLXKX~.n.A.B.B.B.F.x.a.y.D.E.b.b.D.W.D.l.b.D.oXjX_.D , 3 C > X 3 X . X . . . . . . : . . . . . . . . . O . O % = & = - 9 = & u & u p u y y y u u a 5 o s hXxXxXxXxXqXqX).].{.qXeXNXNXNXmXNXxXY , l z ",
"K H d g d j j j a f f f h g f t 1 r F %.8.q.'.[.[.[.q.=.j g a a y q 9 9 9 = - 9 = * + % q q r f r r - - ; 7 R W Q Q :.~.~.D c m Y.A.A.C. XE.b.H.x.W.E.D.b.a.a.D.s.a.s.s.r.i.Z.A.z.z.s.x.D.F.Z.s.i.s.V.Z.s.i.V.A.z.V.R.Z.B.A. X XV.Z. XF.A.A.R.A.Z.Z. XZ.a.s. X X XA.Z.D.x.r.s.F.s.i. X Xe.r.y.e.e.e.i.e.n e.V V f..X.X.X.Xp.r.s.A.V.i.S.m.B n z z l v l , , > t X.*. .{ #.#.} } } } } } #.} } } _ ' _ _ ' ( w _ ' ' ' ( _ ' ( ' ( ' ( ( ( ( w w ( ( ) ) ) ' _ _ ' ' ' ` ` } { }  . . . .@.7.aXdX@.dX@.dXaX7.@. .@.{ ( e e t ..O.!.|.U.o.Y D D M h.h.M k.M Y ~.U x L xXVXcXcXvXcXcXvXVXcXY c G Y N Y N v Q.ZXVXNXxXxXmXxXNXwXNXmXwX].).Q.).(.(.(.{.8XqXeXwXwXwXwXwXeXwXxXeXeX{.mX(., ! /.:.Z > > L 1./.!.!.].`.].].].>.2 > , C Y Y T.U.U.o.|.[.L L K h s a 6 s s %.[.[.`.].Q , A NXyX8X8XyXeXyX8X_.8XyX8XyXyXyXyXeXXX8X_._.8X_._.(.(.qXNX/.X a 5 a u y y y u u 4 k = % u 9 4 4 u u u 9 4 a a a a 1 g zX'.C C C Q [.xXmXcXcX{.{.xXxXmXxXmXxXmXxXyXyXwXwXxXwXwXyXNXNXmXNXCXVXNXDXVX7 > C Z E Q Q Q E E E >.&.&.>.W &.$.&.3.3.3.3.R d 7 k d 6 C C F P G G U P G G G x 3 x x 3 3 F 2.4.0.'.q.q.q.9.9.6.w.w.:X:X:XzXzX0XcXxXmXhX!.~.}.}.}.|. XXXjX|.D Y P D Y o.D o.k.o.U.o.o.U.~.o.v 3 D o.~.~.U.U.U.D D k.k.m U.XXk.z m m b m D V b b b M M.^.^.Y.N Y KXLXPXJX3 5.PXLXLXLXtX~ ).eX).).L._.L.L.Q.L.~ L.Q.)._.)._.6.~ ).LXLX6.qXPXKX~.h.A.z.z.V.F.x.s.d.H.W.v.l.H.D.x.b.x.D.Z.Y.jXjXD > > 2 # X X . . . . . . . . . . . . . . . . . . . O O + & % = & % = % = & u u u u y u 9 u a a a X.qXcXxXqXqX8XqX].).8XqXqXwXxXxXxXmXxX! z A ^.",
"R K d d j j j h a a a f f s f t r F <.`.[.[.hX[.hXzXhX0.K s a h y q q 9 9 = = - = = # = ; 0 f a a a 5 ; 4 k H E %.:.1.!.~.|.}.~.n.h.C.Z. Xv.z.x.x.W.E.v.s.y.b.x.a.s.s.x.i.s.D.Z.V.V.s.a.x.D.Z.s.s.s.A.F.z.s.Z.F.B.V.K. XC.V.R. XZ.Z.F.R.Z.V. XF.Z.Z.F.F.a.s.F. X XR.F.Z.d.r.a.F.B.n Y. Xi.t.y.e.e.y.m.r.e.p.f.f.n K.S.P.K.s.e.r.Z.B.m.m.m.p.b z l l v > x 2.;.X.X.[ { { ` ` ` _ _ ` ' _ _ _ ' _ ( ' p ( w w _ p _ ' #._ ` ` #._ } } } } ` ) ( ( w ( ( ( ( ( ( ( ( ( ' ' ' ) ) ' ( ) ) ) ` `  .{  .`  .O.7.@. .|  ...w e ..t t t P o.o.Y m m M m t.k.k.k.h.n.D U Z Q xXVXvXcXcXbXcXvXVXxX! G I Y Y Y G l :.NXNXxXcXxXNXNXxXNXyXNXwXeX).Q.Q.).).).(.(._.{.qXeXeXeXwXeXwXyXxXeX{.NX)., J Q ,./.Q J 1././.1.(.[.].].`.5.Q C , , x Y D k.Y D D Y U F K g k a 5 5 1 s F X.<.1.>.Q C , NXBXNXyXyX8X.XyXXX8X8XyXyXyX8XyXyX8X_.).Q._.L.J.I ~ ).NXE X s d a a a y u u 4 u a = - 0 = & 9 & & & 4 9 a u a a a d zXzXH F J !.].].[.}.xXcXqXNXNXNXxXNXNXxXNXNXNXNXNXBXmXwXyXNXNXNXmXVXSXCXLXSXQ 7 E ,.].qXqX].E H W E E &.&.&.R &.R &.3.3.R W d k 7 d H s C C G J L L P G G S S v x 3 > > P <.0.q.q.q.9.;X;X9.9.w.;X+X:X:X:X:X0XqXcXxXmX{.|.~.|.|.Y.|.^.|.|.D D D o.o.Y o.D o.o.T.U.U.2.~.o.x 3 o.hX|.o.U.U.Y k.D D k.M U.jXM.b b b b B u.b b n n.Y. XY.Y.C.D c jXPXLXKX`.< xXPXPXLXLXqX^ ^ ).)._.).L.J.L.L.J.J.J.J.).).).~ ^ AXLXAXW AXLXLXJ.m.K.i.S.B.V.H.x.b.x.W.W.b.b.v.Z.D.b.R.E.Y.T.|.jXY > > 3 X X X . . . . . . . . . . . . . . . . . . . . + = $ % = & & % = = 8 & u u 4 u p u k K R 5.cXcXhX].].].)._.].{.].].{.qXwXxXmXXXN.N }.BX",
";.R H g g d f a y a a t a t a t H %.1.`.5.`.!.5.1.<.<.9.=.j a a q 0 9 0 9 9 u 9 9 ; = = 9 q a f f s a - - 6 R E >.,.1.!.[.CXPXKX^.c.g.Y.oXD.D.v.W.E.D.b.b.a.s.b.a.a.s.V.a.y.B.s.x.V.V.s.s.x.V.V.s.x.F.E.x.x.D. XD.V.D.E.Z.V.F. XW.H.G. XF.A.R. XZ.Z.E.F.x.a.A.F.G. XF.G.x.a.a.D.A.e.j. XC.r.a.r.r.y.y.i.p.u.f.B.K..XP..X.X Xp.r.B.V.m.B.M.B V z z l > S [.ZXVX8.g q i ' ( ( ( ( ( ( ( ( ( ( ( ( _ ' _ ' _ _ ' _ ' _ ' #.#.#.} #.#.} #.#.} } ` _ ) ( w w w ( ( w ) ) ' ' ) ( ) ( w w w e e e e e e ( ( ( ..) ( w ( w w e e # # # # S P U Y o.Y D t.k.C.M.k.N.N.D S ;.cXNXbXmXcXxXcXzX0X].:.I I Y I G c , :.xXvXqXeXvXvXNXvXmXyXNXyXwXeX{.).Q.Q.Q.)./._.].{.8XeX{.eX_.}.wXwXeXqXmX].Q.!.Q ! (.}.].].`./././.].qX]./.,.:.:.:.U x v D D D D o.Y P F K a 5 5 1 1 1 1 t 1 1 2 < x 7 Z wXSXBXyX8X8X8X8X8X8X}.8X8XeXyXyX8X(.J.A A A A Z Z ! eXxXC < 6 s k k f a u - a a 0 - 9 u & - = & & & - 4 - u a a 1 1 0.cXC 7 C !.].!.!.!.}.mXcXxXxXmXmXxXmXmXNXNXmXNXNXmXmXNXNXSXNXmXqXmXNXVXLXPXxX/.qXwXNXAXVXvX,.E W E E %.&.&.$.W R R T R $.&.T k 7 d F C C C F J U G G S S x x 3 x 3 > 3 K 1.q.q.q.q.w.9.3.w.;X9.:Xw.:X:X:X:X0XzXcXwXcXmX}.o.Y D D N D D D m D Y o.D D o.o.D U.o.U.o.~.~.o.x > ~.jX|.o.~.U.D k.D M M M Y.jXU.m n b n M M n t.m.Y. X Xl.c.Y.U.v U LXPXPXKXH 7 UXLXPXLXLXeX~ ).L.).L.L.L.J.~ ~ ~ L.Q.)._.Q.).vXLXPX6.W KXLXKXJ.i. XB.x.s.V.D.v.x.b.D.W.v.b.v.R.Z.V.c.R.jXW.Y.XXjXY > > X . . . . . . . . . . . . . . . . . . . . . . @ % $ $ % & & & 9 & & & & & 9 k h j j -.<.[.cXcXqX{.].{.].8X].(.{.].].{.cXxXmXjX:.D }.MX",
"<.X.H d g k a a r y a a f a r s L >.1.;.L Q ,.1.>.H L 0.q.X.; * = q 9 9 0 0 u a q 9 = # - q f f g g f 5 5 k R %.>.5.1.[.cXGXPXLXKX}.t.Y.oXW.E.E.W.E.D.z.x.s.s.a.a.x.x.B.i.i.V.i.a.s.x.V.z.x.V.A.V.x.F.F.x.z.G.E.R.x.Z.R.V.b.W. XE.x.D. XD.V.R. XF.H.F.E.S.s.G.I.A.R. XF.G.s.s.Z.Z.y.j.R.R.y.r.r.r.i.t.y.e.e.i.p. XK.p.oX.XoXs.e.s.A.B.B.A.u.B V z , , }.VXhX`.O.# # { { ' _ _ ( ( ( ( w ( ( ( _ _ ` #.} #.#._ #.| _ #._ ' } ' } ` ` ` } `  . .#. .` ) ( ( ( ( w w w e w w w w e ( ( w ( ( ( w w ( e e e ( ( w e e w e e q e e q t # t X.2.U.o.U.Y k.D k.M.D n.Y G :.cXvXcXvXcXvXzX9.K F J G I Z , v G , U `.qXcXNXVXVXNXNXNXxXmXwXxXwX{.).Q.Q.).Q.).).(.].].].{.{.{.eX{.wXeX{.qX}.(.(.(.!./.`.]./.1.1././.{.xXxXxX`.:.!.[.!.Y Y N.D N.U.Y P P P j s a k a a 1 1 # r < < 2 C > Z wXDXNXyXuXyX8X_._.8X8X_.8XyXyXeXyX8X_.).).J.L.J.L.yXSXmX> X d 5 a h a k a u 9 ; 0 = - & & ; 9 : & 4 & - - - u 5 a o <.vXE 6 C ].hX}.}.`.hXmXqXeXwXxXxXyXmXwXxXyXmXNXNXNXNXVXBXNXmXNXNXNXmXSXSXLXSXqXvXNXNXNXNXxX/.>.W E E &.E &.R R R R T R W R W d d s s 6 F F G J L J P x c S S x x 3 > 3 L `.q.0.q.0.;Xw.:X;X9.9.3.w.;X:X-X:X4.'.'.[.cXhX[.o.G D Y U.|.jX|.U.P D D D o.D o.o.o.o.U.|.~.o.o.l x :.hX|.~.U.o.k.D k.k.D M U. Xk.n M M n n n u.A. XY.Z.l.a.D. XY.h.v mXLXPXPXvXo J AXPXLXLXLXtX~ ~ ).).L.J.L.L.J.J.L.L._.).L.eXLXLXDX7 6.LXPXSXN.m.F.B.s.z.D.E.x.x.x.D.F.V.b.x.R.D.x.B.D.E. X XC.hXmXG X < X . . . . . . . . . . . . . . . . . . . O O + $ $ % $ & = = & u = & & & 4 h +.*.*.=.0.zXhXqXqX{.qXqX{.{.(.(.qX{.{.[.}.mXmXyXJ.N N.A.",
"<.K H j g f a a a a f s 1 1 s K 2./.,.L I Q Q.qX[.1.1.zXcX[.a . . : = 4 9 u f f y a q 8 = 9 r f f h h a 6 d %.>.1.<.<.cXPXLXPXzXQ.CXU.k.Z.F.D.x.v.H.v.v.b.a.y.y.p.j.V.i.y.s.Z.z.a.a.x.D.x.z.A.C.V.z.V.F.V.z.V.R.V.z.z.R.R.v.V. XE.G.D. XG.V.F. XW.x.F.W.G.d.H.S.p.f.S.A.F.V.s.x.Z.s.s.F.A.y.r.l.y.y.y.t.i.y.e.e.A.oXS.oXuXoXF.A.A.B.C.B.m.u.B B l x }.VX`.x 2.2.g @ ..{  . .} } | _ _ _ _ _ #.#.} } } | | | _ #.#._ | _ #._ _ #.| _ | | } } #.} #.} } { ` ' ( ( ( ( ( ( ( ( w e w w ( ( ( w w w ( ) ` ) ( ( ( w w w w 8 w 8 8 8 q = # r g P X.2.Y Y Y D Y k.D D C `.cXqXcXcXbXvX1.s X X > , , G U :.(.!.E '.VXAXAXSXUXNXNXyXmXyXtXxXxXwXqX).).).(.Q.Q.(.(.(.{.]._.{.(._.8X].{.wX{.Q.Q.!.].qX].).,.E I ;.(.qXNXCXCXSXhX!.!.!.:.o.Y Y o.o.o.U X.X.K a f s r r 1 1 r # X > > X X , eXSXNXuXyX8X8X8X8X_.8X_._.8X8XyXyXmXyXBXBXNXyXwXeXNXSX].< o X . . X a g h k a 0 # # q = * + $ & & O & $ & 4 u 5 K R <.VX[.2 > ].cXxXZX}.|.xX}.[.wXwXwXxXxXwXwXxXmXmXmXNXMXZXNXmXyXmXwX(.{.wXBXKXNXQ.0XqX,.~ /.0X].5.>.E R &.&.R R T R R d R K W E E H 6 6 F F G L L L P x F c x x 3 3 3 > 3 L 0.[.q.q.q.9.:X3.;Xw.6.4.q.6.4.3.3.3.&.%.>.5.[.qX5.`.hXmXVXCXKXKXjXO.Y P Y D D Y o.o.U.~.O.|.U.P l 3 2.hX|.~.U.o.o.k.D k.k.t.|. Xt.n g.t.h.C.Z.Y.E.D.x.z.x.Y.v. XR.Y.b Y SXPXLXPX0X< H AXPXLXLXLX7XW L.).).L.J.L.J.P.J.(.).).yXSXLXLX).3 SXLXKXSXA A.A.V.S.x.Z.F.x.Z.b.D.F.x.s.s.G.F.v.Z.R.D.E. XXXT.}.VXS X . : . . . . . . . . . . . . . . . . . . . . O O + $ % = 8 9 8 & O . O 4 p +.3.+.+.-.0.cXzXqX}.eXwX{.(.).(.]._.].8X].{.wXmX}.J.z l V ",
"<.%.j s k a f a f a f a 1 r P <.5.[.!.,.,.,.(.xXVXxXcXvXbXzXd . . . & $ 9 y f y f i 0 9 9 q i f h k k 5 5 H %.5.q.<.0.JXPXIXPXqX> hXjXM c.s.b.H.H.D.W.D.Z.z.i.p.i.z.V.B.z.s.Z.x.a.b.x.D.v.z.A.A.V.z.c.Z.F.Z.W.F.E.R.F. XoXE.F.E.W.Z.Z.E.R.V.F.E.W.v.G. XA.S.S.p.p.n S. XF. XZ.V.V.s.s.V.Z.a.y.y.y.l.y.y.i.s.p.e.s. XR.F.A.B.K. Xp.s.B.s.m.u.n.U.z _.CX].G L ;.[.hX7.....#.` } #.} #.} #.} #.sX#.#.sX} } _ } _ _ _ _ #._ | | } | _ | _ | | } | } } }  .` ` } ` ) ( ( ( _ _ ` _ _ ) _ ) ( ( ( ( ( ) _ | ) ) ) ) ( w w w e 8 8 8 & e # = # # 1 F X.X.2.o.o.Y Y D G G cXVXcX[.cX0X<.3 > 3 x U Q.!.{.}.}.(.;.0XKXLXAXvXKXVXNXNXxXxXNXxXmXNXwX8X]./.Q.Q.Q.Q.).Q.).(.(.(.).).(.(.(.).].eXQ.J.Q.Q._.qXqX).1.1.].qXNXVXKXLXLXCXwX!.!.:.o.G Y Y U ;.X.P j s K g s s s 1 X . X . X > 3 C < eXBXNXyXuXeX8X]._._.8XyXyXeX_._.eXtXyXNXyXNXyXwX{.eXVXwX(.]./.>.2 X . X s X.[ a r ; #   + $ + + $ @ : O $ ; ; - j j $.zX0XF , !.mXmXcX].(.cXmXjXwXwXwXwXwXwXwXmXmXmXNXNXNXNXmXyX}._.Q.J.Q.wXCXSXqX! ).,.J C ~ /.'.1.E L E E &.R W T d d d d H R &.%.W F F 6 C H J P G G S S S v v 3 x 3 3 3 X.q.q.q.9.9.:X3.w.3.q.9.4.4.4.3.W R R W >.&.K W 5.[.bXVXmXVXGXPXPXZXo.P Y o.o.O.D o.O.U.U.|.|.U.D , S |.hX|.~.U.U.k.k.t.M M g.E. XT.v.Y.R.E. X XZ.Z.Z.x.x.b.v.D.E.R.Y.C.b ~.SXPXLXPX0X< H VXPXLXLXLX(.~ ).}._.^._..X^._.yXyXyXBXLXLXSXA ~ SXPXLXMXz A.F.Z.V.V.Z.F.V.x.s.F.D.x.b.x.D.Z.v.v.G.v.v.Y. X^.U.ZXvXX . . . . . . . . . . . . . . . . . . . . . . . @ + & % 9 = 9 = & O O & p +.3.+.$.T %.5.[.}.qX{.].{.).Q.~ ! Q.).).,.! :.! (.}.~.A N A ",
"<.%.j a a a a y f a a r 1 t %.0.[.].(.`.(.!.(.xXCXVXvXcXbXcXd . . . . O u y h f f f a q 8 9 q a f f k k d E >.0.4.%.zXPXVXnXPXPX;.jXmXu.Z. XF.G.F.D.D.D.x.s.i.i.i.s.B.V.B.g.x.V.a.b.x.v.H.s.Z.E.Z.s.V.E. XE. X X XF.D.R. XE.F.R.Z.Z.V.F.E.D.D.E. XD.H. XG.p.S.p.b A K.oXA.F.F.s.Z.V.B.B.s.i.y.y.z.g.y.y.i.i.p.r.e.B.s.n r.p.V.p.e.B.z.i.i.u.u.K.b Y |.U o.|.o.2.bXGX7.{ #.` #.| | | } } #.} } #.| | | _ #._ _ #._ #.#._ _ _ | | } _ _ } | } } } } } } } } } #.} _ ( ( _ ` } #.} } ` _ ) ) _ _ _ ) ` | ` | ` ) ) w w w w 8 8 8 8 8 = = #   X 1 s P P G U o.:.U G J cXJXVXvXzX0.F 6 L `.[.}.hX{.}.:.;.G >.LXPXLXAXtXSXVXmXNXwXNXyXwXNXtXmXqXqX]./.Q.,.Q I I ~ ! Q.~ J.~ ~ ! ! ~ J.!.! :.! ! ! ,.).qX].qXxXNXVXCXCXKXKXLXSXhX!.!.,.;.o.o.X.%.X.P K a g a s g d K o ; q.zXcXVXNXNXeXvXBXNXuXyXtX8X8X_._.8X_._.8X8X8X8X8X8X8XeX8X8X{.).{.mXvXNXSXSXKXVX0X$.; . X 1 s r #   - =   O = $ O $ + $ & = ; 5 1 s 0.zXL > x ].mX[.{.].}.xXxX}.qXeXwXwXwXwXwXwXmXNXNXNXVXBXmXNXwXeX}.wXNXSXSXmX).(.Q.Q ~ ).].qX/.%.W E W R R R d d d d d H W >.>.E C x x F F G L P P G S S x v x x 3 > 3 X.`.q.:X9.:X:Xw.9.9.3.6.6.3.&.W T T W 4.q.0.>.K E 5.cXcXzXcXVXKXPXGXo.G U Y o.Y o.o.O.|.U.8.~.U.O.v o.[.hX|.~.o.U.k.k.t.t.M k.E.E.Y.R. XE.E. XE.H.z.v.D.D.b.b.v.Z.E.B.C.M z eXLXLXLXLX0X7 W AXPXLXLXSX}._.yXXX.XoXXXXXuXyX.X^._..X}..Xz N.MXBXMXN.e.^.F.Z.V.V.R.D.V.x.x.F.D.x.x.Z.Z.v.Z.R.E.E.v.c.Y.^.N.~.KX[.X . X . . . . . . . . . . . . . . . . . . O .   + = = = 9 & % O O & u +.+.-.+.T k R `.'.qXqX{.(.).~ I Z Z ~ J.J.~ J C c Q.(.J.N.N.Y ",
"9.%.d a a a a y a a 0 1 # s ;.[.[.`.(.].].!.,.(.xXNXcX0XvXzX5 . : . .   - h h f f y y q 9 % 9 q u a k g K E 4.0.4.R bXPXVXbXPXPXVXKXMXU.A.F.Z.D.D.x.v.b.b.a.r.r.a.y.z.c.V.i.B.V.r.x.x.H.D.b.v.E.F.x.V.D.D.V.Z.D.E.F.x.z.Z.Z.Z.V.V.Z.V.F. XD.D.E. XZ.d.E.K.S..XuXf.I.BXuXp.V. Xx.V.B.B.i.i.p.t.i.i.p.y.y.z.i.y.y.y.p.s.p.i.e.S.r.s.B.B.S.S.i.n u.b l v U.hX|.~.!.mXHXfX..#.#.} _ | } } } | | _ _ | _ _ _ _ _ _ _ _ _ _ } #.| | _ | } _ | | } } } } } #.} } } } @.| _ ) ( _ |  . .} | | _ _ | _ _ ) | | ` ) ) _ ` ( w w 8 8 8 8 8 8 = # = = # # # 1 X X 3 H o.:.2.F [.VXJXJXKXVXzXzX[.zX}.`.(.U G , !.C ;.PXLXPXLXNXVXVXNXmXNXxXmXNXxXNXwXeXeXeXqX).).! J Z < l I Z A Z Z Z Z I I ! J.Q.Q.,.! ~ ! ,.Q./.eXmXNXNXVXNXCXKXKXVXcX!.2.Q %.E L L $.X.K X.F L P F F t X 8.LXIXAXLXKXKXSXBXDXNXNXuXeX8XL._._._.8X8X_._.8X8X_._._.].8X_.{.eXwXxX).Q././.[.VXKXKXNX<.1 X . X 1 1   . + = + $ $ O : $ * = ; ; * 1 <.cX5.C 3 H jX}.].jX].{.}.eX}.eXwXwXwXwXwXwXmXwXmXNXBXCXVXmX{.(.].].{.ZXSXVXwXwX0X].].qXxXqX'.>.E R R R R T d R d H H K H Q :.U F x v G G G L U G G c S S S x 3 3 3 # X.0.q.9.q.4.9.3.;X3.3.3.3.&.W d T W E 4.6.'.0X'.W E 0.`.`.zXGXLXKXmXo.G Y o.Y Y o.U.U.O.|.U.U.O.S S o.}.}.|.U.o.U.D k.k.t.g.T.E.W.R.E.E.v.v.R.W.v.x.v.D.D.b.l.b.l.E.V.g.C.u.b _.SXPXLXLXeXC J BXLXKXLXuXXX.X XoX XK.V.A.S.p.p.n V e.n V V u.B.j.n u.F.Z.Z.z.V.R.Z.v.V.V.D.Z.x.D.x.l.b.Y.R.E.E.v.j.C. XY.S jXKXx X . . . . . . . . . . . . . . . . . . . . . O + = 9 8 = u & O & 9 ] +.-.+.+.k 5 L '.'.hX{.{.).).J.W Z A ~ )./.,.I Z ! {.~.Y Y Y A ",
"9.&.k 5 u a u 9 0 # # # 1 2 %.0./.`.(./././.,.! ].qX/./.cXzX5 . . . . . = y f f q 0 q 8 = = 9 0 0 0 a k R &.5.5.4.4.JXPXJXPXPXPXPXPXCXM.g.i.s.V.V.V.D.R.F.x.s.a.a.b.z.z.B.j.B.C.r.z.x.D.D.x.H.D.G.G.V.S.s.V.G.B.R.F.V.V.Z.F.Z.V.v.R.V.D.E.F.D.F.oXG.H. X Xf.uXBXuXuXuX.Xe.S.oXF.x.a.z.i.S.j.t.u.i.y.r.p.z.i.y.i.B.S.B.B.S.d.S.B.V.s.B.Z.B.m.i.M b N l B }.|.jXZXhX2.X.{ { } ` } #.#.} #.} | _ _ | _ _ _ _ #._ _ _ | | _ | | | | _ | | | | | } } } } } #.#._ | @.#.} | _ ) _ | }  . .} _ _ _ _ _ ) | } ` ) ) _ } ( w w 8 8 e 8 & # + @ # q = #   . . X . X < H %.%.[.vXcXvXJXJXVXxX[.1.:.~.!.:.U (.SXQ F KXLXPXLXSXvXNXVXwXNXyXNXtXNXmXxXwXeXeXeXqXqX].Q.Q C > , Z v Z Z Z Z Z I ! Q.Q.Q.Q.! :.,.Q.Q.Q.Q.Q._.qXwXNXVXVXSXKXxXQ H L L %.;.%.;.X.U X.S S 3 , 3 > 3 AXPXLXzXvXVXNXNXVXNXyXNXuXtXyX_.L.)._._.8X_.8X_.8X8X8X{._.8X{.{.wXmXwX].(.(././.`.qXvXCXKXSX`.s X . . X # # +   O + + + @ # = ; 0 # 5 K >.8.1.G > ,.wXmXmX}.xXmX{.}.}.wXwXeXwXwXwXmXmXmXNXNXyXwX{.).J.J.).Q.{.NXNXeXNXwX].].qXxXxX].>.K R E R T d T d H H H L J U :.U c x v c Y G U U U G G S c S x x 2 < < L 0.q.0.9.;X9.3.3.3.3.3.W W d 7 W R >.>.E H 6.'.E E 5.5.0.qXAXPXKXhXo.Y Y o.Y Y o.o.U.U.8.|.~.D D P ~.}.hX|.U.U.N.k.k.g.t.l.E.Y.v.W.v.v.R.v.W.D.v.b.b.v.E.Z.b.v.b.E.E.l.l.C.u.b ^.BXLXLXPXmXA ~.MXMX Xm.u.B.A.V.d.r.r.S.s.i.i.f.S.A.B.f.p.r.p.y.B.z.Z.V.Z.z.v.R.Z.C.v.Z.V.z.z.Z.v.r.a.b.v.Z.R.Z.c.c.T.E.T.D GXGX3 . . . . . . . . . . . . . . . . . . . . . O O = 9 = 9 9 & & 8 h +.7.+.-.T a 1 L [.}.}.}.{.].).).~ ! ~ Q.(.].{.Q.! }.mX`.G N Y Y ",
"9.=.j a 4 y u = +     # # r L 1././././.,.Q.! Q /.'.>.>.0X0.< . . . . . $ 9 i y 9 q 9 = = 9 0 y 0 0 5 s R >.6.0.%.9.PXLXJXPXLXPXVXCXCXD B.A.A.R. XA.R.W.G.V.s.y.x.x.x.z.C.z.C.B.y.s.s.G.F.x.x.G.R.V.S.Z.G.V.B.s.V.F.Z.Z.F. XF.Z.v.Z.Z.Z.E.E.D.D.E.E.x.F.K.p.I.uXuXuXiXS.n i.F. X Xc.s.B.A.A.p.e.z.i.t.r.y.i.S.B.B.s.s.S.s.A.B.S.s.y.s.D.V.z.i.u.u.B m z U.MXZXXXD S ..X.{ @.#.#.#.sXsX#.#._ | | _ _ #._ _ _ _ _ _ _ _ #.| | _ | | | | | _ | } } } } dXsX@.| _ | dXsX| | _ _ _ | @.aXsX| _ _ | | ) }  .| ) ) }  .( ( w w e @ 8 8 = @ # @ + O O %   : * : X   5 g >.4.8.$.g H E 2.1.2.:.Q.!.~.|.mXKXLX/.X eXLXLXPXLXNXNXNXxXNXxXvXxXNXNXtXvXxXxXwXwXeXeXqX(.Q.Z v x v l v z Z Z I ! Q.,.J.,.Q.Q.Q.!.(.(.Q.Q.Q.(.(.].mXBXVXVXxXJ 2 L %.;.L L P P Y S S D S Y o.S [.PXPXPXVXqXvXwXeXNXuXNXNXNXyX8X_.).L.J.L.L.8X8X_._._._._.{.(._.(.{.yXwX{._.{.(././.].].[.xXVXVXVX0.H X . X X   #   + + + + + # q #   1 r 1 <.[.1., , /.mXmXNXZXNX}.{.{.wXeX}.eXwXmXyXNXNXmXwXQ.~ I Q.Q.Q.{.).Q.).wX/.qXeXqXqXqXqXxX0XQ C H R K K K R K d s s H H G Q.U.G v c S Y Y U o.U P D S G c S x x 3 2 X.0.:X9.q.4.9.3.3.3.3.3.W d d W J W >.5.Q 7 6 H H E 4.;.Q 1.}.VXxX|.U G U U o.o.o.U.2.U.|.U.U.o.S D 2.}.hX|.U.Y U.k.k.y.g.R.E.c.a.D.v.W.D.D.W.W.W.b.b.D.E.E.R.V.z.x. XD.y.V.Z.u.u.V MXSXKXBXJ.B V u.t.t.e.r.G.G.s.d.d.V.V.V.Z.V.Z. XR.A.Z.V.F.G.s.V.Z.Z.Z.z.C.R.Z.V.z.Z.V.l.s.V.Z.y.a.l.z.l.c.R.Z.v.c.T.jXT.|.KXG X . . . . . . . . . . . . . . . . . . . . . O = = 9 9 9 9 & u +.*.+.+.+.T r 1 P /.[.cXwX{._.].)./.).Q.).{.{.wX].(.mXmX(.N Z I N ",
"q.-.k u 4 u = & + @ X . . > K 2.1.1.,.! ! ,.J.Q ,.(.,.>.>.&.X .   :   $ + = q q 8 q 9 8 8 9 q y u = a d %.>.5.0.=.0.PXPXPXLXcX2.G mXXXm.F.Z.B.Z.F.V.x.x.x.a.r.r.a.b.b.l.V.z.B.V.s.y.s.G.G.S.x.V.oXV.S.Z.A.p.a.x.D.G.V.B.F.E.G.Z.Z.Z.Z.Z.D.E.D.x.W.F.A.Z.I.p.I.DXBXiXuXP.p.u.x.E.oXR.B.V.R. Xz.e.B.z.y.r.r.y.s.x.r.z.s.A.V.B.B.z.s.r.a.Z.Z.s.r.i.i.b B M B U.^.m S S O.*.+.#.@.dXdX#.#.#._ _ _ | #.| _ #._ _ _ _ _ | } | _ | | | | | | | | | | } } sXdXdXdX@.| | | } sX| _ _ _ | } aXdX} _ _ | | }  .} _ ( `  .@.( w w e e 8 8 @ % % = @ O . O @ + : : : $ 4 ; - 5 1 X X X . . 2 2.2.,.o.Y G ~.CXLXLXNX3 H SXPXLXLXCXxXNXNXwXvXyXNXNXxXNXNXtXxXqXxXeXeXqXqXwX7XQ., v l l v l v Z ~ Q.Q.!.Q.Q.Q.Q.J.:.Q.Q.(._.].(.Q.(.NXZXBXqXI Z U U Y G c S D o.k.U.|.^.}.~.G `.LXPXPXKXvX5./.].vXuXNXuXuXyXeX8X_.L.~ A J.L._.8X8X8X8X{.{._._._.(.{._.Q.Q.Q.(.{.eXqXqX]./.0XxXVXJXVX`.1 . X # .     + + @   # #   r r 1 t [.cX1.G > G ].wXmXmX}.{._.{._.{.{.{.}.eXwXmXNXwX8X(.J.Q.0X0XqXwXmXyXNXqXI ! ).{.qX{.].cX/.C 6 E R d d R R &.R E E L J G ~.~.N.N N N G Y U Y U G S G G G S S t 3 1 K 4.4.4.9.9.;X3.3.3.3.W R d W Q ;.>.!.].].>.J H 7 W 5.L F F L :.U G P G Y o.Y o.U U.2.|.|.U.U.o.S S o.|.`.U.Y D k.k.g.l.Y.W.W.v.b.v.v.D.D.b.D.W.W.x.v.D.E. XR.v.b.x.W.W.v.D.V.F. Xf.M .X Xu.t.u.e.B.F. XF.S.V. XG.A.G.R.E. X XR.E. XF. X XR. XF.s.F.D.R.v.v.v.R.D.c.z.R.Z.c.z.v.E.c.a.l.s.z.l.C.R.v.v.v.Y. Xk.|.2.. . . . . . . . . . . . . . . . . . . . . . O O @ = 9 u 9 9 y [ +.+.7.+.j t 1 s o.!.|.{.].(.).).).).Q.Q.(.{.wX{.].wXwX!.G G A N ",
"9.&.h 4 = u = O @     . . X g >.,.>.,.:.,.,.,.~ Q ].'.>.&.W X : : * & & = 9 q q q q 9 % @ # 8 = - u a R &.4.5.5.;.cXPXLXPXPXhX, U.CXY.m.Z.S.A.F.B.z.s.v.v.a.y.y.r.a.y.y.C.z.V.Z.s.r.s.Z.Z.i.S.B.K.K.A.p.e.S.oXoXoX XZ.z.B.F.A.D.Y.Z.Z.V.Z.E.W.H.E.E.V.V.K.f.P.BXDXBXuXf.V S.r.F.E.x.z.c.Y. XB.y.B.B.s.r.e.r.p.y.i.B.s.V.A.s.B.z.i.y.r.B.F.z.e.u.p.u.h.B B b t.m D o.X.O.7.#.dX@.#.#.| _ _ _ | | | } | } #.#.| #.#.| _ _ } | _ | | } | | | | | | #.sX#.#.sXdXsX| | | } | sX_ _ _ _ } dX} | _ | | aX@.} ) ) }  .} ( w w w w 8 e 8 @ @ @ @ @ O O . O O O : : .   : . . . . # s d j %.2.;.G S l z |.KXKXLX5.X ).LXSXLXKXeXxXNXwXxXxXwXvXxXNXNXxXmXxXeXcXxXxXwXxXxX{.x Z v l l l l v A (.(.Q.Q.Q.~.Q.(.Q.Q.Q._.eXwX}.{.J.}.NXZXyXY N Y D Y N.N.U.Y.^.XXY.^.|.U.S x S xXPXPXPXLX'.Q qXNXNXNXtXtXyXyX8X8X_.L./ Z Z ~ ).)._._.(._._.)._._._.Q.~ J.Q.(.(.{.{.{.qXeX].(.].qXvXVXVX0.3 .   # # # +   . @ # ; g # ; F nXcX>.o.3 , :.}.(.U Q.).Q.(._._.{._.8XeXwXtXwXmXNXmXNXNXmXyXwXwXeXNXSXeXJ ,.{.].{.qX{./.H > < %.R 5 d d $.4.0.'.0.5.:.Y ~.^.U.Y D N N Y Y o.U G G D G G G F S 3 # s <.4.9.9.;X3.3.3.3.3.W W W E ,.1.Q./.(.xXxX0X1.C H /.W H G C C G G Y Y U U.Y U U.o.2.|.U.|.U.o.D S Y ~.~.o.D D h.k.g.W. XW.b.D.W.D.W.W.H.b.G.W.W.x.b.b.v.E.D.x.x.x.v.E.G.x.D.F.F.Z.t.n p.s.s.S.V.D. XD.D.Z.V.A.F.R.A.G.G.R.I.R.G.K.R.A.G.A.V.S.A.s.Z.E.v.v.Z.Z.R.b.z.R.R.x.y.x.E.v.a.a.z.c.l.z.Z.Z.W.l.T. Xk.P [.L . . . . . . . . . . . . . . . . . . . . . . O + = = & 9 8 u [ *.*.*.$.h t > 3 2 U Q.].(./.).).).).Q.).!.].}.]._.}.}.Q.c c G G ",
"9.+.a 4 9 & $ + + O   . . X K >.>.>.~ Q Q ,.,.~ ~ ].[.'.<.5 X X ; 4 f k f f 0 y y q q 9 % % % % = u k $.4.4.>.5.>.VXPXPXPXLXGXhXCXjXk.C.F.s.H.F.V.z.z.Z.D.Z.z.j.y.r.i.g.z.V.x.V.S.r.s.S.A..X^.f.K.f.p.S. XBXMXoX XoX XG.D.W.F.x.v.v.c.x.F.R.D.x.W.oXx.s. XK.p.uXDXiXuXV p.p.z.Z.Z.b.l.l.c.Z.Y.y.i.B.z.y.r.t.i.y.i.s.y.V.A.j.i.V.c.y.i.y.Y.B.y.e.u.n u.u.h.t.t.h.D D O.O. .@.@.dX@.#.| | | | | | #.} #.} #.} } } } | | | _ | | | | | } | _ | | } } } sXdXdXdXdX@.#.sX#.} } | | _ _ | } sX} sX} } @.dX@.| | @.@._ ( ( w w 8 e 8 @ @ @ O O O O O O   O .   . O . . . . . X   ; s K -.;.o.:.U N c c ZXLXLXGX< 6 AXKXVXKXNX{.qXqXxXNXxXxXyXNXNXxXxXqXxXqXxXxXqXxXxXeXl C c l l l z l V ! Q.).~.Q.~.Q.(.Q.(.eX_.Q._.}.yX_._.XXjX}.^.D T.Y.Y.^.Y.^.Y.Y.T.k.h.m l |.VXU < AXPXPXPXSX).6.NXNXNXeXeXyXyXeXeX_.].).J.Z Z A ~ L.~ A A ~ I ~ Q._.J.).J.! Q._.{._.}.qXqXeXqXqX{.[.].xXGXvX<.. . X   #     # # q g r # g 9.[.2.2.Q , G xX}.:.Q._.).Q.).)._.(.).8XwXyXmXyXNXVXCXVXBXNXwXeXqXNXSX8XI !.(.{.qX}.'.L > > 6 R L K j k d %.0.zX[.[./.Y Y Y Y D D D m D U U Y G S G Y G Y S t 2 > o j $.3.9.3.3.3.3.3.3.T 7 W ,././.!.!.(.xXmXVXcXL E 5.U G P G Y P Y Y Y Y Y o.o.U.o.U.2.|.U.U.O.D S Y o.Y Y D D k.M c.E.E.b.D. XE.W.D.H.l.d.a.x.W.x.b.a.a.W.E.x.x.x.D.W.x.x.x.x.Z.Z.V.Z.D. XG.a.H.a.G.G.v.D.V.B.B.A.S.V.F.Z.V.S.z.B.A.S.s.s.S.s.z.s.Z.E.D.x.Z.D.F.G.Z.z.F.F.a.a.W.b.a.b.b.v.z.y.z.R.E.c.g.k.Y S KXcXX . X . . . . . . . . . . . . . . . . . . . . @ 9 9 9 9 8 u [ +.+.+.+.h 5 ; 3 3 3 Q (.(.5.).).).).Q.! ).(.(.~.~.}.~.G x c G G ",
"3.h 9 - % & O O O   X . X 1 K 2.>.>.>.>.~ ,.! ;.,.'.0X[.<.5 o : a k +.T j h f a a f f i q 9 q q u u k R >.4.>.>.;.cXPXPXGXZXPXKXjXz j.R.d.x.F.F.V.s.i.z.z.z.i.i.y.t.i.i.s.x.x.V.d.r.i.m.S.uX^.V A f.^.uXBXMXK.e.s.F. XF. XoXE.G.D.Z.x.B.D.F.G.Z.D.E.F.V.K.K.V P.BXDXuXK.u.p.i.c.x.a.r.l.z.c.Z.c.r.z.B.i.B.i.z.A.B.e.s.Y.Z.C.B.C.C.m.u.y.A.B.e.j.u.u.u.u.t.M t.k.T.o.O.O.O. .@.@.#.#.} #.#.} | } #.#.dX#.sX#.} } } } | _ _ | | _ _ | } #.} } | _ | #.} } #.dXsXdXsX} } sX} | | _ | | | } } } } sX .dXdXaXaXdX} | ( ( w w e e @ @ @ @ @ O O O O . . . @ .   .   . . X . . .   ; 1 X.F 3 L U G G S hXPXPXLX[.> /.SXVXSXSXqXqXNXeXvXxXtXvXvXNXvXxXeXcXeXwXeXqXqXxXNX! , A v l z l z l v I J.).Q.Q.!.Q.~.}.(.I Z J.{.XX}._.^.^.^.Y.XXjXjX|.Y.C.M.T.c.t.g.M b Y GXPXcX< E LXPXLXLXUX).eXNXtXeXyX8X8XeXeX8X8X8X8X~ Z Z v v Z Z Z ~ J.Z Z ~ Z A I I J._.{._.eXwX{.qXqXwXmXcXcXqXcXVXcXP X X X #   # # X # s s a t s X.&.<.1.C C [.NXmXmXyX(.J.J.).Q.Q._.{.qXeXeXeXtXNXNXNXNXVXNXNXNXSXKX).Z ,./.[.{.qX(.Z < < F %.K $.$.a 5 5 K <.'.`.!.Y D D D D D m S S Y o.Y G Y P S S P P F s X ; X.&.-.&.$.&.&.3.3.3.W 7 H ,./.!.,.Q.:.'.}.xX{.H Q 1.E G G G P Y P Y o.o.k.U.U.U.U.|.O.U.|.U.O.D S Y U U.Y D t.m c.oX XZ.Z.R.E.R.D.F.F.b.b.b.x.W.D.b.H.b.W.E.Z.V.V.G.F.x.s.x.H.F.F.Z.H.x.G.x.d.D.H.D.F.x.V.B.B.z.S.x.B.Z.Z.V.S.V.A.Z.B.S.B.z.S.S.x.D.R.G.x.a.B.G.V.V.x.D.D.l.a.D.b.a.a.b.G.Z.i.j.V.v.R.M k.N.~.LXJX> . X X . . . . . . . . . . . . . . . O O . . O % % 9 9 u p +.+.+.+.+.+.a 5 < 3 , J 1./.).(.'.).,.,.,.Q.!.!.Q.(.{.Q.G x C S C ",
"=.h & & $ $ O O O . .   1 s $.>.>.;.Q Q ;.,.,.~ ,./.0X0X>.6 5 a k $.-.$.+.+.h f 0 i f f f y f a k p k R 3.>.Q 3.1.VXPXZXhXhX|.~.N k. XY.l.b. XG.B.s.y.z.B.i.t.p.u.t.i.t.y.z.x.H.x.r.s.S.S.SXyXJ.XXBXSXMXK.p.n S.s.F.F.V.x.F. X XE.R.F.Z.D.G.G.V.D.E.F.V.B. Xf.V .XDXSXuXK.t.y.x.v.a.y.l.y.e.l.Z.j.m.B.u.h.i.C.B.C.C.h.^.Y.M.h.n M Y.t.h.C.A.u.u.t.u.t.M M t.u.j.T.o.o.2.7.7.@.#.#.#.#.sX#. . .} #.dX#.sX#.} } } _ | | | | | } _ ` | } ` | | ` ` | } #.dXdXdXdX#.} sXsX} sX| | | | _ _ | } sX} } | | #.dXdX@.| _ _ ( ( w e e e @ O O O O O . . .       .     .   . . . . :   o * s K > 2 P U :.x S GXPXLXLXL o VXLXVXLXNX].eXcXeXxXxXxXNXtXxXxXxXxXwXeX0X].qXxXSXNX, v A z b b A z l , Z I ! J.Q.(.Q.Q.v l J.~._.XXyXXX X XY.k.c.jXjXjXE.C.k.j.C.g.t.M M.BXPXPXLX0.o qXPXLXPXLXvX/.eXvXwX8X8XeX8X8XeX_.8XeX8XL./ Z v A ).).mXSXI , v l Z v v I _.}.{.eXeXeX}.qXeXxXeXxXxXcXcXVX[.# X X X X # # # # t a f a # 1 K X.2.L F }.CXVXVXmXeX! ! J.J.J.).8X{.{.{.{.eXwXyXNXVXVXmXeXxXVXSX].~ ].).{.{.].,.6 > < H %.%.-.$.j a o o F ;.:.;.Y Y m m N D m v N D U P P Y Y P Y P P P 2 r &.zXkX6.3.-.&.$.$.3.&.W W E >.1.!.!.:.o./.`.[.1.C E Q.Q G G U Y Y Y Y o.D o.o.U.o.U.~.|.!.U.U.T.O.Y o.Y o.D m M g. XoXY.v.W.D.D.E.F.F.F.x.x.x.x.G.F.H.H.v.H.F.V.s.x.H. XF.D.B.s.V.F.B.s.s.S.x.a.l.x.G.W.x.x.s.x.s.s.s.S.Z.D.H.x.V.G.G.V.x.B.s.S.x.S.H.D.D.V.s.A.E.V.s.x.F.D.b.b.D.b.a.a.x.D.Z.z.g.z.Y.c.h.XXjXZXKXGXH X . X . . . . . . . . . . . . . . . . . . O O % 9 9 u u f +.+.+.3.+.+.k a 2 1 2 6 J 1.].)./.6.! ,.! Q.Q.Q.~.(.|.U x G G 2 2 ",
"+.k - : % + O O @   O # 1 j %.&.>.>.>.E Q Q ~ ,.Q ,.'.'.&.k j d k +.-.-.+.X.[ h f q q f h [ j f f h k R >.4.>.>.0.'.`.2.!.!.P c Y ^. Xl.H.H.G.F.x.s.z.V.Z.i.e.n i.u.y.e.r.s.s.H.x.d.d.i.f.SXSXSXSXBX.Xf.p.B.A.A.S.R.F.x.s.V.F.Z.E. XF.Z.Z.F.A.H.D.E.R.V.S..XS.V f.uXuXoXS.y.s.s.z.r.e.i.i.g.c.B.m.h.K.M.M.u.M i.n.M n b b m B h.jXCXM.M M.A.m.M V M u.B M t.j.k.D T.U.8.8.7.@.@.} #.} } } #.sX@.dX#.dX#.sX} } } #.| | | } ` ` _ ` } }  .} } } } | | | } @.dXdXdXdX#.sX} } | | | | _ | | | } } } _ | |  .sX| _ _ _ ' ( w e e @ @ @ O O O . O @ + .     #       X . . : :   : * ; ; K s 2 P U ,.G , ~.KXKXLXNXX E LXKXSXKXqX0XeXxXxXwXxXxXxXxXwXxXvXwXxXqXqXqXqXKXLX(.> I N z z V V c l l v I U ! J.Q.Q.Z c ).J.A _.MXXXXXXX XY.t.b.W. XoXY.Y.Y.R.Y.Y.Y.U.}.KXPXLXAXE < vXPXPXLXLXvX0XeXNXtXeXeX8X8X8X7X_.8XeX_.L./ Z ~ qX_.yXKX~ , c A I Z l N (.yX_.}.}.eXwXeXqX{.{.{.wXNXcXcXcX3 > > X > X X X - X.g t s r 1 r s K L H `.VXvXmXmXmX).I ~ ! ~ L.Q.).(.(.).eXeXwXwXNXNX{.Q.).eXBXeX].wXqX]./.,.Z 2 2 C K R $.$.$.$.[ g 1 r F L J U G c S m v v l v S Y o.o.U P Y U G F F S %.zXbXUXnXkX:X9.4.3.$.k 6 H E ;.;.2.1.1.~.[.[./.;.F ,.0.U P G Y P P Y P Y o.Y U.o.U.U.~.~.~.U.U.O.D o.o.U.U.D m m E.jXW.v.E.oXR.W.oX XE.E.F.v.H.x.b.H.b.x.b.x.F.V.z.s.x.F.W.H.s.y.S.B.i.s.s.Z.W.x.d.x.D.D.d.x.V.V.V.x.x.H.H.D.V.x.s.V.F.V.d.x.V.x.x.d.V.D.G.S.S.V.K.H.s.S. XD.H.v.D.v.l.a.z.Z.Z.B.j.i.Y.t.Y.CXmXmXLXLX`.> X X . X . . . . . . . . . . O . . . . O . O % % & 9 p h +.+.+.+.+.+.h f a s s 2 6 E 5.5.Q.5.~ ,.~ ! ! ~.Q.Q.~.I Z G P C 2 ",
"+.k = & % $ @ @ @ # + ; a K &.&.>.>.E Q E E Q J L >.5.5.$.j R j a j +.+.] j [ ] h f q i f [ h h k h k R 4.6.Q >.<.2 < 3 > , x G ~.U.^.Z.x.G.G.S.s.i.z.Z.Z.i.e.n u.u.p.e.e.i.s.V.x.d.d.i.f..XBXBX.Xu.b p.A. X Xx.B.F.R.Z.V.V.F.V.V.Z.Z.Z.B.Z.F.A.x.R. XZ.x. XS.p..XuXI.A.p.p.s.p.B.i.p.m.B.A.^.M.M.m.^.m.h.z b |.U.z XX|.~.XXMXMXjXCX|.b N.M.n.n.M M B u.u.B t.u.D D D O.8.7. .` } | _ _ | } } dX} sXsX#.#.sX} } } | | #.} } |  .} } ` { ` }  .#.@.@. . .@.dX@.@.@.dX#.#.#.} | | | _ _ | | | } } | | } | | | _ _ _ p ( p w e 8 @ @ O O O . .                   . . . . . : : $ & = - a F P L %.:.o.c hXKXLXLX/.X ].LXSXSXKXxX].qXwXtXxXxXxXwXxXxXxXwXmXxXwXqXwXSXPXSXC N N.B b b z A c l , , x I U Q.!.(.(.(.! z ^.XXMXoXY.oXoXY.b.b.T.R. XY.R.R.D.Z.Y.k.l {.PXLXLXVX2 H AXPXLXPXLXvX7XeXNXwXeXeX8X8X8X8X8X{.8XeX_.L.8XNXQ.wXLXyXv v A A z l l ! }.}.}.wX}.wXwX}._.(.J.).ZXNXxX[.H F F 2 t 1 1 < s 8.-.t r a a r r 1 2 2 U xXxXxXxXNX_.Z v Z ~ I A ~ ~ J.Q.Q.).(.].].{.]./.).].eX{.(.qX).~ E G 3 x 7 s K R $.$.$.$.$.$.s s K P L Y G c v v S v v l S Y o.U P Y o.Y G P G %.q.zXvXnXnXvXzXnXzX:X:XR d k K %.>.>.1.1.!.[.qX0.L s ;.!.L x G G G P Y D O.o.Y o.o.U.U.U.~.U.U.D O.U.O.o.o.U.D m T.oXE.H. XoX XR.E. XE.E. XF.H.D.d.a.D.a.d.a.d.F.F.V.V.d.z.a.r.r.r.i.s.B.B.s.V. XD.s.x.x.G.D.x.W.F.W.G.x.V.V.D.H.s.s.V.D.V.s.d.s.x.x.x.S.F.K.S.S.S.S.i.p.S.R.F.Z.b.Z.D.x.a.l.z.z.z.z.j.M.M ^.SXXX}.ZXjX[.2 X > X . X . . . . . . . . . . . . . O . . . & & & p p h +.+.+.3.#.+.+.T h T k 1 < 6 L >.1.,.;.! ! ! ! Q.U ~.U U G G F F 2 ",
"k a ; % = % % % 8 % * - k R $.%.%.%.&.>.Q E W H H E <.4.R K -.[ u k k h h h [ [ [ [ h f q i f h h h j %.<.4.>.3.R [.bXvXzX'.;.x , v V m.a.Z.E.V.s.s.z.Z.B.y.e.n u.u.e.e.e.i.S.s.V.s.p.s.p.p.S.i.e.p.A.R.s.S. Xx.V.G.F.Z.V.G.F.F.z.V.G.A.S.V.F.V.x.R.E.Z.x. XG.A.uXuXuX.Xp.e.p.p.K.A.m.m.f.B n.B V z N b l U.MXCXCXMXCXCXGXCXGXZXG jXZXM n.N.n.N.V B B u.u.M n n M m S O.O.{ ..) _ _ ( _ _ ( _ _ #.#.#.sX} } sX} | | _ #._ w ( w w w ' `  .{ { ) ( ' } #.dXgXgXdXdX@.sXdXsXsX} } | | | | | | | } } } } | | | _ _ _ ( ( ( w w 8 8 O O . . . @ #   # #     . . . . : X . :   $ : - ; # a 1 s P P 2.|.U S VXPXPXKXW X VXLXSXKXSXcX8XxXxXxXxXxXxXxXwXxXcXwXqXqXqXVXSXSXPX(.l N.M.M n V b z Z c l , , A ! J.!.{.XXyX_.mXMXCXjXY.Y. X XE.Y.c.C.C.B.B.v.D.a.y.A.n.z {.PXPXPXzXX ^ SXPXLXPXLXNX7XrXyXtXyXeXeXeXeX8X8XeXeXeX].eXwXL.mXSXSXJ.l N c z z l z ~._.XX}.}.}.mXxX(.Z l J.xXmXZX].!.1.2.;.E L L X.2.q.=.a t r r a 1 1 1 X 2 zXVXNXNXNXwX! Z , x C Z Z I Z Z I I ~ ! J.Q.Q.! ~ ~ ).~ ~ ~ E J Z J J C C H X.X.-.*.+.$.+.K g g K L L P S x v v v l l l S G U o.Y U P P P P L 4.0XnXkXkXzXzXnXzXbXnXnXvXq.3.3.&.%.2.5.0.`.[.[.0.K s L 2.F 2 x G G Y S P Y D o.o.U.U.o.o.o.o.o.o.U.o.U.U.~.U.v D oXjXv.E.E.G.D.F.F.H.Z.D.W.G.x.x.b.b.G.H.x.s.s.G.D.d.a.r.d.a.r.a.B.s.V.B.V.s.x.F.Z.s.s.D.E.F.D.E.W.F.F.x.d.V.G.Z.x.s.V.D.V.s.x.x.B.G.B.i.S.S.p.p.p.S..XS.p.F.A.V.v.v.R.z.y.l.z.z.V.B.i.j.M M.CXCXjXY v ~.3 X 3 X X X . . . . . . . . . . . . O . . O O & p p T h ] ] p #.+.3.+.+.+.T T k a 5 1 6 H E U ,.,.,.,.Q.~.~.J.I G G F F 2 1 ",
"a u - = = % % % = = # ; a R $.$.%.&.>.>.>.E E Q Q E <.4.&.$.=.$.k f k f f k h [ [ *.*.[ h a f f j j j %.4.4.>.>.zXJXPXPXPXLXKXKXNXmXn.i.B.d.F.G.B.B.V.Z.z.e.n e.e.n e.n e.i.s.S.S.a.s.S.A.S.p.e.i.K.F.D.s.Z.oXx.s.G.E.G.V.A.F.Z.x.H.R.G.S.B.Z.A.B.F.E.D.V.G.Z.oX X.XuXoXS.p.p.p.K.f.P.K.f.b f.A.K.J.|.^.Y XXXX|.CXCXo._.CXmXZXZX|.CXKXY N N.N.n.V b m B h.M n M D m S O.O.{ ) ( ( w ( _ ( _ _ _ sX} } } } } } | | | | _ _ p ) _ w w w ( ) ( w ( e w ( ( @.dX@.@.dXdXsXdXsX#.} } | | | | } } } } } | } } | | | _ _ ) ( p w 8 w 9 q = # @ . # #       O .   . O . . . .   O $ & 4 4 ; ; * # s s J o.~.3 ,.KXPXPXVX< W SXLXAXSXSXwXqXxXxXwXtXxXwXxXwXxXqXqX(.NXSXxXAXPXVXm z V b b b V V I ~.Q.I l v J.!.~.(.mXZXCXCXmXXX.XY.C.Y.R.R.Z.B.z.i.i.b.b.b.b.b.Z. XD N wXLXLXLX5.X 0.LXLXLXPXLXvX0XeXNXtXyXeXeX8X8XeX8XeXeX8X0X8X].CXNXSXBXz N B V N b z N N.^.}.wXmXmX}.J.l , ! wXmXmXqX1.1.1.2.;.;.>.;.q.q.=.K g a 1 - # ; X X X '.VXcXNXyXNXeX:.J Z x l C v C v Z Z A G Q ~ Z C Z ~ ~ ~ W ~ W Q Q ,.>.L H K K R $.$.*.*.*.j g F g P P G x x l l , l 3 v S S o.o.o.Y O.o.G P ;.[.nXvXnXzXnXkXzXkXzXzXnXbXnXzX:X4.&.=.9.q.0.hXzX0.K s X.%.F 2 F F S S P Y P P U o.U.o.o.o.U.U.D k.o.~.2.~.~.o.m Y.XXE.W.oXW.G.G.E.F.F.F.G.G.D.x.x.H.b.G.D.s.d.r.d.r.e.r.r.x.G.x.x.S.x.F.D.Z.V.Z.R.F.V.V.Z. XF.s.Z.V.x.x.V.s.B.D.Z.B.x.V.A.V.x.s.B.D.F.A.S.f.p.p.V f.oXuXK.e.A. XZ.V.Z.R.z.j.z.z.s.B.C.m.h.B m MXCX}.D U.o.3 > > X X . X . . . . . . . . . . . . . . : & p k +.+.+.+.p p p +.#.+.+.+.T p k k 4 o < 2 t x J ~ :.! :.Q.Y I G I G S 2 2 1 ",
"y u u 0 9 % = % # % % = f R $.&.&.W &.Q >.>.5.5.`.0.5.q.9.-.3.$.h a a a f f f [ [ [ *.*.[ ] r q f k d R >.>.E 3.LXPXLXJXJXLXPXPXPXKXCXm.i.Z.A.S.x.s.V.Z.B.n n n n n n n n i.B.B.V.s.s.d.G.R.s.i.B.F.Z.V.s.V. XE.s.G.F.A.s.Z.A.A.s.V.F.A.p.x.F.V.V.Z.E.R.x.D.V. XoXoXMXoXS.p.p.S.p.V f.uXBX}.yXCXZXKXCXCXCXmXv Y KXCX}.ZXKXZXo.hXCXCX}.N D Y N.Y z z z A n.u.t.h.k.D D O.......) _ _ _ _ _ _ _ | | } sX#.sX#.} } | } | _ #.lXHXIXFXnXgX' w ..dXkXFXgX` e i @.@.gXdXdXdX@.dXsXsX} sX| | | } sX} } sX| } sX| | | _ _ ) ' w w w w y 7.X.t # # # X X .   . O . O . O : . . . : : $ & & :   - 1 X 1 S Y U.~., wXLXLXPX0XX 6.KXLXKXSXAX{.qXtXmXmXxXwXwXqXwX}.wXwXCXSX:.NXPXKX(.b b M p.b V z l I (.{.).c U (._.yXmX~.J.N.V b V n.j.m.Z.C.l.y.j.s.x.b.b.H.H.E.l.c. XA m mXLXPXLXE o 0XPXLXLXLXLXvX7XwXxXtXyXyXeX8X8X_._.)._.{.].eXSX].xXSXz N A N V b z l Y ^.}.}.mXmX_.~.A l c }.mXxX[.;.:.:.:.>.,.2.1.q.[.8.-.j a a 0 1 ; X < . 0.bXxXvXwXvXmX8X(.).L.I Z Z v 7 x x l Z Z x > , ~ ).~ J.Q.! Q.,.6.,.E L H j X.X.+.+.$.[ [ [ X.g P F K S t 3 , , 3 x v v 3 x U o.o.U U U P J 2.[.zX:XzXnXnXnXnXnXzXzXzXzXzXnXzXzXq.q.0.8.0.zXzXq.X.K 2.X.F t P P S P P D P o.o.o.o.o.o.o.U.o.o.o.U.U.U.o.~.N U.jXE.Y. XW.G.G.W.oX XW. XW. X XG.H.b.d.x.d.r.r.r.r.a.r.d.x.D.W.H.x.x.a.D.D.H.x.x.D.F.D.Z.V. XF.r.V.x.V.Z.x.S.B.G.Z.V.s.s.F.B.s.B.Z.A.R.K.K.S..XuXI..XuXBXK.n S.F.A.v.v.Y.B.z.z.z.i.z.Z.m.i.B b M.MXh.m.|.~.x > > > X . . . . . . . . . . . . O . . . & p +.+.+.+.p T p p p p T p +.p p h p u 5 o X X 3 3 x J L Y U Y I c Y G G F t 1 o ",
"= u y a a y q 9 9 = + $ u j $.-.R E &.>.5.0.'.[.'.9.q.hXq.=.+.k a f j h h j [ h ] [ X.+.*.[ [ f # g d d &.W W zXPXJXVXJXJXVXJXKXKXLXCXn.i.R.D.x.d.s.A.A.i.n b n b n b n e.B.x.z.V.x.s.a.F.D.x.s.s.Z.F.V.x.x. XD.s.x.F.G.B.B.A.F.s.V.F.D.B.s.V.Z.V.Z.F.R.V.Z.F.S.oXuXuXoX Xp.p.f.V f.BXMXBX8XXX{.~.KX~.|.KXZX|.mXGXmXmXZXhX!., x o.c G ^.D h.N.N A l l b D m.h.m.k.k.D Y P X...{ } } | } }  .sX} sX#.} sX} } sX} } ` }  .@.nXHXIXPXPXkXw p lXPXPXPXIXIXkX_ ` dX@.dXdXdXdXdXdXsXsXsXsX#.} sX} } } | | | | | | | _ _ _ _ p w w w 8 X.8.hX..t ..t 3 .     . O @       . .     + + + : . : - X > t S N U.|.D c VXPXLXPX5.> [.PXLXKXKXNXmXyXNXyXyXyXmX}.yXmXmXMXCXXXN.}.CXMX^.J.J.J.N.N.n.N z , v J.(.~.Q.~._.mX^.N z l V u.m.B.j.i.r.l.s.s.z.B.B.s.s.s.D.E.F.a.Z.Y.u.z {.SXPXAXE X 0XPXPXLXLXLXtX).wXeXtXmXeX_.8X8X_.).eX(.).SXSXJ xXKX! z N.V B B b b z N Q.}.mXmX}.}.}.Y c (.mXNX{.U Q Q U E %.%.>.!.0.9.-.+.j X.[ t g 1 . : '.VXxXxXxXwXtXxXxXqXeX].).Q.I C , , , < , > Z C ).qX,.Q.(.)./.6.'.6.R R T K j j [ [ [ X.[ j X.[ P P t t 3 , , l x x x 3 , t G o.;.o.U L O.G 2.hXzXzXzXnXnXnXnXnXzXkXzXnXrXzXzXnXnXnXnXfX=.q.nXq.X.-.q.<.X.t F P P P S P Y P Y o.o.Y o.o.Y N.o.Y N.~.o.o.U., ZXZXv.E.oXW.D.F.E.E.F.D.V.x.x.x.s.a.r.r.a.a.a.r.r.d.D.D.x.Z.D.F.F.s.b.H.D.Z.x.s.x.F.F.Z.B.s.R.F.l.x.D.Z.F.z.s.V.V.F.z.s.V.F.V.x.s.B.V.V.s.p.P.uXiXpXuXuXuXp.f.A.S.G.S.R.Y.c.l.B.z.u.z.j.i.u.e.M u.e.t.j.^.~.Y , > X X . . . . . X . . . . . . . . : 4 p +.3.#.#.T T T p p p p p T p T p p k p 4 4 # < 3 3 3 S G Y o.Y D G o.L R k 4 4 p ",
"u a a k f f a a 0 = % $ = u k k d K E 4.0.[.'.q.q.q.q.zXq.=.k a k j [ j [ *.*.[ f [ [ [ +.+.+.] r # 1 1 5.>.C SXPXLXJXKXPXLXJXZXZXSX}.B j.E.G.x.V.V.A.A.u.n n n b b b n e.B.z.z.V.z.b.y.Z.F.B.s.s.Z.F.Z.x.z.E.D.x.x.F.F.V.B.Z.Z.z.V.F.F.s.s.V.F.V.V.F.R.Z.V.R.V. XF.F. X XS.p.p.V uXDXuXMXJ.(.eX(.KX~.l mX~.}.NXY v U S v o.:.|.U.~.XXCXM.M Y Y Z c l l B n.h.k.D k.k.Y S P P { { } } } sXdXdX@.#.sX#.#.} } } } | | | ` _ ' @.FXPXIXfXp w.IXPXHX:XkXIXIXkX@.@.gXdXgXdXdXdXdXdXsXsX#.} sX#.sXsX#.| sX| | | | _ _ _ _ ( ( w w 8 w @ O.hX8.O.O.<.O.# #   #   . @ #     X   X   + O : . : : X > 3 m D k.U.~.v Q CXPXLXLX/.x }.KXLXKXKXMXyXyXmXMXmXXXXX^.^._.^.^.N.n.u.n.u.f.K.^.N.A B Y N A z l , v Y Y A A N.A V B f.N.m.m.j.p.e.r.r.r.y.s.z.B.V.Z.y.r.v.R.Z.z.x.A.B V ~.BXLXKX6.. zXLXLXLXPXLXqXqXwXeXeXeX8XyX{.)._._.).8XKXxXC VXPX(.v A B u.m.n B z l A |.mXmXmX_.}.}._.wXmXVXwX! U Q Q Q L L %.;.X.%.*.*.*.*.X.X.X.K . E JXcXqXyXxXxXxXwXwXeXqXqXqXeX).,.~ Z 7 > > ,.qXC < ,.].Q.Q.{.'.6.7X6.W d j j j K j X.[ ] j [ ..g g j P t 2 3 x x S S 3 x 3 3 x L o.o.E U L P >.zXzXfXzXzXnXzXnXnXnXzXkXkXkXnXnXzXnXnXbXbXq.8.9.*.[ 2.8.2.X.K P g t g P P P P o.D o.o.o.~.o.o.o.U.o.~.:.o.S S CXjXc. XE.W.D.E.E.G.D.V.s.a.a.a.y.d.a.r.d.x.s.d.a.H.E.F.x.V.x.F.Z.s.x.v.D.W.x.x.F. XF.s.s.z.Z.D.s.z.V.H.F.z.s.v.Z.F.x.s.x.F.V.x.s.x.Z.V.s.p.S.oXiXpXpXiXuXp.m.A.G.G.B.Z.Y.z.y.z.c.g.j.u.u.t.t.t.j.j.j.C.C.Y.Y l > X X X . X . X . . . . . . . . . 4 p +.+.w.+.T #.#.T T #.#.p p p p p p p p 4 4 4 # t 1 1 2 v G o.~.o.U 2.;.>.R 4 4 p T ",
"k f f f a f f f f 0 9 * $ $ $ * 1 5 d %.1.q.q.0.8.9.[.[.9.j a - g $.$.[ [ *.*.[ [ [ [ { [ *.*.[ ] 9 1 1 ;.W ,.PXLXLXPXLXLXPXLXPXKXKXU.n A.E.G.x.V.V.A.B.u.n n n n b b n e.Z.x.z.D.x.s.y.v.F.x.z.s.x.F.Z.s.x.F.F.s.x.F.R.V.B.Z.A.z.B.F.Z.S.s.V.Z.B.V.F.R.V.B.A.Z.d.r.p.S.S.p.p.p.A uXDXyXBXuXBXmXZXCX!., U v }.yX|.|.mXjXZXCXKXCXCXGXMXjXU.D Y A I Z l l N B h.h.k.D D D Y X.] ..{ } } sXdXdXsX .sX#.#.} #.sX} } } } ` } } e w nXIXIXw.& w.IXPXkX8 p FXPXHX@.@.dXdXdXdXdXdXdXdXsXdX#.sX#.#.#.#.sXsX| | | | _ _ _ _ ( ( ( ( w w w @ t 7.8.7.O.8.8.r # . + # . . #   .   X X . .   . . . . X > l S D M.N.|.Y v ^.LXLXPXCXG G mXZXmXXX_.^.}._.^.^.K.Y.n.B u.n b n B M b b n m b z z A N.N m N l l l z A N z z z V n.B h.u.n n n e.e.e.t.y.s.B.Z.Z.R.Z.z.z.Z.Z.l.a.V.A.h.B B XXKXLX,.o rXPXLXLXLXLXtXqX8XeXeXeX8X8X_.8X_.{.BXKX]., SXLX}.v D n.u.m.u.n B l z U _.jXMX}.~.{.yX{.(.{.wX:.U U L L X.K F t K %.-.*.*.-.-.X.0.r 1 AXPXvXqXvXtXxXwXwXqXqXeXeXeXwXwXeXeX).,.! ].KXLX5.X X Z (.].{.8X].6.E W R T j j j g g g g [ [ j [ K g s t 2 S S D P G S 3 3 > 3 P L E Q X.L H 2.hXzXkXzXzXnXzXnXzXkX0XkXkX0XzXnXnXzXnXnXFXcXhXw.X.*.fX[.=.P s g g t t P S P P Y O.Y o.o.o.U U.~.:.U.o.o.o.x U.CXXXc. XW.v.G.F.F.D.Z.V.s.F.D.V.x.x.l.a.b.G.V.x.x.x.R.W.z.Z.s. XD.s.V.x.F.F.F.Z.V.s.s.z.S.s.V.Z.z.a.z.v.E.x.z.x.Z.F.x.s.z.F.Z.x.s.s.D.Z.x.p.f.uX1X1XuXBX.Xp.m.A.V.K.V.A.R.z.y.j.z.j.y.e.y.u.t.t.j.C.C.C.j.M.N.Y , X . . . . . . X . . . . . . . O p 3.#.3.#.#.T +.T T p #.#.T p T p p 4 4 p 4 4 4 - # # 1 x 3 P 2.2.U o.!.<.%.T : 4 +.w.",
"k f a u 0 y a f a f y = $ . . . X X o a j %.%.%.<.&.*.*.j a a a f h h 0 y h [ f ] ] [ [ ] [ [ *.h r # 1 C c CXKXXXmXZXZXCXKXKXKXLXCXN.u.R.E.D.d.x.V.A.B.p.e.n n b b b n e.V.z.z.Z.x.s.a.v.F.x.s.a.x.G.D.s.z.G.F.V.x.Z.F.V.B.Z.Z.x.V.Z.F.z.s.V.Z.V.B.A.R.Z.B. XF.S.V.A.S.S.f.p.P.A DXDXP.I _._.A U x Y c c |.ZXSXmXCXKXKXKXZXCXCXCXGXjXjXC.B B N Z Z l , m B N u.k.D D D P P X.] { } | } #. .@. .#.dXsX} } #.| sX|  ._ | @.{ ] FXPXIXw.8 kXIXPXkX] p nXPXFX@.dXgXdXgXdXdXdXsXsXdXsXsXsX} sX#.sX#.sX} | sX| | | _ _ _ _ ( ( p w w w e ..fX8.X.8.8.t 3 > # X       . X .   . . . . . X . X , , x Y n.n.M.^.U.B z |.CXCXCX_.B D A N n V u.h.B b b b M b n n n n e.u.e.B p.V b A f.f.^.^.B l z z z l l V z b b b m V b b n n n n t.t.y.y.j.z.z.c.x.C.Y.R.Z.z.V.Z.z.g.z.Z.^.M z ~.KXLXqXE eXLXLXLXLXDXwXyXyXyXyX_.XXyXXXeXMXLXLX_.c SXLXmXz n.h.t.B.h.b B V l c ~.}.XXyXU G I G C J Q U J L U L %.2.s 1 s j +.*.-.=.=.0.8.a q.PXAXcXqXeXxXxXwXqXeXqXeXqXeXqXeXeXxXxXxXNXVXSXKXSXqXE X L {.].(.(.~ ~ J H L L K P F g j g j [ j X.X.$.g F s S P G G S S v > > 3 F P L L L P g <.[.zX0XzXkX0XkXzXzXzXfXkX:XkXkXzXzXnXnXzXnXbXnXzXq.nXbXnX-.g ; t F g P P X.P P P P o.o.U o.o.!.o.U.o.U G P 3 |.CX^.T. XY.H.F.E.G.V.V.G.D.F.D.H.V.H.H.s.H.F.V.V.x.z.H.F.x.V.S.F.Z.s.x.S.Z.A.B.i.s.B.s.y.y.V.V.F.V.a.l.x.D.x.a.x.Z.E.z.s.x.D.Z.s.s.s.Z.D.S.p.P.iXuXiXiXuXP.p.B.S.S.G.V.A.Y.A.j.j.g.y.t.n j.j.i.t.t.m.A.B.j.Y.|.}.~., X X . . . . . O . O . . . O u #.w.3.+.#.T #.p #.#.p T p T #.T p p p p p p p 4 ; = = 1 3 t x P S U 2.0.-.g 4 p p 3.w.",
"a y u 9 = = q q f y y q % O . . . .   X * 1 s g g a 1 # * * - a - = O + @ q r f ] [ { [ [ ] f [ [ p . 3 > v CX^.b b z m D U.}.XXMXXXg.j.Y.W.H.b.S.V.V.m.u.p.M n b b b n e.V.x.s.D.x.a.a.x.F.v.x.a.x.D.F.s.z.Z.A.V.z.Z.F.x.z.Z.F.V.V.V.D.B.s.B.Z.V.V.Z. XA.S.R.F.V.G.A.K.A.S.f.A A BXDXP./ _._.J.I |.CXMXNXZX|.ZX~.jXCXZXMXU.}.KXBXjXMXCX XM Y Z x C , , l N N D D D N S S F g ] ] } } #. .dXdXaXsX@.} } } } } } _ | | | ` ] @.FXPXIXw.& :XIXPXFX+.+.HXPXHXdX@.dXdXdXdXdXdXdXdXsX#.dXsX#.} sX#.sX#.} sX#.| | _ _ _ ( _ ( ( ( w w e e ..fXfXO.hXhXP S t > X X . . . . . . . . : . . X X > , , v Y U.M D M.M.N.h.B Y.^.m.M.K.M.h.h.u.n e.e.n e.e.n n n t.t.t.t.i.t.t.e.p.V K.oXuX.XuXK.V V b z m z z b V V B f.B B B V B e.M t.t.y.j.y.j.j.i.y.j.l.z.z.j.z.Y.R.c.b.y.z.R. Xn.b Y KXPXNX(.xXKXLXLXLXCXBXMXuXMXuXyX.XXXXX.XyXyX_.N.CXLXZXb h.m.j.j.j.M n N z z N.|.}.mX}.c > x ,./.J F G ;.o.o.1.8.g # t X.*.*.X.7.8.8.t 0.IXPXAXcXxXxXtXwXxXwXwXeXqXqXeXqXqXqXeXeXvXNXvXvXAXPXLXLXeXZ /.qX(.Q.J.Y G J U G P t 3 S P P X.X.j X.$.$.X.K P P P S S S S S 3 > 3 s F F s s K L <.q.zX0XkX:XzXkXzXkX:Xq.fX:Xq.q.fXzXzXzXzXkXzXnXkXzXnXbXzX-.g f X.%.=.2.2.o.O.;.X.X.U o.U o.|.|.o.U U U P S > }.GX}.Y. XZ.D.F.G.W.V.x.Z.F.D.V.V.V.V.x.a.x.E.Z.V.V.H.G.F.x.s.s.V.A.S.s.S.V.S.B.p.e.e.S.D.Z.s.x.D.D.a.a.v.D.x.s.z.Z.F.x.s.s.D.Z.x.s.x.V.F.B.p.K.BXiXuXiXI.f.p.S.z.B.A.B.C. XY.j.i.t.h.t.n i.B.j.u.t.i.C.B.t.Y.|.XX|.x X X . . . . . . . . . . . 4 +.w.7.3.#.+X#.T #.T T p #.T p #.+.T T p p p p 4 4 8 & 9 ; t t t 3 1 K =.=.g & 9 +.#.=Xw.",
"f a a u 9 9 9 9 9 9 0 0 - % O .   .         # ; r # . .   # = * %   . + = q f ] [ X.*.[ *.[ ] h +.[ r < > c XXk.m.M.Y.T.h.m n M T.h.t.c.W.W.v.a.x.B.A.m.u.u.u.b b b b n e.V.z.a.D.x.b.a.s.F.D.s.b.d.D.F.s.B.Z.R.V.s.v.D.x.s.V.F.V.z.V.A.V.s.x.Z.Z.B.Z.R.Z.z.Z.Z.s.s.S.A.A.S.f.A / DXBX8XBXyXSXSXCXSX}.mXmXXXY XXCXMXKXMXMX^.B XXjX^.Y.E.C.u.A x 7 v C , , z N Y D S c S 2 s f f #.{ } #.dXdXdX@.dX} sX#.} } } } sX| | | ' { +.FXIXIXw.8 kXIXPXnXh p FXPXHX@.@.dXgXdXgXdXdXdX#.dXdXsXsX#.sX#.sX#.sX#.} | | _ | _ _ _ _ ( ( ( ( w ) e e { 7.fXhX7.S S t 3 > < . . . . . . . . . X X X X > , , z N m n n m.m.M.A.t.j.j.n e.u.e.u.n e.n e.n n e.u.r.y.p.y.s.y.e.y.z.j.u.u.V S.uXBXuXuXV b n.u.n u.M M b b V B B B B B n b n M u.h.h.j.i.j.z.j.i.y.i.l.C.z.z.Z.Z.Z.C.x.s.z.A. Xn.z ^.CXLXSXJ.Q.MXBXyX.X X^.^. XR.B.f.S.i.n b e.u.V ^.jXXXM h.C.j.z.C.C.M B N z z ^.|.}.mXQ.> Z qX].J C K ;.;.K %.X.t # g *.X.X.-.-.X.1 g zXPXPXSXxXxXxXvXwXwXwXwXxXeXqXeXeXqXqXqXeXqXxXVXNXAXLXAXKXLXxXJ Q.}.^.~.A G c c c l l 3 x S F P L X.X.K j $.K K P F S x S S x , > > 2 1 2 6 d R =.<.9.0XkXfX:X:XzXkXkXzXq.q.w.q.q.fX:XkXkXzX[.q.q.fX9.-.[ *.%.$.=.8.8.8.0.9.`.8.8.o.o.U X.o.1.`.!.U G Y U Y S > CXPX^.C.^.B.Z.x.D.F.Z.x.Z.F.F.Z.Z.F.R.Z.x.x. XR.s.V.D.G.F.s.s.V.A.A.B.f.K.f.f.V n r. XoXoXV.s.s.D.D.s.s.v.E.x.s.z.V.R.V.b.s.Z.D.s.x.s.V.F.B.p.p..XiXiXuXuX.Xf.m.S.B.F.B.A.Y.Y.h.t.t.j.t.n t.j.j.i.t.g.B.c.g.t.M.U.Y > X X . . . . . . O . . . & T w.w.+.#.+.#.T #.T #.T T p p #.T #.#.#.T T p p p p u u q 0 r t g X.K d t f $ 9 +.+.w.w.gX",
"f k k y q q 9 8 % 8 q 0 u - $ O O + + O + O   + # * +   + ; ; * = = 9 q y i f ] { *.[ [ fXfX=.f q h K 3 3 U.XX^.XX X^. XR.Y.Y.c.g.c.l.b.W.D.x.b.B.A.A.i.u.u.t.b b z b n t.C.z.s.D.x.l.s.s.W.D.a.x.b.D.Y.i.B.C.R.V.s.V.E.Z.s.x.D.Z.s.V.F.V.s.B.G.D.B.Z. XA.s.Z.Z.x.B.Z.A.B.K.P.f.Z DXDXuXuXV _.yXMXmXb MXmXMXN.A MXXX X^.^.^.M M t.u.e.b h.N.A Z Z Z Z Z l l c c G c c F F j j ] ] {  .#.dX@.dX@.dX@.sX#.} } | | | | ` ` { ' ] FXPXIXw.8 :XIXPXnXT h nXPXHXw.#.dXdXdXdXdXdXdXsX@.#.sX#.sX#.#.sXsXsX} } } | | | _ _ _ _ ( ( ( ( ( ( e w ) @.gXfX..t S S S , X X X : . . . . X X X X > , , l N D h.n.Y.m.A.A.B.j.i.e.e.e.y.e.n e.e.e.y.V.B.i.s.V.B.V.s.B.C.z.y.z.A.B.i.f.V f.8XuXuXuXV p.K.f.u.u.h.B n M B V B V M b n b n M h.M.C.k.j.j.C.C.c.j.j.Y.E.Y.z.a.c.Z.Z.x.s.s.B.A.^.u.u.XXMXMXN.V f.m.f.t.t.t.y.j.y.e.r.f.s.r.i.B.A.y.n h.M.h.j.c.z.l.Z.C.n.n.u.b z B ~.^.mX}.G 2 U C X F P K t t r r 1 g X.X.[ *.8.X.# -.zX8.KXPXLXNX0XqXwXxXeXxXxXxXwXeXeXqX8XeX0XqXeXxXAXvXUXPXAX0XLXLX! C ^.}.A.n.K.^.U.N.N.m v l , x x S X.%.$.$.$.X.K K F F x x S x , > < 2 5 5 R &.=.4.9.9.q.:X:Xq.:Xq.q.:X:XfXq.q.kXkXq.q.fXq.q.q.q.q.9.j a u h $.-.9.9.9.9.8.0.`.q.`.8.2.;.X.2.o.:.U G J Y P U G Y CXGXY.C.R.V.x.v.G.D.x.V.D.D.V.x.V.G.F.F.x.V. XE.z.x.x.x.G.x.s.S.K.K.f.f.f.f.V p.K.MXBXoXV.y.s.x.F.D.s.z.x.F.V.z.z.x.F.Z.s.s.V.Z.s.s.s.x.F.S.f.V f.pXiXuXuXuXS.m.S.S.A.B.M.M.B.u.n n u.h.n y.j.h.g.u.j.z.B.j.t.t.h.Y x > X X . . . . . . . .   h 7.w.w.#.3.+.T #.T #.T #.T p #.T T #.T #.T #.p p p p p p p f y a j *.-.p 4 4 p +.w.w.w.w.=X",
"f f h f a q = = % % 9 y y u = $ O O O O O $ % + = = ; +   * - 0 - q r i t f f e i ..i ] kXFXfX[ f ..g 3 l ^.jX^.Y.Y.Y.Y.R. X X XR. XR.b.W.D.H.Z.B.B.A.i.e.u.u.b b b b e.r.Z.x.s.D.x.s.x.a.F.D.b.x.a.V.A.u.m.m.Y.C.j.C.R.D.a.x.F.D.z.V.F.V.s.B.Z.Z.B.V.R.Z.z.Z.Z.z.s.B.V.S.A.S.f.Z 8XDXtX8Xn.MXXXXXSXMXCXXXY.^.n M j.b j.n e.j.j.i.z.Y.B.A.A.V Z 7 C Q ~ 7 l Z x c x C G E $.$.+.] ] }  .@.dX@.sXsXsX#.} } } | | | aX| ` } ' { FXPXHXw.p kXHXIXFXk +.HXPXHX@.#.w.dXdXdXdXdXdXdXdXdXsXdX#.sXdXsX#.#.} sX| | | _ _ _ _ _ _ ( ( ( ( ( ( ) ..{ O.fXO.S O.k.o.v > X > : : . X . X X X > , , v D |.XX^.A.C.C.B.e.e.n e.e.e.t.p.A.V.e.a.s.V.F.V.s.V.F.F.Z.B.Z.Z.Z.B.V.C.F.s.f.p.S.uXuXuX.Xn f.A.h.B.g.k.u.p.M n b M b b b b b b M M h.k.j.j.c.C.A.B.j.z.C.Z.Z.c.a.i.C.R.Z.s.V.Z.R.Z.^.m.m.u.i.B.B.r.y.D.Z.z.z.D.D.V.s.b.D.D.x.Z.D.R.Z.y.t.C.Y.j.c.c.i.V.B.C.i.M u.V b B ~.mXmXY > C > 3 s t 3 X X . = j g P X.-.O.X.t X.KXbXs bXLXLXLXwXqXeXwXwXwXtXxXNXxXwXqXqXeXqXeX0XvXNXAXAXLXAX7XLXPXNXx A ^.h.m.Y. X XXXXXXXXXU.U.U.Y c P X.K X.K T K K P S x x x t , > 1 s d R 4.9.4.4.3.3.9.:X:Xw.w.*.+.w.q.[.kXq.q.fX:XzXfXw.$.7.*.j = = h $.$.-.=.9.=.=.8.9.8.8.8.`.0.<.2.2.;.U L x G o.U U U S |.CXXXB Y.R.Z.F.G.F.x.x.V.D.V.V.B.Z.D.F.D.a.a.D. XV.a.d.r.G.G.S.f.^.S.f.A V V K.BXSXuXV.i.S.x.s.H.W.x.s.z.v.Z.x.x.s.x.D.Z.z.a.V.D.s.s.s.V.F.V.S.p.V I.uXuXP.I.S.p.s.V.A.m.m.m.n.B n b M t.n u.i.j.y.t.i.C.C.v.g.t.C.}.|.x . X . . . . . . . . & +.w.w.#.3.#.#.T #.#.T #.T T #.p p T T #.T #.T +.p #.p p p p ] ] f q f p p p +.+.#.@.w.w.dXgX",
"k f f h f u 8 & 8 # % 9 y a u 8 @ & @ @ O @ & @ % + O . O # - = ; = q r i y q q e e @ e *.fX7.f ..g ..3 l hXXXY.Y.^.Y.Y.Z.Z.Y.E.E.E.E.W.E.E.W.T.Z.A.C.j.u.u.n b b b b e.y.V.x.s.D.Z.a.z.s.v.E.x.a.y.B.C.M.n.M B n j.T.Y.Z.V.z.Z.A.B.v.A.Z.j.i.Z.Z.C.c.R.Y.A.C.Y.z.z.V.j.A.A.S.P.A 8XDX_..XuXMX.XM.^.XX XV b n.A.i.m.B.B.B.m.B.z.z.z.B.z.B.N.Y v Z H Z Z x 3 , 2 2 x 2 6 s d j h ] ' } @.@.@.#.} @.#.#.} } } } sX| | |  .` ..#.FXPXJX+.9 kXIXPXnXh +.HXPXHX@.#.@.dXdXdXdXdXdXdXdXdXdX#.dXdXsXdXsXsX#.| | | _ | _ _ _ _ _ _ ( ) ( ( ( ..) .. .8.hXO.O.O.T.D x > X X X X X X > X > , , v D N.N.Y.f.e.e.e.p.n e.u.C.A.m.p.p.B.Z.s.V.B.B.A.G.V.B.V.F.Z.B.B.V.C.B.z.A.V.B.p.n K.iXuXuXP.b f.K.f.i.M.u.t.m.u.V V z b b z M M n m h.n.M.m.g.j.A.Y.Z.c.j.l.A.Y.v.Y.Z.v.V.F.A.Z.S.z.V.Y. Xs.s.z.D.W.Z.D.E.W.v.b.D.D.H.H.x.D.H.x.x.x.D.D.a.l.C.v.l.l.z.l.i.j.B.i.t.u.m.n.z Y XX}.c , 2 3 s H 1 X # # 1 j X.X.8.o.O.[.O.2.GXPXbXX 5.LXKXLXSX0XeXeXqXvXmXwXNXvXyXxXwXwXwXwXwXNXVXAXUXLXLX0XAXPXLXQ.V Y.z.t.t.k.t.j.m.C. XjXjXjXhXk.3 x P K j K K K L S 3 3 x , > < s %.4.9.0.;X3.w.3.3.w.w.kXq.3.+.*.4.kXq.fXq.kX:XfXzXkX=.h j a + * f $.-.-.=.=.-.=.4.9.9.q.<.8.q.[.q.8.2.;.P x L ,.,.:.U U Y Y XXY.C.R.D.x.D.D.H.x.x.F.G.s.s.S.z.A.F.s.s.s.D.F.i.r.r.s. X Xi.p.uX.XA A K.uXSXBX XV V S. XV.s.x.Z.D.s.z.x.D.Z.z.z.x.D.Z.s.a.V.Z.s.a.s.V.F.s.p.p.K.uXP.P.I.p.f.i.i.A.A.f.h.m.B V b b n M t.e.u.g.i.i.j.z.B.C.c.j.Y.XXjXG > X . . . . . . . % #.#.w.w.#.#.+.#.#.+.+.T +.T +.T T #.T T #.p T #.T #.T T #.p p #.+.[ +.p p +.#.+.#.=XdXdXgX=XgX",
"h p i y y u 8 8 8 % 8 9 f i y 9 8 @ @ @ @ % @ @ @ + O O @ # 0 9 q = = q r q q q = q q @ e i ..r t X.t 3 P jX}.^.XX.X^.^. XY.A.Z.R.E.E.W.E.E.E.E.C.Z.m.u.u.B n b b b n n r.V.x.b.D.Z.a.s.s.x.R.x.z.j.m.^.N.l h.|.^.m z.^.C.g.A.Y.Y.r.c.^.R.C.B.Y.A.Y.A. XY.C. XZ.B.c.Y.B.A.K.S.A / uXDX8Xf.f.f.V V M f.u.n u.B.B.A.A.B.V.B.z.s.z.x.z.z.i.i.m.A Z 7 6 6 7 < , < 3 3 3 3 7 6 5 k k p ] #.@.@.@.sX} @.sXsX} #.} } | | | |  .{ ` { bXPXIXw.p :XIXPXnXk +.HXPXHX@.@.@.@.dXdXdXdXdXdXdX#.sXdXsX#.dX#.} } } | | _ | | _ _ _ _ _ _ ( ) ) ) ( ) ' ` ` O.8.O.O.D S o.S x X X X > X > > , , z z m B n M B b n e.p.i.u.K.K.K.m.n e.K.oXoXV.S.S.V.G.A.A.V.V.A.Z.B.B.B.Z.B.i.V.A.i.u.V K.uXBXuX.XV p.K.m.u.i.i.j.m.n.B m b b z b n n n M k.m.k.j.k.j.C.C.C.C.C.C.Z.Z.V.Z.Z.V.x.s.V.x.s.a.s.Z.D.V.z.x.D.G.v.b.H. XD.d.v.D.D.D.a.H.V.H.x.x.G.D.b.l.Y.Y.b.l.z.z.y.i.j.u.t.u.m.j.u.b N.J.c x , > 2 s 2 2 r t g X.$.2.o.8.~.|.!.hXPXPXVX6 H AXLXLXLXNX0XqXNXxXtXNXwXyXvXyXvXxXtXvXxXNXVXAXAXLXSX6.VXPXLX{.v Y.T.z.i.y.g.c.c.t.j.Y.R. XjX|.T.S 3 P &.$.R $.X.P S x 3 , 3 1 R <.9.9.:Xw.3.3.3.3.-.:X:X:X9.3.3.9.q.q.q.q.q.kXfXzXnXq.$.+.9 + u [ $.*.-.7.-.-.=.-.-.X.K $.%.<.8.q.[.1.X.t F ;.`./.!.!.Q.~.|.MX|.Y.V.x.x.x.V.V.s.B.Z.A.A.s.i.s.A.Z.B.V.A.B.y.r.x.F.G. XF.p.Y.CXuX.XBXKXSX.XS.V f.A.S.G.V.s.x.V.D.s.a.z.D.D.z.s.z.Z.D.s.s.V.G.s.s.d.V.F.B.p.K.I.uXI..XuX.XS.S.p.S.A.n.n.Y B m z z V M t.u.i.j.j.g.y.g.c.B.z.j.C.^.|.o.> . . . . . . . . u 3.+X#.3.+X+X#.#.+X#.#.T +.+.+.+.T #.T #.#.+.T #.#.T #.#.T T #.+X+.+.+.p p +.+.#.w.w.gX=XgXgXgX",
"f y y u q q 8 = 8 % & 8 y i y u O 8 8 % 8 & & @ @ + @ . + ; r r q = q e i i r i i i ] i @ @ @ e t O.t 3 2.}.~.N.^.U.Y.^.^. XR. XY.R.R.Y.Y.E.Y.E.A.Y.A.h.B B n b b b n e.y.V.a.a.V.D.l.a.s.x.F.z.z.e.^.N.l Y mXLXZXh.h.Y.Y.j.B.Y.A.k.C. XY.C.M.C.Y.h.T.T.j.t.h.Y.C.C.Y.M.S.S.f.A / iXLXuXA z n e.S.u.p.t.e.r.B.z.Z.A.z.V.V.s.x.B.Z.V.z.g.i.m.A Z C 7 2 < < 3 1 < 1 2 5 5 6 a k h h '  .7.dX#. . .#.sX#.} } } } | | | | | } ' { FXPXHXw.p kXIXPXkXT $.JXPXHX7.#.@.sXdXdXdX#.sX#.sXsXdX#.dXsXdX#.sX} } | | _ | _ _ _ _ _ _ _ ) ) ( ) ( ) ` ` .. .O.hXO.O.O.D o.D 3 > > > > , , , l z z M M M h.m.u.i.f.A.^.K.f.b V u.K.uXoXoXF.V.S.V.V.A.V.V.s.i.S.A.B.i.S.A.B.z.B.A.B.p.V p.P.uXDXuXP.f.N.i.u.i.n.m.M.D N z z z z m b n n h.k.m.h.h.j.M.C.M.C.Z.B.C.B.c.z.V.Z.x.a.z.v.D.V.b.a.b.D.D.H.x.G.W.H.b.H.W.W.x.x.W.R.V.a.c.Z.Z.B.B.F.D.z.a.Z.R.b.z.z.z.a.z.i.p.e.t.i.m.u.V D n.I I x , x F F S F K %.&.X.8.~.|.U.o.o.|.IXPXLX5.X '.LXSXLXPXvX7XqXvXyXxXeXvXyXvXNXyXvXyXvXNXAXUXUXPXLX1.vXPXPXNXm Y.R.Z.z.a.b.D.D.g.e.g.c.l.Y. XXX|.o.S P R $.R L P H x 3 > 1 K <.:X9.9.;Xw.3.3.:X3.3.w.9.q.w.9.9.w.q.9.q.kXq.q.:XnXbXnXq.=.9   h $.*.$.*.*.R k a 5 1 - 1 1 2 s K 8.[.0.;.s L !.[.].].].].}.mXjXc.i.x.x.x.x.V.s.a.x.B.s.V.z.i.i.B.A.z.B.B.e.r.x. X XD.V.K.p.A.BXSXDXSXuXA V p.m.S.S.S.F.F.s.s.x.D.z.l.z.v.F.z.a.s.D.Z.a.s.z.D.s.s.s.z.D.B.p.oXG.P.uXI..XI.d.p.s.A.A.n.n.Y z z z b M B u.t.y.j.z.i.t.g.z.B.c.z.Y.U.^.|., X . X . . O . . h w.w.3.#.#.#.#.+X#.#.#.#.+.+.T #.T T T #.T #.#.#.+.#.T #.#.#.+.#.+.+.+.+.p #.#.3.dXw.gX=Xw.gX=X",
"u 9 9 9 9 = 8 8 8 % % 8 q f y y 8 @ @ % 8 % % @ & @ O . + 9 q a q q r r ..f ....t i i ..f e e # ..[ t 3 2.Y v z l b m M g.m.Y.R.E. X X XE.Y.R.Y.Y.A.A.M.u.M b z b b n e.y.Z.a.a.x.D.z.s.s.z.Z.z.t.h.B l :.VXKXPXLXY N n.Y.n.h.n n.h.M D B m b D h.m M M ^.^.z D M m m M.^.A.P.A P.DXDXuXV V S.m.i.z.B.j.p.r.z.S.x.z.a.B.V.s.x.V.D.Z.V.V.m.N.Y Z Z C 7 < 3 7 5 1 1 5 6 s k k s h [ { @.gXdX@.} @.sX#.} } } } } }  .| |  .{ ` { FXPXHX3.p kXIXPXnXh +.HXPXFX7.#.@.dXdXdX#.sX@.dX} sX#.dXsX} #.#.} } | | | _ _ _ _ _ _ _ _ _ ( _ ( ) ) ) ` ` | ....dX|.O.D D o.o.D l l , l l l l m D M u.u.B.^.K.p.m.K.N.K.V z V ^.BXMXMXK.u.B.V.S.s.s.s.s.s.i.y.s.Z.s.i.i.V.A.i.B.s.A.s.f.f.b .XuXuX.XS.p.f.m.m.m.n.B V N l l c z b b M M k.k.k.u.y.j.C.C.z.j.C.j.Z.B.z.z.Z.F.Z.x.x.H.D.D.H.b.x.H.v.x.a.D.F.H.x.x.W. Xv.z.v.R.Z.z.z.V.Z.V.z.Z.F.z.l.v.D.v.z.z.B.i.s.B.z.p.e.i.y.p.n.B n.~.Y Z x 2 3 x t F P U o.:.U.~.o.D k.D S ZXPXLXVX6 6 VXPXKXLXLXNX/.qXvXyXNXNXNXvXyXNXxXxXxXNXAXvXAXPXKX>.cXPXPXCXz M.E.Z.l.a.l.x.D.v.l.z.z.W.T.T.XXjXU.U F X.R X.K L P t > 3 g <.0.9.:X9.9.3.3.3.3.3.3.3.w.:X:Xq.9.7.3.9.:XkX:Xq.fXzXFXbXnXq.f $ h $.*.*.$.j a o     # # ; ; # # 1 K <.0.8.L ;.`.cXqXqX{.}.}.jXM.n y.b.x.d.x.V.a.a.B.s.y.i.B.B.i.B.m.i.p.r.e.s. XR.s.s.s. XS.V .XMXuXK.V V f.A.F.i.z.B.F.V.s.s.x.G.x.z.z.x.D.z.a.z.Z.D.s.a.s.Z.x.a.a.z.D.x.d.oXoXK.uX.X.XK.p.i.s.A.B.n.Y A z z l z b B u.u.t.i.g.j.y.y.z.C.c.c.A.M.Y.}.G > X . . . O . O [ w.w.#.+X#.+.#.T T T T T T +.T T #.T #.T #.+X+.3.#.T #.3.#.T #.T @.+.#.+.+.p #.w.=XgXw.gXw.w.gX",
"9 & 8 9 8 q e 8 8 8 & 8 u i i q % = = % % & @ @ @ O O O @ q r a y r i f f [ g ] ..f ] i q e e q g ..t S Y l l l z z b b b n u.i.A.Y. X X XY.R.^.Y.C.C.M.n.n b b n n n e.y.V.a.a.x.D.x.i.s.z.V.z.t.D l ~.SXPXPXKXhX2.Y m N.m M U.jX|.m T.^.T.Y |.jX|.D XXCXCXjX|.U.Y.^.XX.Xf.p.V uXDXDXBXV b S.B.i.i.i.a.y.i.s.B.V.B.a.V.V.s.s.x.Z.Z.z.B.A.N.Y A C C 6 2 2 1 a 5 a 5 5 s 7 5 k h [ { w.gXdX#.#.sXsX#.sX#.} } sX} } } | | { ' { FXPXHXgXp :XIXIXnXT +.HXPXFX@.#.@.dXdX@.dXsX#.dX#.dX#.sX#.} } | | | | _ | _ _ _ _ _ _ _ _ _ _ _ _ ` ) ` ` ` ` { { O.gX|.O.O.O.T.O.D D D v m m D U.Y.m.j.m.B.^.A.b .X^.z b n.K.BXCXuX Xp.n n d.x.r.r.r.p.x.B.s.s.V.F.S.i.d.V.A.B.i.B.Z.p.p.S.f.P.I.K.S.f.f.S.A.m.f.n.B z l l c Y z z b M g.j.k.u.u.k.M.A.C.c.m.C.z.R.R.Z.B.V.V.V.s.r.d.a.b.a.d.d.b.b.d.a.b.G.D.x.x.D. XD.s.V.D.Z.z.z.V.Z.x.z.Z.A.Z.b.v.W.Z.s.B.C.S.B.S.V.i.p.r.e.i.p.V N._.^.Y l 3 l c S Y Y Y o.|.^.^.M.M k.k.z }.KXLXPX[.X J LXLXDXLXLXNX7X8XNXNXyXvXmXxXxXmXyXNXBXNXvXAXPXSXU qXPXLXKXD c.Y.B.g.l.a.l.B.Z.x.l.x.W.v.c.Y.^.^.U F K R R K H P s < s &.q.q.9.9.;Xw.3.3.3.3.w.3.=.3.w.q.q.9.3.=.q.kXkXq.:XkXnXAXHXUXzX+.y j +.-.*.j u - ; - a a a s s 5 1 1 1 s %.`.2.,.`.cXxXqXqX}.jX|.B M.Y.z.s.s.s.V.s.r.B.B.p.e.p.i.m.i.p.y.e.n e.i.R.B.r.i.s.K.B.b n f.f.n p.A.A.V.B.s.S.B.F.Z.s.a.z.F.V.x.s.B.D.s.a.z.D.Z.s.a.s.Z.V.a.a.s.D.S.r.oXoXoXuX X.XoXF.S.p.B.N.n.Y A v l z z V B B e.t.t.g.g.i.a.l.z.z.j.M.Y.U.|.~.3 X . . . : : 4 +.3.w.3.#.+.+.#.#.#.p T #.T T T #.#.T T #.3.#.+X#.+XT #.T #.+.#.#.w.#.3.+.p #.+.w.gX=XdXw.w.dXw.",
"8 = 8 q 0 q e y q 8 @ @ 8 y f q 8 = e @ 8 & & 8 @ O O . # 9 y r y q q f ] ] ..] { ..] ..i q e q i t ..S v l D h.k.k.M M n n n b n B B h.T.U.Y. X XA.A.Y.h.b z b b n e.r.a.Z.l.a.z.R.x.z.g.z.V.m.h.l ~.LXLXPXPXvX`.ZXZX|.Y N.}.ZXGXKXjXZXGXCXCXGXGXGXZXGXZXKXGXKXGXKXGXKXMXn V A uXDXDXDXP.p.m.B.B.s.s.i.i.a.s.s.Z.V.s.B.Z.s.s.s.V.Z.i.z.B.f.Y I C H C 6 1 5 a a a a s k s k k j h @.gXgXdX@.sX#.#.sX#.#.#.} } } } } |  .} ` ] FXPXIXw.8 kXPXPXkX& +.IXPXHX#.#.@.dXdXdXdXdXdXdXsX#.dX} } } | | | _ _ | _ | _ _ _ _ _ _ | ` | } |  .} } ` { } } ` aXO.fXO.S D D D n.D D Y Y D M.Y.C.j.z.i.B.A.A.f.BXyXJ..XSXSXBX Xp.e.e.y.d.a.S.S.s.S.V.G.G.V.S.V. XZ.B.s.V.Z.s.y.V.z.r.e.f.K..XK.K.S.p.S.A.m.f.B B D l , Z (.(.Y b b t.k.j.t.t.t.z.C.C.z.j.z.z.g.C.c.s.a.r.a.r.r.r.r.r.a.a.a.a.b.b.b.a.b.D.G.V.b.v.E.D.x.z.D.R.V.i.Z.D.D.x.V.Z.D.x.x.D.Z.z.A.F.V.A.p.i.y.i.y.e.p.u.m n.XXmX! c Y o.o.U.U.|.U.U.Y.~.M.T.j.M k.D S ZXPXPXKXQ . 1.LXLXUXLXLXVX7X0XxXNXNXNXtXNXwXmXNXVXNXUXJXPXSXU ].PXPXLX~.C.R.z.j.Z.c.z.c.D.Z.z.b.D.D.v.T.^.|.o.x d j K K g H s 2 R 9.:X:X3.:X:X3.w.3.3.3.3.4.3.3.w.9.w.:X9.9.w.q.:XkX:XzXnXFXHXHXnXw.T +.-.-.+.u ; ; 1 a d d s d g s s 1 < 1 g >.5.1.'.cXxXqXqX{.}.XXB M j.i.z.i.a.s.a.y.s.B.y.e.n u.B.p.e.n n e.p.e.s.i.i.s.r.V. Xm.i.p.i.V.S.s.d.x.V.V.s.a.D.Z.i.i.z.R.V.z.z.z.D.z.s.z.D.Z.s.a.s.D.V.a.a.s.D.x.r.S.K.S.S.f.S.G.K.S.i.m.m.A Y A v v v z N V M e.t.y.i.l.g.g.y.g.z.j.j.Y.M.^.|.S > . . . : : p +.#.+.+.#.#.+.T T T T #.p #.T T T p T #.T #.#.#.T #.#.T #.T #.+X#.#.=X#.#.p p #.3.w.w.w.w.w.=Xw.",
"u 9 u i i q y i q q 8 @ 9 i f q 8 = # @ @ @ & @ @ O @ O @ q y r r q r i f ....] ..i i i i e e @ q f t ..x m ^.^.R.^.Y.Y.Y.C.M.k.b b b b b M M.C.Y.^.^.Y.u.b z b n n n r.a.Z.l.r.s.W.V.s.i.z.B.j.B l NXLXPXPXkXd GXPXPXZXD |.KXjXZXjXmXZX|.ZXGXZXD jXPXZXU.ZXZXjXCXZX|.yXyXp.A A uXDXDXDXK.p.j.B.S.s.r.i.i.i.s.B.V.V.i.B.V.z.s.s.C.A.i.j.m.h.Y U G J F s t s f k d d d d d d d h h *.gXgXdXdXdX} sX#.sX#.} #.} } } } } } { { #.nXPXIXw.& w.IXPXbX+.-.HXPXFX@.#.@.dXdXdXdXdXdXdXdXdX} } } } | | | | _ _ _ _ _ _ _ _ _ _ _ | | }  . . .}  . . . .} .. .8.8.O.D D D D h.k.M.M.k.D M.C.c.B.z.s.A.K.m.BXKXSXSXSX.Xf.e.V.G.S.S.d.B.H.V.S.x.D.G.F.x.s.d.G.Z.x.a.V.Z.s.r.a.V.S.p.f..X.X XuX.Xm.A.K.f.f.f.A D v G Q.{.}.U.b m j.j.j.t.u.j.M.j.j.t.e.y.i.r.y.r.y.r.r.y.d.y.z.z.x.Z.x.x.H.D.G.H.b.x.W.W.x.b.x.W.G.x.b.H.W.H.b.x.D.v.x.x.D.E.x.x.Z.D.V.V.A.V.S.p.i.p.i.S.r.p.u.B N XXZX^.D Y ^.~.U.M.Y.Y.U.C.M.M Y.v.g.k.M.c ~.KXKXPXCXK X 0XLXDXVXKXLXNX8XeXwXNXNXmXwXmXNXyXNXNXAXLXLXSXQ `.PXLXLXXXM.Z.j.c.Z.Z.c.B.Z.Z.z.b.D.W.v.c.Y.}.|.;.F j K K F s H j 4.0.:X9.3.:X9.9.:X3.3.3.3.4.w.3.3.9.9.:Xq.w.4.w.q.kXkXzXnXbXbXHXnXq.$.$.=.*.h ; - ; - 5 a a s s s a s 2 1 1 2 K 2.1.[.xXqX7X(.!.(.MX~.u.n t.u.p.s.s.p.r.y.i.i.p.e.e.u.e.n n n n e.n p.B.s.i.r.S.F.B.S.d.b.G.b.d.d.V.G.x.z.x.D.z.y.y.z.Z.V.z.s.x.D.z.a.z.Z.V.s.s.a.Z.x.i.y.S.D.x.y.e.e.e.p.e.n p.d.y.s.K.h.A Y I Z z z v b V B M t.t.y.y.i.y.y.y.y.i.j.C.M.U.|.o., X . . . : p +.3.+.+.+.T #.T #.p #.T T T p T p p #.p T T T T #.T #.T #.T T T #.3.#.3.#.T p #.3.w.w.#.w.gX=XlX",
"y u y y i i y i i q 8 & 9 i f q = = # @ @ @ @ O @ @ @ + @ q q i q q q a f ] f ] ] ] f ..i % e q e ..t S S D ^. XY.Y.C.T.C.C.C.m.M.m.h.B n b n t.k.C.^.A.n.b b z n n e.r.a.D.a.y.a.D.v.i.s.i.B.j.M N VXPXPXLXzX[ cXLXGX}.S D jXGXZXU.hXhXS jXGXjXD hXGXZXhXGXKXCXhXjX|.XXyXA f.P.SXDXDXyXp.p.S.B.C.s.r.y.x.S.y.i.Z.A.s.z.B.B.B.S.Z.A.s.B.m.h.N.! J P F s s s j k j g k d d j j j f *.gXgX@.dXsX .sX#.#.sX} sX} } } } ` } { ` } FXPXPXfX8 p kXIXPXPXHXPXPXnX@.@.7.@.dX@.dXdXdXdXdX} | | } | #._ | _ _ _ _ _ _ _ _ _ _ _ _ ` | #.}  . . . . . . .} sX.. .8.8.O.O.k.k.M k.D k.t.h.c.C.z.z.z.S.B.A.f.MXDXSXyXf.p.e.V.G. XV.s.d.x.G.x.d.d.y.s.d.a.a.r.D.V.x.a.x.H.s.a.V.F.z.e.d..XG.oXuXoXA.f.S.m.M.n.N v l U /.:.U ~.N M k.j.g.t.t.j.j.t.e.e.e.t.t.e.s.s.z.B.x.D. XF.V.Z.Z.D.D.H.v.D.W.G.H.b.D.D.H.b.H.W.G.x.a.D.E.v.l.x.D.D.v.b.D.D.H.x.D.D.z.f.S.p.n S.K.S.p.A.i.i.u.n.h.XXCXXXD n.h.U.k.M D k.k.C.Y.j.Z.Z.b.t.M.U.l ~.KXPXPXvXd X 0XLXLXUXLXLXNXqXwXyXmXNXNXyXmXNXBXNXSXLXLXKX! (.LXPXLXmXk.c.j.Z.R.Y.z.B.R.E.x.x.v.Y.v.v.Y.^.~.|.C g F K H s j E q.q.9.9.:X9.w.;X3.4.w.3.3.3.3.9.3.4.w.:X:Xq.9.9.q.zXzXkXzXnXbXbXbXq.+.+.=.+.a ; ; 1 5 5 s 1 1 s 1 2 2 a t s 1 3 o.,.qXcXqX'.,.~ ~.KXKXMXXXu.n B.B.s.y.r.r.e.i.m.e.b n n n n n n n e.j.B.i.i.i.A. Xs.y.r.H.W.d.d.a.D.D.x.s.s.D.V.y.r.s.R.B.z.s.z.D.z.s.z.V.V.s.s.s.D.V.a.y.x.F.s.d.r.d.V.s.p.i.S.S.p.i.B.D A U A Z Z v l z b M u.M e.t.y.y.t.y.y.e.g.z.k.M.h.|.|.3 X .   . & T +.+.#.T +.#.T #.T #.T #.T #.T #.p p T #.T #.p T #.p T T T #.T T #.#.+XdX+X#.#.T #.w.#.=Xw.w.lX=X",
"i i y p i i i i i q q @ q i f r = + O . O @ # % @ @ O O @ q r q q q q q f ..] { ..h f i e e q e e t S S v D |.E.T.T.T.v.C.c.c.j.z.m.m.h.h.u.t.n n M K.U.N b b b n e.e.e.z.V.a.r.a.Z.G.y.y.s.z.i.m.N Q.LXPXPXPXAXq.1.o.S N c jXKXKXCXZXKXCXGXCXZX~.hXmXjXKXZXZXCX|.}.KXCX~.B A J.uX.Xf.f.p.i.i.B.V.d.p.r.s.G.i.y.S.F.B.s.Z.Z.S.z.V.Z.z.z.C.f.n.N.o.H X.X.g f j $.j j j j g j j g [ 7.dX7.@. . .} #.#.sX#.} sX#.} } | } } { { { { fXnX .@ @ @ *.FXIXIXIXFXfX#.} @.dXdX@.dXdXdX@.} | | _ _ #._ ' _ _ ( _ ' _ ( _ _ _ _ _ _ _ _ | | |  . .aX7.aX@.aX . .{ 7.8.O.O.O.D k.k.k.j.g.y.y.B.z.i.i.i.i.m.p.A K.A.V p.V.S.V.V.G.S.i.d.S.d.x.x.d.a.x.x.d.s.s.G.D.s.a.S.D.D.s.x.F.S.e.i..XoXuXoXoX XA.A.N.A.A z U G G ,.! x U.m h.j.g.i.t.y.j.y.t.e.r.j.B.s.i.Z.R.Z.s.z.R.E.v.x.v.x.W.D.Z.b.H.G.F.b.x.D.W.Z.b.b.D. Xx.d.H.E.Z.z.x.D.D.v.x.Z.D.D.s.x.V.K.p.p.K.f.P.uXI.p.S.S.B.i.M.u.XXCXoXm.u.M j.k.t.r.g.g.j.Z.j.z.Z.z.t.i.A.Y l Y CXPXLXVXs < 0XLXLXSXLXLXVXNXBXZXBXCXBXMXCXCXCXSXKXSXCX_.~.CXPXKXXXM.i.z. XF.V.S.V.F. XF.G.R.E.R.C.T.Y.^.^.o.v F F d d K 9.q.q.q.4.q.:X9.;Xw.3.3.:Xw.3.3.3.3.3.w.4.q.:X:Xw.q.q.zXzXkXkXbXFXFX:X+.-.-.+.a * o 1 5 1 2 5 s 2 s 2 s F F 6 < > 2 :.[.mXxX].1.U ,.CXLXLXCX^.u.h.V.B.r.y.V.i.e.p.n.u.b z n b b b n t.i.i.t.r.i.V.A.i.y.r.S.F.D.b.a.z.R.V.a.z.Z.Z.y.i.z.V.Z.B.i.B.Z.z.y.z.x.Z.S.y.y.Z.Z.y.s.s.D.x.a.s.B.Z.S.s.s.Z.B.y.i.A.N A (.C C Z W v l m m B M M M t.t.t.g.t.t.t.i.j.j.M.Y.|.U X X . . a [ j [ +.h +.+.+.+.] p +.T p ] p #.p #.T #.T #.T #.T #.#.T T #.T T T #.+.+X#.w.#.+.3.#.w.#.w.w.kXlX",
"9 y y i i i r i i i q @ = q f 0 % % O O O @ @ + O O O O @ q q y q q q q i f f f ] f ..i t e # e e t t S S k. XY.T.W.D.Y.v.v.c.z.z.z.m.h.h.m.h.t.M m n.~.N b b n n t.e.t.c.B.a.r.y.D.A.y.i.i.B.j.n.z G }.AXPXPXPXPXvXS v ~.~.}.}.o.}.~.~.|.N.Y N v c v o.}.N v v , G ~.N.N D N.m.u.t.n p.z.s.p.s.B.s.r.r.s.Z.a.r.z.Z.x.s.V.D.z.i.Z.Z.s.z.B.f.n.Y o.1.zXnXhX*.[ X.[ $.$.[ j K [ j [ X.7.7.@.#.@. .#.} #.sX} #.sX} } } } | { ` ( e @ q = [ X.e . . f 7.7.{ } #.@.@.@.dXdX@.@.dX#.#.} _ ' _ ' ' ' ' ' ) _ ( p _ ( _ _ _ _ _ _ _ _ _ _ `  . . .@.@.aX7.dX .@.gXfXT.D D k.D D t.g.y.i.B.B.S.B.m.m.K.B.V V p.i.G.H.r.d.y.S.V.s.r.r.d.x.F.F.F.W.F.x.s.a.V.D.x.x.x.Z.V.r.s.A.A.B.S.R.A.A.S.S.A.S.m.n.N.V v `.2.2.`.U G U.m h.j.g.g.g.j.m.i.p.e.i.B.B.s.s.C.F.c.y.l.Z.R.v.a.v.v.G.D.x.a.x.W.G.x.b.Z.Z.D.D.b.v.E.x.b.x.D.D.z.l.x.D.v.z.v.Z.H.z.x.A.A.p.P.uXuXuXuXP.V A.B.i.t.m.u.A.oXY.e.t.j.z.B.z.i.j.z.g.Z.i.l.B.x.s.i.B.C.n.b Z mXPXLXAXZ Z eXLXLXLXLXCXmXMXyXMXjXuXXXyXuXXX^.K.K._.A.N.XXZXMX XA.B.V.F.F.A.A.V.G.F. XE.E.R.R.R.Y.R.R.^.|.G x K d k $.:Xq.q.0.5.6.9.;Xw.;X3.3.3.3.3.3.3.3.w.9.4.9.:Xq.:X9.w.fXzXzXzXnXFXbX0X-.=.-.T 4 * 1 5 < 1 5 2 1 2 F s 6 F s 6 3 X 6 !.cXcXxXqX}.(.].VXVXCXSX~.n C.A.s.e.r.B.A.i.b e.u.u.V b b b b b n n e.y.y.i.s.V.i.y.i.B.F.V.s.s.z.R.z.y.i.B.V.y.l.z.V.Z.z.i.s.F.V.s.z.x.V.z.i.B.V.V.a.a.x.F.s.a.a.x. XB.p.i.F.V.y.f.M.m Q.{.6 7 H ,.,.v , c m m M t.t.k.g.t.t.t.t.y.g.z.M.U.^.:., X . * a [ h [ h h h h h p h p p p h p +.p +.T #.T #.#.T T +.T T T #.T T #.T #.T #.#.w.#.#.#.=X#.w.w.dX=XgX",
"8 y i y i q q i r i e @ % q q q % + + O @ @ @ @ O O O O @ q q i q q q q q i f ..f f i i q e e @ t e t S m U. XY.v.Y.T.D.T.Z.v.c.z.z.j.j.k.k.k.h.h.m D ^.b z b n n e.e.t.z.B.i.y.s.Z.D.r.y.i.B.m.B D xX'.W zXPXPXPXPXPX|.D N c I U {.:.l , G `.!.J 2.}.mXCX}.~.|.(.Y l Y }..XK.m.n e.p.B.V.i.r.y.V.x.d.r.s.Z.s.p.s.V.V.y.z.A.z.s.V.Z.B.z.A.m.D A !.bXGXJXJXnX7.$.*.*.+.R j K j j [ *.@. . .}  . .#.#.dX#.} sXsX} | } } |  .{ { ] w.fXkXlXnXnXnX@.@ O e ( | #.dX@.@.dXw.dX@.@.#.#._ _ p ( w ( p _ ) ' ' ) ( _ _ _ ( _ _ _ _ _ _ ( ( ( ) |  .` |  . .dXaXO.O.hXgXO.S D D t.t.g.g.s.z.Z.A.B.A.A. X XA.S.A.G. XG.x.d.d.s.d.r.d.a.r.d.d.x.G.F.D.V.s.V.V.G.V.S.x.V.V.r.V.F.F.V.S.A.S.r.i.S.i.p.f.u.m.z Y xX`.|.].!.|.}.m k.g.g.g.j.j.j.y.t.p.i.s.i.i.i.V.R.z.z.z.z.R.Z.x.D.b.D.W.H.d.x.W.W.x.d.D.D.D.x.x.D.E.V.x.x.D.D.x.z.x.D.Z.z.x.D.D.x.s.Z.G.p.P.uXiXuXuXP.V A.B.j.e.i.e.u.k.e.t.z.C.C.C.v.c.c.Z.z.C.l.z.c.V.Z.j.y.i.m.B z I NXPXPXKXJ.c wXBXMX_.A.u.B u.f.x.i.y.u.z.u.p.n e.m.f.p.n m.A.M.C.Z.W.W.G.A.G.G.Z.H.D.W.D.v.Z.R.Z.Z.Y.Y.XXQ.F J 6 d 3.q.q.q.6.9.w.;X3.w.;Xw.3.;X3.3.3.3.3.3.3.9.4.9.:XkXq.q.9.q.zXkXzXbXbXkX-.-.-.j 4 o 5 1 1 1 s s s s H P F s C s 2 X 3 /.xXmXjXwXcX{.qXSXCXBXCXC.e.z.z.z.z.i.y.Z.Z.u.n V u.V z b b b b n n t.i.p.r.y.B.i.i.s.S.Z.V.x.s.z. XR.z.y.z.V.z.z.z.Z.Z.c.i.a.Z.Z.a.s.z.Z.s.i.s.z.V.s.r.s.F.y.a.a.v.R.i.y.B.A.x.y.j.M.z }.xX2 6 H ;.mX{.x v b m M M k.t.t.t.t.t.t.t.j.l.M.C.~.|.F X # a j h f h h p h k p p p h h p p p #.+.+.T T #.T T T #.+.T #.#.T T #.T #.T T #.+X=X#.T #.#.w.w.dXgXw.gX",
"q q y i i i i y i i q @ @ 9 0 q % + O O + + % + O . O O @ = q r i i q q i f f i i i r i q e @ @ e e t S v T. XY.Y.T.E.T.Z.V.c.z.z.z.z.h.h.h.m.k.k.B U.~.z z n n e.e.t.e.B.B.y.y.a.V.Z.r.r.l.B.j.M N.KXPXzX$.3.JXPXPXLXKX~.l |.KXCXKXSXmXmXCXCXLXZXCXCXNXKXKXKXKXKXCXmXZXSXXXN.n.u.u.i.B.B.i.r.s.s.S.y.r.s.F.s.d.z.B.Z.i.z.A.s.s.B.Z.V.m.B.m.B c (.GXIXAXIXJXfX[ -.*.$.+.+.j j j ] +.{ [ #. .#.@.} } dX} #.sX#.} } | | #. .{ dXfXFXFXFXHXHXHXFXnXkX] ' #.@.| #. .dX@.@.@.#.#.#._ ' p w w w w w p ( p ' ) ' ( p ( ' _ _ _ _ _ ( ( _ ( ) ) ) ) ) _ ) `  .| O.gXhX8.D S M D h.t.g.g.i.V.B.j.S.B.A. XG.K.F.K.S.B.H.S.V.H.x.x.G.H.H.s.x.a.r.a.d.r.r.s.x.V.s.a.s.Z.F.S.G. XZ.s.s.Z.S.d.S.s.i.p.f.m.M.l ~.NX!.[.cX}.ZX^.M k.g.y.u.l.g.u.r.e.i.s.z.i.y.s.z.R.z.z.z.a.R.E.H.D.b.D.W.H.x.x.G.G.b.x.D.D.G.x.d.D.E.D.x.x.v.R.x.a.x.W.Z.z.x.Z.D.G.y.S.K.S.f..XuXuXuXI.f.S.B.y.e.y.n e.g.j.C.Z.C.z.V.Z.z.v.R.v.Z.z.Z.Z.Z.Z.B.z.j.A.M.M.b Y SXCXCXXXB V A.m.n u.p.e.e.i.V.s.s.x.B.C.A.V.V.R.R.V.u.i.C.A.z.v.G.W.Z.G.D.Z.x.x.x.D.x.a.V.F.Z.B.Y.Y.U.|.o.x d W 9.q.6.4.4.4.3.3.w.+X3.3.w.3.;Xw.3.3.4.3.w.;X4.6.q.zXnXq.w.9.:XrXkXkXnXkX-.-.$.j - - 1 6 1 2 s 2 s H L H F 6 C F 2 X 2 /.xXxXmXhX}.|.{.KXKXKXCXC.y.i.i.B.F.V.s.y.z.A.M M B b z b n b n M u.i.i.r.e.y.B.s.s.p.i.Z.Z.B.i.a.Y.Y.j.r.c.Z.x.s.x.Z.D.x.a.y.V.Z.a.s.B.Z.y.z.y.C.Z.s.y.V.D.l.a.y.V.A.p.s.V.Z.s.i.C.m.z NXNX< 5 H F cXVX:.c m m m M M k.M t.e.t.t.y.j.z.c.U.Y.|.U X # j j g [ k h h p p a p p p p p p p p p T #.T T #.#.T T +.#.T #.T #.T #.+X#.T T #.#.T #.T +X#.w.w.w.w.=X",
"8 y i i i y i i i y q % @ 8 9 0 % + + @ % & O O O O O @ @ e q i r i r q i f i i w ..i i q q e @ @ t t S D T.|.Y.D.T.D.T.D.v.v.z.z.z.j.j.h.h.m.k.B n.^.Y z b b n e.e.t.t.S.V.y.y.s.S.V.r.r.i.C.B.m U KXPXPXJXq.$.zXJXPXKXU ~.KX}.|.CXcXmXLXmXc mXKXKX(.U NX}.SXGXCXGXGXXXMX^.u.u.n n p.B.A.i.r.p.s.x.s.r.s.D.B.s.s.V.A.z.s.Z.B.B.z.V.Z.z.i.f.u.D ~.GXKXHXIXIXhX*.-.-.*.$.j j j h g ] [ { #.#. .} sX#.sX#.} sX} } | } |  .` { fXkXkXFXnXnXnXnXnXHXFXkX@.' @.@.#.dX#.#.#.} #.#.#.' ( e e e 8 e e e w w w p w ' ' ' p _ ' _ _ _ _ _ _ ( _ ( ) ) ) ) ) ( ) _ .. .8.hXO.S m D M k.t.t.p.z.B.i.i.i.i.V.S.r.e.d.s.S.S.s.d.H.F.W.G.G.G.G.Z.s.a.r.s.s.s.s.S.V.s.s.S.F. XV.V.G.D.d.s.G.G.d.r.r.i.j.m.m.m z }.ZX}.[.U :.mX^.m k.g.t.y.j.i.t.t.p.i.z.s.y.r.i.i.R.z.z.x.s.R.E.v.x.V.G.G.G.H.d.D.E.E.G.V.s.s.a.a.x.F.G.x.x.V.F.x.a.x.F.D.z.z.V.V.D.a.p. XS.f.uXiXuXuXP.p.K.A.p.e.e.e.y.j.Z.Y.V.z.a.c.Z.z.V.R.v.v.z.D.Y.v.Z.Z.R.R. XC.^.M.M Y.^.C.A.A.m.t.i.A.E.A.D.Z.F.E.F.D.D.F.E.W.D.V.G. XF.F.A. XE.Z.x.D.W.D.D.D.F.D.V.D.G.G.x.D. XY.V.Y.Y.M.|.|.F L <.3.4.3.3.3.3.3.3.3.3.3.3.+X3.9.3.3.3.3.3.3.;Xw.3.q.q.zXzX:X9.q.:XfXkXnX:X*.*.$.j 1 - 5 s F H s 2 2 F H P H F H L s > 2 /.cXwX}.hXXX}.(.yXZXKXCXj.y.z.V.v.c.Z.R.x.r.g.B.u.B M b z n b n u.h.y.t.p.r.i.B.B.i.r.j.Z.Z.j.u.C.Y.C.u.t.Z.D.l.s.l.x.Z.x.i.y.z.C.z.z.B.A.g.j.i.Z.z.t.y.C.Z.B.y.i.C.Y.i.i.B.A.s.i.A.u.z CXNXX < W d H ;.I v m m m b m M t.M M u.t.t.j.j.C.T.~.|.!.> 1 j j g j f p k p u u p 4 p p & p p p T +.#.T T +X+.p p +.+XT T #.T +.T #.#.#.#.3.w.#.T #.3.#.=Xw.w.w.w.",
"8 8 y i i i e i i i q 8 8 % q 0 % % + @ @ @ @ O O . @ @ @ @ q q q i i e q i f y i t i r e e e @ e t t S S |.E.E.Y.E.T.W.D.T.c.l.z.z.j.j.h.j.k.k.m U.XXm l n n n M t.t.y.z.V.y.y.s.z.x.r.r.z.Z.B.B c xXLXPXPXPXUX*.-.VXVXS ^.CXY N MXY ~.KXmXN jXCXCX^.Y CXZXCXCXCXMXMX XjX^.n.u.p.u.i.B.B.s.r.r.s.V.s.r.i.Z.s.s.s.s.G.B.s.Z.Z.V.z.B.Z.B.y.m.n.Y o.cXFXbXbXbXfX7.7.*.*.$.$.j j j [ [ +.{  . .#.} @.#.#.#.} #.sX} | }  .{ ` @.gXgX+.w.gXw.gXgXfXlXgXgXkX} } dXdXaX#.} } } #.` ' w e e @ e 8 8 @ @ @ e e e i i ( ) ' ( ' _ ' _ ` ` _ _ _ _ _ _ _ _ | ) ( _ ) ..7.hXhXD v S D t.t.t.r.i.B.i.p.i.i.S.s.d.r.p.s.A. XV.a.a.H.D.v.s.a.s.S.a.y.s.A.G.F.F.Z.R.F.Z.D.F.F.s.s.Z.D.s.d.V.D.a.d.s.B.m.u.n.m ~.CXVX[.U > N }.n.M t.t.t.z.j.g.t.r.y.s.s.i.y.y.s.i.R.V.z.z.a.Z. XZ.z.V.s.A.V.S.B.G.G.S.s.r.s.G.Z.x.x.D.F.x.x.x.F.Z.a.s.D.Z.x.z.V.D.V.a.y.R.K.f.uXBXBXuXP.V S.A.e.e.e.y.j.z.B.V.s.l.z.V.c.b.Z.R.Z.z.c.Z.D.z.y.l.Y.F.x.z.Z. XZ.e.e.i.i.A.R.V.Z. XE.E.F.D.G.W.D.x.G.G.W.W.H.H.G.E.F.Z.Z.R.E.H.x.G.W.D.D.H.G.G.D.G.F. Xx.z.E.R.v.v.Y.U.U.~.3 H >.=.3.3.3.3.T +.3.3.3.T 3.3.w.;X9.;X4.4.3.9.3.4.3.3.3.:XzXnX:Xq.q.:XkXzXkX*.-.$.j 4 ; s R ;.%.L P H ;.2.,.;.E ;.;.K 3 2 /.hXxXcXjXwXwX~.N D .X Xt.a.v.R.V.r.a. X Xz.e.j.u.u.B b b b b u.j.u.n e.i.s.y.s.z.y.r.i.A.Z.u.m.C.n.b b M M.Y.z.i.i.B.Z.c.s.j.B.A.j.m.C.A.j.i.m.C.h.t.j.A.Y.C.C.c.C.^.u.p.m.A.i.m.A.B N KXxXX k d d < > x S G v m z m m m M t.t.t.y.i.j.c.A.M.~.|.x 2 g s f g p k u p u & 9 p 4 & & p p k +.p T T #.T +.+.+.+.T #.#.T #.T #.+X+X+X#.#.#.+X#.T #.w.dXw.w.dXw.",
"@ 8 y i i i q i i q q 8 8 % 9 u = @ & @ @ % 8 @ O O O @ @ % q i i w i q q f f i i i i q e @ @ @ @ t t S S Y. XY.D.Y.v.T.v.v.c.c.l.z.j.g.j.k.h.B m }._.b b m n n e.t.t.t.B.z.y.a.s.s.z.r.r.z.A.m.n.v C zXLXPXPXPXPX0X;.o.z U.KXjX|.CX^.|.MXCXCXCXMXXX}.N MXCXmX}.MXjXjXCXCXY.u.p.n r.t.y.z.B.i.i.s.V.V.r.a.V.s.s.s.z.A.V.i.V.F.B.z.z.A.B.i.i.n.Y Y X.2.9.q.9.=.*.3.=.*.-.R j j j g ] ] #.#.} #.}  .} sXsX} #.sX} | }  . .` dXfX@.@.7.+.w.q.@.{ w.7.' nXgX| } dX@.dX#.#.#.} ' ' w w @ @ e @ @ @ @ @ @ @ @ 8 e w w ' ' ' ' ' ' } } ` ` ` | | _ _ | | | _ _ ` )  .7.fX|.D S m D t.n r.p.A.B.s.s.s.V.V.H.H.i.i.B.Z.B.i.y.s.V.x.d.a.a.x.a.a.x.D.F.F.Z.Z. X XZ.V.Z.D.s.s.V.D.V.s.s.H.x.a.x.z.i.h.D A }.xX2.:.U Y ~.U.z h.h.g.g.z.c.i.t.y.s.B.z.i.y.y.y.t.F.Z.z.B.z.V. XA.S.A.p.K.^.f.f.S.f.p.n V.oXoXoXV.x.D.E.V.x.x.D.Z.a.z.D.D.V.x.z.E.D.s.i.A.K.e.S.uXSXuXI.f.S.B.e.e.t.i.B.z.z.z.i.x.v.V.x.x.D.R.v.c.c.Y.D.z.l.l.Z.F.y.l.s.Z. XD.V.V.Z.R.F.x.z.Z.E.F.D.x.Z.G.D.v.x.x.F.F.G.G.V.F.F.Z.Z.R.R.D.Z.G.G.W.v.V.D.G.H.V.G. XS.a.c.Z.v.c.Y.k.N U Y 2 W 4.3.+.3.T 3.T 3.T 3.&.T R 3.w.3.4.3.3.3.3.4.3.3.3.3.w.:XkX0X:XkX:XkX:Xq.$.*.$.k 4 ; s <.0.`.1.1.`.[.[.[.`.`.`.5.H 3 6 >.!.{.xX}.}.XX~.b b M j.y.x.s.E.D.a.r.v.E.Z.i.t.u.u.n n b b n n u.e.n e.y.i.r.r.s.y.p.i.j.B.B N.Y z N N.m h.^.M.j.z.c.B.j.t.u.u.h.h.B B m.h.V B B B j.b u.m.B B M n B b n e.u.m.B.M.N Y KXqXo d k s 6 2 F G Y c z z m m n M M M e.t.i.g.z.C.U.~.|.o.3 s t g a a y u u u & & & & & & & p p p +.T #.T #.#.T +.p T #.T T +X#.T #.#.#.#.3.#.+XT #.+.3.w.dXw.#.w.",
"O 8 8 p i q i q y e q 9 % % 8 q 8 % @ @ @ @ @ @ O O @ @ e 8 q i t ..i q ......i i r i r e e @ @ @ e t S m ^.^.E.Y.v.Y.v.v.c.c.z.l.j.z.i.j.h.B m M jX~.z z m n n e.t.y.y.B.B.r.a.s.a.s.r.y.s.Z.m.D c l >.`.vXPXPXPXPXGXY v u.^.ZXMX.XM.M.Y. XXX^.e.m.C.n h. XC.u. X^.B.XX Xt.u.n n u.u.y.S.z.i.y.y.V.S.r.a.F.x.z.s.s.Z.Z.i.s.F.Z.z.j.Z.B.i.m.f.N.Y G K *.X.*.=.=.7.=.&.$.K h j j j ] [ { { #. .#. .#.@.#.} sX#.}  .| }  .` 7.lX7.kXkXw.w.kXkXw.7.7.( lXgX#.@.#.dX@.@.@.#.' p p 8 e 8 @ e @ @ O @ O O O O @ 8 e e p w ' { ` ` { }  . .} } | _ | | _ } | | `  .{ *.fXhXo.S v m M M i.i.A.B.r.p.y.s.S.s.y.s.s.r.e.p.i.e.i.B.z.z.z.z.F.Z.z.s.B.V.A.B.x.F.A.s.y.s.Z.B.i.s.A.Z.B.i.Z.x.e.V.u.m.N.B z ~.G > o.}.}.~.z D m.j.j.j.C.B.i.t.p.z.B.s.y.r.i.y.r.A.Z.s.s.l.x.R.A.B.S.b .X.Xb V z f.^.uXMXBXoXA.x.d.x.W.V.H.x.F.D.a.z.D.Z.Z.x.x.D.F.S.s.S.K.f.n K.uXBXuXK.m.i.e.e.e.i.i.z.z.l.x.Z.R.D.b.v.R.v.v.v.B.R.R.Z.D.D.D.E.v.s.l.v.E.D.s.z.x.Z.Z.s.z.F.F.F.F.x.x.R.W.G.Z.G.E.G.V.H.x.F.E.Z.v.R.Y.A.F.G.G.W.H.Z.G.G.V.V.Z.R.G.B.z.V.D.v.z.N.|.ZXNXC H 0.4.3.&.^ T 3.T T 3.3.T T 3.9.;Xw.;X3.9.4.3.4.3.3.3.3.=.:XzXzX:XkX9.kXq.$.-.$.j a 1 g <.[.zX[.[.[.[.cXcXqX[.[.`.L < F P F ;.cX}.|.}._.~.^.C.Z.Z.s.a.E.R.Z.a.r.b.Z.u.u.m.B b b n b b b M e.t.t.t.e.e.y.a.y.y.t.e.m.N.N l Y ZXKX|.N ~.M.m.k.j.j.M b n b b b b z B N z N B ^._.B D Y.D b n.B n.M._.^.n.i.m.M.b ~.LXqXo 5 R s 5 E X.U U S v z b n b b n n t.t.t.y.g.M.C.M.|.:.2 2 s j a f u u u 9 9 & & & & & & k p +.+.#.+X#.T #.T +.+.#.T #.+XT T #.T +.+.#.+X#.+.#.T #.3.#.=X#.w.3.",
"O 8 8 i q i q w e q e 9 8 % 9 q 8 @ O O & & @ @ @ @ @ @ @ e e q t i f e q i ) ....i q e e @ @ @ @ t t 3 D ^.Y.Y.Y.C.c.z.l.l.l.y.l.g.j.g.i.k.B z ~.CXN.l M V b M n u.t.y.z.z.y.r.a.s.s.a.r.z.Z.m.m m jXSXmX1.!.KXPXPXPXCXY.M m b M e.y.m.j.t.e.e.n z.C.A.C.B.c.u.m.m.t.M u.u.p.e.e.e.e.y.i.z.j.y.a.z.V.a.y.V.x.V.a.z.V.A.s.B.F.Z.B.z.Z.B.i.S.n.N.:.:.1.8.9.9.=.=.7.=.=.-.j d g j j +.+.{ @.#.}  .sX#.#.#.#.sX} } | } | @.| @.lX{ 7.FXnXfXfXfXkXkXgX@.gXgX@. .@.@.@.@.@.+.' ( e e 8 @ e @ @ @ @ @ O O O O O @ @ @ e e w ) { } { }  .{  .{ } ` | | | | | _ | ` } { O.fXhXO.S D k.m u.u.p.t.r.e.r.r.r.d.r.e.s.i.j.M.N.B u.M.A.z.c.x.E.Z.l.B.B.V.Y.j.y.i.A.j.z.B. Xj.B.j.A.^.A.i. XY.j.Y.M.m.Y N ~.Y , , Y :.G N n.n.k.h.y.g.g.y.t.y.z.B.B.i.t.i.i.y.i.A.Z.B.z.s.s.F. XB.i.f.BXuXV J..XBXSXuXoXS.s.d.s.s.x.F.x.x.x.F.F.z.x.s.R.Z.b.z.D.E.B.z.A.A.K.V p.uXuXI.S.m.e.e.e.e.i.s.z.i.z.V.D.a.x.x.z.R.D.l.z.v.E.Z.v.b.z.v.V.y.y.a.r.s.x.a.z.s.F.F.s.x.x.F.F.V.Z.x.F.E.Z.Z.Z.D.F.V.S.S.G. XD.v.D.W.D.D.G.A.G.F.V.G.G.G.V.S. XF.V. X Xv.D.g.Y.CXSXLXcXL 6.4.3.&.3.E &.T W 3.T T 3.3.3.+Xw.3.3.4.3.+X;Xw.3.;X3.3.9.9.:XkX0Xq.:X3.*.$.+.j s 5 6 %.[.zX[.[.zX{.qXcX[.[.[.5.s < H s < L [.xXjX]. XY.Y.R.Y.Y.v.z.v.R.W.v.c.l.a.y.j.M.M b b b b n n M t.M e.e.e.e.r.a.r.y.n m.M.N , Q.KXLXPXmXv N D N.k.M M n ^.}.~.XXmXmX~.MXZX~.}.ZXSXCXXXZXSXMXXXSXZXMXCXCXXXh.h.m.M.m (.LXqX. k d d R %.L Q :.U v z l b z M b n n t.t.t.y.g.M.M.U.}.G 2 g r a u u u & 4 & & & : & & & u p f h p p +.p T p h h T +.+.+.p +.+.] +.+.#.+X3.#.+.p T +.3.w.#.w.w.",
"& 8 8 i i e i q i q q 8 & 8 8 9 O 8 @ @ @ @ @ @ @ @ @ 8 e q i i ..i i r r y i t f i i e # @ @ e # e 3 3 o. XR.T.Y.v.g.g.g.y.y.y.r.r.y.y.h.h.N m jXCXN.z B n n t.t.j.y.i.B.z.a.a.y.a.s.r.r.x.C.B.n h.KXPXPXZXx U ZXKXPXCX^.c.A.Y.A.B.z.z.i.i.j.z.Z. XC.Z.z.Z.A.B.C.A.m.m.B.m.i.e.e.e.e.y.z.B.z.y.i.z.Z.a.y.x.V.B.i.s.V.Z.s.z.F.Z.B.s.Z.B.i.m.i.N.U.~.2.>.2.=.<.4.4.<.<.%.R d s d j [ { +.@.@.} #.#.#.sXsX#.#.sX} | aX} } _ @.gXgXe fXHXFXkXkXFXnXw.7.fXgX@. .}  .@.@.@.#.' e @ @ 8 8 @ @ @ @ @ @ O @ O O @ @ @ e O e e e ' { {  . .@. . .}  . . . . .| | ` | } { ..O.hX|.S S D M M n e.r.r.y.y.y.V.V.Z.F.B.Y. X^.N z ~.^.M u.C.V.Y.Z.B.C.Z.C.A.A.B.^. XY.C.C.Y. Xm.h.u.u.m.m.u.M.u.m.h.B n.v |.CX~.x , l m D D k.t.t.i.j.i.t.t.j.C.B.j.i.i.z.B.C.C.A.Z.B.B.s.i.V.F.S.m.K.CXSXuXDXSXBX.Xf.e.e.H.E.H.x.V.F.V.x.s.H.F.z.x.s.F.D.x.s.V.F.B.B.B.S.A.p.P.I..XP.f.f.p.n e.t.i.s.s.z.x.V.x.y.a.a.a.x.l.r.r.r.a.y.r.y.r.r.z.r.r.r.r.x.x.d.x.s.W.G.b.V.V.F.W.D.x.x.D. XZ.Z.V.Z. XV.V.x.G.W.D.b.W.W.D.H.V.G.G.G.S.S.K.G.G.S.G.S.s.F.R.Z.Z.u.u.CXCXCXKX0X5.0.3.3.3.3.3.W T W 3.T T +X3.w.3.;X3.3.3.3.3.3.3.3.4.3.=.3.w.:X:XkXq.w.-.-.$.j k s a K 9.[.qX[.[.[.].].'.'.[.1.d 2 K F 1 H 1.[.hX}.hXY.^.T.c.v.x.c.V.v.x.x.Z.v.z.t.u.m.M b b b b M n e.u.e.e.e.e.r.r.a.e.e.u.M.A N {.LXPXPXCX,.U U.c D m h.XX^.CXCXCXBXXXCXKXCXxXCXKX^.}.KXCX}.}.KXCXCXCXCX~.MX}.n m.M.K.N |.PXvXX 5 K R R %.Q 2.,.:.S l m b b b n n n e.t.g.t.g.M.T.~.jXG 3 1 1 a 4 & 9 4 & & & O & & O & 8 u u u p 8 p 8 p p p p p h +.+.+.+.p +.#.T +.#.#.3.+.#.p #.+.#.3.+.#.",
"8 8 i i i w e i w q e 8 8 8 9 8 & @ & @ @ O @ @ e e f ..f ....{ ..' i i w i i i ....i i e @ @ @ @ # t , k.|.E.E.v.b.j.g.g.a.a.y.y.t.r.t.y.B D ^.CXCXn.z m n n M y.j.y.i.B.z.y.r.s.s.s.s.s.B.C.z.t.B MXCXZX}.N l N }.BXXXe.B.^.Z.B.B.B.B.B.C.Z.V.Z.A.z.i.z.A.F.B.C.Y.B.A.^.z.e.n n e.e.y.z.B.z.i.y.x.Z.y.r.z.Z.V.a.s.V.Z.B.i.A.F.z.j.A.V.s.i.i.m.~.U U P K L %.%.%.>.2.<.>.%.K g j [ ] { @.@. .} #.sX#.#.sX#.sX#._ @.}  .} ` gXFXdX*.fXnXnXnXnXfX@.w.kXgX}  . .@.#.#.} ' 8 @ @ e 8 @ @ @ @ @ @ @ @ @ @ @ @ @ e @ @ @ e e 8 i { { @. .@.{  .{ }  . . . . .} } #.#.` O.hXFXO., S M B t.u.y.m.B.z.z.B.B.Z.A.z.Y.^.D v XXSXCXU.b k.k.Z.Y.c.t.k.M.k.h.n.M.M.n.b n M j.V z n.k.b M M B B b M.U.D Z XXVXZXmXo.z z D D M u.g.j.c.j.t.i.B.C.j.i.i.B.A.A.A.B.A.B.s.B.s.y.s.F.D.S.S.MXSXCXBX.XJ.V p.S.D.G.W.G.x.x.G.G.x.s.x.E.x.x.s.F.F.x.z.V.F.Z.z.S.V.V.S..X.X.XK.K.m.i.n e.t.u.i.i.B.V.z.b.y.a.y.y.x.x.y.a.a.l.a.a.l.a.z.Z.z.a.s.x.G.G.x.x.x.G.W.b.x.x.G.W.D.x.x.D.W.D.H.V.D.F.G.Z.x.G.E.W.H.W.W.E.G.S.S.K.I.S.S.A.S.S.A.G.s.r.V.z.s.V.B.b XXCXZXCX}.,.1.6.6.>.4.3.3.&.W T T T 3.3.;X3.4.3.3.3.3.3.3.3.9.3.3.3.$.3.w.:X:Xq.3.+.R R j k d s 1 %.[.[.cXqX`.]./.`.'.[.<.d s K K s 6 F H o.^.jXjX XE.V.c.V.V.Z.x.c.c.D.Z.z.t.t.h.M b z b m n M e.M e.e.e.r.r.r.a.r.i.m.n.m ~.KXPXPXbXq.vXLXKX~.l D ^.KXjXmXmXCX}.G xXKXxX~.SXKXI {.KXSX!.U CXGXmXmXxXY MXXXb m.N.^.D U PXNXX 5 R %.<.1.1.`.].}.~.l z z b b b M n e.e.y.y.y.j.M.Y.}.o.3 t 1 0 - & & & & O : O   : O O & & & 8 8 u u u u u u y p [ +.+.+.+.+.h T #.#.T 3.#.+.p p #.+.3.w.#.+.",
"O 8 8 y i i i i i q q 8 8 u 9 = O @ O O @ @ 8 8 i ] [ @.[ +.*. .[ [ { ....q i f ..f f q @ @ @ @ @ # 3 3 o. XY.T.Z.v.l.l.l.l.z.z.z.l.g.y.k.M D XXKXZXD b b n M e.u.j.i.i.V.z.r.r.s.d.V.V.Z.Z.Z.z.l.M M ^.m.b M.n.N B n.i.t.B.B.i.y.s.z.V.Z.Z.B.s.B.Z.i.z.B.R.A.i.C.A.m.B.A.i.n e.e.e.e.r.z.B.c.g.a.z.Z.z.r.x.Z.Z.s.s.V.A.z.s.Z.F.B.z.V.V.s.z.i.n.N.Y G C C s 2 C F ;.0.`.5.2.E K j g [ +.@.@. .} #.#.sX#.#.sX#.sX} } } } ` (  .gXFXfX{ [ w.gXgXgXfXkXfX@.{ @. . .@.{ _ w e @ @ @ @ e e @ @ @ @ e @ @ @ @ @ @ @ @ @ e @ @ @ e e w { { { @.@. . . .{  . . . .}  . . .{ gXFX|.S S m m n n t.y.i.i.i.i.Z.B.B.M.M z N cXPXLXPX}.z h.c.Y.Y.u.b M m.M.n M M N.B M ^.^.n.B |.ZXMXJ.mXCXXXXXXXMXmXz c }.{.}.CXCX|.Y M g.t.j.C.C.j.i.t.u.B.j.i.u.j.C.M.m.m.j.m.p.r.i.y.r.r.G.D.r.e.S..X Xp.b V S.R.V.d.H.W.G.x.s.D.G.x.b.Z.E.x.z.d.F.F.V.s.S.Z.F.z.B.A.S.K.K.S.uXI.S.S.n e.e.e.p.i.B.A.x.z.s.a.l.l.l.R.Z.x.b.x.E.E.D.Z.Z.F. XF.Z.V.Z.R.F.S.x.d.G.W.H.H.x.G.W.G.x.d.x.G.G.v.V.H.E.G.H.H.G.W.W.v.H.H.E.H.d.S.S.f.p.P.I.I.K.G.F.S.r.r.r.r.V.F.B n.BXCX|.~.(.:.Q 3.>.4.3.3.W 3./ T T 3.3.3.3.3.3.3.3.3.3.3.3.;X6.6.4.3.-.3.w.:Xq.3.+.T g a a a s 2 L '.[.[.[.].'.`./.].[.<.H s X.j a a r > 2 c U. XXXE.R.v.C.x.c.c.x.x.C.v.j.u.u.h.B b b b m M n n e.e.e.e.r.y.r.y.z.c.m.N A ZXPXPXAX$.=.JXLXPXyXm D U.CXCXCXZXVXCXZXKXCX].Q.VXZXVXKXmXcXCXKXKXCXjX|.CXCXCX~.u.m.C.^.D N KXVX< W <.`.[.qX[.[.`.xXmXY l z m m b n e.n e.y.y.g.g.k.T.XX|.x 2 5 5 ; 9 9 * & $ O O O O O O & & 9 u u u y y p u a f h T +.+.*.3.+.T T T T +.#.3.+.p T +.+.#.+.+.+.",
"@ 8 8 p f i i i i q i 8 y i y 8 O O O O O 8 q ] ]  .*.7.7.*.7.7.7.*.{ { i q ..i ] f ..i e @ @ @ @ # t 3 o. XY.v.C.c.c.z.z.z.x.c.c.B.Z.c.M.M N ZXKXXXz m n M e.u.u.z.j.z.Z.B.a.r.r.s.s.s.x.V.B.B.z.i.n t.i.t.i.j.K.n.p.m.i.S.s.S.A.Z.V.B.A.V.s.y.Z.F.s.s.z.A.F.z.C.A.j.B.Z.y.n e.e.e.r.y.j.B.c.z.l.s.Z.x.y.z.Z.Z.i.s.B.Z.B.s.V.A.B.z.V.V.s.B.s.m.N.Y G G F C 6 C F ,.[.[.,.;.L K K g ..@.@.@. .} }  .@.} sX#.} } | | } | ` } ) ( dXnXkXgXkXkXlXFXnXgX@. . . . .@.@.{ ( e e @ e e e @ e @ e @ e @ @ e @ @ e @ @ @ @ @ e @ @ @ @ e e ( ` { { @. . . . . . . . . . .aXO.dXhXhXO.S m b b n M t.y.y.i.y.C.m.M.h.l Y VXPXPXPXVXQ.U.Y m M.Y.M.^.Y.XXZXXX}.mXCXZXMXGXCXCXmXCXZXKXCXZXmXCXCXZXMX}.l N.{.}.~.}.jXGXMXk.t.k.C.C.C.i.e.h.m.j.h.u.u.m.m.n.e.n n n e.n p.r.r.r.G.V.s.i.r.p.S.e.S.Z.F.F.a.a.H.E.H.x.s.D.F.x.s.x.F.D.s.s.D.F.V.s.B.Z.F.B.B.Z.B.K..XK..X.XP.i.b e.n e.p.i.B.B.s.i.s.a.z.s.x.F.Z.B.x.V. XE.G.x.v.Z.E.D.V.V.V.R.F.s.x.x.G.W.x.b.x.H.W.G.x.b.x.W.W.H.x.D.W.E.x.H.x.W.W.H.H.v.I.S.d.P.P.P.I.uXuXI.S.A.F.S.s.i.r.r.B.^.A.u..XjXn.~.|.:.,.! Q 3.6.3.&.W 3.T T W 3.3.3.3.3.3.3.3.3.+X3.3.9.;X;X3.3.*.w.:X9.$.k k u 4 5 5 a s H 5.cX[.].`.5.1.5.5.5.E d d X.j a g K g F l S T.E.v.R.Z.Y.Z.V.C.v.c.c.c.z.j.h.h.B b z B B b n e.n t.t.t.r.y.s.l.Z.B.M m c NXPXLXLXcX<.q.cX[.G D D U.CXZXCXmXo.(.|.].U l , > ,.qX!.> , !.!.G x S l Y ~.~.N.A.M.Y.Y.D l CXVXs 4.[.[.qXqX[.5.Q [.CXxXv z z b M n n e.e.t.g.y.l.g.M.|.|.S S 5 1 4 9 9 & & $ :   O O O $ = 9 u 9 = 4 a a f s g g j $.*.=.=.=.$.+.p p p T T #.+.p p p +.+.+.+.+.",
"8 8 w i ' i i i i i 8 q i f y 8 O O @ & @ q ] ] [ [ *.7.*.7.*.7.7.7.*.{ ..i i i f ] ..i e O @ @ # e 3 l k.^.Y.Y.Z.v.c.c.c.c.x.V.B.C.Z.c.C.M Y CXLX~.l B t.t.n u.j.z.j.z.F.Z.s.s.a.x.s.y.a.s.s.z.i.y.j.B.z.x.i.e.A.A.B.B.y.s.S.i.Z.Z.B.S.V.B.i.p.B.A.B.i.S.Z.A.i.V.A.B.B.A.p.e.e.e.e.t.t.g.c.c.z.z.l.Z.Z.y.z.Z.Z.a.s.s.Z.V.s.B.Z.C.z.x.V.B.d.S.h.A.n.Y I G Z C G U !.qX].:.P H L X.g [ 7.7.@. . .sX#.sX} #.} } } | |  .} `  . .) e { @.gXgXgXfX@.aX} ' }  . . .@.#.' w e e e e @ e e @ e e @ e e e @ e @ @ @ e @ e @ e @ @ O @ e e e e ( ' { { {  .{  . . .@.dXdX@.aXaX8.fX8.O.v D m M M t.t.y.y.t.z.Y.M.v Y NXPXPXPXJX[.xXKXCXU.D ^.^.CXZXjXGXjXCXZXjXCXCXCX|.ZXKX}.v ZXKX!.c ZXCXmXjXU.z }.ZX}.}.|.^.CXjXk.M j.j.C.j.t.t.k.m.j.u.u.u.u.B V b b n n n e.e.e.u.i.A.F.B.V.s.V.R.V.x.x.V.G.x.H.x.H.D.x.B.H.G.V.d.x.F.Z.x.s.Z.E.V.s.V.Z.F.z.z.A.S.m.oXI..XuXK.u.n n n n p.j.B.i.y.y.i.l.z.z.V.Y.C.z.Z.x.F.E.x.x.v.H.E.D.x.x.V.F.F.s.d.d.G.W.H.x.x.H.E.G.x.x.b.W.W.D.x.D.G.G.Z.x.H.G.G.D.v.H.F.S.S..XuXpXpXBXuXS.S.S.F.F.Z.V.S.S.S.F. XY.Z.Y.C.^.N.^.~.,.>.>.&.3.W 3.W T 7 T W 3.3.^ 3.3.^ 3.3.3.+X9.3.:X:X9.3.3.3.9.-.T k k 5 ; - a 1 s s E [.0X1.1.,.~ ,.1.%.H d K &.g r g %.2.o.N D Y.E.T.b.v.Z.Z.R.R.C.Z.Z.B.C.M.k.B M z b D N b t.e.t.t.y.t.y.r.s.v.R.m.b N , J JXPXPXPXLXbX1.3 l D D D XX}.hXCX~.c l P !.!.|.`.ZXNX~.!.xX!.G |.}.|.}.S c }.mXM.h.Y.C.n.c mXCX2.[.qX'.[.[.[.`.,.:.ZXMXN z z b b n n n e.y.y.y.g.g.T.^.XXS > r 1 - = = ; $ O O   O O O $ & = 9 = - - a k s s K K K X.$.K $.$.-.$.#.T k p p T +.p p T p +.p +.+.",
"8 8 i p f i i i i i w y i h y & O O @ & 8 i [ [ [ [ [ @.[  .@.X.*.*.*. .] f i i ..f f f e @ @ @ @ # 3 3 Y ^.Y.v.Z.C.c.C.c.x.v.V.C.C.Z.j.C.h.U.KXCXc b B t.t.n t.u.g.i.i.V.V.a.a.x.D.x.r.y.r.y.s.s.r.r.B.s.r.x.r. Xm.p.B.V.S.y.S.s.S.s.s.V.V.r.s.S.Z.S.z.S.F.G.s.V.A.j.B.B.e.n e.n e.t.r.y.z.c.z.l.y.v.D.y.a.V.R.s.s.s.A.V.s.V.Z.A.z.z.V.x.s.S.i.N.N.N.! ! Q I ! !.`.wXhX1.G F U P X.X.7.@. . .} } #.#.#.#.sX} | | | }  .` ) `  .` ( w ( ( ( ' ( ( |  .} | |  . . .( e e e e e @ @ e e @ @ e @ e e e @ e e e @ e @ @ @ @ @ @ e @ @ @ @ e w w ' ( ( ( ) ) { ` }  .@.@.aX8.8.2.o.D D B M M M t.t.y.y.z.^.N.v }.PXPXPXJXH %.LXPXPXjXY Y.^.ZXCXjXZXo.CX}.x mXVXZXG }.KXhX|.KXKXZXNXKXCXZXCX}.l ~.mXjX}.}.jXjXM.b k.C.j.j.y.u.m.m.m.u.u.B V M b b b b n b n e.e.e.y.y.i.A.i.i.s.R. Xd.a.d.H.W.a.b.s.D.D.H.x.V. XH.a.s.F.D.s.x.V.E.V.s.B.D.F.z.z.B.S.f.S.S.f.S.A.p.e.n n p.p.m.f.y.t.r.i.z.B.s.B.R.A.Z.Z.s.F.F.Z.V.D.D.E.W.D.H.Z.E. Xx.x.x.V. XH.x.x.Z.E.F.x.x.x.D.W.D.H.v.D.W.V.V.x.W.E.G.V.S.K.S.S.uXiXpXuXuX.XP.S.K.A.R.G.S.B.s.i.S.R. XZ.v.R.Y.Y.^.~.!.>.>.3.W 3.W W T 7 T 3.3.3.3.3.3.3.3.3.3.3.3.3.9.6.;X3.3.3.3.h 4 p a - * 4 a a 6 1 6 >././.1.,.5.5.1.W d H X.-.g - r K 2.2.S T.jXD.b.b.y.l.j.Z.Z.v.C.C.c.M.m.m.B m z c N.D b t.t.t.y.i.i.i.s.a.Z.Z.u.b N l U `.[.KXPXPXPXGXZXY m D b |.}.mXKXCXCXmXmXCXGXKXCXKXCXxXKXKXKXCXLXKXCXKXCXMXCXMXM u.A.c.U.N ~.ZX[.cXwX].{.cXxXxX}.].mXZX~.z m b b b n e.e.y.g.y.y.z.M.^.|.G > 1 1 $ O : & O O O   . O O   = = & ; 1 5 5 a s d K X.L %.%.R R $.$.T T #.p p p T p p p T p p +.] +.",
"8 i i ] ] ' i w i i q i i f y @ O O @ 8 i f { [ { ] [ { ] { ] { {  .O.*.{ ] ....i ] { f e e @ @ @ @ 3 x o. XY.Y.Z.C.v.v.v.z.x.c.c.z.Z.C.C.m.U.KXXXz D M n u.t.t.u.i.y.y.B.z.r.a.s.V.x.s.s.a.i.x.y.s.y.s.Z.d.r.a.V.V.S.B.s.d.i.s.V.S.i.s.G.S.y.a.V.G.s.s.s.F.A.i.A.B.i.B.i.e.e.e.e.e.t.r.t.z.B.c.b.y.Z.Y.a.y.x.F.z.z.s.V.Z.z.S.Z.Z.z.z.x.x.s.z.f.m.n.J.(.(.Q.Q.].{.}.xXxX(.C 2 H X.{ *.7.@. .}  .sX@.sX} #.sX} } | #.| |  . . .}  .`  .` ` | _ } } #.}  . . .aXaX .( e e e e e e e @ @ e e e e e e e e e e e e e e e e @ e @ @ @ @ e @ e e @ e e w e w e ( ( ) ) | | dXdXO.fXU.o.Y D B u.k.c.c.j.z.j.A.N.c hXPXPXPXJX0.L cXGXKXhXU.U.D jXCXKXKX|.VXCXmXKXCXCXU |.cXmXKXVX1.}.mX}.U o.XX^.m N N.}.mXjXCX|.M k.C.j.c.u.t.k.B.h.t.M M V b b b z b b b b n n e.e.y.p.i.A.i.i.a.D.D.d.b.d.x. Xx.x.B.F.V.V.V.s.E.G.s.s.G.D.x.s.V.F.x.s.s.A.Z.B.s.V.V.p.V p.p.V f.p.n n n u.m.u.e.e.r.r.z.z.B.z.z.R.C.B.V.S. X XH.x.x.x.E.G.V.x.V.G.G.H.x.S.G. XZ.V.x.V.E.F.x.x.z.H. Xv.H.D.D.F.Z.Z.z.Z.E.D.s.S.K.K.f.pXuXiXpXiXI.S.I.S.V.R.R.A.B.S.p.e.r.x.s.l.x.j.^.m.|.~.1.W ^ 3.3.T T T 4 T W T W 3.3.W 3.3.3.3.6.6.3.;X4.3.3.3.-.+.k 4 4 k - * ; 5 a 1 1 < s >.'./.'./.`.5.R 6 j $.X.X.= = s X.2.D k. XE.v.v.l.y.y.t.g.z.c.c.z.c.C.N.D N z D ~.N.b t.e.t.i.i.s.z.v.x.x.z.t.b N U SXJX8.=.zXJXPXPXPXZXD z N.XXU.CXCX(.CXCXU.~.CXKXU.ZX!.|.KXZXSXGXZXZXKXMXGXZXjX^.t.j.Y.h.Y.m D xXxXNXxX].{.qXqXxXxXmXyXCXjXz b b M n n e.n t.y.l.l.c.c.Y.|.Y > 1 # : : O   .     O . . O $ = = = - 1 5 s K K ;.1.`.0.[.zXqX[.0.4.&.3.T T p T p p T p p p T p T p ",
"i p ' i ] ' i i e p f f i f 9 O O . . 8 q h ] [ ] ] ' ] ] i ' ] { *.7. .*. ...] i ..] f e 9 @ @ O # # 3 D Y.Y.E.v.Z.v.v.B.v.v.B.c.B.C.j.C.h.u.XXA.b b u.n e.u.e.i.y.y.y.B.i.y.a.l.D.x.s.x.z.F.A.F.V.B.V.S.a.a.r.Z.R.V.B.V.s.s.s.V.B.s.s.Z.V.a.y.B.F.s.s.s.Z.R.i.B.B.z.B.m.e.n e.e.e.t.t.y.y.z.v.z.a.c.D.z.y.x.F.B.a.s.x.F.s.r.Z.C.x.z.x.x.d.s.i.f.m.J.).{.{.].{.}.xXxXmXxXU x P 2.X.*.7. .{  .@.#.} sX#.} } #.sX| } } | | } } } | | } #. .}  .}  .}  .}  .sX .7.7.{ ) e e e e @ e e e e e e e e w w e w e w w e e w e e e e e 8 e e e e e w w ( w ( ( ( ( ( ) ( ( ) |  .7.gX|.8.O.D k.k.j.c.y.g.e.h.m.D l :.KXPXPXPXPXVXhX`.O.m D  XT.jXCXjXjXZX!.|.CX|.Y Y l c v !.}.S , x 3 l v l c N.D m M M ^.MXXXB M C.z.h.t.u.u.k.h.M n V b b z l b z b B u.B B j.i.r.y.r.z.A.r.a.s.G.F.a.a.d.z.E.V.V.B.A.A.V.s.V.F.G.z.d.G.F.x.s.B.F.Z.s.s.G.Z.B.B.Z.A.S.s.f.m.f.p.e.b b p.n e.u.u.t.y.i.B.S.i.y.z.A.A.B.Z.S.G.E.H.S.S.d.G.G.S.V.V.G.oXx.S.d.p.G.F.d.G.x.D.E.v.x.s.V. XD.H.F.W.E.W.x.x.v.G.D.x.S.K.K.V uXuXiXiXuXP.p..XS.S.F.A.B.S.i.r.e.e.a.y.r.t.y.m.A.N.^.(.U >.R R T T 7 k k T +X3.3.3.3.3.^ 6.3.3.3.3.;Xw.3.3.3.3.-.a - 4 u u * = - a 1 1 1 5 F E 5.5.5.4.E 6 s K $.X.[ = + r X.2.Y U.E.W.v.v.R.c.z.y.y.y.r.r.y.y.j.M.D c Y Y |.~.M M e.y.j.y.i.B.Z.A.V.r.n u.A ~.LXPXPXVXq.9.zXJXPXKX~.l }.CXN.ZXmXN yXCX}.}.CXCXc MXZXyXKXCXCXCX}.^.CXCXMXMXMX^.n C.C.C.m.D c _.ZXNXNX{.].wXxXwXxXmXNXZXBX~.b b M n M M t.t.y.y.i.v.T.Y.|.~.> 1 ;   : O . . O : O O O O   ; u a - s a K <.[.cXcXcXcXxXVXVXVXJXVX'.=.d d k a f y h f p i p f p f ",
"w i i p i i i i q i i i y q & . O . O % i h ] [ ] { f i ..i i ] [ { { [ *.[ ] i f ' f p q 8 O O @ # 3 3 U.|.Y.Y.Z.Z.B.v.c.V.v.B.z.j.C.z.C.j.e.C.j.n n t.M e.i.t.u.y.y.y.V.s.y.a.s.D.x.y.z.s.Z.Z.Z.V.V.F.Z.x.B.x.V.V.S.s.B.s.s.V.V.S.i.s.V.V.y.a.s.F.V.s.S.V.A.s.B.C.j.C.u.e.n n e.e.e.r.y.y.s.x.V.i.x.R.z.y.z.Z.V.a.s.z.F.s.a.V.Z.z.s.x.x.s.s.B.m.m.N.^.}.{.].].}.}.mXyXwX{.G H 2.X.[  .{  .} }  .@.#.} sX#.} } }  .#.} #.} } #.} } } } } }  .}  .#.}  .} @.@.@.dX . ...e e e e e e e @ e e w e w w w w ( w ( ( e ( ( ( ( w w w w w w w ( ) ) ( ) ) _ ) ) ) ) ) | ` |  . .O.gX|.O.m M M t.t.n e.e.e.u.n.l > >.bXPXPXPXPXKXVX|.S D |.^.o.U.N o.ZX~.G , N ~.}.~.|.mXCXZX[.mXmX}.ZXZXMXXXU.h.B u.M u.M.h.n h.M.u.t.e.t.h.m.u.n b V l l N V z b V B A p.f.B.m.r.y.r.s.C.p.s.d.V.G.a.V.s.b. Xs.s.d.Z.S.V.s.V. XD.s.x.F.F.x.s.z.F.V.y.s.B.A.D.F.F.A.S.s.S.S.m.p.n n b V V V p.e.p.p.m.i.y.t.y.B.Z.F.B.B.B.F. XV.d.d.S.S.G.S.S.G.G.G.S.r.r.s.F. Xd.D.a.G.E.H.x.x.H.E.D.x.D.F.E.W.x.x.v.G.W.V.B.S.S.f.uXDXDXuXuXP.p.I.G.V.A.Z.B.i.e.e.e.e.a.s.s.y.i.i.M.K.^.^.Q.Q E W 3.T 4 7 k T T 3.T 3.3.3.3.3.3.3.^ 3.6.3.3.w.3.3.$.k u u a - $ & 4 ; 1 - ; o 1 H E E E H 5 1 k j $.h g 9 % r $.!.Y ^.jXW.v.W.v.l.l.l.a.y.y.t.r.t.t.B v c U U ~._.u.b n t.j.z.y.B.V.z.s.r.n B N.(.VXPXPXPXIXvX9.<.cXZXD m ^.CXZXBXXXN ^.XXMXMXXXXXB _.CXjXXXMXXX^.^.m |.MXXXXXXXC.M A.C.m.M.h.m |.NXNXxXqXqX}.eX}.wXyXBXCXCX^.n n e.e.e.e.e.u.y.l.z.c.v.T. X~.> # ; : O O O . O O . O   O $ - a a a d g 2.cXVXvXNXxXNXvXmXNXAXLXSXzX>.d d s k a a i y y u u u u u ",
"w p i i i i w i i i 0 y y 9 + O O O O 8 p [ [ ] f f i i i f f ..{ { f ] { [ { f ..i f ] i 9 O O O # 3 3 D |. XT.v.V.x.V.V.V.v.c.B.z.c.z.B.C.j.z.z.t.e.e.e.r.i.u.y.y.y.i.V.a.r.a.s.Z.x.a.z.i.Z.C.B.s.B.D.V.V.Z.V.V.V.i.s.V.s.s.s.V.B.s.s.Z.V.d.a.s.F.V.i.i.C.F.i.C.C.B.B.r.n n n n e.r.t.r.y.y.z.Z.a.z.Z.x.y.x.Z.V.y.s.s.Z.z.a.B.V.B.s.s.s.x.s.B.m.m.N.J._.}.(.(.{.}.wXU (.wXG 2 1.-.X.[  . .{  .} } @. .} @.#.} } } } ` } } } } ' } ` { } } } | #.#.#. .@. . .@.7.7.O.{ e e e @ e @ @ e e e e w w ( w w ( ( ( ( ( ( ) e ( w ( ( i ( ( ( ) ) ) ) ` _ ` ` ` _ _ _ _ _ ` }  .@.8.8.o.S v M n t.e.t.t.e.M.U.N S 2.2.8.nXPXPXPXPXPXmXc M.U.m |.mXjXKXKXZX|.ZXCXCXSXCXCXGXCXZXLXKXKXGXCXCXMXU.M m.M.h.M b b t.m.j.e.t.e.u.h.u.B b b z z N ~.N.z z B u.u.B e.u.y.e.r.r.S.B.p.d.r.V.G.s.a.a.x.E.x.x.D.B.G. XE. X XG.a.r.G.F.s.a.z.F.Z.s.i.z.V.V.V.s.a.p.S.B.m.f.p.b n b b n V n n u.i.s.u.r.t.y.j.C.A.B.z.B.V.R.F.S.f.S.P.K.P.m.f.e.r.s.x.oXoXuXoXx.D.H.D.E.D.x.x.V.E.G.x.H.D.E.E.x.x.x.W.F.G.F.V.K.S.P.uXDXiXuXI.p.G.K.S.A.A.i.u.e.n e.p.i.B.V.V.Z.C.m.^.Y.|.}.>.Q R T k 7 7 k T / 3.3.3.W 3.3.6.3.^ 3.3.3.3.&.-.3.-.$.h a u u & : & ; = - 5 - o < 5 H R K 6 1 1 s j j 0 0 8 # 1 K 2.o.E.jXT.W.R.v.l.z.l.g.y.t.r.e.n n m l c L U ! XX~.z u.t.B.V.j.i.B.r.e.r.e.u.n.A c zXVXLXPXPXLXvX|.~.l m M.XX Xn.b M M b B n.n m.B M Y.M n M B b n n b m.b n u.n i.A.B.m.m.D N |.NXxXxXwXqXqXqXwXeXwXMXZXBXXXn b M t.t.t.e.t.y.g.z.l.v.T.|.~.> < * & * : O O   O O   : & - a a a s g s '.VXGXVXxXxXwXcXvXVXSXKXJXvX>.d s d a a a y q y p u u 9 u ",
"9 w i i w i i i i e i f i % O O O . O % h [ [ [ f f a f f f f f [ X.[ { ] h ..i f i ] ] f e @ O O . # 3 D jX XT.C.V.V.c.c.x.c.B.Z.c.C.z.z.B.c.A.R.C.u.e.e.y.y.y.p.y.t.y.V.a.y.a.l.D.x.y.z.s.Z.V.a.s.s.Z.V.s.B.s.F.V.y.x.Z.s.s.V.B.x.s.s.V.V.s.y.s.F.x.s.s.V.R.B.V.A.m.B.e.n n e.e.e.t.e.e.y.y.l.Z.l.l.Z.V.i.x.Z.V.a.a.s.F.B.r.x.Z.B.s.s.s.s.z.s.s.m.n.J._.{.(.(.].}.].Z Q.xXJ < 8.-.[  .+. . .} sX#.} }  .#.}  .#.{  . .} { { ` #.] #.{ { #.{ #. . .@.@. . . .*.O.gX7...t t e e @ @ e e e e e e ( e ( w e e ( ( ( ..) ( ( ( ( ( ) ( ) ) ) ) ` _ ) ) ) _ ) ) _ _ ` ' ` { X.*.8.8.~.D v M u.h.u.z.g.n M.n.v [.PXJX9.R =.cXIXPXPXLX~.o.U.U.CXZX|.KXmXmXSXSX!.D ZXKX~.}.}.^.ZXjXMXMXjXCXMXM.b t.h.t.j.u.k.C.m.i.t.t.M t.u.u.b b z V A N.|.J.z b B B u.n n p.e.e.r.y.s.V.r.r.r.V.G.s.l.l.c.E.s.x.V.d.x.V.x.d.x.x.s.a.x.F.x.s.z.F.Z.c.z.s.s.i.i.i.S.A.B.B.i.p.n n n n n n p.n n u.m.i.r.t.y.i.z.C.Z.B.B.i.i.K. Xf.p.R..Xp.V V V S. XuXMXoXoXoXF.s.x.x.D.W.D.V.d.x.E.W.x.V.x.F.F.v.v.H.F.E.G.K.A.K.P.V P.DXDXuXuXS.K.S.S.A.C.i.p.n n n e.y.B.A.A. XR.B.M.m.^.}.].3.W T k 7 4 k T T T 3.3.3.3.3.3.3.3.6.3.3.3.$.3.-.$.+.h k a u & O = = * ; - - ; < 1 s R K d s 5 k k a = = = - a g o.U.|. Xv.T.v.x.z.z.g.y.t.t.t.t.M M z l G F C c _.}.b n t.i.z.A.B.r.e.e.r.e.h.f.v x 2.[.cXJXPXPXLXKXmXD m M.u.b B M u.i.g.n u.B.m.j.C.u.u.j.n t.j.i.j.t.t.u.f.n i.j.A.c.B.M.n.N |.NXmXqXqX{.{.}.wX_._.}.mXMXmXM M m.u.t.t.t.t.i.y.l.z.c.T.|.!.3 # ; - * $ O         O & - u - a a s a g [.GXVXvXcX}.qXxXcXNXVXAXSXvX5.d 6 s 5 a a a q q 9 u u u 0 ",
"i w w q p i i w q w y p i % . O O O O 9 h [ g f a g f t r r t r +.hXbXkXX.f ..i f f ] { ] f @ O O O # , O.|.E.T.Z.v.v.x.x.c.V.c.v.z.Z.V.c.z.c.B.Y.D.z.y.r.a.a.s.i.t.y.y.c.i.a.a.a.D.v.y.z.i.Z.V.z.s.z.Z.V.y.s.a.V.V.r.s.Z.s.s.V.V.V.s.s.Z.V.s.s.s.F.V.a.a.B.F.B.B.A.z.m.e.e.n e.n e.t.r.t.r.y.y.D.z.z.v.z.i.s.V.V.s.i.a.Z.V.a.s.Z.V.s.b.x.s.d.z.m.m.m.J.^.{._.(.(.{.(.U (.wX;.2 ;.*.X.*.*.@. . . . .{  .} }  .{  .+. .{ { { { i i i i e e e ' ' { #.#. .{  . .O.7.O.O...t e t e @ @ e e 8 e 8 w w w w ( ( ( ( ( ( ( ( ( ( ( ( ( ( ) ) ) ) ) ' ) ) ' ) ) ` ) ` ` ' ' { { { X.8.`.hXU.D B u.h.j.m.y.b M.U.l !.LXPXPXJXq.T -.nXLXPXjXo.U.}.CXU.l ZX~.D CXKXXX|.CXGX^.}.CXMXCXMXMXMXXXZXMXY.M u.j.u.u.u.M.C.j.j.y.n t.u.M b V z v z I ~.}.U.z m M h.e.n e.i.i.r.y.r.s.B.r.s.d.V.Z.y.i.g.c.R.C.v.D.x.r.a.r.r.a.s.a.a.x.F.l.a.a.Z.Z.z.B.A.B.i.y.B.A.B.A.B.i.p.n n n n n n n n e.i.i.t.e.i.i.y.j.V.A.c.j.i.i.A.^.p.p.uX.Xf.J._.uXCXCXMXoXH.r.d.Z.V.x.x.D.E.F.v.x.x.W.E.x.x.x.G.F.x.x.x.G.F.D.V.S.K.K.p.f.8XuXuX.XK.S.A.m.A.B.f.n n n n e.e.m.B.B.A.A.Z.u.h.C._.}.:.J W k 7 7 k T W 3.T T 3.3.3.3.3.3.3.3.3.=.-.$.$.T T k a y u - & = = + + + * ; - 1 1 s d d a 4 - - - 8 ; q 0 r P P O. XjXT.W.v.v.z.g.i.j.y.t.e.t.M m c v s 2 2 x ! XXN.b M i.z.A.B.r.e.e.y.y.u.B J.MXKXKXcX[.cXKXLXPXKX Xj. X^.y.u.j.i.z.C.B.R.Z.g.y.z.E.R.v.z.z.t.z.j.A.z.A.C.B.V.y.C.B.C.m.D A }.NXxX].).(.Q.}.eX(.I A ~.XXyXn M M.h.g.t.t.t.y.a.s.j.c.M.|.~.t 1 ; ; & $ : O .   O & = - r a 5 a s s K zXVXNXcXqXqXxXwXqXqXqXNXVXVXqX%.o 5 6 a f 0 9 9 y y y y y ",
"i i p i i i i i y w i f 0 @ O O O O O = g [ j s r r t a g K K g *.cXJXFX9.] h f f ' f [ [ f e O O @ 3 3 D |. XY.Z.Z.B.x.B.V.c.V.v.b.b.x.x.l.z.z.x.D.D.v.a.r.y.s.y.y.r.r.V.z.a.a.a.R.V.a.z.z.Z.B.z.s.S.D.V.y.s.y.V.x.y.s.V.i.y.s.B.V.s.s.Z.V.z.d.z.F.x.i.i.B. XB.B.C.i.j.n n n e.e.e.e.e.r.r.r.y.Z.V.v.Z.z.a.a.z.V.a.a.y.D.V.a.s.Z.x.s.s.s.x.z.B.S.M.m.N.~.(.|.(.~.!.! I ,.!.L 6 %.$.*.7.7.@.#. .} }  . .@. .@.{ { { f q 9 8 @ @ @ @ = % # @ O . 8 w ] +.7.@.*. .O.7.O.O.t t t t # @ @ @ 8 8 w w w w w w ( ( e ( ( ( ( ( ..( ) ( ) ) ' ) ) ' ' ) ` ' ' ' ` ' ' ..' ..{ ] { *.8.[.hX|.U.D M h.M.m.y.t.m.M.c c cXPXPXPXPXUXhX=.4.zX~.U.U.~.CXZXjXCXXXD MXZXCXCXCXXX^.D XXXXXXY.^.n.k.Y.Y.u.n t.t.t.t.t.u.i.t.t.t.t.u.t.M b z z z Z ! Q.}.:.z m n h.u.u.t.i.i.p.r.r.s.B.r.i.y.B.A.y.j.j.k.c.j.z.z.r.r.a.s.x.V.z.a.r.x.x.y.y.c.R.R.A.A.Y.A.B.i.m.B.i.m.m.u.M n n n b b b n p.u.u.p.n e.u.j.i.u.B.Z.z.i.z.i. X Xp.K.SXDXMXDXSXCXuX^.y.e.r.s.D. XG.v.G.x.W.F.H.x.x.F.E.x.s.x.D.W.D.v.x.D.G.D.S.d.K.K.f.P.I.8XI.I.K.A.F.i.C.m.M n n n n n n i.i.r.r.s.V.z.B.M.~.}.! H L 7 4 7 T T T T 3.T 3.&.3.3.3.3.3.3.3.3.-.$.T T +.h y a u = $ & * = +   # ; ; - - 1 a a 5 * $ * 9 # = r r g S S D |.W.W.v.v.v.l.y.g.y.t.u.u.B V m l 3 2 2 5 C Z }.XXn n j.B.A.i.r.e.r.a.i.j.u.N.CXKXLXZXU c ~.MXCXCXM.j.A.t.e.i.z.C.v.z.x.E.s.z.a.y. XC.r.s.z.r.z.l.V.i.s.y.i.y.a.Z.c.B.M.B Y }.xX{.!.! U ! _.yX{.Z v n._.XXB h.C.y.t.y.u.y.g.g.l.g.C.M.^.o.3 1 ; * : O : O . O $ ; = - u - a a a 1 ;.xXvXzX{.].}.}.{.Q.Q./.].xXxXvX5.6 s a * 1 r 9 0 0 9 0 f y ",
"i p ' p i i w i i q i i q @ O O O O O 0 g j g s 2 s s P O.<.2.K a X.[.hX-.f f q 0 f { [ [ { q @ . O # > t T.|.E.A.C.B.V.c.V.c.x.V.x.l.z.b.z.v.x.x.D.F.Z.b.y.a.a.i.y.y.y.x.s.a.l.a.D.V.y.z.s.Z.V.s.a.s.Z.V.i.s.r.Z.V.a.s.V.a.r.s.s.s.y.y.V.x.s.s.B.F.V.i.s.V.R.B.B.C.i.t.n e.n e.n e.e.r.e.r.y.r.V.Z.Z.V.z.i.y.z.V.s.s.y.Z.V.s.s.Z.x.S.s.s.x.x.B.s.B.m.n.~._.}.(.(.! Z Z J Z C s K [ X.*.@.+.@.{ {  .{ #.{  .{ [ ..q @ O + ; r r t j X.$.X.[ f ; O O 8 ..X.7.7.X.O.8.O.O.S t 3 3 # # @ O @ e e w w w w ..( w ( ( ( ( ( ( w ( ) ..' ( ' ( ' ) ) ) ..) ) ..( ....i i f ] *.7.8.hXhX|.XX~.n.B h.C.m.n t.k.N.D , F `.JXLXPXPXLXJXzX2.v N U.N C.MXjXXXT.h.M.u.h.h.t.t.m.M M M h.b n u.t.e.t.t.t.u.j.t.j.t.e.e.e.e.t.u.u.M b N z z z Z Q.(.mX|.b b M t.h.t.e.p.e.r.e.r.s.V.y.a.r.i.C.m.m.M.D M M b M e.y.a.s.s.z.z.z.j.C.Y.V.C.Y. X XY.C.M.M.h.m.A.N.m.u.p.p.e.n b n b n n n V B e.e.M t.u.u.i.y.j.c.B.z.V.Z.R. Xf.A.uXSXBXMX.Xf.n n e.V.V.V.D. XD.s.x.x.F.E.Z.x.H.D.F.V.x.s.D.F.V.Z.x.H.D.D.x.B.V.S.K..XuXI.uX.XA. X XS.m.u.n b b b b n n e.y.r.e.r.z.Z.C.C.Y.~.~.J C 7 o 7 T 3.T 3.T 3.3.3.3.3.3.3.3.3.-.+.$.T h k h a u y u = % = % 9 = % = ; - ; - a a a 4 - 4 u = # q r ; t t x m E.jXT.T.v.T.b.l.y.r.u.e.t.B B m l 3 1 5 d J C N.mXA.b j.B.y.e.r.r.r.z.x.z.u.B N.XX_.Y v l z V N.k.t.i.i.r.t.e.R.z.s.y.s.Z.i.s.y.A.R.z.r.r.i.i.s.l.z.z.z.Z.i.y.z.v.B.C.m.N Y }.}.{./.:.! Q.}.mXmX(.~._.mXmXC.A.M.u.g.y.y.y.y.i.g.j.c.T.|.Y > 1 # * $ O O . . O $ - - - 1 5 a 5 s 1 >.vXcX(.!.Q.{.qX(.Q.Q.Q.].eXxXvX[.%.E $.1 ; - 9 - 0 0 q q r ",
"i ' ] ] i 8 w i q i i q 8 O O O O . @ 0 s j P g P H L X.1.`.1.U 2 X X t a s f q i f [ [ [ [ i O . @ + > 3 D |.Y.Y.Z.C.B.z.B.B.x.l.Z.v.x.z.z.b.x.x.x.v.D.x.b.b.a.y.y.y.y.Z.z.a.s.a.F.V.a.z.z.Z.c.s.y.a.Z.V.s.d.y.V.B.a.s.Z.s.s.s.z.B.s.s.Z.V.s.z.z.F.x.i.s.V.R.B.B.C.p.e.n n n n e.n e.e.e.y.y.y.z.Z.Z.v.x.a.a.s.V.s.s.a.Z.V.s.s.V.x.s.s.s.x.x.V.s.B.B.N.^.XX}.{.Q.Z v x Z 7 6 F s j [ *.@.7.{  .+.#. .{ { ..q e @ # r g X.;.>.<.0.8.1.0.0.0.8.%.a @ . O t ..*.O.O.O.U.O.S S 3 3 > # @ O O @ @ 8 w w w w e ( e ( ( e ( e ( w ( ) w ( w ' ( i i ..i i i y i f f f h X.=.=.9.hXzX[.hXhX|.k.m u.M.j.t.u.h.M.D , S 1.0.[.JXPXPXPXPXKX|.n  XY.n t.t.g.j.j.t.j.u.n h.c.C.B.u.C.C.j.M.j.C.j.u.t.e.t.u.y.t.y.t.t.t.t.t.u.u.m V N v , l Z ,.(.CXjXz m B h.u.r.e.i.i.e.r.p.S.V.y.p.e.m.A.N.N l v |.XXN.n.^.C.C.A.Z.m.j.j.j.C. X X^.Y.Y.C.u.h.h.V b M n.u.b b V V V n n b n B p.u.u.u.u.u.u.i.t.t.j.g.t.z.C.D.D.Z.A.G.a.p.A..X^.f.e.u.S.V. XZ.Z.S.S.G.W.x.x.v.G.W.x.s.x.V.E.D.x.l.Z.E.Z.V.x.v.D.G.x.V.S.B..XI.K.oXuXoXK.A.K.K.m.u.b b b b b n b n p.B.i.r.z.V.z.V.Y.~.~.Y , 7 7 T W T 3.T 3.3.T T 3.&.3.3.&.$.3.T T j k f h u 9 u - $ & = = 9 % = 9 ; ; - - - 5 u a f f u & q r f 1 r S v S jXE.T.W.b.b.g.g.i.i.t.M B B m c 3 2 1 5 6 H G v XX^.V e.z.e.e.e.e.r.x.V.j.B.m.n M V b V u.V V u.j.B.y.e.r.r.y.Y.B.e.i.B.A.z.p.z.C. Xz.y.r.i.z.i.s.Z.s.e.A.z.c.s.x.z.C.m.B N.}.wX{.qX{.(.(.mXNXBXmXyXMXZXjX^.^.j.u.g.t.y.y.y.a.y.j.M.M.|.G > r       O   O . O & 0 u a r a 5 1 1 2 !.vXqX!.~ I ].wX{./.:.:.,.(.xXvX0X%.5.'.%.1 # r 0 0 0 q y 0 ",
"i ' w.kX+.w u ] i i i q O O O O O O O - g g 2.1.1.!.,.2.1.[.`.2.;.s F j s a g 0 y y f ] [ ] i @ O . # > > v N. XT.A.C.C.B.B.v.v.v.c.c.x.z.z.z.b.x.x.V.Z.D.v.z.r.a.y.y.a.Z.z.a.a.y.D.V.l.z.s.Z.B.y.y.a.D.Z.a.s.a.Z.s.s.s.V.D.D.D.R.F.V.Z.R.F.Z.D.Z.D.V.i.B.V.F.B.B.C.i.n n n e.n e.n e.e.r.t.r.y.l.a.Z.R.x.s.i.a.z.x.s.y.B.D.s.s.V.V.a.s.V.s.x.x.s.B.A.m.^.}.}.Q.G Z x 7 C 6 6 6 5 K [ $.7.7.+.*. .{ ..e @ O @ i X.X.&.<.1.5.1.<.1.1.<.1.1.<.1.4.&.R a * # # g O.o.o.o.k.o.Y S S , > # # # O @ e 8 e e w w e w w w w w w e w e ....e e e w i i y q r r r f g j X.%.%.8.0.`.[.hX[.[.XX}.Y M n.m.j.M u.M M.m Y ZXKXGX}.1.cXKXPXPXKXMXM.C.Y.j.t.z.Y.v.y.t.z.z.j.B.Z.Z.B.j.B.A.z.i.B.C.z.i.t.e.e.t.y.t.y.y.t.u.M M M m b m z v l , Z ,.qXVXmXN b h.h.j.t.t.s.s.i.i.p.i.V.r.e.i.A.Y.l l :.NXKXPX}.z ~.^.^.Y.A.n.m b M M U.m M m b M z z M U.Y z h.m B B N.N.V n b b b u.f.n.i.h.u.u.u.h.u.u.u.u.y.j.c.c.x.z.a.B.A.V.p.p.n p.B. X XR. XZ.z.V.s.W. Xb.x.x.v.E.D.x.H.z.E.D.x.s.V.F.F.x.x.x.G.D.Z.S.s.B.oX.XA.uXMXoXp.s.A.A.m.f.b z z z V b n M f.A.C.s.r.z.Z.z.Y.N.U.^., , 6 H &.R W 3.T 3.$.&.3.&.-.-.3.+.T T k k k y u y 0 q = % % % % 8 9 q q 0 0 u u a a k p a y u u a q r r 1 S l D jXY.v.Z.b.l.z.l.y.y.t.t.B B m c 2 3 1 5 s H J v ~.XXM.e.r.e.S.s.y.V.V.z.y.i.B.t.n e.n p.u.i.B.Y.V.y.i.e.e.r.j.R.z.r.i.p.B.i.y.B.A.V.i.t.p.z.j.r.i.B.i.s.B.B.s.z.B.V.C.m.B J.}.}.}.xXwXwXeX}.}.mXmXmXZXMXmX XY.u.y.y.y.y.y.y.g.g.c.n.U.|.x X 1     O .   O . # = 0 u 5 a s a 6 1 6 '.NXqX,.~ ,.{.NXwX].).Q.].wXvXNX[.E >.zX0Xj   # a a - = 9 r ",
"p ] fXnXfX] w p i i i 8 O O O O O . . r g ;.[.cXhX[./.!.|.].].[.`.`.0X[.=.g a a y i f ] [ ] i @ O O # # > , S U.^.U.m.M.C.B.B.C.B.v.z.z.x.c.c.z.x.x.b.Z.D.Z.x.a.y.y.r.y.Z.z.s.z.a.Z.V.s.z.z.D.V.a.a.s.Z.Z.y.s.r.Z.x.s.s.s.B.B.z.Z.V.s.B.V.Z.x.z.x.V.B.y.s.B.A.Z.B.A.i.n n n e.n n e.e.e.r.t.r.y.i.l.v.R.Z.z.y.a.V.x.a.s.x.D.y.s.D.x.s.s.s.s.x.S.s.z.B.m.N.J.n.A v x x Z H 6 6 6 s j j +.9.w.@.] r e O O e f X.8.8.8.9.1.5.5.1.,.1.,.,.>.>.>.>.>.%.R K d 1 X 3 S o.U.U.o.k.Y k.o.Y S > X # @ @ O 8 @ @ e e e e w e e e e e e e e e e r e t q t r t t t g g P K %.%.%.2.5.0.`.|.[.{.}.|.N.Y m.C.h.M u.M M.D N.CXPXLXmXD , U.ZXGXCXXXu.M.Y.c.z.l.z.g.r.y.B.v.j.z.C.C.B.z.C.Z.z.i.c.j.z.y.t.n n n t.t.h.j.k.h.t.M m N N c v l , , Z ,.qXBXMXD b h.u.i.t.t.i.i.i.i.r.y.s.e.p.m.n.l c cXLXPXPXKXQ.Z z h.m.n.M h.N.XXXXN.U.|.J.n.}.mXU.U.CXCXXXmXZXXXjXmXMXU.b b b b b n n u.B B u.u.M t.h.t.t.t.t.j.g.r.l.c.Z.F.R.A.m.f.B.K. X XG.H.E.Z.S.x.s.F.E.x.x.b.H.E.D.x.x.x.E.F.x.x.V.D.F.V.z.x.F.D.H.V.x.B.oXuXK.oXuXoXG.K.A.f.K.z z b l V b b b b e.i.i.s.a.x.v.z.C.M.n.^.Y , > W Q &.3.3.T &.3.&.-.&.3.&.-.$.T h k y y u y y y q 9 = = = 9 9 8 u y q y a y y f a f y y u 9 = 0 r t t S x D jXY.v.v.z.a.i.y.y.y.e.t.M V m c x 3 r 5 s H Y A N.XXK.p.e.e.z.B.i.D.H.a.r.y.i.u.e.r.r.i.z.A.V.Z.e.e.s.y.i.r.z.A.B.p.z.i.C.x.y.B.B.B.y.r.i.B.B.s.i.B.i.j.A.B.z.B.z.B.C.n.B ~.}.].{.wXqX}.{.{.(.}.wXyXXXmXXX^.M.t.g.t.t.y.y.y.y.g.j.n.U.~., > 1       O O . O $ = - a g j a 1 s H H /.xXcX].].qXNXNXNXmXwXwXxXNXNXxX'.H W zXVXq.1   .   9 q q q ",
"p i ] @.] w y ' ] f q % O O O O       r g 1.cXcXcXqX].!.(.[.{.qX[.cXbXvX0.k a f y y y h f ] i @ O @ = # > > , m ~.N.N.M.C.C.B.B.B.B.B.c.z.B.z.z.x.z.z.Z.D.D.x.z.a.r.a.a.Z.x.a.z.y.D.V.l.z.s.Y.V.a.s.s.Z.V.a.a.y.Z.z.s.a.s.s.a.y.B.z.i.s.x.V.s.a.s.x.s.y.z.B.R.A.B.C.u.n n n e.n e.n e.e.e.r.y.a.y.a.x.Z.F.z.y.a.Z.V.y.a.x.Z.s.s.Z.z.y.s.B.s.V.V.s.z.B.m.B N z , , 2 C C F 6 6 5 d j j *.7.*.y . O @ q ] *.8.q.'.q.'.`.1.1.,.,.1.1.,.,.,.>.Q >.W E W R E F > > > D Y U.M.D k.n.^.U.Y v t 3 # # @ @ @ @ e @ e @ e e e e @ @ e = 8 q # - r r r s 2 g s P H H L L L E Q Q :.1.!.`.].].}.}.~.n.m.h.i.t.k.h.^.M.N.XXjXXX~.D N m m Y ^.t.n m.C.j.h.t.r.r.r.y.Z.C.i.z.C.Z.z.z.C.Z.s.s.z.z.j.i.t.e.n n e.e.t.j.h.h.D D D D N v l , 3 x Z 5.8XBXVXA b h.u.j.t.t.z.s.r.r.p.i.B.i.i.n b c VXPXPXPXIXzX[.VXyXn.B M ~.ZXXXCXCXmXZXCXGXCXKXCXCXZX}.ZXCX}.jXKXjX^.XXN.m b b V b b n n b V M B B M M n M M t.k.t.j.c.C.A.V.A.s.i.m.A. XA.x.s.s.D.F.z.V.x.D.E.Z.v.b.v.E.F.x.x.x.F.W.x.s.x.D.R.v.x.x.G.W.V.x.s.B. XoXA.A.G. XA.R.A.m.N.z z z l z z b b b n n u.y.i.s.z.z.B.g.u.~.^.N > L E 3.3.&.3.3.+.&.&.-.3.$.R T T p a u u y a 0 q y q q 9 9 9 9 9 u q y y y f f f p a y u u 9 8 0 r t 2 v v T.jXv.l.c.l.y.l.r.r.r.r.e.M N c c 2 1 1 4 1 C G N A ^.M.i.e.e.B.s.y.G.D.r.y.r.t.r.r.y.s.x.Z.F.Z.i.r.r.V.z.i.y.z.A.Z.B.Z.B.F.Z.V.A.z.s.s.s.B.B.B.s.j.B.i.m.C.m.B.B.B.B.C.u.B ~.}.(.].{.{.{.{.(._._.XXeXXXXXXX^.k.e.y.t.y.y.y.y.y.g.j.n.^.o., > #   : O O . . O + = r a j g 1 r R <.>.!.qXNXmXmXxXNXNXNXxXwXvXNXNXxXcX[.>.0.bXJXbX'.-.; . = q = 0 ",
"i w 8 & & w ] ] ] i 8 O . O O . + . # r t 1.cXjX}.{.|.(.!.].[.].[.[.cXcX<.k u k y i i f ] ..r @ O @ @ 3 > > > , D N.~.N.M.C.C.z.C.c.m.z.z.c.V.x.x.z.c.x.Z.x.D.Z.a.r.y.z.R.x.a.a.a.Z.Z.s.s.l.D.Z.s.s.s.F.V.a.a.r.D.B.s.a.a.a.y.y.V.z.s.s.V.V.z.a.s.B.x.s.x.c.A.Z.C.B.p.n n n n n n e.e.e.r.t.r.y.y.g.z.Z.E.x.y.y.D.V.r.i.B.V.s.x.V.V.s.S.B.s.V.V.z.s.B.B.B V z l x 6 C F d 6 6 s d k j $.j = O - [ *.q.[.hXq.9.4.1.<.1.1.5.,.5.,.1.1.<.,.6.,.~ >.E J H E X.J , > l D M.M.h.h.k.C.U.N.D Y S , X 3 # O O O @ @ O @ @ @ @ @ # e # ; # t 1 1 r t s 6 H F H J J J L J J J Q U :.1.!.(.[.}.}.~.n.B B h.M.C.m.^.M.h.B t.n B h.N.k.h.t.M n t.A.C.u.y.i.z.g.i.j.Z.B.y.z.C.V.s.z.V.B.l.z.z.z.i.g.t.e.e.n n n n M M B D D D G c x , , l , Z /.].NXCXn.b n.u.u.t.e.i.i.p.r.r.B.z.p.t.u.b wXLXPXPXUX-.0XPXPXKX~.N.N.jXLXmXZXZXmXNXY mXKXZX~.CXKXY jXKX~.}.KX|.}.XXN z b V n.u.M M M n n m B B m n b M M t.t.t.j.j.k.j.i.i.i.m.B.B.B.x.s.x.x.F.F.B.x.v.Z.E.R.v.x.v.E.E.x.s.x.D.G.x.x.x.Z.R.V.x.v.D.W.x.x.s.B.F.a.r.p.r.f.p.S.m.f.N.N.b l z z z b V V n n p.u.r.a.s.z.j.h.D k..X~.c C L W 3.3.3.3.3.&.-.3.+.+.T k k k y a u y y f q i 0 y y 0 0 u 8 8 u q u a p h f f a u 9 u & 9 a 1 r t v D |. Xv.l.z.l.a.y.r.y.r.t.M M m m x 3 1 - 5 1 2 v c A B n r.r.r.V.Z.i.A.s.r.r.y.i.i.a.z.V.V.Z.V.d.r.r.y.z.i.i.y.B.B.Z.x.x.x.F.F.Z.D.V.x.z.b.x.x.s.s.s.j.p.B.B.m.s.B.B.C.C.u.n.~.}.(.(.].{.].{.{.}.}.yXXX}.XXXXY.h.t.h.y.y.g.y.y.y.j.j.n.~.U > X X + : O . O . . + * ; 1 a 5 1 $.'.[./.1.qXvXvXNXNXwX].{.qXwXxXwXeXqXzX].cXVXKXAXAXIXbXj   ; # = = ",
"] ' i i ] { ] i ..8 @ O O O O O @ . # t F ,.xXxX}.[.(.!.!.(././.`.[.zX0X<.r ; y h y f h p ] f e O O @ r # 3 > > , G ~.N.A.C.C.c.c.z.c.z.z.C.z.c.x.x.x.v.x.x.D.D.b.a.a.a.F.x.a.a.i.D.Z.i.l.a.R.Z.i.a.s.D.Z.y.l.y.D.B.a.s.z.a.a.z.V.x.i.z.V.V.z.a.s.x.z.i.z.z.A.Z.C.B.e.n n n e.n e.e.e.e.e.r.r.i.a.a.a.V.R.Z.a.y.Z.Z.y.a.z.V.s.s.x.V.V.B.B.s.Z.F.V.s.V.A.m.m N Z C C s 6 s 6 s d j d j j o . d q.zXzXzX0Xq.0.5.0.<.1.1.,.6.1.1.>.1.>.,.>.;.! ~ W W J H W ! :.G l l M N.A.j.u.t.M.T.h.D U.o.Y 3 > X     # @ @ @ @ O O .   # # - 1 1 1 1 1 2 6 C 6 Z H H J G G J J J J U ~ Q ,.!./.].{.}.(.Y V u.M.C.C.h.m.j.e.M n u.j.h.t.j.A.A.h.t.i.C.j.e.t.z.Y.B.i.i.Z.B.i.m.V.C.s.z.V.V.l.z.z.z.i.y.t.e.n M n M M M m m c c v c 3 l , , , l v ).].NXCXJ.z u.i.u.t.u.i.i.p.y.r.s.y.e.p.m.D mXPXLXPXHX$.q.KXKXSXU.M.D ~.CXCXGXjX[.ZX:.ZXKXZXo.mXKXZXKXZXZXKXjX|.CXMXD b N z b b n M u.n.B b b b b b b b M t.t.t.u.j.y.t.u.B.C.i.i.m.K.Y.B.B.x.Y. XV.V.x.x.D.W.b.b.x.E.W.D.s.x.D.E.v.x.x.D.R.V.z.x.x.W.x.b.a.x.R.s.s.S.V.S.y.B.A.p.N._.N.l l l z b b V n M u.p.e.y.y.i.g.g.u.u.U.|.N., J &.3.3.W &.3.+.3.=.$.T h a a h f f a y y f i f a f y y y u y u q q u u y f i i y u 9 u u a f r t P P T. XE.T.l.l.l.y.y.y.y.r.t.t.B m c v 3 1 a - 1 3 l l D V n r.a.a.Z.A.s.a.r.r.r.a.V.C.z.x.V.V.b.a.r.r.r.s.Z.Z.Z.z.B.z.a.y.r.a.Z.x.z.a.s.a.a.s.a.z.s.l.i.i.i.B.A.i.s.B.B.B.C.u.Y (.(.!./.].{.{.{.(.(._.}.XX_.XX^.M.u.j.g.t.y.y.y.y.y.g.n.M.|.G > o   *     O . . . + = 0 - a 1 H '.hX0.1.,.0XxXwXxXxXqX].].qXqXqXqXeXqX0XxXAXJXKXKXJXLXJX*.* u q 9 # ",
"] p p ] +.] ] ] i 8 O O O O . O   # # t 2 2.hXmX}.}.(.Q.!.!.!.,.'.[.cXzX=.- : 9 h f i f f [ f # O O @ # # # X X > l G U.^.M.C.C.C.C.m.c.c.z.x.c.z.z.x.x.b.x.v.G.D.x.a.a.D.v.z.s.y.D.V.z.s.s.Z.Z.a.a.l.Z.Z.y.a.r.D.x.s.s.l.a.s.s.Z.B.s.z.Z.V.z.a.s.B.V.g.z.z.F.Z.C.B.n n n n n e.e.n e.t.e.t.y.a.y.g.a.z.Z.R.z.r.V.F.s.a.s.V.s.s.x.Z.B.B.B.B.V.Z.D.s.z.A.m.N c x C 6 6 6 H d d j d j T 5 . . %.zXzXhX'.0.4.5.0.'.5.5.1.>.1.,.,.,.5.>.>.>.>.>.>.Q W E ~ W ! ! I x z M M.B.j.y.r.z.C.M M Y U.o.S , > #       .     . O . . X # o 1 1 3 2 2 2 7 6 C C C C C F J J J J / Q Q Q ! ,.,.`.].{.|.J.B B m.u.i.u.j.t.u.j.i.C.m.i.z.j.i.i.j.u.t.t.y.t.i.B.A.B.i.i.A.Z.i.s.A.Z.z.z.Z.z.z.z.x.z.j.y.t.n n n M M M m D N S l , 3 > > , x x l Z L.).yXSX^.b B u.u.u.e.i.i.r.r.r.i.i.i.u.n.D Y GXPXPXPXIXcX8.[.o.D U.m U.CXKXZXZXNXCXKXCX}.|.G U ~.CX|.c ~.|.S v N.|.Y b M b n n b V B B V b z z z b b b M M t.h.g.k.h.t.y.B.c.i.t.i.A.A.m.z.z.V.R.Z.v.V.c.R.E.v.v.v.E. XH.b.x.x.E.H.x.s.V.F.V.x.x.x.D.D.x.a.z.R.G.B.S.Z.F.S.S.f.A f._.mXJ., , v z V b b V u.p.t.u.y.y.e.i.j.i.k.}.~.x C T 3.3.3.W 3.3.&.%.$.h h a k h j h f f f f i f i f f f y i i i y u u 8 i u u u u u y y y f h g P o.O.U.hXT.T.l.l.l.y.r.r.r.e.e.V B c v x t 1 * $ 1 < , z B V n e.r.d.V.s.p.e.e.a.a.x.F.Z.B.B.x.l.a.r.a.y.a.F. X XZ.z.B.c.r.r.a.z.F.z.a.r.l.a.y.a.a.a.a.s.s.i.i.Z.A.i.B.B.m.C.A.B N._.(.Q.).].{.].{._.(.~.(.}.XXXX^.u.t.g.h.y.y.y.y.y.y.j.n.N.~.G > < X : $ O   O O   + - - 1 s a 9.vX0X;.Q ,.{.xXxXxXqXqXqX].].qXvXvXvXxXvXAXLXLXJXJXIXLXbXj * a r q q ",
"] p i ' ] ] ] { q 8 O O . . O . # 1 t 3 3 P `.cX}.|./.Q.1.,.!.5.1.0XzX[.%.- : u p p f h ] ] f e O @ @ # # # X X X > , N N.A.C.C.c.C.z.z.z.c.x.b.x.b.x.x.x.a.x.D.D.x.x.a.D.x.z.s.y.D.Z.a.a.y.D.V.i.s.s.F.Z.a.a.a.Z.x.a.s.s.a.a.z.Z.V.s.l.Z.Z.z.s.s.x.B.s.z.s.A.A.B.m.t.n n n n n n e.e.e.y.r.t.y.a.y.a.z.Z.R.V.y.z.F.z.s.z.V.x.a.x.V.z.B.B.s.Z.B.x.s.z.B.M.n.N v C F s K K K T T T T R k X . d 4./.6.0.5.5.5.'.5.5.5.1.4.,.4.,.4.<.<.>.>.,.>.~ Q W Q ~ Q Q Q Y A b V m.m.i.r.r.z.c.u.t.k.U.U.D S 3 # # X X . . . . . . . X X < < 2 1 1 2 7 2 7 C C C C Z J F C J J J Q J I Q >.,.5./.].qX|.J.B B n n i.A.i.p.t.y.B.s.y.t.j.B.z.y.a.r.z.B.i.z.A.F.z.y.j.F.Z.a.s.V.D.i.z.Z.V.z.v.z.c.g.t.t.n M n M M m m D D c t 3 > > > , , l l C ).L.8XCX_.V n u.h.t.t.i.s.p.r.p.x.i.i.i.m.B v `.bXJXPXPXPXGXjXN.N M.n.N.XX|.v hX[.Y U G G U D S |.ZXo.U U.Y |.Y U.jX^.z b n n b M n b b b z z z z z b b M M M t.t.h.u.t.r.l.B.z.z.r.C.Z.B.B.B.B.F.Z.c.z.v.D.E.v.x.b.D.E.G.b.x.x.E.D.x.x.V.F.V.s.b.x.D.D.x.z.z.R.A.d.d.V.B.B.m.f.V n..XSXZXI , z z V V b b p.u.e.e.y.r.r.y.g.j.h.Y.|.A 7 H W W 3.&.&.$.&.%.+.h a y k h h h f f h f f f f f y y f h f h f i y i y u u u u u y f h [ g g X.O.D Y.Y.k.c.c.g.y.y.t.r.r.r.e.M m c v 3 1 ; : & 1 3 v D N V e.e.a.a.y.r.e.s.s.z.V.D.Z.z.C.c.g.y.r.l.x.z.Z.E.E.c.y.r.z.z.y.l.x.R.E.y.a.y.z.a.y.a.z.a.y.a.a.a.s.Z.V.s.x.B.s.C.Y.B N.{.(.1.,.].{.].}.{._.{.}.}.XXXXY.M t.y.t.y.y.g.y.i.j.j.h.U.~.x 3 1   # $ + O   O + + - r 1 a s zXVXzX;.Q Q `.xXxXcX].].`.].xXvXVXNXvXNXSXSXLXLXAXJXJXLXq.5 $ q 0 0 9 ",
"i { { i ' ] i i e 8 O . O O . O # r t 1 > 2 !.}.[.].!.!.!.:.1.1.1.[.zX0.R 0 9 y h f p h h ] f @ O O @ # = # X X X > > l D U.Y.C.C.B.z.B.B.z.x.z.b.z.x.x.b.d.x.v.x.D.x.z.Z.x.z.a.a.Z.Z.s.z.y.Z.V.s.a.l.D.Z.r.a.y.Z.z.y.a.a.y.a.z.Z.z.i.a.x.V.l.a.z.x.x.z.s.i.Z.A.B.B.p.n n n n e.e.n e.e.p.t.y.y.l.y.y.l.c.F.D.y.a.G.s.i.s.Z.V.s.s.s.i.s.B.B.V.B.V.s.a.V.M.n.A Z C s F L R R $.R $.R -.&.5 . 6 >.0.'.'.5.5.5.5.'.5.5.,.,.1.,.,.>.>.>.;.;.Q Q ~ W ~ J J ~ :.J.U n.N u.m.B.i.r.r.z.B.j.t.h.M.M.U.D S 3 3 X X X X . . . X X . X o < < < 6 < 3 7 6 7 C C H Z C C Z C H Z Z Z J Q Q >.,./.].xXwX(.N.B h.t.j.C.i.t.i.y.Z.j.y.y.z.x.z.r.r.y.v.Z.z.z.F.A.z.i.S.F.Z.i.z.Z.Y.j.z.A.V.z.C.B.z.j.y.M M n n M m M m m x x t 3 < > < > < , l v J._.eXBX}.z b B u.t.e.i.i.r.r.r.B.S.i.i.n.D }.VXzX:XHXPXPXPXPXCX~.D n.D U.mXXXZXCX}.Y |.CXKXCXCXKXKXCXCXGXCXGXGXZXMXU.z M n b n n b b b z z z z l z b m M M M M t.g.l.g.y.y.z.z.j.r.z.A.B.z.m.B.A.C.z.z.c.Z.E.H.x.b.D.E.D.s.x.x.W.H.x.s.v.F.x.z.s.D.D.v.z.x.z.F.Z.s.V.S.p.S.S.m.b K.mXCXSXmXl l l b b V V n V n e.p.e.t.t.e.g.u.h.^.|.Z W T T 3.+.&.-.-.$.+.k p y f h h h h f f f f f f f f f f f i h f h f h h y i y u u y f k f g g P S D |.Y.M.c.l.l.l.y.r.y.r.e.n M m m v 3 < - 4 4 s F G J.B n n r.S.x.r.r.s.F.D.s.Z.R.Z.B.Z.B.i.r.y.V.Z.c.Z.E.Z.i.y.r.b.a.y.y.x.Y.R.r.r.y.z.i.y.y.l.i.i.z.s.s.l.V.V.s.B.B.s.A.K.B N.{.(.,.,.(.].{.{.}.}.wXyXmXXX^.M.n t.h.y.t.y.y.y.y.i.h.n.~.~.x 2 # o     + : +   + = - a - 1 r 0XVXzX0.>.E ~ '.qXqX'.qX0XNXAXVX7X,.0XUXKXJXJXAXAXLXJXUXj . * a q a + ",
"' ] ..i i i i q O O O O O . . + - t t 3 > X P [.|.`.`./.!.`.'.[.'.'.q.4.T k k h +.h +.h ..f i 8 @ @ @ = # # X     > > > v N.U.Y.A.C.B.C.B.c.x.z.s.x.x.b.b.b.b.b.x.D.v.H.D.x.a.l.i.F.D.y.a.y.V.Z.a.a.a.V.Z.s.s.x.F.x.s.x.s.a.a.s.V.B.y.s.V.Z.s.a.a.s.V.s.y.i.Z.A.B.B.e.n n n n n e.n M t.t.t.y.y.l.y.y.y.c.Z.Z.z.r.F.z.r.a.V.V.x.x.V.a.s.V.x.s.V.V.z.s.i.m.N.N x C 6 d R R R $.$.$.R -.4.%.5 d >.0.0.0.5.5.6.6.'./.6.6.,.,.>.>.,.Q Q E Q Q Q Q Q Q Q >.~ ! ! ! N.M i.m.z.y.e.r.z.B.y.t.i.C.M.h.h.Y S 3 > > X X X X . X X X X o > o < < < 7 2 x l C C 7 Z 7 Z 7 Z H Z H H Z W J Q ~ /.{.}.xX}.^.D m b n.A.j.y.t.j.V.j.i.l.z.V.r.r.y.z.Z.C.z.z.B.R.B.x.z.F.Z.z.z.B.F.z.i.A.Z.z.z.B.z.z.t.e.n n n m m N D G x 3 3 1 X ; X > X > x l ~ _.eXNXyXV b B u.u.e.i.i.r.y.r.S.V.r.f.B Y KXPXLXcXfXhXVXPXPXKXjXT.N.N.CXCX|.ZXKXZXKXKX~.mXKXCX}.mXZXMXCXCXMXCXjXXXN.M M M M M V b b z z z l l l c N.m b M n M t.g.g.y.t.y.j.m.i.g.y.Z.Z.u.m.m.Y.Y.B.C.y.l.E.x.x.b.x.R.D.x.x.s.W.R.b.v.x.D.R.z.x.x.F.D.b.z.a.D.D.a.V.B.i.S.m.m.V J.BXBXDXLXeX, l c V V V b n n e.n e.e.p.t.y.i.u.M.~.~.L H d W T &.+.R [ j h f f f f f f f f f f h f f f f f i f f h p h f f h y u y y y f i f f g g P v D jX Xv.l.g.y.r.r.e.e.e.e.n M b c v 3 1 1 k j R ;.Y Y n.n n y.x.a.r.a.D.D.D.s.x.D.D.x.Z.s.y.r.z.a.z.s.x.Z.D.s.y.r.x.z.s.z.V.D.z.r.r.s.V.y.s.z.y.y.i.V.B.z.B.V.B.B.B.z.z.A.A.Y N.(.(.].~ W ! (.}.{.}.}.}.{.XX^.h.t.g.r.u.y.y.y.y.y.i.m.N.~.U.S 3 o   . # $ :   O # 0 r ; a # 5 zXAXvXzX1.H W /.0XvXvXbXNXxX[.W < W cXJXAXSXAXAXAXLXAX9.. * - u 0 = 9 ",
"] ' ] ] ' i e 8 O O O O O . O + t f r 1 # X t `.`.`.`.0.`.[.[.hX9.9.<.-.j p f p +.+.] ] ] ] y 8 @ @ @ # # #     . # # , x Y M.M.M.m.M.C.z.z.z.z.b.s.b.x.x.H.d.H.b.x.v.D.D.x.s.a.a.Z.V.l.x.z.Z.Z.s.a.x.F.E.Z.Z.Z.F.x.x.D.x.x.s.s.Z.V.y.s.x.D.z.a.a.x.A.V.V.x.Z.F.B.B.p.n n n n n M n e.t.t.t.t.y.y.a.l.a.z.Z.Z.A.i.Z.s.p.s.V.Z.V.B.V.s.s.V.V.s.B.V.B.s.B.A.n.A C 6 6 H T &.T &.&.$.$.&.<.&.R R 4.0.'.'.5.5.5./.'./.5.,.,.,.,.,.>.Q E Q Q E E Q Q Q >.! ! J.J.N.n.u.u.i.j.y.r.r.i.z.r.r.i.C.C.t.k.T.D S 3 > > X X X X X X X X X X o X < < < l 7 7 Z 7 Z C 7 Z 7 C Z H 7 / J J I Q Q ,./.(.].}.{.|.B b h.C.j.j.t.g.C.B.j.i.y.a.r.a.l.B.Y.V.j.z.V.Y.B.z.z.F.R.z.B.Z.Y.S.z.Z.Z.z.z.x.z.j.t.n n n n V N N c S x 3 > # # : X X > , S l I _.8XBXmXN z B u.y.t.i.i.r.y.p.s.V.e.u.B Y mXPXPXPXJXhX=.zXJXPXMXD M ^.GX^.l MXXXY KXCXY _.KXCX~.XXCXCXBXmXMXCXCXMX^.M n B M M b b z z l l l l l N.U.m M B b u.M y.g.y.y.t.j.j.u.y.a.V.c.i.M.m.N.M B u.h.z.R.D.d.d.x.R.A.l.b.x.E.Z.y.x.z.R.Z.g.r.v.Z.V.B.z.z.D.V.a.s.A.S.m.m.S.V _.BXNXBXSXBX_.l l l z b n n n n e.n e.r.y.y.i.j.M.~.~.Q J W T R T +.R j ] g f y f f h h f h f f f f i f f f i a f f f f a f y i a y y f f f a r g t S S T.jXY.l.l.y.r.e.e.e.e.e.e.t.n m m x 3 1 d R K K L U Y B M e.u.y.r.y.x.F.D.x.a.x.D.Z.l.a.a.r.r.V.x.V.s.V.Z.Z.y.r.r.Z.Z.z.s.z.B.a.r.r.z.B.y.i.s.i.r.i.Z.C.z.B.B.z.z.V.B.i.C.A.N.! (.].qX0X~ Z ! (.|.].(.].|.XX^.t.e.r.j.y.t.t.y.y.i.j.n.M.~.U G s 1 o X     O   # ; r f r s s <.cXAXbX0X'.5.'.0XvXNXvXcX5.&.X . &.vXAXSXAXUXbXVXAXJXnXu $ * - u 0 - - ",
"' h ..p f q e @ O O . O O . @ q j f r r 1 X 2 5.hXq.`.1.1.8.0.1.R $.j d f h f h ] [ ] ] [ ] f 9 @ O @ # # # . . .   # > x D Y D N.m.C.m.B.z.z.z.s.x.x.x.x.b.b.d.d.b.x.H.D.D.x.x.r.x.V.z.z.y.Z.F.B.V.A. X Xx.V.V.F.x.s.Z.Z.x.s.a.V.V.s.s.z.Z.s.s.s.x.G.Z.V.V.A.R.B.A.m.e.n n n n n e.e.e.t.y.t.g.y.l.l.y.s.B.R.R.B.V.x.s.B.Z.F.S.s.B.s.b.H.s.x.B.V.V.z.i.A.N.A x C s d W +.W &.$.$.&.%.>.&.R R &.0.'.'.5.5.5.5./././.,.,.>.,.,.Q Q E J E L Q Q >.,.>.~ :.:.J.N.A M t.y.g.y.e.r.y.i.r.t.i.C.C.u.t.D U.D v , , > X > X > X > X X X X X o > < 7 x 7 7 7 Z 7 7 7 Z 7 C Z Z 7 Z W J W J ~ :.!.!.(.}.}.~.D h.C.j.j.y.j.Z.c.g.y.y.s.r.s.z.V.F.c.i.z.B.R.c.B.z.Y.A.z.z.C.Y.B.z.A.Z.z.z.B.z.i.e.n n M V N D N S x 3 > X X o : . X < > v , Z 8X{.BXBXA z B t.t.y.z.z.r.y.p.x.B.p.u.A A U NXPXPXPXPXJXhX[.bXo.n.k.N.CXCXjXCXMXY CXCXZXCXCXXX^.XXZXjXXX^.^.XX XXXC.b b M M m b z z l l l l l v }.~.z B b b t.t.t.y.g.y.t.u.m.i.y.a.l.z.C.n.A z Y Y z B A.Y.l.b.s.a.F. XB.s.x.R. Xc.C.z. XY.z.c.c.Z.R.B.z.j.R.V.s.B.A.M.f.K.A.V K.SXBXNXDXSXBX^.A z z b b b n n e.n e.e.y.l.i.j.M.^.|.,.Q R d T T T j g g f f f i f f f f f f f 0 f i 0 f f f y f y p y p a i a y a a f f y a y g t S D |.R.g.i.l.l.l.z.y.u.y.e.e.M M m m l 3 d $.*.R F G G G M f.u.e.y.z.x.v.W.V.l.a.l.x.x.r.r.r.r.a.D.Z.Z.x.x.V.x.r.r.a.Z.Z.x.s.s.a.r.r.i.V.V.s.s.s.y.r.r.V.C.z.B.B.i.z.V.A.B.m.A.J.Y Q.].NXAXvX].,.Q.(.(.(.!.(.jX^.h.e.y.y.t.y.y.y.y.j.j.m.U.~.o.U P 1 #   $       + - a [ g g <.nXbXAXVXvXcXrXNXvXcXqX<.F X . X L VXSXAXVXAXVXUXAXKXbXW . = ; - - = = = ",
"f ' ' i i i e O O O O O . . 9 a ] a r r r X a <.[.q.1.%.K K K s s a a a u a h h h p ] h [ +.] i e @ @ @ @ # @ . .   X # , S m z h.M.m.j.B.j.z.z.s.z.d.x.x.x.b.d.b.x.b.x.v.v.x.Z.a.Z.D.z.a.y.Z.R.D.A.V.F.V.y.i.s.V.y.r.V.V.z.s.a.A.V.y.s.V.Z.s.a.s.z.Z.x.V.z.D. Xm.A.A.e.n n n n n M e.t.t.t.t.y.r.y.y.y.i.z.Z.A.V.B.V.A.V.D.G.s.z.V.s.a.S.x.d.V.V.V.s.S.B.N.A c C 6 k T T &.R $.$.%.-.&.R K R $.5.'.0.5.1.5.5.`./.5.5.1.,.>.>.>.Q E Q L E Q Q >.,.,.:.! :.N.A B n e.t.i.y.r.r.t.z.y.r.t.z.B.u.h.D h.D N D v l , l l , , > > > > > X X < , < < , 7 v 7 Z Z Z 7 Z Z 7 Z Z J Z H Z J L Q :.:.!.].}.XX^.N.N.t.j.u.z.C.j.r.y.z.C.z.z.z.Z.Y.V.j.z.Z.R.B.z.c.F.R.z.z.Z.F.B.z.Z.Z.z.z.z.j.g.e.n n m V V c G x l > > X     # X X > > > l l _.{.yXBXY z V B t.t.z.S.y.y.r.S.A.j.B n.G > L zXAXPXPXPXLXbXmXh.M N.M Y.MXMXoX^.j.^.h.Y.Y.m.h.t.j.C.a.i.u.n u.n M m b b M b m b b z z l l , , D mX~.z z b n M t.t.t.g.i.t.i.j.j.j.y.y.C.N.N l c ZXCXXXz u. X Xl.x.C.^.Y.m.c.B.Y. XC.A.A.Y.R.A.j.z.^.Y.g.m.C. XY.B.A.^.A.f.S.f.b _.BXtXtXNXBXBXBXQ.A z z b n n n n e.e.r.y.i.l.B.M.N.~.!.>.W k d d j j g f r y y 0 q q i r f i f q q q y i i r p y y a f y i a y f i h h h f f r g S l D ^.T.t.y.g.a.s.g.y.y.y.e.t.M M m c 3 3 K -.&.R F F G D B u.e.y.C.D.H.s.D.x.x.z.a.a.r.a.a.r.a.a.F.D.Z.x.y.s.s.y.s.z.F.V.x.s.i.a.r.r.s.F.V.d.i.i.s.i.y.D.B.j.B.v.s.B.Z.V.A.m.U.N.~.Q.qXAXAXLXSXxX(.:.!.`./.mXMXU.M y.u.e.y.t.u.y.y.j.j.n.N.N.U ;.<.K r - * :   $ + - f j j g 9.bXVXbXvXvXvXvXvX0X'.3.7 . X X >.vXAXbXNXUXvXAXAXbXbX3.. : - - % % = 9 9 ",
"f ] i i q e 8 O O O O @ @ = q f g f t y r r s K =.%.K r 1 5 5 1 o 1 - - u u y p p f p h [ +.[ ] e q # @ #   . O O O   X , l l z B m.C.j.z.B.z.z.x.z.x.B.x.s.x.x.b.x.b.s.x.b.x.H.W.W.D.x.V.V.R.R.V.B.V.Z.V.y.a.s.Z.i.r.x.V.B.s.i.G.V.i.s.x.Z.s.a.s.x.Z.s.z.s.A.R.B.C.A.i.n n n n e.n e.p.t.t.t.y.r.y.y.y.i.z.V.Z.Z.B.Z.Z.B.V.V.r.B.Z.s.s.x.S.x.B.S.x.s.s.B.J.A Z C 6 s d T T R $.-.=.&.&.R K K E 4.'.0.5.5.,.1./.6./.5.,.,.,.>.>.Q E Q E Q E ;.>.,.,.~ ! :.N.Y V n e.e.y.y.t.r.r.B.i.r.y.j.B.t.i.g.m.h.D N.Y D D N D D S l , , > > X X > > < , 7 l 7 7 Z 7 C C 7 7 v C C 7 Z H Z J J J :.:.! ,.(.mX}.^.^.h.j.u.z.c.y.r.y.Z.A.B.s.j.V.R.B.j.z.C.R.B.B.B.R.D.z.B.Z.R.B.z.Z.Z.z.z.B.z.h.t.b b m N z x v 3 > > X X #   # o X > > , , , ).}.yXCXJ.z b e.u.t.B.z.y.p.y.d.B.i.u.N.D U }.xXzXzXAXPXPXLXLXMXh.Y.m.t.M.j.n u.j.Y.t.t.g.y.z.t.g.j.z.B. XV.i.u.e.n b b b b b b z z l l , , , ~.cX}.D l b n M t.e.y.i.y.t.y.i.j.i.t.u.M.N l U SXLXPXSXc z M.A.C.j.u.j.n.h.h.M j.B u.M h.u.M.h.u.B h.u.k.M M h.M.u.V u.B p.m.K.b K.NXyXtXNXBXDXBX_.A A b n n n n n e.t.y.y.i.l.m.M.U.~./.1.W R T d j j j a r y i 0 q q 0 f y q i 0 q y q f q f a y y i a i y i q f a f h h h g g t S S U.|.c.g.a.y.y.r.r.t.t.r.r.u.t.M D v 3 t $.=.&.T s G G c B M t.A.R.x.y.x.v.Z.D.D.x.a.r.a.x.s.s.x.F.D.v.d.r.a.y.s.a.Z.F.V.s.s.y.y.r.r.x.R.V.y.y.y.z.z.B.F.V.z.j.B.z.B.Z.B.C.j.N.N.~.}.NXAXLXAXJXSXNX/.1.eXxXSXBXB b u.j.e.y.u.y.y.u.j.M.h.m U.P P %.%.X.r *     + # - t h g a K q.bXnXvXvXvXcX0X&.C 7 o X < E vXAXVXvXvXbXvXvXbXvXW : o : 4 & & $ = = 9 ",
"..p i i 8 8 @ @ O O 8 q q q r i r f f 0 r a f s s a 1   X - - ; ; 1 - - - 9 u u h p p ] ] [ +.[ ] f r q @ . . . . O   X X , , z m m.C.m.j.B.z.B.z.B.B.x.x.x.x.x.d.x.x.b.x.d.b.x.D.D.E.Z.Z.V.R.Y.B.z.B.Z.A.s.s.B.A.a.r.B.V.x.i.y.Z.V.i.z.V.D.x.i.a.x.Z.z.V.s.V. XB.B.^.m.n n n n n M M e.t.t.t.y.y.y.y.y.y.z.c.V.Z.B.Z.V.a.x.V.s.B.D.x.s.x.s.s.s.x.V.V.s.m.A.N.J H s 7 d d T R $.R &.&.%.K K R E 1.0.'.0.5.>.>.6./.6.6.,.,.>.>.~ Q E E Q Q E Q >.>.! :.:.J.J.n.n.t.y.y.g.i.r.r.r.z.y.i.i.B.z.t.u.j.k.t.n.Y.M.h.N.D k.m.Y N v l , > X > X X < < < < 7 x 7 C 7 C C C C C C Z H Z H J J J ~ Q >.,.!.(.}.XX|.N.M.y.g.i.t.i.z.R.Z.z.z.z.B.Z.C.i.B.Z.R.c.z.z.Z.Z.z.x.C.R.x.B.Z.Z.z.z.z.z.u.M b b z v l l , , > > X # X     # X 3 3 > , , J.wXyXBX_.z b V t.t.B.j.y.p.y.V.z.s.u.u.n.MXPXPXCX,.,.wXKXPXKXCXA.Y.A.c.Y.j.B.z. X XD.R.E. XD.c.D.D.Z.z.Z.s.i.m.y.n n b b b z z z l l l , , , ,.jXjX|.z m n M n e.t.y.y.y.u.i.B.z.y.j.h.N Q.CXPXPXLX'.J Y B m.Y.M n M.N.^.XXN.m U.U.D N N.U.D m Y U.XXn.z U.N.B b b B N.K.f.m.V K.uXyXNXDXBXSXSXyXQ.A b b b n e.e.e.p.y.i.s.j.B.m.N.~.Q.5.3.&.T j j j h f i r r 0 q q 0 i i f a i a 0 a q f q y y y y y y y y f r i f h j h [ X.S P Y XXY.M.l.l.a.r.y.r.y.r.e.e.u.M b m , , 2 <.3.&.R H F G c B A. XA.z.y.x.W.oXE.Z.x.s.r.a.b.x.s.x.V.E.D.s.r.a.s.a.s.s.Z.F.B.r.y.a.s.y.a.x.R.V.a.y.s.B.V.V. XA.B.z.z.i.z.Z.B.j.m.K.n.}.NXVXAXLXDXDXKXSXvXqXvXCXLXZXh.u.g.u.y.y.g.t.t.g.M.m.D o.mX[.%.X.T $.k ;   .   # - f j g a * K zXAXbXbXcX6.H o X X . o &.vXAXbXNXUXvXvXvXvX0X3.& . 4 : ; & $ $ & & = ",
"i ] i e 8 8 e @ = q f f f a q q q f f r r f f r 1 - # * + * * - * * ; = % = u y f p f f h [ [ [ [ { f q @ . . . . . .   X > , l N C.M.m.j.B.j.z.z.B.B.V.B.z.x.x.z.x.d.b.x.b.a.x.z.x.D.R.B.i.A.F.s.B.s.F.Z.z.s.z.Z.s.y.s.V.s.s.r.A.V.a.s.V.Z.s.a.a.V.Z.x.B.a.x.R.B.m.F.B.n e.n n n n n e.t.e.t.y.y.y.t.y.y.z.V.Z.D.V.Z.s.y.V.V.s.B.F.V.a.d.x.x.s.s.V.V.s.B.N.J.Y J H d d k T T $.%.-.=.%.K K K &.<.'.`.5.1.,.,.,./.1./.,.,.>.;.>.Q W Q Q >.Q Q >.,.,.:.J.! n.n.u.u.y.j.j.i.r.r.i.B.i.i.i.B.m.t.p.j.i.t.u.Y.A.h.j.h.k.k.n.h.D v l , > X > > < > < < 3 7 x 7 x 7 v 7 x 7 C 7 H C C H H J J Q E Q ,.Q.!.}. XY.M.t.j.z.y.z.c.R.A.s.i.j.Z.A.B.s.B.Z. XB.z.B.F.A.z.z.Z.R.B.z.Z.Z.x.z.B.j.u.M m v z l l < < > > > X X # +   # X # > > S Z A eXyXBX_.z b M t.t.s.z.r.y.y.H.x.s.i.u.n.XXSXCXmXY l c N.MXBX Xj.j.B.Y. XR. Xc.R.F.b.b.V.D.W.z.x.V.x.r.a.r.y.e.e.n n b b b z z z l l l , , > L }.mXZXD b n M M u.y.i.i.y.y.i.B.j.y.h.m ~.SXPXPXLX0X4.NXKX}.M.m.B ^.MXmXCXKXMXZXCXCXZXmXCXCXZX~.ZXKXKXhXjXCXCXmXmXMXZXCXuXN.S.p.J.uXyXuXNXDXBXDXBX}.f.V b b n e.t.t.t.y.y.a.i.j.M.M.J.Q.>.&.=.$.T j j j f a i i q q q 9 i 0 f f q q f i f f i i f y a f p p f i a f f g [ [ X.X.P S T.jXT.c.g.l.a.y.r.r.e.e.e.n t.n b m l 3 P 4.&.R K H P G N N. XA.j.y.D.E.E. XW.a.a.a.r.a.G.Z.x.x.H.E.x.r.r.s.Z.s.x.s.D.Z.s.r.a.s.s.a.y.z.F.s.y.s.z.s.s.B.F.Z.V.V.B.s.B.Z.B.z.m.A.Y wXCXSXSXJXJXAXAXAXVXbXAXKXLXCXY m.j.t.u.y.g.g.t.j.M.n.D jXPXKXbX'.*.*.$.a ;   . % - a j h a : a q.bXzXq.H 5 X . X X o E vXAXAXzXvXzXrXvX:Xq.T o . : O : & & & 9 = = & ",
"i i f q @ @ 8 = i f ] f f f q q q q r q q a s a ; ; # ; * * * = * * # + % 9 u i y y i y i ] ] [ X.[ ] t % . . . O O @   X X > l b N.A.i.m.B.i.z.j.c.V.B.x.B.x.V.x.x.s.z.x.s.b.z.z.y.z.Z.Z.y.A.Y.B.z.x.A.A.s.z.S.Z.a.y.V.V.z.s.a.D.V.s.z.V.Z.x.i.a.V.V.s.x.i.s. XZ.B. XB.n n n n e.n n M M e.t.t.t.t.y.y.y.i.z.Z.A.A.F.s.y.V.S.s.S.Z.x.s.x.x.B.S.x.D.Z.s.B.M.N.Y E K H d k T R $.=.%.=.>.%.K E >.5.0.'.0.6.3.>.,.5.6./.1.,.>.Q Q ~ Q E Q >.Q Q ,.1.,.,.! N.A B u.t.i.i.z.s.y.s.B.Z.z.z.i.z.j.r.u.i.i.r.i.A.Z.y.t.y.u.j.k.n.h.D N , > > > X > X X < < , 7 x 7 C 7 x 7 x 7 C 7 C C H H J W J J Q ,.,.!.(.}.~.n.t.z.c.i.B.B.R.Z.B.j.s.B.R.B.i.z.C.R.B.z.z.F.Z.z.z.V.F.B.z.Z.Z.x.z.z.j.u.M m v v 3 < < > > X X X . .   .   # # > x !.I A eXyXCX.Xz b V t.t.z.s.p.y.d.x.x.a.s.i.C.j.m.M.u.B A.m.n M M e.y.B.B.c. XR.y.x.V.R.x.a.z.F.F.x.z.Z.D.x.x.a.a.y.e.e.n b z b z z z l l l , > > 3 }.mXCX~.b B h.u.j.j.i.y.y.y.p.j.g.h.u.m }.PXJXLXzX5 AXPXLXCX^.n.B XXKXMXmXZX(.GXmX}.KXGXVXxXZXKXCX|.VXKXKX`.ZXKXCXKXCXBXXXB K.b P.NXtXuXNXNXDXSXDXyXJ.V V n p.u.e.y.y.i.i.i.z.j.k.N.~.:.;.&.&.&.T +.j j f y q q q 8 9 9 q 0 0 f q f q i f f i a i f p f f a h i f i f g [ [ [ O.O.S hX Xk.k.l.a.l.a.a.y.r.t.r.e.t.M N N x F %.=.$.R K L J Y A N.B.e.r.Z.E.E.F.a.a.r.r.a.a.x.W.F.x.V.D.D.a.r.r.s.D.V.V.s.D.A.d.r.a.x.x.s.y.B.F.i.r.i.B.s.s.B.D.C.B.Z.Z.V.V.V.j.B.A.N.D yXVXAXLXLXAXAXAXKXKXAXAXAXLXMXM h.u.t.u.y.g.y.g.k.T.Y v CXPXPXPXJX=.$.=.j 5     # - a g g d 5 * R q.E : . . X o X . k vXAXVXvXvX0XvXzX0X&.: . . .   : & & u u u u u 9 ",
"f i 8 @ O @ q ] f ] [ h f r q = = r r e t r r r r r r ; + = = # * #   # % 9 9 u q i i y y p h ] [ { g f r # @ . O O O . . > , , N A.Y.h.u.i.j.j.z.B.B.B.B.Z.V.V.Z.s.z.V.s.y.s.z.z.y.u.B.A.f.m.A.B.s.z.A.A.B.s.s.Z.s.r.x.Z.s.a.s.A.Z.s.s.B.D.s.s.s.z.D.B.a.s.s.A.A.V.A.A.i.n p.n n n n e.n e.e.t.r.t.y.t.y.g.l.z.Z.F.Z.S.a.x.G.r.s.Z.x.s.V.x.S.x.z.Z.D.x.i.m.N.U Q K K d d T T R &.=.=.>.%.%.%.;.<.'.`.0.5.>.>.>.,.,.6.1.,.~ ;.Q Q E Q Q E Q Q >.,./.! ! Y B n.M r.y.s.z.s.i.s.B.Z.A.c.i.B.B.i.i.p.i.p.s.A.s.r.y.y.y.y.h.k.h.B Y x > 3 > X X o X < < < 7 v , C 7 C C 7 7 3 2 x 7 C H H J H J J Q :.,.).|.^.M.u.C.B.B.z.B.R.Y.z.z.i.A.Z.B.i.z.B.F.B.s.B.D.Z.s.B.V.R.B.z.V.V.b.z.m.j.n.V c x v > > X X X X X .   . .     X > X t hX~.Z _.yXBX}.l b e.u.u.s.s.p.y.s.x.x.x.y.s.F.A.t.n u.A. XV.i.i.y.A.B.B.B.B. XZ.i.B.Z.G.B.B.V.D.D.B.B.Z.F.F. XF.B.s.y.e.V b z z b z z l l , , > , , Z |.CX}.z m k.h.m.u.y.a.y.y.i.z.j.i.h.z }.PXPXLXzX3.0XbXGXjX^.Y.N Y MXKXCXVXY VXhXG ZXKXZXS xXPXmXv mXKXCXS }.GXmXmXXX_. XB A.V N.uXyXyXNXuXuXNXBXMXL.V V u.p.u.y.y.i.i.i.a.i.j.j.N.N.:.%.;.&.&.$.$.K ] g f y f y q q = = q i f f f i f f f f f f i f f f f h f f f g ..[ [ X.O.S o.hXT.l.l.g.a.l.a.y.y.r.y.t.t.M n B N G %.<.=.%.T d J P G Y u.u.i.z.D.D.x.a.r.r.s.v.V.H.W.E.W.b.s.v.V.r.a.a.D.F.V.B.V.V.a.r.r.x.V.s.y.s.z.z.r.r.s.V.s.s.B.Z.B.z.V.B.x.A.A.Z.A.C.^.z yXSXKXKXLXAXAXDXLXJXAXUXKXLX_.b m.u.h.t.t.y.g.t.t.U.z U.KXPXKXKXLX:X] <.%.g   * # 1 0 g g a u - ; o   . X . < : . 6 0XAXUXvXzX0XzX0X6.d . . . .   O & & u p a p y u u ",
"f q @ O O 8 f h g [ h f i q q = @ q r q # t r r a r 0 * +   @ + O   O $ = q q q q q 8 9 y y f h ] [ ] f r q @ O O O O . # X > , m ^.A.j.i.i.z.i.i.i.m.B.B.V.Z.V.Z.z.B.z.i.s.z.y.i.h.m.A.^.^.m.n.m.i.B.A.Z.i.y.B.Z.z.y.s.V.s.r.a.Z.Z.i.s.V.F.s.a.s.x.D.V.i.s.z.F.Z.B.A.A.j.n n n b n n n e.n e.t.t.y.r.t.y.y.z.z.V.D.F.B.y.V.A.i.i.R.x.s.x.d.z.V.d.V.D.x.i.M.J.U U E K d T d R $.-.&.&.&.%.%.%.&.1.0.`.0.<.,.>.>.6.,./.,.,.>.Q E Q Q Q E Q E >.>.1.1.Q.J.Y u.h.p.t.p.i.B.B.i.i.z.B.s.y.y.B.i.i.z.s.i.r.i.z.i.r.r.r.y.g.j.j.n.h.Y c > < < X o X o > > < , 7 7 7 C 2 7 x 7 , 7 2 7 C 7 Z H J H J W Q >.Q.(.^.M.m.C.c.z.z.c.A.R.s.z.i.V.F.B.s.B.V.F.B.s.B.Z.Z.B.s.V.R.B.z.V.Z.z.z.z.i.h.N c x 3 > X X X X X X .   #   @   # 1 > 3 ~.! c _.yXBXXXz b n e.y.B.s.r.e.s.Z.s.y.a.s.A.C.i.y.z.C.Z.s.y.s.z.F.C.B.B.s. XV.y.s.B.Z.s.s.B.Z.A.B.s.B.V.V.Z.Z.S.i.p.e.n b b z z z l l l , , , , > , c }.XXN m M B u.t.t.t.r.r.i.B.j.u.M z o.VXPXPXPXJXcX>.F v N.^.D ^.CXCXNXCXVXjXCXSXKXZXmX|.mXCXZXZXKXZXCXCXKXKXmX}.SXCX}.f.m.V P.uXyXNXiXtXBXuXSXuX_.f.V m.i.i.i.i.i.g.s.i.z.i.m.n.J.! ;.&.&.-.*.$.[ g f f q q q 9 9 e = q f f f f f f f f f f f h h h p h p y f f f [ j [ P D O.T.jXY.l.k.l.l.a.r.r.y.y.t.y.p.e.M N G G ;.5.&.$.R 6 C G Y N.n.i.i.z.Z.D.b.r.r.b.F.R.Z.x.D.E.D.d.d.x.x.r.a.s.Z.F.V.x.S.y.r.r.r.V.Z.x.s.z.s.s.r.r.z.V.s.i.B.Z.z.s.B.B.s.Z.G.Z.C.M.N.z wXKXSXJXLXJXAXAXJXJXAXUXLXKXN.z M.i.y.t.g.t.g.t.h.Y N cXPXPXJXIXIXvX-.$.9.$.# . . r a j d f 1 * : ; X     X : X 5 0.bXUXvXzX0X:X4.W 7 X . . : : : 4 & u a u p u p y a ",
"f = O . @ q f [ [ ] h q q q = @ # q # q # r r q a a r # #   @ + = = 9 y y f i i q q = 8 q i f h ] f ] g f 0 @ O O O O @ # > > , B Y.A.m.j.j.j.i.y.i.B.B.C.V.V.V.B.z.z.j.i.u.u.u.f.Y. XXXjXMX.Xm.V n p.B.A.B.i.i.A.s.i.x.D.x.d.a.Z.Z.s.s.x.F.x.s.s.z.D.B.a.s.z.F.A.A.A.R.B.e.n n n n n n n e.e.t.y.y.t.y.y.y.i.z.V.Z.F.s.r.B.Z.s.i.Z.V.s.V.x.s.V.a.V.D.V.S.m.K.N.Q E H H d T T -.&.=.&.&.R R %.>.<.'.'.5.5.>.>.~ >.,.6.,.,.>.Q Q Q E E Q E Q Q >./.!.Q.! n.u.m.i.r.t.i.s.B.s.i.y.B.i.e.y.i.e.r.B.S.i.i.i.B.y.e.y.r.i.i.j.m.h.h.Y c > > < < o o o < < > < , 7 6 6 7 x x 7 7 3 7 2 7 H H H Z H H W W Q Q.~._.^.M.C.m.z.j.B.Z.A.s.z.s.V.F.B.j.B.V. Xz.z.B.D.A.B.s.Z.R.B.z.V.V.s.z.B.h.n.N v v < X X X : X     #         # X > X > G ~ v (.yXCXBXV z V e.p.B.B.y.y.V.A.B.r.i.z.B.B.s.z.V.B.s.s.a.s.V.F.B.x.s.s.F.V.r.i.B.A.z.i.i.A.V.B.s.B.B.s.B.B.i.m.p.n b b z z b z z l l l , , , , l > v ~.N.z m u.u.i.t.r.t.y.i.s.g.j.k.z x ;.zXLXPXPXPXAXhXY m Y.Y n.~.(.G ! mXc U ~.Y Y D l Y S |.ZXQ.S Y :.~.! v c (.^.A p.M.e.J.yXtXyXNXNXyXDXNXBXuXJ.p.m.m.j.i.j.j.z.s.s.s.m.j.N.U U ;.%.&.-.$.X.[ [ g f q q q 9 8 = 8 q f ] h f ] f ] g f ] f h f f h f h i f f f j ....P S D |. XT.g.g.l.a.a.y.y.r.y.y.y.t.u.B N Y U >.4.&.R K 6 C I I N.n y.B.C.V.z.a.r.a.Z.E.E.x.x.D.W.b.a.a.d.H.r.d.x.G.F.V.s.y.r.r.a.y.V.Z.B.s.x.s.r.r.i.B.Z.s.i.s.V.i.s.V.s.s.V.Z.A.B.m.n.z yXSXSXJXLXJXAXAXAXAXAXAXLXSXN n A.h.t.i.g.y.g.h.n.N Y SXPXLXJXJXLXFXq.R <.=.j 1   a f s g a 1 #     * *   o . X 3.bXAXnXzX:X4.&.d o . . : : . : & & 9 u u y u u y a y ",
"q = O . % i g [ h h q q q q 9 % e = q # = = r ; r r ; + @ . # @ = = 0 y a f i y y q 9 8 9 y y h f ] f ] g y % O O O @ # # > 3 , Y A.M.m.B.z.j.i.t.u.i.i.B.B.B.z.z.s.i.m.u.n u.n.^.XXXXXXXXMXMXMX^.m.V u.m.m.m.B.B.s.y.i.Z.V.l.a.Z.D.s.s.V.F.z.s.s.s.D.x.a.s.s.A.F.Z.Z.A.A.e.n e.n n n n n n n t.t.t.t.y.y.y.i.s.B.Z.F.B.r.x.Z.s.y.Z.D.x.x.z.S.V.r.x.D.v.j.m.N.:.U L L K d T T $.-.-.&.%.%.%.%.;.4.`.'.0.5.6.,.>.>.,.,.,.>.Q E Q &.Q Q W E E E >.1./.Q.N.Y u.m.i.r.r.a.B.V.z.y.y.V.y.e.y.y.e.e.S.z.i.p.i.i.r.p.r.y.y.j.j.k.h.h.N.Y > > < o o : o X > < > < < 2 7 6 6 6 6 6 7 2 7 C 7 7 C C H Z J J E I Q.~.^.M.C.m.z.j.z.F.A.z.z.s.B.A.z.i.B.V.R.V.s.z.A.Z.s.B.V.Y.z.z.V.x.z.i.m.n.u.N l 3 X . . . X   # # + #   +   # . X X X x Z , U yXmXBXJ.z u.n y.B.B.x.S.B.i.y.p.B.B.A.A.B.i.B.S.s.s.s.d.s.A.B.z.S.s. XZ.p.s.V.A.B.B.i.A.A.B.B.A.V.m.S.B.i.i.u.b b b z z z l z l l l , l , , , l l |.jXm l B h.h.t.p.y.i.i.z.u.j.m.b U.cX`.'.VXPXLXPXPXCX~.~.h.l N.ZXwX}.SXmX!.Y ~.mXmX|.`.|.ZXZXU ~.|.Y ~.:.~.U N A ^._.p.V P.yXyXtXDXuXNXuXDXBXBX^.f.p.i.i.y.i.y.i.g.s.i.i.j.M.N.U Q %.$.R +.[ [ f f i r q q 9 @ @ q i f g ..f f f ..f f f f f p f i f f f f f f f g ] P O.D |.|.T.k.l.l.l.a.y.y.t.y.y.y.u.u.B N G Q &.&.$.R H F G c Y D M B.R.Z.x.r.y.l.b.D.F.Z.b.x.F.E.a.d.a.a.x.a.a.Z.F.F.x.r.r.r.p.i.r.V.D.s.i.s.s.r.y.s.Z.R.x.i.z.B.i.s.Z.B.s.B.B.B.C.N.N.z mXLXJXAXAXAXJXKXLXUXUXAXKXKXY u.C.y.t.i.y.j.g.M T.Y |.LXPXLXJXJXJXJXbX5.$.<.<.X.s a s a f a *   .   + :     . k zXJXbX0X0.$.7 o : . o : * * * * = & 9 u u u u u y y y ",
"= $ O * u g ] h f y 9 9 9 q = 8 % 9 % = = # q # ; ; # O   + = 9 9 9 q q q y i q q q q 9 8 9 y f ..f h ..f a 9 % O O @ @ # # 3 l D M.C.m.C.B.z.i.t.y.u.i.i.i.s.z.B.s.i.i.u.V N._.XXXX}._._.XXyXBXBXXX^.N.n.V n p.C.B.i.s.V.V.s.y.V.F.s.s.x.F.V.s.s.x.F.V.s.z.z.Z.D.A.A.F.A.u.n M n n n n n M n e.t.r.t.t.t.y.y.i.z.Z.F.V.r.x.A.s.y.V.Z.x.s.z.B.V.a.d.D.V.z.m.N.N.U L L K d k R $.3.-.&.&.$.E %.;.<.'.'.5.4.,.>.>.~ ,.6.,.>.>.Q Q Q E Q E E E Q 3.5.).Q.~.D u.m.s.r.i.s.B.z.y.e.r.c.i.e.r.y.e.e.B.s.i.p.i.u.t.r.y.y.i.j.j.k.t.u.U.I > > < o o : o X < < > < 7 7 7 6 6 C 6 6 6 7 7 7 6 C 7 x C C H C J G I ~.K.M.M.j.j.i.z.A.F.s.z.i.V.A.z.i.B.B.R.B.B.B.F.Z.s.s.Z.R.c.z.V.B.z.s.j.h.D N , > X . . . : + # # # + @ @ . X . > > > , U N ! yX}.yX^.V b n p.B.B.S.z.i.i.i.B.Z.B.B.S.i.i.s.B.s.B.s.y.B.F.B.S.j.s.R.Z.a.s.V.A.s.s.S.A.A.s.i.V.A.B.i.m.u.u.B b z z z z z l z l l l l l l l l v , ~.CX^.z m h.k.i.i.i.y.i.z.j.t.j.m |.PXJXhX<.q.VXLXPXLXZX^.n.N MXCXyXmXKXVXCXVXCXmXSXGXKXSXCXKXxXKXKXCXCXKXCXKXBXMXSXMXn.V K.yXtXeXuXuXiXtXtXBXBX_.p.p.y.t.y.y.g.y.i.s.i.i.j.N.J.U L E R R [ j ] f f y q q q = % @ e i ..f ] g f f f f i i i f y f i f f r y i r f f ..P S D |. Xk.k.g.z.l.a.i.y.y.t.u.t.y.u.B N G ;.&.E &.R d F x v Y n.^. XR.z.r.r.b.D.x.Z.Z.s.a.x.W.G.a.a.r.b.V.s.a.G.F.H.r.e.a.s.r.s.a.Z.F.z.r.a.s.i.y.x.F.A.B.s.z.s.y.s.D.B.z.B.B.B.A.M.N.z mXKXAXJXAXAXJXJXSXAXAXLXPXCXN.h.z.u.y.y.t.g.j.h.U.N.cXPXKXIXLXJXJXIXJXzX$.=.<.=.X.f s h a - +   + + +   + +   $.bXUXzX3.k o . . . : o * 5 u - 0 u u u u y u u q u q y ",
"u = * u h j [ g f 0 9 8 9 9 8 8 % % @ & q q q # = = = + O % % = 0 9 q q 0 y i q 9 q q 8 = u u i p i g f f t q 9 @ O O @ 3 > # l n.C.m.C.A.B.j.g.y.p.y.t.y.i.i.i.y.m.i.M B K._.XX{._._.eX}.}.}.XXMXyXyXmXXXJ.u.V p.i.m.B.Z.Z.s.a.V.A.s.s.z.F.x.s.s.z.D.V.s.s.s.Z.A.Z.Z.A.A.j.n e.M n n n n n n t.t.t.t.y.r.y.y.i.s.V.F.Z.y.B.G.V.i.B.G.x.d.x.s.V.s.s.Z.H.z.h.N.J.U L J K d T T $.$.$.$.&.%.%.&.&.<.'.'.5.1.1.>.>.3.~ ,.>.Q Q ;.Q Q Q Q E E Q &.~ ,./.~.J.B u.B.j.i.s.s.s.i.r.e.r.z.i.r.e.y.p.r.s.B.j.i.i.p.i.i.i.y.i.y.g.j.t.D Y Y > > X o : o o o < < 2 , < 7 < 6 C 6 C 6 6 6 6 6 C C C C 7 C C C Z G I N.U.N.A.j.j.j.i.Z.Z.s.l.s.C.Z.B.i.z.B.R.z.s.s.Z.D.B.B.V.A.B.i.B.B.s.i.m.m.B v , > . . . .   + @ + + # + #   . X 1 X X x yX(._.yX(.^..XN.b b e.s.a.s.x.B.Z.A.A.B.y.i.z.a.V.B.V.V.s.y.i.V.A.V.z.s.s. XV.r.s.V.D.B.s.j.V.Z.s.s.V.B.s.f.m.m.f.u.b z z b m v m z v z l l l l l z l , v }.ZXm b B k.j.j.i.i.i.t.B.y.j.D U.KXPXPXVXzX9.0.VXKXZXU.D ^.CX}.l ~.ZXc mXKXSXG ~.CXKX}.!.CXwXKXGXCXKXCXCXGXKXCXjX.Xf.V P.uXyXyXtXUXuXBXuXBXBX^.p.i.i.y.y.y.y.i.s.i.z.s.m.m.N.I F j j j j j g f f i q y e = e @ = q f f f ..f ..f i f y f i f i y i p q q q q r t g t S D jXT.c.c.z.s.l.a.a.y.g.y.y.y.e.n V N U ,.3.R R R H G x N |. X X XC.r.r.z.D.D.x.v.D.x.s.D.W.D.d.a.d.H.H.x.d.V.F.x.r.r.s.B.d.i.z.F.F.s.r.a.s.s.a.B.F.Z.s.s.B.s.a.V.Z.s.s.B.V.Z.A.C.N.v wXKXSXLXAXAXAXAXAXJXLXPXPXXXm t.g.y.y.y.i.g.u.M.N.Y ZXPXLXLXPXIXJXLXIXbX8.<.4.0.<.j a 1 =     # = ; = * # # # j kXzX=.5 : . : 4 ; 4 5 a u a a a u u y y u p u q q y y ",
"j h a f h [ h a r q = 8 = = 9 9 8 O & & 0 0 ; # $ * = + + % % % % @ # 8 q e 8 = 8 = = 8 & u u u y i i g f f r q @ O @ # # > > v n.m.c.C.A.c.i.i.u.y.u.r.p.r.y.y.t.i.e.n m.XXXX}.eX{._.{.eX}.}.yX}.}.yXyXmXyXXX^.u.u.e.i.A.Z.s.y.V.Z.s.a.x.F.V.z.s.z.A.V.s.z.i.Z.F.V.Z.A.A.m.n n e.M n n n n n n e.t.r.t.r.y.y.y.s.V.F.A.s.B.Z.V.i.x.D.x.s.s.s.B.d.x.x.D.B.i.N.N.U U H H d T T $.$.&.$.&.%.&.%.&.0.'.'.4.4.1.>.6.>.>.,.>.Q >.&.Q Q Q Q E E &.Q E Q !.Q.N.n.u.z.z.r.p.y.a.y.r.e.y.z.i.e.p.i.r.p.s.Z.z.j.j.i.i.m.p.i.y.y.i.j.t.h.k.Y > > X : o : 4 < < < < < < < < 6 6 6 C C C 6 6 7 H C 6 7 C C C C H Z A U N.M.M.m.j.i.z.Z.Z.z.s.s.V.A.V.i.z.V.R.B.s.s.F.A.s.s.B.F.B.z.z.B.s.z.j.f.n.c , X . . .   O O   # + # + + + . . X X > U NX}.}._.J.J._.^.m.n e.y.i.y.V.V.F.V.d.r.a.V.G.V.V.s.V.V.S.y.i.B.R.B.z.s.s.E.Z.a.B.V.D.x.z.s.V.Z.d.a.x.B.i.i.m.m.n.B m z z c m v v v z v z z l z l z z z l ~.ZXD z D M.j.j.i.i.i.y.B.i.u.h.v |.KXLXPXPXAX0X>.(.Y ~.u.N.ZXMX}.MXCXD }.KXKXmXMXGXCX^.U.CXMXKXCXZXCXMXCXCXMXMXMXoXf.V P.yXyXtXyXuXBXDXuXBXuXK.p.S.r.y.y.y.y.i.s.s.i.i.m.N.N.c C s d j g h g h f i r q q e = @ @ q a f i f i i i f i y i r i i y y f e q e r q i t t S T.XXY.c.c.l.l.l.l.i.y.y.y.g.y.u.M V Y :.1.&.&.R R F G c Y _.^.j.z.i.r.y.Z.D.x.s.x.D.Z.x.v.D.v.d.r.d.F.D.x.x.x.x.d.r.r.A.G.y.a.V.F.Z.r.r.s.V.z.s.B.D.Z.i.s.x.z.i.V.Z.d.s.V.z.A.C.m.N.z mXSXJXLXLXAXAXAXJXLXLXPXSXY b t.i.y.y.y.a.j.i.M.D U SXPXIXLXJXHXUXJXUXUX9.2.8.q.9.s ;   #   + ; r 0 0 = = =   ; j R a : * 4 5 k a a k h a u a 0 u y y q u q u q q 9 0 ",
"-.$.h j h j h y q q = = 8 9 9 y 8 & & = y y 9 % $ $ = $ + % 8 % % 9 q q q q q q 9 % & & 8 & 9 & 9 8 q y f f 0 q @ O @ # # # 3 v D C.m.C.A.z.i.i.r.t.y.u.y.t.r.r.i.u.n u._.yX}.{.{.}.eX_.{.{.{.{.8X_._._.XXmXMXuXyX^.p.i.A.A.z.i.B.F.z.y.z.R.V.s.z.x.F.V.s.s.s.V.Z.V.A.Z.B.B.n e.t.M e.n n n n n n e.t.t.t.y.y.y.s.s.F.F.s.s.Z.A.y.B.G.x.s.V.s.S.x.s.x.Z.V.m.M.J.Y L H H T T T R R $.&.%.&.%.&.%.8.'.'.5.,.,.,.>.>.,.~ >.Q Q ~ >.Q E Q W E W Q E Q 1.~.J.B u.m.z.r.r.e.r.r.e.y.g.s.y.e.y.s.i.i.B.Z.j.i.i.u.u.i.y.g.u.y.h.k.t.h.n.Y , > X : 4 o o 1 1 < 1 < < < 7 7 6 H s H F C H C C C H C Z C C 6 C Z Z Y J.A.N.h.i.i.j.Z.Z.s.s.i.V.A.z.i.S.B.R.B.s.B.F.Z.B.z.V.Y.z.i.B.B.s.i.j.h.D c , X . . . . O O @ @ + @ # . # # X X X 2 qXmX_.(.Y J.(.^.MX Xp.e.S.s.a.s.S.D.x.a.a.x.V.x.d.y.r.a.Z.V.r.y.s.Z.B.s.z.z.E.Z.r.s.x.D.s.s.y.x.Z.a.a.z.V.s.i.u.u.n.B z z v N N z m v m z z z z l m l l v l ~.ZX|.z M k.i.i.y.t.p.i.i.z.h.N.z , 2.vXLXPXPXPXVXxXY D n.n ^.MXCXXXXXC.T.jX XMXMXXXMX^.h.MXMXMXMXXXXX^.XXCXjXMXBXXXm.V J.uXNXDXBXNXtXuXuXBXuXK.u.m.y.y.y.y.a.i.g.a.i.i.m.M.Y x 2 1 a k f f f ..t y q q q @ @ @ e q i i y r i y 0 0 i y r q q i 0 q i q q q i t t r t S T.|.T.c.k.z.l.i.a.y.y.y.y.t.t.u.M V Y :.1.>.$.R R C F c N.^.B n i.i.r.a.D.D.x.x.V.D.D.v.D.H.x.a.a.a.W.D.s.z.d.a.r.r.y.Z.G.y.a.x.V.x.e.r.x.Z.x.s.V.Z.V.i.s.B.s.a.Z.Z.S.z.V.x.B.A.m.N.z wXKXJXLXLXKXAXUXJXLXPXPX}.z M k.y.y.y.y.y.j.h.M.c !.LXKXJXJXUXUXUXnXUXbX8.%.=.=.<.r # #     * 0 y u y y - ; : : - * * 5 5 5 a k a s f y a a u u a q 0 9 8 9 9 9 9 9 0 ",
"9.*.j j [ h a y 9 9 8 9 u u u 9 & & & 9 u u = & $ $ % = = 9 a h *.*.*.7.7.*.[ a 8 = 8 @ = = @ = % q y u q u q q 8 @ @ O # > 3 S B M.j.A.C.j.z.p.e.t.u.p.t.y.p.t.u.e.n J.yX}.{.eX}.}.}.8XeX{.{.8X{.{._.8X8XeXmXMXyXCX.Xe.B.A.B.y.s.A.V.a.s. XV.a.s.z.D.A.a.z.l.Z.F.B.Z.Z.A.C.t.e.t.e.n n n n n n e.e.e.e.e.r.r.y.y.s.Z.F.z.i.A.V.s.S.Z.z.s.s.s.S.V.x.s.Z.V.m.m.A.N.L L R d T T T T $.$.$.&.&.&.;.<.0X'.9.4.>.,.>.,.>.>.! >.>.Q >.;.E Q E E E E J U Q.~.n.B u.m.B.e.e.r.r.y.s.i.y.r.e.e.r.B.i.i.B.Z.e.r.r.e.p.p.y.i.a.i.j.u.t.h.n.Y , X > . . < 1 1 1 < 1 < < < 7 x 7 C H C H H H J H H Z H C 7 H C C C G I N.~.A.m.t.i.s.Z.B.i.z.s.V.Z.z.i.i.Z.R.B.s.B.D.A.s.B.V.R.j.i.B.B.i.j.i.u.n.A > X . . . @ + +       . @ . . . X X 2 cXxX~.J.A A (.}..XXXA.u.e.s.i.r.r.r.H.z.a.s.s.Z.x.r.a.r.V.F.s.s.y.x.D.x.a.z.x.E.Z.r.s.V.Z.s.a.i.x.V.r.s.B.s.i.y.p.u.n.N l , v v c m m S m m z z z z z z z l l |.ZXXXb b h.t.y.y.y.y.y.j.h.m.D l (.mX[.[.vXLXPXPXKXZXN.n.u.M f.C.n.e.u.e.t.t.r.j.e.j.B.e.y.z.i.j.j.y.n j.B.j.h.A.A.B.V f.yXuXtXDXDXtXtXuXNXuXK.f.m.p.i.a.l.y.i.i.z.i.j.m.M.Y , < o 5 u h h f i f i i q e % = @ @ = q f q 0 q q q 9 9 q q q q q q y y i y f f t f t t v Y.|.W.T.T.l.l.g.y.y.y.y.y.y.y.u.B m I Q Q &.W R H F x G N.D M y.j.i.r.x.R.x.b.d.D.W.v.x.b.H.a.a.r.H. XD.x.d.a.r.a.y.a.R.V.a.s.z.V.a.r.s.Z.Z.s.s.B.Z.x.r.a.Z.s.s.Z.D.s.x.V.z.B.Z.j.N.z xXKXAXLXLXLXHXUXJXPXLXLX|.b h.g.i.y.g.t.y.y.m.N.G mXPXAXbXbXUXvXvXbXbXnX8.g X.$.s r   # ; 0 r a f f f f r -   # # 1 a a k a f a a f a a f y a 0 0 0 9 - 0 9 9 = = 9 - ",
"zX9.$.j j k y u 9 8 & p 9 u u u 9 9 9 u u u u = 9 % % = 0 f +.=.q.fXkXfXfX9.*.] = q = % @ 8 % @ = 9 y p 9 i i q q % O O @ > t m n.j.h.A.A.t.y.t.r.u.y.u.y.t.t.r.i.u.b ^.yXXX_.}._.eX}.}.}.{.{.{.8X].].]._._.yXyX^.uXBX Xp.i.B.p.B.A.s.a.s.G.V.V.s.z.D.Z.i.z.s.V.Z.V.Z.Z.Z.Z.y.e.u.e.n n n n n n n e.e.e.e.r.y.y.y.y.V.F.V.i.A.F.s.B.V.s.s.S.x.V.x.s.V.V.B.B.C.J.U U K d T k T T T R $.W $.&.E &.0.[.0.1.5.>.1.,.>.,.,.Q Q Q ;.Q Q ;.%.E E W W I I ! J.N.M t.i.i.r.e.r.y.y.i.y.r.r.r.i.V.V.S.z.Z.S.e.r.p.e.i.i.y.y.y.i.i.g.u.h.h.Y , > X X o o X 1 1 1 1 1 o < 3 2 6 s C H C H H H J H J H C Z H C C Z Z G N.J.U.m.i.s.i.Z.B.s.i.i.Z.Z.S.B.s.Z.R.B.s.z.Z.Z.s.B.V.A.z.j.B.B.j.i.i.h.n.G , X . . . .       + @   . . . : . < zXVX(.G I ~._._._.^.u.p.n e.x.d.y.r.r.V.x.s.s.s.Z.V.a.s.y.V.G.s.s.a.s.F.x.s.z.s.F.Z.r.a.V.Z.s.y.y.B.V.r.s.B.s.i.y.i.u.B N l , , x v c m m v m m z m z v z z v l |.CX|.z b h.i.t.y.a.a.r.B.C.u.B Y CXPXLXhXU (.CXLXLXCX~.A.M.m.m.A.B.s.Z.s.Z.D.y.l.a.Z.Z.y.z.z.l.i.a.i.V.s.y.t.i.y.u.N.V f.8XuXeXuXNXuXeXtXNXuXK.p.i.i.i.y.y.i.l.g.g.z.h.m.N.A , < 1 4 k j j j f f t e = = @ @ @ @ = q r i 0 q 0 0 9 0 q q q q q q q y i f f g t X...S S |.Y.E.v.b.l.l.u.y.y.y.y.a.g.t.u.B N Y U E R R K K H I Y N n t.y.y.a.y.x.W.x.l.b.D.D.H.b.a.x.b.a.a.D.E.x.a.r.a.a.a.a.s.R.Z.s.z.x.V.a.y.s.F.F.x.s.x.V.x.r.s.Z.z.s.Z.F.s.s.V.x.C.Y.h.N.z mXKXAXIXLXLXUXUXLXLXLXLX~.B j.i.g.y.j.y.z.j.M.D o.KXLXAXUXAXUXAXAXVXbX[.g - j K r -   # ; r r f f f h f a 1 - ; - a a a f k k a y a a y a a q u 0 0 0 9 9 - 9 0 0 0 9 ",
"bX:X-.j h p y u 8 8 8 9 u u u 9 9 & = u u u & & = $ 9 f h g h $.*.*.$.j h h f i q q 8 = % % @ @ % 9 9 u i p u y q 8 O O + # S D M.u.h.R.Z.e.t.r.u.t.p.u.i.t.y.t.i.f.b ^.yXXXeXeXeX}.eX_.eX_.{.8X8X].8X_._.{._.NXXXJ.MXMXK.p.p.i.B.Z.z.s.x.E.Z.a.s.V.A.D.s.z.l.V.Z.V.A.Z.Z.A.i.e.u.p.e.n n n n n n e.e.e.e.t.y.y.a.y.B.R.F.s.B.F.s.x.V.B.s.S.s.V.H.V.Z.D.V.m.m.M.N.U H K k k T k R +.$.R &.R %.;.q.[.0.1.5.,.1.>.~ >.~ >.>.Q Q >.E >.>.E R E W W I ! N.n.V n u.r.r.e.r.s.s.i.r.r.r.y.B.A.Z.i.s.A.s.r.p.r.r.i.i.i.y.y.y.g.i.u.h.n.G x 3 # X # # X 1 1 s s 6 1 < < 2 6 C 6 H C H H H W W H H H C 7 C C Z Z A Y K.A.m.i.j.s.Z.V.s.S.i.V.A.z.s.i.Z.R.z.s.B.A.V.i.z.V.Z.j.i.M.m.i.s.i.u.N.D > X . . .         + + @ . O .   . <.AX[.Q A (.yX}._._.A.b n n y.V.x.d.e.a.D.z.a.s.s.D.V.a.a.a.x.F.b.a.a.x.D.x.s.s.s.F.V.y.i.V.Z.s.s.s.B.s.y.s.S.i.i.p.y.u.B A v > , l v v m S m m v m z z z z z z l N.CX|.z b m.h.t.y.y.y.r.z.C.u.B B jXKXGX|.l v n.|.XXY.M.A.C.z.x.F. XD.F.x. X Xz.x.Z. X Xv.V.D.F.Z.B.Z. XD.Z.R.E.Z.B.A.A f._.8X8XyXyXtX8X8XuXMXK.f.i.i.y.y.i.s.i.z.z.j.m.m.N.c , < 5 k [ $.+.[ f r q q = @ @ @ O O @ q i q 0 q 0 0 q q q q q q q q i q i h [ ..] P X.S D |.E.T.c.b.c.g.i.y.y.y.a.l.y.k.h.B A Y U H d j d H F G D b b t.y.r.a.s.x.F.H.a.x.W.W.v.a.a.H.v.s.x.F.R.a.r.r.b.x.s.s.x.E.H.s.s.z.V.a.a.s.F.G.z.x.s.x.x.a.s.V.x.s.Z.F.x.z.V.B.V. Xh.n.z }.LXKXLXPXLXAXUXLXPXLXSXn.M i.y.y.y.j.i.i.z.M.N |.PXLXJXJXIXJXLXJXbXcX9.# X g g 1 - * ; q r a f g f f g u 0 0 0 a a a f f a a a y a a u y y 0 0 0 q - 9 = 9 = 9 9 0 q ",
"FXzX-.h f y u u 9 9 u u u p y u 9 9 9 u u u 9 = = $ a +.[ h 0 q y 9 @ . O % q q q q 9 = % % @ @ & & 8 9 8 u 0 y 9 & @ & e t P Y M.u.j.^.B.e.p.u.y.p.y.i.y.y.t.r.i.m.b K.MX}.{.}.{.eX}.eX{.{.{.{.]._.{.8X8X_._.MXBX^.XXuXXXK.V n V.^.V.s.s.E.G.y.s.s.A.Z.s.z.s.V.Z.V.Z.Z.Z.Z.B.e.t.t.e.M n b n n n n n e.e.r.t.y.i.i.s.A.F.V.B.Z.S.s.B.V.V.V.x.d.x.d.V.D.V.z.B.N.U.U H d T T T T T W T $.&.R %.<.zX[.1.>.1.5.,.Q ,.>.;.Q Q ;.Q ;.>.;.E E E E E J U N.N.n.n e.y.r.e.r.s.V.s.r.r.p.p.y.s.V.B.y.y.S.y.e.r.r.r.i.y.y.y.y.y.y.g.u.k.h.Y P H 2 o   X 1 < 1 j K d 6 6 2 3 7 2 C C H H Z H H Z H H C H C C 6 C Z G J.~.^.C.i.S.s.Z.B.i.s.i.Z.A.j.B.i.B.F.i.B.z.A.V.i.B.C.Z.j.B.C.B.m.B.i.h.n.D > X . X . +   @ # + +   . . . . # [.vXU U ].wX}.~.^.}.^.B n p.i.V.s.s.r.a.D.S.a.s.y.V.V.r.a.a.x.D.d.s.a.z.D.B.s.s.s.F.V.a.a.s.V.i.s.x.Z.V.y.s.B.i.y.y.r.u.u.A x > > 3 3 v v v v v m v m z z m z z l N MX^.b b k.u.t.g.a.y.y.z.C.m.u.n B M.j.h.u.m.u.n u.t.C.Z.x.d.x.R.E.a.V.i.Z.E.x.z.z.F.R.V.z.V.F.Z.z.D.F.Z.V.v.Z.Y.C.A.f.A L.8X8X8X8XtX8X2XyXMX^.f.p.y.i.a.a.i.z.j.z.z.j.M.n.c 3 6 s j $.$.+.g f r i q # e @ @ @ O @ q y a a q y r i 0 r i f q r i r i i h j g g X.P P D |. XT.c.c.c.j.y.y.y.a.y.y.y.t.B B D Y Q L H K s H F x N m m t.t.r.s.l.b.D.v.a.H.W.D.b.b.b.H.D.Z.x.D.x.r.r.a.D.x.x.x.x.E.Z.a.s.x.V.a.s.z.D.Z.x.s.s.z.s.s.x.V.x.z.D.A.s.z.Z.z.A.Y.f.n.c cXLXKXLXLXLXLXLXLXLXLXyXb n y.y.l.i.i.j.i.m.M.N yXPXLXIXLXLXJXKXJXvXzX&..   d d - 1 ; 4 # r a f f g f f a 0 a u 0 a r y y a a 0 r u 0 a u 0 0 0 0 0 9 9 = = = = 0 0 0 ",
"JXzX=.h a a y y & 9 9 p i y u u 9 9 9 u u 9 9 8 9 = f [ *.h a f i a q q q f 0 0 q q 8 % @ @ % = = 9 u 8 q q q q 8 = 9 u a g O.D U.m.C.Y.j.e.y.i.i.t.u.i.i.t.r.e.i.m.n n.MXeX{.}.eX{.eX{.}._.{.}.{._.8X_.}._.).yXBXyXyXuXMXMXK.b n y.i.i.s.F.Z.s.z.s.A.D.z.x.g.V.Z.Z.Z.Z.Z.Y.A.e.e.t.p.n n n n n n e.n e.e.t.t.y.y.a.s.V.F.F.B.D.x.z.x.V.V.V.x.x.x.d.s.x.B.B.m.M.U.U J d T T T d W T R +.W R %.4.zX`.,.>.<.5.1.>.,.Q Q Q Q ;.;.E Q &.E E E E L I Y N.n.u.n t.i.i.e.r.B.V.a.r.r.y.s.y.S.B.i.r.i.S.r.e.r.p.t.i.r.y.y.y.t.y.i.u.h.n.Y o.%.K a   X   < a K g s d s 2 2 7 6 6 6 F F H H C H H H H H C C C C C Z Y ~.^.A.i.z.i.Z.V.z.i.s.C.A.B.z.s.Z.A.i.z.B.Z.B.i.z.B.Z.g.B.B.B.B.B.m.m.N.G , X . X . @ @     + + @ @ . O . . H [.,.!.}.! J.}._.XX Xh.n t.y.V.b.a.r.a.D.x.a.s.a.V.V.r.d.a.V.F.s.s.a.x.F.x.z.s.s.D.v.y.a.z.B.r.s.z.F.Z.r.s.s.i.r.y.i.y.u.B x , > 3 3 x v v v v v z m z z m m z z z ^.}.m b b M t.i.y.y.a.b.V.y.z.j.e.n e.r.z.A.C.j.z.s.R.D.b.b.x.W.E.r.z.s.x.F.Z.s.r.V.Z.B.s.B.D.B.r.B.A.Z.V.z.Z.Y.Z.C.f.J.L._._.L.8X8XL._.yXuX^.f.f.i.y.i.s.i.g.j.z.m.k.N.N.c x d d [ +.[ h f q r q = # @ @ @ O O @ q i a i a f f f a f f f f ..f i f f ..h f t g X.X.O.jX XT.b.c.z.i.y.y.y.y.y.y.k.t.B N Y U :.>.E R R H C c c m M t.r.y.z.a.a.x.D.b.D.D.b.a.a.b.H.D.H.z.z.a.r.y.x.F.s.s.x.V.F.x.a.a.z.V.a.s.s.F.Z.s.a.s.s.s.s.V.V.B.z.Z.A.s.B.V.B.A.Y.u.n.c }.PXLXLXLXLXPXPXLXPXSXJ.M u.z.a.s.a.y.y.z.M.n.N.GXKXKXKXJXIXJXLXVXzX0Xj . X 5 5 o - * ; = r a k g g f a y y y y y a y r r y q a q y 0 u 0 0 q 0 9 q 0 q 9 = 9 0 0 i q ",
"bXzX-.k a h i u 9 9 8 9 y y u u 9 u u p y u 9 u 9 y h +.*.h f f f f f f f 0 q % q q = % % @ % % = 8 8 & 9 0 e # 8 u y p g K O.D U.A. X^.i.e.t.y.i.p.e.i.m.y.t.t.u.B.M V yXXXeXeXeXeX{.eX{.eX8X}.8X_.}.8X{.8X{.yXSXyX}.MXBXSXBXXXB.z.p.i.B.F.D.z.B.s.Z.Z.s.z.a.V.Z.c.C.Z.Z.F.F.t.e.t.e.e.n n n n n n e.n e.e.r.y.y.y.y.a.D. XF.Z.V.s.x.S.V.V.x.x.x.s.x.V.Z.C.C.m.U.U J H d d T T R $.R R R R &.'.zX5.<.>.,.5.1.,.>.>.>.Q Q Q Q >.>.%.E E E E J U ! Y n.B e.i.z.s.r.r.s.B.r.e.r.i.s.i.z.s.i.y.s.j.r.r.p.r.p.i.y.r.i.y.y.t.y.h.u.h.I o.;.%.R a + X r g j d d d F 2 2 2 2 7 7 C s C H H H C 7 C H C 7 C C C C Y J.^.~.m.m.z.Z.V.s.B.i.V.Z.s.s.B.Z.A.i.s.B.A.V.i.z.C.V.j.j.B.m.i.z.i.i.N.Y , X X       . @ @   @ @ . . . . X X ;.cX`.! ! ^.XXXX^.N.n t.r.i.V.s.d.r.a.D.x.a.s.s.D.V.a.s.b.D.F.a.s.d.b.F.x.s.z.s.F.V.a.s.V.D.V.V.V.V.i.e.i.s.p.r.y.a.y.u.A c < X > 3 3 3 v x v m m v z z b b z b l Y ^.D b b n u.y.r.y.r.a.l.y.y.l.i.g.v.a.y.V.Z.c.z.z.Z.H.l.a.s.D. Xs.s.V.Z. XF.z.s.Z.D.B.x.V.F.Z.s.V.Z.V.z.x.C.B.j.f.A f.K.L.L.).L.).).8XyXuX^.f.i.i.a.i.y.g.g.z.z.j.n.M.Y G F K j T j h r q q q e = @ e # @ . O @ q f f f f f f f f f f f f f f f i f f f a f P P O.k. X^.c.v.x.z.z.y.y.a.y.g.g.t.u.B D D ~.,.>.&.E R H G G m b n t.z.b.x.a.s.v.D.v.W.D.d.a.a.x.D.D.s.a.s.r.y.a.x.F.s.s.z.V.D.a.r.r.V.D.s.z.x.D.Z.a.r.z.z.a.s.V.Z.x.s.Z.A.s.s.V.B.A.B.B N.N |.PXLXPXPXLXLXLXLXPXBXV u.B.y.a.r.a.i.i.B.m.m {.LXLXLXIXJXLXAXUXvXq.q.f . . o o * o * * - 0 a f h f h a k p p a y q f r r r a r a 0 u u y 0 q 0 0 0 q ; = 9 = 9 0 r y ",
"bXzX7.k f j h u 8 8 9 i u y u u y u y y y u 9 u 9 y [ $.[ g y y f f y q 0 q q q q q = = = % % @ O & @ @ 8 9 q q q y p h h K P S Y Y. XY.i.e.e.r.i.u.t.s.B.i.r.r.y.B.u.b .X}._.eX}.{.eX{.8XeX}._.}._._._._.{._.8XSXyXJ._.MXBXSXCXMXMX XB.r.A.F.s.z.s.A.F.z.x.i.x.Z.z.V.Z.Z.A.E.i.t.u.e.M e.e.n n n n e.n n e.e.y.y.y.a.r.x.F.G.F.x.s.x.x.x.x.S.x.G.D.D.D.F.Z.B.M.A.U W d d k d T T R T R $.R 3.0X[.<.>.<.>.1.,.>.! >.Q >.;.Q Q &.%.E E E W J U I N.n.n.t.e.s.z.a.r.r.a.a.r.r.a.i.s.r.s.B.i.s.i.r.r.p.y.e.y.s.y.e.z.s.i.y.y.u.u.D Y o.%.%.-.j s g X.K g k d d s C 6 6 2 , 2 6 C C C C H C H Z C H C C C C Z I J.^.^.m.B.i.F.Z.V.B.s.Z.A.i.i.s.A.Z.i.s.z.Z.B.y.S.C.Z.g.i.j.i.i.z.i.h.N.G 3 X X . . . O . . .   O . . .   1 X H cX`.U }.wX_.^.n.b n u.t.s.Z.b.d.a.d.D.x.a.s.s.D.H.s.z.s.D.D.b.s.d.s.F.x.s.s.a.F.V.a.z.F. XD.B.s.a.r.r.s.s.r.r.a.s.y.u.n.c , > o # 3 3 x 3 v v v z m z z b z z l z D n.n n M t.i.y.y.a.y.a.b.y.e.y.z.l.y.a.V.V.a.s.s.V.Z.s.x.a.s.R.s.s.z.V.R.V.z.z.Z.F.x.z.V.F.Z.s.V.F.A.z.i.z.V.m.A.A f.L._.).L.L.L.L._.eXXX^.f.i.i.y.i.y.l.i.z.z.m.m.U.Y F F K k j j a u q q q = @ = @ % @ O O e y f g ] j h g h g f f f f g f f i i f a q r t t S o. X Xv.v.b.z.l.a.y.y.a.a.g.t.u.D N Y U ;.;.E R R F J Y m B T.Y. XD.b.a.x.G.D.H.D.v.a.a.x.D.D.b.a.r.s.y.a.s.V.F.s.a.x.x.Z.y.r.a.Z.D.s.V.x.Z.V.y.y.V.V.a.s.D.D.s.s.Z.Z.z.z.V.z.B.i.u.N.m ~.LXLXLXLXSXSXSXLXSX~.N u.z.r.d.r.a.s.i.B.D c mXLXLXLXJXJXJXAXvX0X'.4.5 . : o : ; * - 4 = u y h h h f h f f f i f i f f i r r q 0 0 u 0 y 0 0 0 0 9 9 9 = - 9 9 q q q ",
"zX:X$.p f +.[ u 8 & 8 9 y i u u a p f i p 9 9 9 9 a h +.[ f y y 8 9 9 9 9 8 % % q q 9 9 8 % @ @ O O & 8 q q f i i f f f g t t v D A.^.Y.u.e.e.y.i.r.u.z.B.i.t.y.i.z.f.b N.XXyX}.8XeXeX{.{.}._.eX8X}.8X}._._.).J.8XMXA z N.oXuXMXMXBXMXA.r.Z.F.s.s.s.Z.A.s.B.a.V.V.x.V.R.Z.A. Xj.e.r.u.t.p.t.e.n n n n n n e.e.r.p.a.i.r.y.D.D.F.x.s.x.x.x.x.d.H.v.H.D.F.R.A.A.M.~.U J W d k d T R R R $.T W 0.zX[.<.>.1.1.5.,.1.,.>.>.>.Q ;.E Q E E E W E I I I N.n.f.t.e.z.z.y.r.r.r.r.e.r.s.s.i.y.B.V.s.y.y.e.r.y.y.p.i.B.p.y.V.z.g.i.j.k.m.n.Y L X.%.-.*.$.8.=.X.d d d a s F C 6 7 < < 7 6 6 6 C 7 H 7 C H C 6 7 C C C G Q.~.^.M.m.z.Y.Z.V.Z.B.Z.R.B.B.z.V.A.i.s.B.V.B.i.z.Z.A.z.z.m.i.i.s.i.i.n.N , X . X . O . @   @ O O O . X . . X C hX(.}.}.}.^.n.V M y.i.r.i.D.a.a.a.a.D.V.a.s.s.F.V.a.a.a.x.D.d.a.a.b.D.s.a.a.a.F.Z.s.x.F. Xs.r.r.s.i.s.S.B.s.p.s.s.y.k.n.G , o < # # 3 3 3 x v v z m m b z m z z z b N b n n n t.i.i.s.x.V.Z.l.a.b.z.a.r.r.B.V.i.y.i.x.Z.x.D.s.V. Xj.x.s.x.F.B.x.V.V.F.V.x.V.Z.Z.z.s.V.V.x.z.A.A.A.f.f.f.J.P.L.L.~ L.L.).J.~.^.B.m.s.l.y.i.i.j.j.j.k.m.~.o.x H K k h h f a q q q e = @ 8 @ @ O @ = a ] h g ] h h h h f f f f ..f i r y i y q r t t S o.Y.Y.c.v.x.z.a.y.a.a.a.g.y.h.M N N I I E K H K K F G Y h.Y.jXoXoXv.a.a.D.W.x.v.b.H.a.l.D.D.v.r.y.a.x.a.a.s.V.R.s.a.s.V.V.r.a.a.Z.F.s.z.z.Z.S.r.a.Z.Z.a.s.Z.Z.s.s.D.D.s.s.B.i.B.u.u.M.V ~.KXLXLXLXAXAXSXKXNXv b u.s.r.s.r.s.i.p.m.B A ZXLXAXJXJXAXUXUXbXzXq.=.. X X X : o : * 9 = u a f k f f f p f k f f a q f r i q a 0 u a u y u y q 9 0 q 9 9 8 - 9 q r q ",
"kX9.g k j +.[ 4 & 9 & u p p u u p f f f y y u i u y h [ h y 9 q q q 9 q 9 q q 9 q q 8 % + + @ @ O & u p f ] g f f p p y t t t v B M.^.A.j.t.e.r.i.y.p.z.C.i.i.y.i.B.u.n V _.yX}.eX{.].eXeX_.{.8X_.eX_._.L.L.I A J.MX_.b V p.m.m.C.K.Y.B.i.V.F.s.s.B.Z.A.z.z.a.V.Z.z.Z.R.D.Y.R.A.t.e.t.u.i.i.u.n n n n n e.n e.e.y.p.r.y.a.x.D.E.V.x.x.s.z.x.Z.x.D.H.v.H.Z.Y.Z.C.N.!.G s d d T d K R R R R &.[.zX5.<.,.>.>.>.,.1.,.,.>.Q Q Q %.E %.E E E J I I N.N.m.i.t.i.s.s.r.r.r.e.r.y.s.s.y.r.r.z.V.s.i.y.r.p.y.y.r.i.B.t.y.z.z.y.u.j.C.M.n.o.o.X.%.$.*.=.8.=.K f a d d 2 2 6 6 < < < < 7 7 6 C C C 7 C C C H 7 7 C C Z ! ~.~.M.m.m.R.Z.V.V.V.A. XA.A.B.F.D.i.i.B.B.s.i.V.A.R.C.C.C.j.s.a.i.u.n.D > X X . . . . . @ @ +   @ @ #   X X > L cX(.].~.^.N.n h.i.t.t.z.x.x.a.a.a.G.V.a.x.s.D.H.y.a.a.x.D.a.a.a.x.F.x.a.s.D.E.F.x.x.Z.V.r.r.s.x.s.s.V.B.r.a.a.s.y.u.N.D 3 < ; o o > > 3 3 x v S m z m b z z z z z b b b n e.e.i.i.i.z.Z.A.x.z.z.Z.a.r.r.p.A.s.p.r.y.V.F.G.Z.F.R.B.s.z.V.F.x.s.s.Z. XD.x.x.Z.Z.a.s.V.V.V.Z.A.B.B.m.f.J.f.P.~ ~ ~ ~ ~ ~ A N ~.A.u.z.y.i.a.g.j.i.j.M.N.U.o.P P j h h g f f ..r q q e q = % @ @ @ 8 a f f g f h g j f f f a i a i f i y q q r q t t 3 D  XT.T.c.b.z.a.y.y.a.a.y.y.t.D D I U L L L R d d F Y c m jXjXR.a.a.a.d.D.W.v.a.b.x.x.x.D.Z.a.r.r.s.D.r.z.a.Z.F.z.a.y.x.V.y.s.s.G.Z.B.s.a.Z.s.y.y.Z.F.z.s.Z.Z.s.s.D.D.s.x.s.B.i.B.B.N.B Y }.CXKXLXLXSXKXKXY N B u.e.y.y.r.i.i.j.n.A }.KXSXVXFXbXUXbXbXbXcX4.k X . . X # = # q = 9 a i y h h f k k k f k f a f r f r y r q r r y 0 q q q q 9 9 q 0 = q q q r r ",
"0X9.j k $.$.*.p 8 9 8 u y y y a h h h p p y i u q y i h h f q y 0 y 0 r q q = 8 @ % % @ @ @ @ % f f h p h h f r y y y p i t t S N m.^.C.i.r.e.e.i.p.e.B.B.j.l.i.z.B.u.u.B M.}.yXyXeXeXeXeX{._._._.~.L.L.Q.J.J.J._.yX_.m.f.f.m.f.p.m.B.r.r.V.A.z.z.s.Z.F.z.z.l.Z.Z.z.V.Z.Z.Z. XY.y.e.t.y.u.p.u.e.n n n n n e.n e.r.y.y.y.r.s.x.F.V.x.x.x.x.Z.H.H.D.v.H.v.Z.C.C.m.U.~.J s d k d 5 d T R R R :XcX'.1.1.>.>.>.>.1.1.1.,.>.>.Q ;.Q E E E E U L I Y Y N.m.h.y.a.z.s.a.r.r.r.r.s.s.V.i.p.y.s.B.i.r.p.y.r.y.i.r.j.S.r.y.z.i.y.y.m.C.M.n.Y P L $.$.$.%.-.X.g d g 5 5 s s C 2 2 < > < < , 3 7 6 6 x 7 6 6 H C C 6 F J U ~.^.N.M.z.Y.Z.c.B.B.Z.F.B.B.B.F.^.B.B.A.B.i.i.B.R.Z.B.C.V.m.i.y.i.u.h.G , X X . . O . . .       @ .   . . X X 2 `.Q.Y ^._.h.n j.t.e.r.i.z.b.a.a.d.F.D.a.s.s.D.D.a.a.a.D.G.b.d.d.v. XV.x.x.V.F.Z.a.r.s.s.r.a.V.D.B.s.S.V.y.s.a.s.s.j.m.G , o o : * # 1 3 3 3 x v v v z z z z z z b b b M b M e.i.t.r.i.B.Z.z.B.B.Z.V.s.s.B.A.B.i.y.r.s.s.x.x.Z.A.V.B.s.x.F.V.x.B.D.D.s.a.i.Z.Z.V.V.F.F.V.V.V.z.j.f.f.A / J.~ / W / J Z Z z ^.A.y.j.i.y.i.j.j.j.j.M.N.:.Q L K K T h f f i r y 0 = = = % # @ O @ q i f f f i f h f f q a y r y f q y y q q r r r 3 3 T.jXR.T.c.z.b.z.a.a.a.l.y.g.h.D G I U ;.E %.R K H F F c D oX Xt.r.a.a.s.D.H.b.a.b.x.x.x.D.v.a.r.a.s.D.i.x.s.Z.F.s.y.s.V.V.a.z.s.Z.Z.s.a.a.Z.s.a.s.D.F.s.s.Z.Z.s.s.D.D.s.V.z.s.s.i.m.A.n.A ! {.xXVXAXSXDXNXA V A f.u.u.r.u.u.f.f.D J.mXKXVXVXbXUXnXvXvXcXzX3.X . X X .   # = # = = y a a k j a a d s s a a a q a q y y y f q y r 0 q q q q q q q = q = q r i i ",
"zX=.j h +.-.+.h & & 9 9 u y p f h ] h f y y u y u i f h f i y i i 0 q q q 0 = % O @ 9 % % = q f [ h h p f p r q q 9 9 9 q t t v c n.^.M.j.t.e.r.i.r.t.B.B.i.z.i.j.A.e.i.e.V ^.yXyXyX{._._._.).J.J.~ ~ J.L.J.J.! K..XyXK.f.A.S.i.f.B.B.i.i.Z.F.V.s.s.Z.F.z.s.a.V.Z.z.x.Z.Z.Z. XR.i.t.p.u.u.r.t.t.e.n n n e.e.n e.r.p.y.a.r.a.x.G.F.D.V.D.F.D.D.x.H.D.x.x.Z.A.C.m.N.~.J 6 d k R W d H R d &.zXzX,.5.<.>.;.>.,.1.,.,.,.>.Q ;.Q %.E %.Q L Q U I Y N.A.M.i.y.a.a.y.r.r.a.r.i.s.s.x.s.r.r.s.s.y.r.y.r.y.i.y.r.i.z.p.y.i.y.r.y.i.B.m.n.Y P K K $.[ [ X.P g a ; - 5 2 2 7 2 < < > < < , < < 2 7 7 C C 7 6 6 C C C G I J.~.K.C.j.A.Z.B.z.z.V.A.x.s.B. XR.Z.C.Z.Z.s.i.B.Z.Z.c.C.B.i.i.y.i.j.h.G x X X X # O O   @   @   + O . . # X X 3 L :.! |.^.u.M y.e.y.y.z.B.x.a.a.b.F.D.a.b.b.D.G.a.d.x.D.W.x.b.b.H.W.x.a.a.z.V.s.r.a.x.z.a.z.F.D.x.s.x.V.y.s.s.s.s.i.m.Y x < ; * # # > # 3 t S v v v m z z z z b z z D ^.n n t.u.u.e.t.i.V.i.B.B.A.A.V.V.S.F.V.B.V.s.x.s.s.d.a.x.x.x.s.x.F.Z.x.z.V.F.x.y.s.G.R.V.V.F.A.V.z.B.i.B.B.P.V A J.~ A Z Z x , l z K.Y.i.j.l.y.g.i.j.j.z.M.U.o.U X.j k h h f f i r q q = e @ @ @ @ O @ q a f i i a f f f f y u q 0 q r 0 q 9 % q 9 t t t 3 D XXY.T.C.c.z.g.y.l.l.a.g.t.h.D Y U :.;.&.E R d F K c v n.Y.h.e.r.a.a.b.H.b.a.a.H.v.x.x.x.b.a.y.a.B.Z.s.V.s.V.Z.s.a.s.Z.V.s.s.s.F.V.i.a.s.F.B.s.i.Z.Z.s.s.V.Z.a.l.D.F.a.B.s.B.s.B.m.N.n.Y N.~.Q.].qX].wX(.Y N.~.J.m.u.p.V p.B n.N J.CXKXVXbXbXbXvXvXcXzXzX<.. . . X X # # # = 1 0 r a s d d s s C d s 6 t a a a f a f q 0 y y q a q r q q q = q = e q q y i r ",
"nX4.h T *.*.*.p & 9 8 p y y f k h h p f i u u 8 u y i f f y y y 0 q 9 9 9 9 8 % = q q f i f f h h h f p q q q 8 = 8 9 % 9 r t 3 z h.Y.M.B.p.e.e.y.y.r.B.B.z.l.i.B.C.e.m.f.n J.XX}._.L.J.Q.Q.J.J.~ A J.).)._.L.A ).^._..XS.A.A.i.B.V.A.s.s.Z.D.s.s.B.Z.A.s.z.a.V.Z.z.B.Z.Z.Z.R. XB.y.e.i.y.u.u.y.t.e.n n n n e.e.e.e.y.a.r.r.s.V.F.D.x.x.D.Z.V.H.D.D.D.x.v.R.Y.M.~.~.U H 7 k d d d K 6 d q.cX5.,.1.<.,.>.>.>.,.,.1.,.>.>.%.>.%.Q E Q Q Q U I N.N.m.m.y.y.y.y.r.r.r.s.s.a.r.s.x.s.a.i.s.i.y.r.i.y.r.i.i.r.i.B.r.i.s.i.t.r.j.m.j.n.D P F K K [ K K g K < . 1 < X 2 6 C 7 , < < < < < < 2 C C 6 6 C C H H 6 C F I U ~.^.N.m.Y.Z.B.z.j.A.A.z.i.i.F.A.S.j.A.F.B.i.z.C.c.z.B.B.s.i.y.i.h.n.Y x > < # #   +     + # # @ + # # # 1 1 2 F :.}.}.D D t.t.g.j.c.Z.Y.x.b.a.d.W.D.d.x.a.D.E.x.l.x.D.E.a.a.d.b.G.a.a.r.a.x.d.a.s.Z.D.x.z.D.Z.s.d.V.V.p.i.s.z.z.j.n.Y 3 > o ; = # # t 1 3 3 3 S x v z z z z z z z A.XXM n e.p.u.y.p.z.B.i.j.i.B.V.s.a.s.V.V.V.D.D.D.x.d.a.a.d.s.s.s.s.F.B.V.s.V. XZ.V.V.R.F.V.V.V.V.s.s.B.B.A.m.f.A f./ A / ~ ~ x , , c ^.M.g.s.i.l.j.z.j.j.M.M.U.P P F s a a f f i i t r q = e e + @ @ O @ q f f f r q f f a y a y 0 q i a q q q q r q # # t 3 o.XXT.T.c.B.j.j.g.y.a.l.t.h.Y D G Q >.>.&.$.R K s J S c D M.t.y.y.b.b.b.x.l.a.b.W.v.b.d.s.a.a.a.a.Z.Z.z.x.s.V.V.y.y.s.F.V.a.s.s.Z.V.s.y.s.F.V.x.s.F.Z.s.a.Z.Z.s.a.D.G.z.z.z.s.i.B.C.m.B N J.|.qXwXeX].].! J.(.^.XX^.^.^.N.V V V z ).SXVXVXAXUXbXnXcXzX0XvXq.  . . X # # # 1 - # 1 s t F F x C C x , 3 2 2 5 1 u y i y y f q r q q q y q q = q = = = q q y y y ",
"nX4.k j *.-.-.h u 9 8 9 y f f k f p f y p u 9 9 9 u i f i y y u i q 8 = 8 9 0 y q f f f f f h f f p u u 9 e e = % 8 8 & q 1 t v l B M.A.B.u.e.r.y.r.p.z.B.s.z.y.B.C.t.i.j.u.f.^._.J.I I ~ ~ J.J.J.I ~ P.L._.).J.J.~.^.uXK.f.A.S.m.B.V.B.s.Z.D.s.z.B.V.A.z.V.s.v.Z.x.x.Z.Z.R.R.R.A.y.e.y.i.r.u.u.t.e.n n e.n n e.e.e.r.y.r.a.d.s.W.F.Z.V.D.D.H.D.G.D.D.b.z.B.C.m.N.U J H k 7 d d H s 5 >.cX'.>.1.<.>.2.>.>.>.,.,.1.,.>.Q Q E ;.E Q U Q U Y Y N.N.M.h.y.y.y.r.r.e.y.x.d.y.r.s.Z.s.a.i.s.y.r.i.s.r.y.i.y.p.i.B.y.y.i.y.r.r.y.m.f.h.Y P P H j X.K X.X.g 1 * X . < X.L J F 6 < < < > < < < 7 x 7 C 6 C F C C H H J I ~.~.A.m.A.C.B.j.s.A.A.z.s.i.V.V.i.s.Z.R.B.i.B.C.B.z.C.C.j.i.i.i.m.n.Y F 1 1 # ; # # # # # # # e = r 0 0 a s 6 2 Q wX~.b n e.t.j.c.C.Z.Z.B.z.b.a.E.D.b.x.d.D.W.x.a.b.D.W.b.a.a.b.D.a.a.a.x.D.Z.x.x.F.F.s.z.Z.Z.x.l.x.V.y.s.i.s.S.j.n.Y S 1 # 1 # = # t 3 3 t 3 t 3 S v v z z z b z ^.MXB b n t.y.i.i.S.B.i.i.i.B.x.a.a.a.x.a.a.a.G.D.x.d.a.b.V.V.Z.B.s.F.V.x.V.F. XH.Z.D.F.D.s.s.V.B.s.B.V.z.B.f.p.A f.A Z ~ eXvXZ , , N ^.C.h.g.g.a.g.j.j.i.m.M.N.P F t a 9 y f f i r q e q q = @ @ @ O O @ = f f 0 i f f f a y 0 9 9 f a q q 8 O % q f r 1 1 > |.jXY.T.k.M.k.k.y.g.g.g.t.D Y Y G J E E E R T j s F G v N h.j.j.a.z.x.H.x.a.a.H.W.v.r.a.b.s.a.a.a.D.V.s.s.a.x.s.r.r.a.F.B.a.a.s.Z.B.y.s.B.F.B.s.s.Z.Z.s.i.V.V.z.l.F.F.z.z.i.m.s.B.u.M b n.|.wXmXwXmXxXwX~.(._.}.}.XXXXXX}.^.N.N c {.VXVXbXbXUXnXzXvX0Xq.cXzX; . X X X X o ; 1 1 2 2 x Z c v v Z N Z v C 6 6 k u y k p y i y r q r q q q q = q = # 9 q 0 q r q ",
"zX=.d +.$.*.*.+.u 8 O & u p p f f p p y u 9 9 8 i p p f i y 9 8 q 9 @ + % q f f h ] f h h f f f i u 8 & 8 = # = % % 8 & @ r 3 3 l B N.M.m.y.e.e.r.t.r.i.z.j.i.y.B.C.y.u.i.m.V u.^.J.J.~ J.! J.L._.L.~ ~ J._._.L.J.K.^.BXXXp.p.B.B.B.Z.B.V.Z.D.x.s.s.Z.Z.z.z.s.V.Z.x.B.Z.R.A.A.Z.Z.y.e.t.t.u.t.r.u.e.t.e.n e.n n e.e.e.r.a.y.y.a.D.R.D.x.D.V.z.s.b.s.z.a.y.t.e.M m x C C d d d d d < H cXzX4.1.>.,.>.>.>.,.>.,.>.>.,.,.;.;.;.%.E E U U Q ! Y n.N.C.i.e.e.r.r.r.r.y.V.s.r.y.s.Z.s.r.y.r.y.r.s.i.r.i.s.i.r.i.B.y.p.y.y.y.t.t.u.h.n.Y P H g j $.$.X.X.g 5 X . 6 [.'.Q L C 6 7 < < < > > < < < 2 6 6 6 C H H C C G I N.~.J.M.A.C.B.j.i.Z.A.B.j.i.A.C.i.i.B.A.B.i.B.Z.V.z.C.B.z.s.y.i.m.u.Y G 1 1 1 - r q q # q 1 # t 9 r r 1 1 s 6 > C ~.Y Y h.t.g.y.i.z.j.j.y.a.a.b.D.D.s.b.b.D.G.b.d.b.D.W.b.a.a.b.F.V.x.V.x.E.D.s.s.F.D.z.a.V.F.x.b.x.V.i.s.y.d.i.z.j.Y c 3 # q # # # ; - # # 3 3 3 v v l l z z z z |.MXM n n e.y.r.i.z.V.y.y.i.V.x.s.s.s.V.s.r.r.b.D.x.r.d.x.Z.Z.V.V.D.E.F.Z.V.G.F.x.s.s.V.V.s.s.V.V.s.x.Z.B.B.m.A f./ v Z ).NXNXH > , c ^.M.t.g.z.s.j.z.j.j.M.N.o.P x s a a p h f f r y t i q e @ @ O O O @ q i r f a f f y 0 0 = 9 a f q 8 O + i f j j t g P t |.|.U.U.T.U.k.k.t.y.g.g.h.k.D S 2 s E R R d d d d C G m B h.j.g.l.s.v.R.v.d.x.D.v.d.r.a.x.x.b.a.z.F.V.a.a.y.z.a.r.a.y.D.s.a.r.s.V.d.y.s.z.D.s.i.i.V.V.s.s.V.Z.s.s.D.F.s.B.i.B.m.A.V u.^.XXNXmX{.{.qXeXyX{.}.{.{._.}.}.}.yXyXyXI Z qXxXvXbXzXbXvXvXzX0Xq.zX'.; . X     X X < 3 3 3 v v Z z V p.J._.(.J.J.Q W 6 k u y p y a i y r q q q q = q q q 9 9 8 q q q q ",
"zX$.j $.*.+.-.+.] h f f h h h f i y p 9 9 i 9 8 y i h i 0 q 9 = 8 = % % 9 q r i h ] f f f a f i u 9 & 8 % % @ # & & & & @ # 3 3 l B M.A.C.u.e.e.y.t.e.s.z.i.i.y.m.A.y.p.i.i.u.V K.K.K.).L.J.J.).)._.J./ ~ J.)._.L.K.K.uXMXA.p.m.S.B.B.x.s.V.Z.x.s.B.A.F.i.l.a.V.Z.V.z.Z.R.R.Z.A.A.j.p.e.e.r.i.u.t.t.t.p.e.e.e.e.e.e.r.r.y.y.y.a.x.D.V.y.s.s.r.r.a.a.r.a.y.y.t.B N c Z H d k k 6 1 5 q.vX0.>./.;.;.>.>.>.>.,.,.>.>.,.,.>.;.%.E E U Q U U Y Y n.M.j.t.e.r.i.y.r.r.i.V.s.r.r.z.V.s.r.r.r.r.r.i.s.r.a.i.i.e.i.B.i.y.r.y.y.r.t.i.i.n.D P P P K $.$.$.%.K 1 X 5 0XbX`.E L F 6 2 7 < < > > < < 7 7 x C C F C H C F H I J.U.^.M.Y.C.j.z.i.B.Z.B.z.i.Z.A.i.s.B.A.B.i.s.A.z.z.B.B.i.i.y.z.m.B Y G > 1 1 - r q r r t r t q r q u 1 r 1 1 1 x G Y N.k.t.g.r.y.i.g.y.y.l.s.a.W.D.b.s.a.G.W.z.b.l.x.W.H.b.x.x.E.H.D.x.V.E.F.a.s.F.F.x.s.V.D.x.d.x.V.p.i.i.B.s.j.n.Y S 3 > 1 # # r r 3 # # # 3 3 3 l v z z z z b |.XXb n n u.y.r.a.V.V.a.a.s.A.x.s.s.z.Z.B.s.i.s.F.H.y.a.s.V.Z.s.s.V.oXF.V.x.V.F.s.a.a.V.V.s.s.B.V.s.s.V.B.B.m.f.A A A L.eXNXxXJ > , m ~.j.t.s.j.s.j.j.j.j.c.U.o.U F g h f h j [ f ..y q r q q 8 @ @ O @ @ q r i q q f y 0 0 y u y a y = + q +.q.w.=.$.X.K P P P o.D U.U.U.M.n.k.k.k.g.D k.D 2 < 6 R R T d k d F 6 S v D C.C.z.z.a.V.E.v.b.H.D.d.a.a.x.D.v.s.a.S.F.s.i.y.a.S.i.r.y.y.D.s.y.i.s.B.s.y.s.s.Z.s.y.s.Z.V.a.i.V.V.s.s.A.R.i.S.j.B.A.u.f._.MXCXmXXX}.{.{.{.eXeXwX}.{.}.wX}.}.}.wXmXU I eXqX0XzXrXzXvXzXzX0.0.q.%.: . . X X X o > < 2 x v z z p.p.S.K..X.X_.Q.I 6 5 4 4 p y y i r r y r q y q q q q q q q q q q q q ",
"9.$.h =.-.*.9.w.w.w.w.w.=.+.h f i y u u p 9 u = p f f a q 9 % @ ; 9 = q q r i f a f f i 9 9 q q u 8 9 8 9 = 8 9 @ & 8 & # # # 3 l N N.A.C.y.e.r.r.r.e.i.z.s.g.y.j.A.t.t.e.i.B.V b J._.Q.L.J.J.J.L._._.J.~ L.)._._.L.J.K.MX.Xf.m.B.V.Z.x.z.G.F.D.V.D.E. Xz.z.s.v.D.V.z.x.R.R.Z.Z.Z.z.y.y.t.u.y.i.t.u.i.i.t.e.e.t.e.r.e.r.y.r.r.y.z.R.V.y.a.x.x.b.G.x.a.z.C.C.Y.Y.N.Y J H 7 T H F X K vXcX>.>.5.,.Q ;.;.,.2.,.,.:.,.>.>.>.Q ;.Q L I U U J.Y n.m.M.j.r.r.s.B.i.y.r.a.V.x.r.r.s.S.r.r.y.a.r.i.z.S.r.i.s.i.e.z.B.y.y.e.r.y.t.t.u.f.n.G G L K j $.X.L K X.X t [.cX`.U E L H C C 2 , < < < > < , 7 7 C s F H H H C F I U J.~.N.Y.m.j.z.i.B.A.i.y.p.A.A.j.i.B.A.z.y.i.B.j.y.B.B.s.i.i.B.k.B Y c > 1 r # - r r q q r t q r 0 0 a a 1 r 6 C Z Y N m u.g.j.y.g.j.j.z.l.l.a.E.D.x.x.b.D.E.x.b.d.v.G.x.x.x.H.E.D.H.b.s.E.F.s.a.D.F.z.z.D.F.x.s.x.V.s.S.s.s.B.z.h.D S 3 # r # = # e e r # # t 3 3 3 3 z v z z m _.J.z n n e.r.r.a.V.Z.a.s.s.Z.D.a.a.a.A.Z.z.V.s.E.Z.z.a.a.B.Z.a.a.x.F.D.s.a.s.F.s.r.s.D.D.s.a.V.B.s.B.B.B.S.m.A V P.8XNXNXwXwXQ , , c Y.k.t.g.l.g.j.z.j.m.C.M.Y P P F j j h ] [ ] t i i r i q = @ @ @ @ @ = f r i a a 0 9 0 a y a y = O r 7.zXw.*.+.g t a t 3 > > , v m D N.n.k.D t.D D o.P , < H &.R R R T d s s x l N.Y.C.A.Z.l.Z.E.b.b.D.D.a.b.a.D.E.D.d.b.V.R.x.a.y.y.V.s.a.s.y.Z.s.a.y.s.x.a.y.s.s.Z.s.a.s.Z.V.a.i.x.V.s.z.Z.Z.j.j.f.m.A.B A.jXBXBXmXeX{._.].}.wXwXwXwXwXeXwXwXxX}.qXxXQ.Q.vXcX:XzXvXkXzX0Xq.6.4.&.* . o : : X   > < 3 , l z V f.f.p.S.K..X_.^.J.Z < 5 4 a u p k a i i r q i q r q q r q i r f i r q q ",
"9.=.=.9.9.9.w.9.w.fXq.7.8.*.[ h f f 0 y y u q e i p f y 9 # = a r ; ; r r 0 0 q 8 q q 9 8 & 9 & 9 8 8 % 8 8 = @ % % % @ = # # > l N N.A.A.y.e.r.r.e.r.i.z.y.a.y.j.B.y.y.r.y.m.i.b V B ^.).L.J.! ~ ).8X).~ J.).J.)._.J.J.XXMXp.i.S.V.A.S.z.V.F. XR.Z.V.y.a.V.F.E.Z.z.a.Z.Z.Z.Z.Z.V.z.t.y.y.e.i.h.u.e.p.i.y.e.r.e.e.r.r.r.r.r.e.r.z.Z.Z.y.s.R.Z.D.D.V.s.x.Z.Y.v.Y.N.Y G J H d L L F cXvX5.>.4.>.6.>.>.>.:.,.,.:.,.,.>.>.>.;.Q U U I ~ N.n.n.m.h.B.y.r.r.c.Z.z.y.y.i.V.a.r.a.y.y.r.r.y.a.r.r.V.i.r.y.s.p.r.B.z.i.t.r.e.y.i.p.i.i.n.D Y J s j $.j P g P X [.VX;., , 2 J I C 6 C , < < , < < 3 7 7 C H C H H J Z H W :.:.~.~.N.m.i.t.t.C.m.i.e.i.A.B.i.u.S.C.B.m.B.Z.z.i.C.B.s.s.j.i.m.B D C > 1 ; ; r r r q r q t i r y r r t a 2 2 G 2 l z m h.t.t.t.y.y.i.i.a.a.a.D.E.s.x.a.x. XD.b.z.v.E.D.b.x.b.F.E.x.a.x.E.R.b.s.Z.E.Z.l.D.R.V.s.x.A.i.s.B.s.B.j.u.Y c 3 1 # = = = = - = # 1 r # 3 3 > x S m v v ~.n.b n n r.y.r.r.z.V.s.s.y.G.Z.a.a.x.Z.V.s.B.s.F.F.x.s.s.x.V.a.r.s.G.Z.a.y.Z.F.x.y.a.Z.Z.s.s.Z.V.i.s.B.S.S.m.f.f.8XNXyXtXtXeX,.> l Y n.i.u.l.g.l.c.c.k.M.C.N.Y U G P P d j $.j [ [ h i y i q = e O O @ @ e t r r 8 + q K -.$.*.-.=.O - zXbX$.a a a a a 1 ; > # > > , , , c Y Y N.D N Y U x > 5 &.&.R %.R T d K C x G B m M. XR.x.F.R.b.x.D.x.x.a.s.F.F.x.b.z.D.F.a.r.r.a.D.s.a.a.s.D.s.r.a.z.s.y.y.d.B.B.i.s.s.Z.s.y.r.V.V.s.s.A. Xi.u.m.B m.^.XXXXyXmX}.(.{._._.}.eXwXwXyX}.}.xXwXqXwXmXxXcXNXvXvXzXzXrXzXzX0X9.4.&.- . . . . . : < X > , , z V f.K.I.S.S.S.P.K.J.I Z 2 1 u u u u a a i q y q i 0 q f i r i y y y r q q q ",
"q.9.9.9.9.7.-.7.=.8.7.[ [ [ [ ] f q i q q q q u y a r 9 = = - # ; 1 # ; - 0 = % & & 8 8 8 8 8 8 9 & % 8 % # @ e @ % @ @ = # + 3 , N N.A.Y.t.e.y.e.e.e.i.z.i.a.y.B.B.p.i.e.y.s.i.p.e.V K.J.J.J.~ J.J.)._.J.~ L.L.J.).J.f. XuXB.u.B.A.Z.Z.B.s.V.V.s.y.s.x.E. XV.z.i.z.Z.Z.Z.Z.Z.D.V.g.e.e.e.n r.t.e.e.r.t.e.e.e.e.r.e.e.r.e.e.e.r.y.A.R.i.r.B.Z.V.Z.x.x.b.Z.D.C.A.U.Y Q L H E E H [.cXhX<.>.6.>.>.>.Q :.,.:.:.!.2.,.<.2.>.;.U Q N.Y N.N.A u.u.y.j.r.t.r.z.Z.z.a.a.s.V.i.r.a.y.a.p.r.i.i.e.y.V.y.p.y.B.i.y.m.S.i.e.r.e.y.i.t.i.m.u.Y c G s k R R R P F S vXVX,.C , , G I J Z v 7 6 7 7 , 7 7 6 C Z 6 d C H Z C Z J Q :.!.~.N.f.u.p.y.A.C.u.e.p.B.m.i.p.m.B.B.B.Z.Y.C.z.Z.V.s.i.i.i.m.B Y c 3 3 1 = a q y r r r e t a q q r r 1 r 2 x x l Y ^.k.M t.t.y.y.i.i.y.y.y.Z.W.s.x.a.v.E.x.x.x.H.E.E.x.H.x.E.F.x.z.x.F.E.z.z.H.E.V.y.Z.R.x.a.z.V.s.s.s.z.B.m.n.h.c , # # = = = = = ; = # # # # # 3 3 S S v l N.Y b n e.e.y.y.r.i.V.i.a.d.V.D.a.a.x.Z.V.s.s.s.F.D.s.s.s.x.D.a.y.s.D.F.a.r.z.F.V.s.s.Z.Z.a.s.V.V.s.x.V.B.S.m.f.f.yXBXBXNXNXeX~ , A J.m.h.y.g.l.c.g.l.c.C.A.M.A A I U L K K j [ [ ] f f f r i @ # O O O O q f ] r . ; 8.q.-.$.-.=.h 9.FXHX8.$.$.K g s 1 1 # X X X > > > , l v D Y D D G G , > 6 &.3.R R T d H 6 F G c D h.T.E.Z.z.D.E.z.x.Z.Z.x.a.l.W.F.x.x.s.x.Z.y.r.r.s.Z.s.a.y.s.Z.a.r.a.s.B.r.r.s.s.V.d.s.s.B.s.s.y.Z.x.i.i.Z. Xj.i.u.u.N.XXMXmX_.N.! ~._.{.{.eX}.}.XXxXyXyXyXwXwXxXNXxXNXNXbXvXvXqXzXzX0Xq.4.&.j : .   X : X X X > > , l z f..XoXoXS.p.d.S.f.J.I C < - a a u a u r i q r q q q i q r a q y i r i y q q ",
"*.$.*.-.-.=.*.*.-.*.[ q f [ ] g f y q q 9 9 q q i a 0 = * ; o # ; 1 r ; # ; # O & & & 8 8 & & 8 & 8 & 8 8 # # @ @ % @ + # # # > l V M.N.C.y.e.y.e.r.t.z.B.i.l.y.z.C.y.y.r.i.z.y.i.p.M J.J.L.~.~ ~ ~ J.(.L.~ ~ J.L.Q.J.J.^.MX Xi.B.V.B.S.s.s.x.s.x.D. XR.Z.x.y.a.s.Z.R.R.Z.Z.R.Z.B.z.e.e.e.e.e.e.e.e.e.e.t.p.r.e.e.e.e.r.p.e.e.r.t.B.A.B.e.i.F.V.x.x.x.z.v.Y.A.C.Y.N.:.o.L E E ,.NXcX5.>.>.4.>.>.>.>.,.,.~.:.:.1.2.,.>.>.;.Q U U I N.n.u.M e.y.z.t.y.r.z.V.s.a.y.x.V.r.r.y.r.y.r.r.s.a.r.r.B.i.r.s.S.i.p.m.i.i.e.y.p.i.i.i.i.i.m.D c G K d j X.X.;.P o.[.cXcXmXcX:.I J J Z C C C C x 7 , x 7 7 7 C 6 H J H Z H W Q ;.!.!.U.n.p.t.u.A.C.u.n u.i.m.B.i.i.B.z.j.B.B.z.j.V.s.y.y.i.i.i.B D G 3 1 1 = 0 y r y q r t q i r 0 a r 1 2 1 3 v v ^.|.t.n t.j.c.c.z.z.l.a.a.V.E.a.b.x.D.W.x.x.s.x.F.D.x.b.x.D.W.x.z.x.D.F.z.z.V.E.V.a.C.D.V.a.z.Z.s.s.S.s.z.m.h.D v > 3 $ ; = = = = = # = # # # 3 > 3 v S v , c B b n t.e.i.y.p.i.B.a.y.r.H.V.a.a.s.V.x.a.a.s.D.D.z.a.s.x.Z.s.a.a.D.E.V.a.a.Z.V.s.a.V.V.r.y.B.B.s.B.V.m.B.m.A J.yXBXNXNXuXtX/.I N.J.u.j.i.l.l.c.g.j.V.A.m.n z Z z Z v C J $.[ j f a t ..f q @ # @ O O = f h h q h <.fX$.a j a . =.JXbX%.# K K g 1 o # # X X X X X > > > , v S Y Y U U S t 6 d $.R R K d 6 d 6 F x l U. X^.E.V.z.F.R.x.x.Z.D.x.s.z.F.D.z.d.b.s.V.a.r.y.s.Z.s.a.a.s.V.a.r.r.x.V.d.a.s.V.V.s.y.a.z.y.s.s.F.Z.s.y.A.R.j.u.B Y.XXyXMXXXA , c !.}.{.{._.{.}.yXyXwXmXwXxXxXxXwXvXNXvXvXvXzXzXzX0X:X0.3.R 4 . . X   : X . > < > , z A K.oXoXI.S.d.p.p.A A Z 2 1 - u u u - 0 q r r q q q q r q q q i i r q r q q q ",
"= 0 r f [ $.*.X.*.*.h q f [ h f a 0 q 9 9 q y 0 0 a a - # X 1 1 K K K a *   + @ @ & 8 & 8 @ & & & & & & @ @ e @ @ % @ . # + X > , m U.C.C.t.r.y.y.i.p.B.B.z.s.i.B.A.t.i.r.i.z.i.u.u.u.n.n.^._.J.~ ~ J.L.L.! I J.).J._.J.K.MXuXi.s.B.V.B.B.A.F.F. XF.D.V.s.a.y.s.D.D.Z.Z.V.D.D.B.Z.z.r.r.e.e.e.e.e.t.p.t.i.z.i.r.e.e.e.e.e.e.n t.e.h.C.Y.i.t.R.V.x.x.x.x.D.Y.C.M.N.~.!.,.>.L E cXcX'.1.1.4.1.>.,.~ >.>.,.2.!.2.,.>.1.>.,.,.Q U U Y J.n.B t.u.z.C.a.z.r.g.x.l.l.y.x.V.y.r.r.y.r.r.i.x.p.r.y.z.i.e.i.B.s.i.i.y.p.e.a.y.y.s.i.i.j.m.B v U 1.%.$.$.K K 2.F P !.Q.}.xX}.,.I J G C C C 7 Z C C C C C C 7 H C H J G J J L o.:.~.~.M.h.i.m.C.B.u.p.u.B.i.m.i.i.B.i.p.y.t.i.y.z.i.r.i.y.S.u.B Y c 3 3 # ; y r 0 r t t e r r q r r 1 1 1 2 < , G ^.n.z t.t.t.g.a.i.i.i.y.y.z.R.z.a.s.x.F.x.a.a.a.D.v.s.a.a.Z.F.x.a.x.D.F.x.z.v.R.V.y.V.Z.V.i.x.Z.a.s.s.i.i.i.u.D v > < : - = = ; # # = # = # # # # > 3 t l v c Y m n i.r.i.a.r.i.V.s.a.r.V.D.a.s.s.Z.Z.s.a.s.Z.F.s.a.y.z.Z.s.a.a.x.F.F.V.x.Z.Z.V.s.V.V.y.a.B.c.s.x.V.S.S.m.p.J.yXNXNXtXNXvX}.~.J.n.B y.l.b.g.b.l.z.B.i.i.f.f.A f.f.v < C H K g y q i i r q = @ @ O @ r h [ f r 9.fX$.. o 1 . $.IXcX; . r s # X X X o X o X X X X > > > 3 x S U ! o.G s 2 d k d d k d k 5 d d C , l ^.jX^.Z.c.x.W.D.z.x.D.D.V.x.b.F.D.l.z.a.a.x.s.a.x.V.D.s.y.a.s.Z.a.r.r.x.V.s.s.S.V.G.s.r.s.S.r.a.z.F.Z.s.s.A.K.j.p.u. XuXyX}.Y , z ! _.mXeX{.}.{.}.wXwX}.wXwXeXeXqXxXeXwXqXqX0X0X0X0X0Xq.9.=.R - X : o # # X X > , , l V _.oX.XK.S.p.d.p.p.V A v 3 < - ; - - 0 r a q 0 q r q q q q r q q r y q q q q r ",
"0 - = = f X.+.j X.[ h q f [ h q y q 9 q q 9 0 u r - r ; X X s %.0.0Xq.%.1 .     @ O % & % @ @ 8 @ @ % @ @ @ @ @ @ + @ @ #     > , m ~.M.m.t.y.y.i.p.y.B.C.z.z.g.B.C.y.i.y.i.s.p.r.u.f.N.V N._.).J.L.J.J.).Q.~ ~ J.J._.^.N..XuXZ.p.s.A.Z.A.F.Z.V.B.y.r.y.s.z.s.V.F.z.s.z.Z.R.D.C.Z.B.y.e.e.e.y.e.e.u.e.e.s.z.i.y.t.e.e.e.M n V e.u.M.K. XB.e.Z.D.D.x.a.x.W.D.B.C.M.~.!.`.>.>.[.VX[.`.!.0.5.1.>.,.>.,.,.:.:.:.1.,.>.1.>.>.;.! ! Y N.N.n.u.u.j.Z.Z.y.a.r.i.c.z.s.y.z.z.r.r.y.y.r.r.s.B.y.e.y.x.s.r.i.C.j.i.i.u.r.e.i.a.a.l.j.i.i.m.n.z o.cXq.9.<.%.P F X o.ZX{.!.~.! I U I C C G C Z H Z H Z C C 7 7 C C H H J F L X.o.;.Q.~.~.m.n.m.C.j.t.e.u.m.i.p.y.i.i.y.i.i.i.y.j.x.i.r.y.r.m.h.B A G 3 3 # ; q r r i e e t q r r i r 1 ; 1 3 , l N Y b b t.t.n e.e.e.e.e.e.r.r.F.x.y.a.s.Z.s.y.a.r.b.s.r.a.a.x.D.s.a.s.D.F.x.s.z.F.V.r.z.D.V.a.s.V.y.i.d.r.y.u.u.N l > 1 * = = = = # = + # # #   # X # > 3 , G U ~.N.h.j.r.i.i.r.i.V.S.s.y.V.D.s.s.V.V.D.s.a.y.D.Z.z.a.s.x.F.a.s.a.r.x.F.D.V.F.F.Z.V.F.E.V.V.Z.V.s.V.V.B.B.m.u.J.XXBXCXDXVXBXyX~.Y f.u.p.l.a.s.x.z.S.S.s.S.oXoXuXuXuXL.I C 2 d d a q q q q q % @ O # q f [ [ 1 *.9.s   X s . s IXVX- 1 X.k # X X > o < o > X > < 1 2 6 < 3 , , 3 G L L L K K K d k d j d d d s C x l D Y.B.C.x.V.R.D.x.x.Z.D.x.x.b.D.D.a.s.s.a.z.x.x.D.F.D.a.r.y.x.V.r.a.a.x.V.s.s.s.S.x.a.y.s.s.r.a.s.F.D.z.x.A.R.u.p.m.^.XXXXJ.l l ! _.yXmX}._._.}.wX}.{.yX}.qXqXxXxXqX0X0XqX0X0X0Xq.0X0.q.3.=.R 5 ; r ;     1 3 > , l z J..X.XK.S.r.r.r.p.p.V V x > 1 # ; 9 = 9 - 0 q q q q q q q q 0 q q q q q q q q q ",
"a 0 * # r [ $.[ [ [ h f ] [ h t i q 9 q u = 9 - 0 - 1 # o 6 ;.'.0XcXvX'.X.o . . O @ @ @ @ & @ & 8 % @ % # @ % # @ + O . # # X > , c A.M.j.y.y.y.y.t.t.B.A.s.l.g.B.Z.i.j.y.s.j.r.e.n u.K.u.V J.^._.).! ! L._.Q.~ ~ Q.eX_.N._.MX^.n s.Z.A.B.s.s.r.r.s.D.Z.z.y.a.Z.Z.z.s.x.Z.Z.Z.D.Z.B.y.t.r.r.t.e.t.y.e.e.z.B.s.i.r.t.p.n n n B n.^.}.XXMX^.n i.A.G.x.b.x.W.D.c.z.U.U.~.(.>.'.vXcX`.`.`.`.6.5.,.>.>.2.,.1.,.1.2.,.,.4.<.>.! ! U ! n.K.n.u.i.z.Z.C.y.y.y.z.Z.z.a.r.a.s.e.r.s.s.y.y.s.Z.y.r.r.B.i.r.s.A.S.p.p.y.r.y.s.s.i.s.z.i.y.j.n.z o.cXzXzX[.q.9.L > '.PXCXxXY Z I U I Z C Z J J Z Z H H H Z C C 6 C C F H K P X.X.o.2.~.^.N.m.h.m.u.M t.i.z.p.e.u.s.i.i.i.z.s.i.j.B.y.y.y.y.z.m.B D G 3 3 1 ; r q r r r r r q i a r r r 3 1 3 , l z z B M.h.e.e.e.e.e.e.r.r.e.r.Z.D.a.a.z.x.s.r.a.y.d.x.y.r.d.x.D.x.a.s.V.D.x.a.z.D.v.r.z.Z.V.a.z.x.a.a.r.y.i.u.u.D l > 1 * $ * = = # # # + + + +   X X > > > x Y ^.^.M.t.e.i.i.r.i.V.B.s.a.D.D.s.s.x.Z.D.s.a.a.V.Z.x.s.s.x.F.a.s.a.r.y.x.x.V.D.V.x.V.F.F.Z.A.C.V.a.s.V.B.S.m.f.J._.BXBXNXNXCXNX^.n.u.u.y.a.a.a.b.s.V.S.p.I.uXuXuXuXuXuX8XJ.W H g a 0 q q q 0 @ @ O @ f [ g g h 7.g . o a o   zXbXj - &.j o o # o o < X X X > > < 6 6 F 6 6 6 2 3 2 F K <.<.%.%.T d j d d d H H H G l m h.y.B.x.v.E.Z.s.x.Z.D.x.z.z.D.Z.s.s.a.s.s.s.x.Z.F.V.r.r.r.x.x.y.a.r.V.Z.s.s.y.y.r.r.i.a.s.r.y.x. XR.A.A. X^.e.u.N.XX}.^.N z Y ~.yXmX}.(._._.wX}.{.{.{.xX{.qXwX].W 6 H 6.0.0.'.'.4.6.3.&.&.j a a a 1 = X 1 3 3 , z f.K. XG.S.r.r.p.r.r.p.V z l , > - 8 = = = - q - 9 q 0 q 0 q 0 q q q = 8 q q q q q ",
"r = = = a g [ [ [ [ h ] X.[ ] ] f 0 q q q = - u - ; o < s &.'.[.'.zXvX0X%.- . . . O O @ @ @ @ @ O @ @ @ # @ @ @ @ @ O . .   X > l z N.A.j.y.y.y.r.r.e.z.B.i.y.y.B.Z.i.z.z.V.C.z.r.u.i.B.u.V f.J._.^.J.J.J._._.! ~ J.8XyXJ.^.MX Xp.Z.F.Z.z.s.B.B.F.Z.R.R.Z.z.a.x.R.z.z.Z.Z.Z.Z.Z.Z.Z.i.y.y.e.t.e.y.p.e.e.j.B.i.j.u.t.e.M n B N.^.XXyXXXMXuXu.n s.v.H.b.x.v.R.v.M.C.~.!.!.`.cXcX[./.`./.5.5.5.5.,.,.,.,.:.1.:.1.,.,.>.<.>.:.Q N.Y n.N.m.i.j.s.Z.x.r.y.y.c.v.y.y.r.y.y.e.r.s.s.y.y.B.Z.r.r.r.z.s.e.j.A.B.e.p.e.y.i.l.s.a.i.B.j.y.m.M.z Y cXcX[.[.zX[.[.<.1.].!.Q.Y Q.~.! Z Z C H C Z J W J J J H G C H 6 F F P P X.O.X.P O.Y N.n.u.u.i.t.e.u.i.i.e.e.r.S.j.i.i.B.i.r.z.B.y.y.i.r.j.i.B Y c 3 1 1 ; q r q r r r e t r y r 0 # # 1 > l v z B U.C.t.e.e.e.e.n e.r.r.e.r.a.V.s.s.z.D.H.a.s.a.x.D.b.a.s.V.D.x.r.d.v.Z.s.a.s.D.V.r.s.Z.V.a.a.V.y.i.y.y.i.j.h.D l > 1 # $ = = * # # # @ + + O O . X X # > > c U.^.Y.u.t.y.i.e.y.V.B.s.a.H.F.s.a.s.Z.Z.s.a.a.Z.D.x.z.x.x.F.a.z.a.a.r.r.a.V.Z.s.r.i.Z.D.s.B.z.z.y.s.B.S.m.m.n.N._._.).Q.Q.{.yX^.n.u.y.r.s.a.a.a.d.S.S.S.I.oXI.pXpXuXuXBXyX6.F d f a q q q e = @ @ @ y j ] t j =.;   s o . %.bX&.o &.H   1 X X < > X < 3 2 2 2 C H 6 F H K J >.L H H L >.<.%.&.-.R R k k s s F H G v m u.k.B.z.V.R.x.z.x.Z.D.b.s.z.D.x.s.b.b.s.s.b.s.z.V.a.a.y.r.x.V.r.s.a.D.Z.d.r.r.r.r.r.a.s.z.s.V.Z. XE.R.Z.A.K.e.u.^..X^.Y l A _.}.yXyXQ.J.(.}.yX_.(.(.].{.].].`.>.< . X d W 3.6.3.W R R &.$.k 1 s a r 1 1 1 3 3 v A A.K.K.S.r.r.r.r.r.p.n V z l > 1 # # = = = = # = = 8 q = 8 = 8 9 q 9 # = = 8 = = 8 ",
"g a r a a f j j X.j ] [ [ [ g [ f y q q = = = r X 1 < 2 X.'.0X'.0.hX0X5.d : . $ O   + & @ 8 @ & @ & = @ @ @ e # @   @ . # X X > l z U.M.j.t.i.y.i.t.t.m.z.y.y.r.j.A.j.B.B.Z.R.V.i.B.m.B.V e.B u.J.Q.^.J.J.^._.J.A J.(.}._._.BX.Xt.V.F.B.B.V.F.R.D.z.z.x.b.s.a.z.R.V.z.x.Z.Z.D.Z.D.Z.z.i.y.e.y.e.i.i.e.e.z.z.i.z.y.t.e.V V n.K.yX}.}._.yXMXA.n p.V.D.x.b.v.W.Z.c.k.^.|.:.cXvX`.!./.`.`.5.1.>.>.,.,.,.,.,.!.!.1.2.1.<.,.,.! Y U Y n.A.i.i.i.i.v.x.y.l.y.z.z.r.r.y.s.a.r.r.V.s.y.r.z.Z.y.p.y.B.B.r.i.Z.j.t.e.e.y.i.z.z.y.z.z.i.u.n.M.z Y ].hXq.'.zXzXzX`.2.J G c N.~.(.! I Z Z Z C C H Z W J J J H C H H F P X.X.X.X.[ P P P Y D B B h.M M u.j.m.e.e.i.B.z.y.i.z.i.y.V.B.y.d.y.p.s.m.B D G 3 3 r - r 0 q r r q r e q r 0 1 1 > > > l v m ^.Y.M t.e.t.r.t.r.i.B.s.i.r.e.a.y.i.a.D.F.s.x.a.Z.E.H.s.s.Z.D.x.a.a.x.Z.s.a.s.R.V.r.a.V.x.r.s.x.r.y.d.a.j.j.n.D l > > * * = * * = # @ + + +   . . # X # > > , v ~.^.j.y.y.i.r.i.V.s.s.r.V.Z.s.a.s.V.D.s.s.s.D.Z.x.x.z.x.D.b.a.s.d.a.r.r.Z.F.z.r.a.Z.V.y.s.y.s.y.z.V.B.B.m.f.N.^.I v , , N U.m.u.u.r.r.a.a.b.d.p.d.S.S.I.I.pXI.I.uXuXuXuX).W H g k f f y q = e @ = y h g a X.X.# 1 1 . ; zXVXs a $.H X X < < < 3 2 F J H J J I E E W H W W L L ;.;.K ;.<.%.&.&.=.&.R k a a 2 F G N N h.j.z.a.x.R.x.x.x.v.Z.s.a.s.D.Z.l.s.s.s.s.s.a.a.a.y.r.a.a.V.x.r.s.y.D.V.a.r.r.a.a.r.a.V.F.D.F.D.E.D.z.i.B.^.i.B._.^.J.z N J.}.}.}.!.A (.}.mX{.Q.Q.(.(.].0X]./.,.>.W d 7 H W E W T R R &.$.a ; a r 1 r r > 3 x Z f.K.K.S.d.e.r.r.e.e.e.n V v l , # # + % = * * = = = # = = = 8 # # 9 = e % = # 8 # # ",
"f f h g j h g j [ [ h f h [ [ [ ] y 9 9 u ; ; 1 o # o H '.[.`.'.qXzX0.W X .   # + + + + @ & & @ @ & @ & # @ @ @ @ +     X X X X , m U.M.t.g.t.i.y.y.t.C.C.t.y.y.z.B.y.i.y.z.Z.z.z.B.A.A.j.m.f.n A ~.XXXX~.K.(._.J.J.J.}.XXyXMX^.m.B.Z.Z.B.B.V.B.x.z.s.z.x.s.s.z.D.R.z.z.D.Z.Z.Z.Z.Z.c.y.y.r.e.e.g.t.e.y.z.i.i.z.i.e.u.b B ^._.XX}.eX}.}.MX.Xn e.g.D.V.a.v.E.Z.C.h.~.~.(.qX0X0.8./.`./.1.1.,.,.,.1.1.,.,.1.:.1.1.1.1.>.,.! Y Y n.M.A.j.i.y.y.Z.c.y.y.s.j.y.y.y.y.x.y.r.i.v.z.y.r.z.Z.y.e.s.C.s.y.m.A.j.e.e.t.z.j.z.z.z.i.j.j.u.u.U.v G hX[.0.8.'.[.[.[.`.L ~.}.|.(.~.I I Z Z C F C H H L E J L J W H H H P X...[ ....e t S S D D h.h.u.M h.m.i.p.i.V.B.r.y.B.s.y.y.c.V.s.y.r.y.p.h.n.D G 2 2 1 ; a 0 r a t e # q r r r r > # > x ~.~.^.Y.h.n e.y.y.y.g.i.j.B.B.s.r.r.a.r.r.s.D.R.H.x.x.D.F.D.x.s.D.F.V.a.s.Z.D.a.y.s.F.V.r.a.V.z.y.s.x.a.a.a.z.i.C.h.D l > X   * # # #   # + + + + O :       X > , 3 l U.Y.g.g.i.y.y.e.B.s.a.r.V.D.y.s.a.x.F.a.s.r.x.E.x.x.z.a.D.a.r.s.s.V.r.r.x.F.s.a.x.D.V.z.z.z.y.a.s.B.B.B.m.m.J.f.v v A c m n.u.e.e.r.a.a.d.a.x.i.S.e.S.I.I.I.I.pXI.iXuXyX~ 6 K [ g f f f q q @ # = a g f a g K 1 # 1 . 1 zXbXj g R 5 o X 3 < 2 H ;.5.(.`.(././././.5.6.Q W E J Q Q H %.%.%.%.$.=.4.%.R d 1 s t S A D h.B.z.l.D.Z.V.x.x.Z.v.a.a.z.D.x.x.a.x.V.x.s.z.a.r.r.y.a.a.V.v.z.x.x.Z.s.a.s.s.G.s.s.x.F.F.V.x.x.V.Z.z.m.B.A.m.m.^.J.N z J.|.}.yXJ.A |.yXXX_.! ! (.(.].'.'.'.`.'.0X0X'.6.6.6.5.3.W R $.&.R a - 1 a a a r 1 3 v N K.K.S.S.p.r.r.r.e.e.e.n V z , > < # # # # + + $ $ $ O @ # 8 @ @ # % % + + @ @ @ O O ",
"h s h j j j ] g f g f f h [ [ ] ] a 9 9 9 * - ; X o 1 ;.[.'.>.5.cX'.<.d . . X     $ @ O @ @ @ & & O @ & @ @ @ #   + + . . . X > l z ~.A.u.j.y.y.t.i.p.C.C.y.a.y.B.C.t.y.t.z.B.r.y.i.z.A.j.m.C.f.f.N._..X^.J.^._._.J.N.J.XXXXK.f.z.B.Z.Z.V.V.v.Z.V.c.x.Z.x.x.s.s.Z.Z.z.z.Z.Z.V.Z.Z.F.B.y.y.t.t.y.y.r.e.y.i.z.z.i.j.u.m.m.^.}._.}.{.}.yXXXmXyXN.n i.V.Z.Z.b.z.v.c.M.U.~.].cX0X/.`.`.!.`.1.5.,.1.,.,.1.,.1.1.,.1.,.2.1.>.~ ! ! N.m.j.C.i.z.i.l.D.x.y.a.z.g.a.r.r.a.z.y.r.z.V.z.i.y.B.Z.i.y.i.Z.s.t.s.B.i.t.r.u.j.s.s.z.j.i.m.m.n.n.U.D U cX'.1.<.0.q.`.0.<.G :.(.~.J.Y Y G Z G Z F s F H L L K X.K K H K g P ....g ..t t t P S Y Y M.k.u.M j.z.j.i.s.C.x.r.y.s.z.i.i.B.B.y.r.a.y.i.i.u.D c x 2 r r a q q r # r q # r i r # # > > S |.^.U.h.n t.t.t.i.y.i.i.s.B.V.s.a.s.F.B.a.y.x.D.V.x.x.A.D.Z.x.s.x.F.V.s.s.Z.Z.s.s.s.F.V.e.s.V.V.r.l.x.a.s.s.S.z.B.h.D v > X # = = + # # + # #   : O O O     X X , > v |.^.h.j.g.y.r.r.B.s.a.r.x.D.a.s.a.z.E.a.a.s.Z.F.s.a.s.a.D.x.x.D.D.E.x.r.y.Z.Z.s.s.Z.V.s.x.z.a.y.s.x.B.B.m.m.N.n.N N N N Y n.h.t.e.r.a.a.a.a.d.d.d.p.I.I.I.pXI.I.pXuXuX8XJ F K j h h f f q 0 @ @ q f h g a a j a < < . s cX[.s d H 2 < > < F J Q /.`.(.].].{.}.qXeXqXqXqXqX].0XqX5.F F H H R &.>.<.=.&.$.s d F G Y D h.m.s.a.D.Z.x.z.z.H.x.s.a.z.D.z.x.s.x.F.F.x.V.x.V.z.s.z.s.F.F.V.x.s.V.s.y.s.x.A.x.s.x.D.D.z.a.z.Z.F.c.i.B.K.S.h.n.V z Y _.yXyX(.v ~.}._.}.~.I (.{.].(./.`.'.7X0X0XrXzXzX0X0X0X:X4.4.3.&.T k - r a r r r 1 3 x Y J.^.S.p.d.p.r.r.e.e.e.n V z l , X # + @   + + O : O O @ @ @ # + @ @ @ % + + + @ O   ",
"h g k j j h h j g f f f ] [ [ [ [ f q 9 = - - ; o ; H 5.[.2.L >.0X5.K 1 X . . . +   O O @ @ O & O & & @ @ # # @ + . @ . X X X > l m U.M.y.g.y.t.y.u.u.C.C.y.y.g.c.C.r.y.y.z.z.e.e.e.e.B.i.p.u.i.f.n.N.K.N.f.J.^.yXXX^.K.XX.Xf.n B.v.A.Z.C.c.v.D.V.z.z.V.V.z.a.s.Z.Z.s.z.D.Z.x.Z.F.Z.x.y.r.r.y.y.i.e.e.y.y.l.a.g.i.h.m.U._.XXXX}.eX}.}.yXyXMX.XV p.j.z.V.v.z.C.z.M.N.~.}.qX'.`.`.`.`.1.1.1.,.1.,.1.,.1.,.1.,.,.1.<.,.,.:.N.Y n.m.M.C.i.s.a.z.Z.l.y.y.l.z.l.r.y.b.z.s.y.l.V.z.i.y.V.Z.i.y.z.Z.z.t.j.z.y.t.y.y.z.j.j.z.j.j.m.n.n.N.Y U ;.[.'.<.%.1.0.1.;.;.F U ~.U.N.U Y I G G F F F F F K K K X.K P [ g t t ....e e ..e ..P O.o.U.U.n.h.M j.C.j.j.s.V.s.e.y.B.B.i.a.c.z.a.a.a.i.i.u.B Y G x 1 1 a r r r r r # q # q r r # # > > x N z n n t.g.y.t.i.a.y.r.y.B.D.V.F.F.oXD.x.r.s.s.a.r.a.x.V.x.s.z.V.F.D.s.s.V.Z.s.a.s.F.V.r.s.V.z.r.s.x.a.S.s.z.i.j.u.D z > > X = # % #   # + # @ @ O O     X # > , 3 Y.jXY.g.j.V.z.s.r.V.B.r.r.V.F.s.a.a.Z.E.V.s.s.V.D.x.x.Z.V. XG.Z.Z.x.F.x.r.y.s.R.V.a.V.x.y.B.s.s.y.y.B.V.B.m.m.N.B b B A n.N.h.i.y.y.a.a.a.a.a.d.s.r.S.I.pXI.I.I.I.I.uXuXL.6 K j h h f f f q q @ @ q a a a a 1 s s s a < K [.<.s 6 7 < < < 2 J ;.!.].{.qXeXeXmXyXxXwXyXNXNXNXvXCXSXNX(.Q F 6 6 d E &.=.<.-.$.H P J Y Y m.j.z.a.Z.V.x.b.x.D.z.l.a.z.D.x.x.s.x.R.F.V.V.V.D.x.x.s.s.F.F.x.s.s.V.s.a.s.x.F.x.z.V.D.Z.a.y.z.F.R.V.B.C.^.m.u.B z z ^.eXXX_.v A {._.(.wXU ~ 8X].`././.'.0XrXzX0XcXvXzXzX0X0X:X0.3.&.&.R a - 1 a a 1 2 1 < , G N.K.S.S.S.p.r.r.f.i.p.p.b z v , X X   O     .     O O @ + @ @ O @ @ O   O @ O O O O ",
"f f a g g f h g g f f f ] [ X.+.X.f q = 9 - * ; o 5 K 0.0.E K ;.<.H < > X . X   + + @ O @ O O O O O @ @ @ + @ + +   . . . X X > , m ~.M.h.j.y.i.y.i.y.Z.C.y.g.y.c.B.t.z.g.B.v.y.i.r.r.B.y.e.u.u.C.h.f.m.N.A.K.^.XXMXXX^.jXXXA.u.z.C.A.Z.B.z.V.Y.V.z.z.V.Z.z.a.a.Z.Z.z.z.Z.V.v.V.Z.D.V.y.e.r.t.r.y.e.e.y.i.a.l.y.z.i.u.K..XXX}._.}.wXyXwXXXmXMXn.n t.z.z.v.V.b.Z.M.D ~.cX[.`.'.'././.0.5.1.1.,.,.,.,.1.1.1.,.1.1.1.,.,.:.U N.N.M.B.Z.j.z.a.l.Z.l.y.y.z.z.a.r.a.z.z.s.r.s.V.z.a.r.B.Z.z.y.z.R.z.e.i.i.e.i.z.i.j.z.j.B.h.h.n.n.Y U U.:.2.'.q.<.&.1.5.>.;.E F U ~.N.~.J.Y I I G F F g s g g g g j X.] g g r t t e e ( e ( t P X.O.U.U.h.h.M.A.C.i.i.i.B.i.r.i.V.V.y.i.B.z.i.a.s.B.B.i.n.D c x t r 1 r r r r q # # = = q r 3 > > X , l m.U.j.k.y.t.r.i.s.y.r.a.z.x.V.x.s.v.a.r.r.r.r.r.e.r.r.a.r.a.d.D.F.V.s.a.x.V.s.r.z.F.Z.a.V.Z.V.s.z.V.s.x.s.V.s.z.n.D c , X # = # + @ #   #   @ + +     #   # > > O.jX|.k.t.c.c.V.z.r.A.V.a.a.V.F.z.s.s.V. Xx.s.s.V.E.F.F.F.D. XD.x.s.a.D.x.a.r.y.G.Z.s.Z.V.s.s.z.V.s.r.B.B.B.B.m.m.A b n.N.N.n.u.t.y.y.a.l.l.a.s.a.S.p.S.oXuXpXpXI.pXuXuXuX~ 6 K j [ f f f 0 0 = @ @ # q a 1 r r 1 s d K g K <.%.s d 2 < < < J J Q (.{.qXwXmXmXmXmXmXmXxXwXNXxXNXBXKXKXVXqXE J 6 < 6 K &.&.<.=.K L G G D M.m.i.a.Z.x.x.s.x.Z.x.s.x.x.D.x.z.l.x.F.x.a.z.x.F.V.z.x.a.D.x.r.r.a.Z.x.s.s.V.F.x.s.x.R.D.s.y.b.F.R.x.B.A.Z.m.f.A z f.XXwX_.! l }.}._._.}.J.Q.{././.0X0X0XzXzXzXzXvXzXvXzXzX:Xq.:X4.$.=.R k 1 - 1 a a 1 # > , c A J.N.p.S.d.p.S.S.S.S.f.V z v 2 < .   .   . . O O . O O O O + O O O O O O O O O O O ",
"a a a a a f g j f f f f f h [ X.+.[ f q 0 = * ;   a %.0.4.L H %.K 2 o o X .   * + + + @ O & O O O & & + + @ # @ @ . . . X X # > , m Y.M.u.u.i.l.j.j.t.C.A.y.y.y.z.B.t.y.y.z.C.i.i.i.y.B.y.p.y.u.B.m.i.i.m.M.Y.K..XXX^.^.oXXXY.z.C.B.Z.Y.V.c.Z.R.Z.z.l.V.D.V.s.s.Z.A.z.x.Z.V.x.V.Z.Z.Z.z.y.e.r.t.t.t.r.y.a.l.y.l.j.j.u.M.XXXX}.}.}.yXwXyXwXyXMXXXu.n m.z.z.z.z.Y.U.D ~.}.[.0.'.`.`.!.5.1.5.,.1.!.1.1.Q.1.1.,.1.,.,.>.:.! N.N.M.B.B.B.c.z.l.V.R.R.B.z.v.Z.C.z.l.x.Z.c.y.s.Z.B.g.r.z.Z.z.i.z.A.z.r.z.i.r.g.c.j.g.g.j.j.u.B N.Y Y ! :.,.5.5.0.<.>.<.,.%.;.L F :.~.~.~.N.Y I J J H F g g t g g ..t t r i t e e t e ( ( e ( t ..O.O.o.N.k.h.M.Y.A.t.y.i.x.a.r.s.Z.V.r.z.c.z.s.s.B.z.B.m.n.Y G x t a * q # # r # # @ q r r r # > > > , N.MXXXj.t.e.t.y.a.z.s.s.x.d.a.r.r.e.r.e.r.r.y.a.a.y.r.a.r.r.r.r.s.x.s.s.a.z.V.a.s.s.Z.z.y.B.D.Z.z.V.Z.s.B.x.Z.V.m.h.D D 3 > # # $ + +   # # + #   @       # X > > S U.D m t.t.r.i.a.y.Z.Z.a.r.s.Z.z.a.s.s.F.s.a.x.D. XF.V.x.s.Z.x.a.a.a.F.Z.a.y.r.V.V.V.Z.V.z.s.z.V.z.y.x.B.m.A.B.K.N.n.n.m.u.M t.t.y.i.a.l.a.l.s.r.S.S.S.uXuXpXpXI.pXuXyXL.J g $.[ ] f i f 0 = = @ @ @ ; r a a s k s K H K H K 6 6 7 < > > 7 J Q ! ].eXeXmXwXmXyXmXNXyXyXxXNXyXNXNXBXCXSXxX1.>.~ H < 6 H =.<.&.>.X.F c n.M.M.g.l.Z.x.z.b.V.D.b.b.z.x.F.x.s.s.x.F.x.y.s.x.F.x.s.s.s.Z.s.r.r.s.E.V.s.s.v.F.x.s.s.R.D.l.y.x.R.R.l.i.B.j.p.M b V J.XX_.~.v ~.yXwXJ.N.(.Q.(.(.].qXqX0X0XzXzXzXvXnXvXvXzXzX0Xq.0.9.3.-.R j a 4 1 5 1 1   X > , N n.A.f.S.p.S.p.p.S.S.S.V b v x < X .   .   . . O O   . . O . O O O . . O . O . O . ",
"a 1 0 a a a f f f f h ..f f ] +.*.{ f 0 0 = * o . 5 %.<.>.R K P F 1 # o X . + = $ + & O O O O O : O @ + . @ +   @ . . X X # 3 3 , m ~.M.t.g.j.g.j.i.j.A.C.t.y.y.z.C.y.g.r.y.B.z.r.y.y.B.t.y.y.e.B.j.j.u.i.B.A.m.n.A.f.m.^.C.V.C.B.c.Z.Z.Z.c.V.Y.F.z.z.Z.Z.V.z.a.D.F.z.x.Z.Z.V.V.D.Z.Z.Z.y.r.r.t.t.t.t.r.y.y.l.y.i.j.u.N.|.XX}.}.eXwX}.yXyXyXMXBX.Xz t.C.g.c.Z.C.M.n.|.cX].`.[.0.`.0.5.5.4.1.,.1.1.,.,.1.1.1.1.,.,.,.! J.Y B u.t.i.i.z.i.a.z.Z.Z.z.c.V.Y.Z.v.x.D.D.C.l.z.Z.Z.l.a.z.Z.z.z.x.A.z.y.z.g.t.y.j.y.t.t.t.u.b B N.U ! ,.1.,.4.4.0.<.%.;.%.J H H F :.N.~.~.J.Y Y G G F t t t r q q q e e e e e e e e e w e ) e ....t O.U.U.k.n.M.Y.A.j.y.s.z.y.r.s.D.B.r.z.V.z.s.s.s.s.B.m.n.N.N 2 t 2 -   X . + r t t X.[ t t # # , , x XXjXc.n t.r.y.l.z.x.a.y.x.x.a.a.a.s.D.z.a.s.V.V.x.s.s.V.x.r.r.r.r.r.r.a.s.S.V.s.s.B.F.V.s.s.z.S.r.s.V.B.V.V.z.i.i.u.B Y x > # # = # + #   # @ # + #   #   X # > 3 v S m t.g.e.l.r.y.i.Z.A.s.y.s.V.z.s.s.x.F.Z.Z.V.Z.W.Z.y.y.a.D.x.a.s.x.E.D.s.s.y.y.s.V.D.V.s.i.x.Z.x.z.z.B.B.B.m.K.A.m.p.n n u.t.y.y.a.l.a.l.a.s.p.p.p.P.I.uXI.I.I.uXuX_.J s %.+.[ ] f f y u 9 e = # @ @ ; s K $.K L K s s %.>.E L H s 7 3 2 Z Q ! (.eXeXwXyXyXwXyXwXmXxXyXNXNXuXNXNXNXmXxX).Q 5.>.J 7 < d %.=.<.>.P S N.U.m.g.a.V.x.z.s.V.D.s.s.x.x.F.b.z.s.x.D.z.a.a.x.R.x.s.x.a.D.x.r.a.x.E.x.a.s.H.G.V.b.z.Z.D.b.s.x.R.R.l.y.B.B.e.b b n.^.}.Q.V Z yXwX~.Z , I Q.Q.].vXNXvXvXvXvXvXUXUXvXvXvXzXzXq.9.4.4.-.R $.R j 5 4 ; 1 ; X X > > l A m.f.p.p.p.p.p.f.S.K.f.V v 2 < X .   O     O     O . O O . O . . O O . O O O . O ",
"r 0 r a a a a f f f f f f f [ X.+.X.[ a = * * o . < R <.<.%.L K d 1 # X . .   + O O O O O O O O O & O +   @   . . . # # 3 t t x l N U.n.M j.y.g.y.i.i.C.A.y.y.t.V.C.i.g.t.z.C.z.i.g.j.Z.i.p.i.t.B.B.z.i.i.C.C.m.i.j.m.C.i.u.z.A.c.z.c.Z.Z.B.B.Z.R.B.z.V.D.V.s.i.Z.Y.x.B.Z.V.V.Z.Z.v.Z.Z.a.e.r.y.t.t.y.y.y.a.l.y.i.j.u.B ^.XX_.}._.XXXXwXyXwXXXBXBXN.n i.z.B.R.C.k.N.[.cX'.0.0X`.`.5.1.<.1.5.,.,.!.,.1.1.1.1.1.1.1.,.Q U n.B e.e.e.e.r.e.r.y.y.t.e.r.y.y.a.y.a.b.v.z.y.g.c.x.g.i.z.Z.j.y.z.C.g.y.i.i.r.y.g.t.r.t.t.t.m B ! U ! ,.>.&.4.&.4.%.;.E L s F 6 C U U ^.^.~.Y Y G P s 3 # # @ e e # @ e e e e e e e ( w ( ( e e t ..O.o.U.n.M.k.C.C.i.y.x.B.i.r.x.Z.V.y.B.Z.x.s.s.s.s.z.j.n.Y Y F 3 s g t X.P r ..X.-.-.-.g r > 3 3 3 D XXT.n t.z.l.y.a.v.x.r.r.x.x.x.d.x.V. XG.z.s.x.Z.z.s.s.V.V.x.s.a.y.a.r.a.s.V.D.s.s.B.D.V.s.y.e.r.e.s.V.B.V.a.y.e.t.t.N Y x > X # # # # # # # # + #       # X > # 3 v D D k.g.y.c.y.i.y.z.s.s.a.S.D.V.s.a.l.D.H.Z.z.s.D.x.a.d.x.F.D.s.a.s.F.V.a.s.y.s.y.s.Z.x.y.a.v.B.z.z.x.B.B.B.m.A.f.u.M M n y.i.i.g.l.l.l.l.l.s.s.p.S.I.I.pXuXpXuXuX8XI Z X.-.+.[ ] i i f a 0 r q # @ # - K =.%.%.R s 1 5 %.`.0.0.5.>.E J J J Q Q.(.{.qXwXyXwXyXyXNXyXNXyXyXNXBXNXBXNXyXvX7XQ >.,.1.E 1 o g %.<.<.U Y U.U.j.g.a.V.b.a.z.D.F.x.a.x.v.W.x.s.s.x.F.z.s.a.x.F.z.s.s.s.Z.x.r.a.z.E.x.a.a.V.E.D.z.b.D.D.x.z.v.F.R.a.y.z.B.t.n V N.^.|.A z _.wX{.Z l , Z I Q.xXDXAXvXbXvXvXUXbXvXbXnXzXrXzX:X:Xq.4.3.T R R T d 1 1 1 < . . > > l z V p.f.f.f.f.p.S.P.K.K.V v , > X . .         O O O O O O O O O . . . O . . O . O ",
"u 0 - u r q q y f a r f f f g { [ [ ] f 0 * : o . ; K <.<.&.X.K d 1 X X . .   . O O O O O & O @ & O & + @ . . @ .     # r t P P v N U.k.t.g.u.y.j.j.i.C.C.g.g.y.c.B.y.g.y.g.C.z.i.i.y.A.z.y.t.r.z.z.z.s.i.B.A.C.A.B.^.B.t.B.C.j.m.j.m.C.A.c.c.A.Y.V.s.V.Z.V.s.a.F.Z.z.x.Z.Z.v.Z.V.z.Z.D.i.e.r.r.y.y.y.t.y.y.y.a.i.g.j.u.^.yX}.yX}.}.eXwX}.yX}.yXBXMXu.n h.g.v.A.h.N.}.xX'.0.'.5.`.5.1.5.6.,.1.,.1.1.Q.1.,.1.,.1.>.! o.N.N.m.j.g.z.i.l.l.l.l.y.y.y.y.y.t.r.r.r.r.r.r.r.r.r.y.e.r.r.g.r.e.r.g.r.y.y.l.y.g.z.i.y.t.u.u.m A J.Q.:.,.,.&.&.&.&.R ;.;.L 6 6 2 x Q.N.~.~.Y G D G G t 3 # # @ @ @ e e e e e e e e e e w ( ( ..e ....S U.U.k.M.M.C.C.y.y.B.V.s.r.B.Z.V.a.z.V.z.s.s.z.s.i.h.B N.Y G 3 2 $.q.bXzX8.X.8.2.7.8.X.t 1 3 3 l S U.b M.C.t.l.l.y.x.x.a.a.Z.H.s.d.x.V. XZ.s.s.G.F.V.d.s.x.V.V.s.x.F.D.s.r.s.V.Z.s.x.s.s.i.r.r.r.s.V.Z.V.a.y.e.r.r.t.t.B Y x > 1 # +       #   # #   # # X # # 3 3 S S U.D M g.l.r.a.s.r.r.r.y.z.D.F.Z.a.r.r.z.s.a.r.r.x.s.y.s.x.D.F.s.a.s.R.V.a.s.a.V.a.y.Z.V.r.s.V.l.a.z.B.V.B.B.C.M.u.V m.A.f.n y.y.g.y.y.l.l.z.g.i.p.S.S.I.uXpXuXuXuX~ x H =.*.*.] ] ] h f y y q q # @ . - X.9.&.K d 1 > 2 ;.'.5.,.:.Q W J ~ Q Q.).]._.{.yXwXyXeXwXyXyXwXyXNXuXNXyXNXNXNXyXqX,./.,.5./.E o 1 K %.2.2.Y U.Y.j.u.a.V.s.a.a.Z.D.z.s.b.Z.F.x.l.s.V.F.s.s.a.s.F.x.s.x.s.D.x.r.a.x. Xx.s.s.V.E.V.x.z.D.R.x.s.b.D.Z.a.r.z.B.p.M f.^.^.J.l N.}.(.N.l l J.! Z /.VXAXvXbXUXvXbXvXbXbXvXUXvXkX:Xq.q.9.4.&.&.+.R j a 5 a a ; X . X > > l l V u.S.f.S.S.S.S.I.P.A v , > X X   O   .   O O O O . . O O . O O O O O O O O O ",
"= - 4 9 - u u u y y y y a f f h [ h f 0 = * #     o a %.&.$.H s 1 ;   . .       O   O . O O O & + + @ . . . . . . # # 1 s t P F v m U.k.t.M g.g.g.j.u.Y.C.t.i.t.B.B.u.i.e.u.A.j.i.t.m.C.i.u.u.e.B.c.i.y.y.z.C.z.j.m.B.C.i.u.j.A.A.C.m.M.C.m.m.M.A.m.i.z.C.B.B.s.A.V.s.x.D.x.x.D.Z.Z.v.z.r.r.y.r.r.t.r.y.t.g.y.y.g.k.u.t.n.}.mX_._.8XwXyXyX}.{.}.mXSXXXn t.u.t.C.N.~.mXhX'.`.'.`.5.5.,.,.1.,.1.1.1.1.,.1.4.,.1.1.:.:.N.N.M.M.z.z.c.c.V.V.Z.Z.v.V.Z.C.v.Z.c.g.y.r.y.y.i.y.s.s.l.y.z.s.g.z.z.z.z.z.v.C.C.C.c.z.l.j.i.h.B B ~.~.:.1.>.1.E E &.E %.>.>.L L U :.:.Y |.N.Y D N G G x 3 # # @ e @ e e e e ( e e w w ( e ) e ( e t ..O.o.U.T.k.k.A.V.r.s.B.Z.s.i.z.Z.B.a.z.V.z.s.x.a.s.i.i.u.n.U x > 2 X.[.nXvX8.X.2.=.8.-.g t 2 , , v D T.k.i.j.l.y.a.l.v.v.s.a.V.G.x.a.a.z.F.s.a.s.H.E.D.z.x.Z.F.x.x.x.F.F.V.S.z.V.S.x.y.r.r.r.r.s.G.F.F.A.r.r.r.r.r.p.y.j.m Y S > X #       #   @ # # # # # # 3 # 3 3 S D M.M.h.T.g.y.r.e.a.a.r.r.r.V.E.x.r.r.r.r.r.r.r.a.x.d.r.r.a.s.x.a.y.a.V.D.s.r.a.V.s.a.s.s.s.s.D.x.z.s.s.B.B.A.m.m.M n. XMXXXN.n j.j.i.i.l.z.g.y.m.f.p.S..XpXuXuXyXJ.x 7 W -.$.*. .[ ..f i p u 0 = * X . 5 R %.g d 1 s 3 > U U Q U J Z C Z ~ ~ ].8X{.{.8XeXyXyXwXeXyXyXwXyXyXyXvXNXBXNXyXmXeX(.]./.0X[.0X;.X 6 E >.o.~.~.M.C.g.l.Z.l.r.s.Z.F.b.b.a.D.D.z.a.a.V.E.s.s.a.z.F.x.s.z.x.V.x.a.y.x. Xx.d.B.x.F.D.x.x.W.R.c.l.z.D.b.l.a.r.c.C.m.^.XX^.b N ^.^.J.V l I ! Z Q.NXVXvXNXbXvXbXvXUXbXnXvXnXzX0XzXq.q.q.3.-.$.R j j a - 1 5 # X . X X > , l z e.p.p.d.p.S.S.I.P.V l , > X # # #       + + O + @ @ + @ @ + @ + @ + @ % + + ",
"- & = ; = 0 4 u y y a a y y f f ] g f q = * $ + . + - g K h a 1 o #     . : .   O     O : O O & + O O O . . . . . X # 1 t g K P , v M.Y.k.g.y.t.g.g.t.C.Y.j.j.t.M.m.u.u.n u.A.k.u.t.j.C.i.t.t.e.j.m.i.t.i.j.B.m.j.i.B.M.m.u.m.A.^.N.Y.^.^.~.A.Y.^.M.m.m.B.B.z.z.Z.V.z.x.D.D.x.b.z.c.V.V.g.t.r.r.t.r.t.t.t.g.y.g.g.g.j.t.h.^.XX}._.}.}._.8XyX_._.yXMXBX^.b t.z.h.N.!.jX}.[.[.'.0.`.6.4.1.6.5.1.1.1.!.1.1.5.1.>.;.:.o.N.M.C.z.l.z.l.c.c.c.c.V.c.v.v.v.v.Z.v.z.l.a.x.c.v.x.c.V.V.V.V.c.C.B.V.C.c.C.C.C.v.c.z.l.z.g.j.n.u.Y J.!.:.,.,.<.>.E E E &.>.&.>.`.[.`.:.U ~.N.Y Y B D D S t # # O @ e @ e e e e e ( w e w ( ( ( ( ..e e O.o.o.T.U.k.Z.B.r.a.V.A.m.i.z.A.s.y.s.V.s.b.b.b.l.i.u.n.n.Y S , 2 P P hXhX2.X.=.8.<.%.s 3 > , S o.U.M.m.t.g.l.y.y.y.V.V.s.y.Z.F.x.a.d.x.W.z.a.z.V.E.V.s.s.x.D.V.Z.D.F. XZ.x.s.x.a.r.r.r.d.r.s.G.F.D.r.d.r.r.r.r.y.s.j.j.M D D > X X   + # X # 3 # # X # > 3 3 3 3 3 m o.o.T.k.k.g.l.s.s.s.a.y.s.r.r.s.s.V.D.V.x.r.r.r.a.V.x.a.r.r.r.a.r.r.a.Z.E.V.a.r.x.a.e.i.z.B.i.x.s.s.y.s.z.B.A.B.M u.A.XXMXBXMXM.b i.A.g.c.g.j.j.i.f.V f.P..XuX8X~ C 7 H j [ *.X.+.[ h f h i y 0 * *   X s %.R 6 K K 2 > > Y ! (.(.Q.~ I ~ J.).].qXqX8X{.wXyXwXwXyXyXmXyXeXyXwXyXeXNXNXNXmXeXqX0XqXxXcXcX[.6 X P :.~.~.^.M.C.g.a.Z.x.s.b.H.D.s.a.z.D.D.x.s.a.x.F.s.x.y.s.F.a.s.s.V.D.V.a.a.x.E.x.a.s.z.F.D.s.a.v.R.x.l.x.v.b.a.a.y.z.B.u.A.^.K.N.^.^.N.Y c v c < 5.VXvXxXvXAXbXUXbXUXbXvXUXrXnXzXzXq.:Xq.9.4.=.R R j k a 1 u u   X . X X > , l l n r.p.p.S.S.P.S.P.f.Z , X X #       X : $ + O @ % # @ + % = @ = % = % % @ % ",
"& & & = = - 9 9 0 u y u y y f f f a a = $ + $ #   . # 1 1 ; #     . .         . . O   O : O : & $ +   . . . . X X # # 3 F P %.o.v l T.|.Y.Y.j.g.h.y.n M.C.m.B.k.B.M.k.h.t.j.Y.m.m.j.m.C.m.h.j.h.A.A.M.k.m.M.A.Y.A.m.N.N.m.N.N.M.N.M.M.A.N.^.~.K.A.K.Y. X XZ.c.z.Z.Z.z.a.x.b.b.l.l.x.v.D.Z.g.r.y.r.r.r.y.t.y.g.y.g.j.g.t.B N._.XX}.}.yX}.yXyX{._.}.yXBXMXM.n k.M Y }.cXhX[.q.`.q.0.5.<.1.<.1.8.2.1.2.1.<.>.<.<.:.! N.U.M.j.j.l.l.l.l.l.x.b.c.z.x.v.z.c.C.v.c.l.y.a.l.c.z.z.c.x.c.v.B.x.c.c.z.z.z.c.c.c.z.z.l.s.i.j.j.B Y ~.Q.:.,.,.>.&.E E K E &.&.5.0XxX{.~.N.~.Y D D N D Y D S t t @ @ e e e e e ( e e w w w ( e ( ( e ..t ..o.o.k.k.k.C.z.r.i.V.Z.i.i.B.Z.V.y.s.V.s.l.x.a.x.z.i.u.A Y v > 3 # X.nXnX8.%.-.=.X.X.t 3 t U |.hXXXY.j.u.g.g.y.y.y.v.x.z.y.Z.W.x.d.s.Z.E.x.a.s.x.F.V.s.V.D.F.Z.H.x.H.D.d.r.r.r.r.e.a.x.G.x.V.F.G.r.e.a.r.p.S.s.s.V.B.C.h.D G > X .   X # # 3 # > # # # 1 t t 3 t v S U.k.M.k.g.t.l.y.z.V.s.S.F.V.r.e.r.x.Z.F.R.D.s.a.a.D.Z.s.d.d.a.a.r.r.r.a.H.V.x.s.Z.a.e.y.z.B.z.s.s.i.r.i.i.j. XA.B ^.XXMXmXMXCXMXu.u.M.j.k.g.j.m.n.f.V A P.uXuXJ.Z > 2 H d h [ X.@.X.{ ..f i q q ; # # o d -.%.a H H 3 , :.(.(.}.qX{._.).).].8X8X8X{.8X8XXX}.{.yXyXNXuXNXNXyXyXyXeXeXNXCXAXwX{.(.qXxXxXvXcX>.X 6 ;.~.~.^.T.C.l.a.x.x.s.z.V.D.s.a.a.D.D.z.s.l.x.G.z.z.s.B.R.s.s.i.s.Z.V.a.y.x.G.x.a.s.x.F.D.s.s.Z.D.x.l.b.V.l.y.g.r.j.B.m.n.m.M A.uX^.D A z l , ~ VXSXqXcXvXbXvXUXbXbXbXbXnXnXvXzX:X:Xq.:X9.4.4.$.R R j k s f s 1 ; o # X > , , z b n e.d.S.I.S.P.K.K.A , X > X   #   # $ $ & = 9 = = = = 9 = = = 8 = = # % % ",
"* $ & - & = = u u 0 y y 0 y y f a y 9 %   $ # +   . . # o X .   .   . .     O . . . : O & O O :   O . . . . . .   > 1 2 s K 2.1.S l U.jXXX XC.C.j.M b M u.M u.e.h.m.u.u.M u.m.h.h.u.m.m.j.i.h.u.M.m.n.u.B u.B B N b b b z l z z z z z z b z b b B D N.Y.A.j.y.y.z.V.z.a.a.a.y.b.b.V.Y.E.E.z.e.y.y.r.t.t.y.t.t.g.z.j.j.h.M B ^._._._.8X}.yXyX_.(.yXXXXXCXjXB M m Y }.hX|.fXhXfXhXq.q.9.8.0.9.q.q.0.0.9.<.<.<.2.:.o.U.M.M.j.l.g.l.z.z.l.c.z.c.c.c.c.x.c.x.v.c.l.y.y.l.z.z.z.z.z.z.z.x.c.x.z.c.c.z.j.c.c.z.z.l.l.g.i.h.B D U.Q.:.:.>.E E E K E K K E 0.cXvX].U ~.~.N.n.B D D Y D S S t # # @ @ e e e e e ( e w w ( e ( ( ..( t t O.o.o.N.T.C.s.r.s.B.C.j.s.s.A.s.a.s.x.s.z.b.z.z.z.m.n.u.A l > 3 3 hXcXhX8.-.X.%.$.j s F X.|.cXjXXXU.j.g.y.y.l.y.l.V.V.z.y.V.G.x.b.s.V.E.l.a.s.D.F.D.x.V.x.D.z.l.r.y.a.r.r.r.x.a.d.s.D.F.V.s.Z.V.r.a.S.s.s.V.B.V.V.z.z.h.D Y , X X # # # # # # # 1 t t P S S x v S D U.U.D M t.e.r.r.r.s.r.s. XF.s.r.r.r.r.s.Z.D.V.x.d.Z.D.x.b.x.v.D.a.r.r.r.r.y.x.x.D.s.e.r.i.B.B.s.z.z.y.p.z.m.A.B.N.XXMXBXMXmXMXCXXXB n m.k.h.m.m.n.n.A A K._.P.Z v 7 6 s h j [ X.[ X.[ ..f f i q - - * o K <.&.K g s < x |.|.~._.{.}.{.].(._._.8X].{._.).)._.Q.J.(.).).8X_.eXyXeXeXmXeX{.].Q.,.1.].0XcXvXvX[.F 3 U o.o.U.T.c.y.x.V.s.d.b.H.V.s.a.z.D.Z.a.s.b.x.R.a.s.s.V.Z.s.i.i.B.F.Z.i.r.s. Xx.a.S.x.F.D.z.z.Z.Z.z.z.z.v.z.a.l.y.z.A.C.m.f.B V M.C.M m z c ).SXKXbX6.cXvXbXAXvXbXUXbXUXnXrXzXkX0X:X:Xq.6.9.4.=.-.%.$.$.$.$.X.K P s s t # > l z b n p.S.P.I.I.I.K.K.J.v > o X   + $ * & & 9 & 9 9 9 9 = 9 ; q 9 = 9 = = 8 = ",
"& * = & - = & = 0 u u u 0 0 y a y u = % $ $ $ +   . .   # . . X # O .   O . . O O .   : O O . . : . . . .   X X X 1 1 2 2 P 2.1.x l U.jX XjXT.T.M.h.M M b b b b n n n b b n n n n b n n n n n b b b b b z b b b b z z b z l l z z b z z z z z z z b b n n e.g.z.r.a.z.v.W.W.b.b.D.D.W.E.E.c.t.t.t.r.y.t.y.t.y.t.u.i.j.u.M M n.J._.^._._.yXyX_.~.}.eX_.jXCX Xm m o.hXhXhXhXhXfXq.7.-.-.7.7.8.w.8.fXfX9.q.9.8.2.:.o.U.M.m.c.g.l.l.l.l.b.l.x.c.b.c.v.v.v.x.v.x.z.l.g.l.b.x.b.c.b.c.c.v.c.z.l.v.V.z.c.c.c.l.z.z.g.y.g.h.u.Y J.~.:.;.E W E K E E H d 9.[.cXvX].:.~.^.N.D B B D D D D S t t @ e e e e e w e w w w ( w ( ( ( e ..e S O.o.T.U.T.T.z.y.s.V.Z.i.j.B.A.s.y.s.B.s.s.b.z.z.z.j.f.n.Y l > P 8.hXzX-.X.X.X.X.X.P s P 1.hXZXmX}.M.j.j.g.g.a.l.a.x.V.z.a.x.H.x.a.s.x.E.x.s.x.D.W.H.l.a.r.a.r.r.r.r.a.r.d.H.W.G.x.s.H.F.x.a.s.s.y.S.Z.s.d.x.V.V.s.s.j.k.D Y , > X # X   X # 3 t X.P X.X.P S S S v U.|.M.M t.t.y.y.r.r.r.r.r.Z.F.Z.a.a.s.r.r.e.a.s.x.s.D.G.x.s.x.H.E.V.s.s.s.a.r.r.r.V.V.y.r.e.r.B.A.s.i.p.u.B.m.p.f..XjXBXCXBXmXyXjXCX^.M h.M.k.h.n.n.Y c Z ~ ! Z , 6 6 a a g [ [ [ @.X.{ X...t i q - - # 1 K &.%.s F P 3 x (.|._.}.}.{.}._.{.{.{.8X{._._._.(.J.J.I J.~ A Z Z ! 8X{.wXeX! Z J ~ ,.! ,.5.qXcXcXcX2.2 !.|.~.A.T.C.l.V.x.x.s.x.F.D.x.b.Z.E.Z.l.a.z.v.F.B.s.i.B.A.s.i.i.z.A.Z.i.y.i.F.B.s.x.s.F.Z.z.s.z.v.l.a.z.v.z.z.v.l.z.C.A.C.C.C.m.u.m.M.Y Y _.KXLXSXqX'.vXbXbXUXbXbXbXvXUXnXzXzX0XzX:X:Xq.9.4.4.=.&.-.&.%.&.=.2.-.%.X.s r > 3 3 l b n f.I.I.G.I.I.K.K.K.A > < X o * & & 4 & = 9 9 9 9 9 9 q q 9 9 q 9 = = % = ",
"* & = * = & 9 4 9 0 0 0 9 q q q 9 9 % + + * *   +   . +         +   O . . . O O     O O : . . . . . . . o ; * # 1 t s g s F ;.1.x l U.XXXXE.c.T.Y.Y.M.n.u.m n b b b n m n n n n n M M t.M t.t.M B M B M M B M M B m n.D N b m m b z b z z b b z b b b n n t.j.C.l.s.a.D.W.W.W.v.D.D.D.R.R.c.t.t.y.t.t.r.y.t.t.y.y.j.j.u.u.V u.N.J.(.)._.{.8XJ.J._.XXyX}.MXZXn.z O.hXhXhXfX7. .{ ' f f ..] { { { [ X.7.8.8.8.2.o.U.N.M.M.k.l.l.l.l.z.l.z.b.z.z.x.x.c.b.b.v.v.c.l.g.l.b.b.c.v.c.c.x.v.c.l.g.x.c.l.k.z.c.z.b.z.l.y.j.h.u.D o.Q.Q Q E E E H K H s R '.cXmXcX|.~.~.~.N.n.D B D k.D D S S t t # @ @ e ( e e e e w e ( ( e e ( ( t ..O.D o.T.U.Y.j.s.B.Z.A.i.j.z.A.s.y.z.B.a.l.x.z.l.z.i.j.n.N.v x !.cXhX8.X.X.X.[ K K d s 2.[.mXZXjX|.M.c.j.j.z.g.y.a.V.V.x.r.s.V.b.a.d.x. XH.x.s.x.v.a.r.a.r.a.r.a.s.v.H.a.s.Z. XG.x.x.D.D.s.r.r.d.a.s.Z.s.i.B.V.V.s.s.g.C.h.Y , > # X X # t P X.X.O.P O.U S S S S m U.^.m M t.e.i.l.s.r.i.y.e.r.s.s.V.V.D.Z.a.r.r.r.a.a.Z.F.Z.s.s.V.R.V.z.s.D.E.s.r.r.z.Z.s.r.e.e.s.F.B.i.e.i.B.u.b J.XXMXCXCXmXyXmXXXMXZXN.b M.n.B Y A c x C x 2 6 C s 6 s g g ..[ X.X.{ X.[ g f r 0 q q 1 r $.=.L 2 1 s 3 x |.|.}.Q.~.{.eXwXeXwX8X{.].8X].).J.J.~ ~ A v v v v I ! _.).~ Z < Z ! ).6.5.,.'.[.vXcX%.x [.mXjXN.M.C.z.x.s.x.x.Z.F.x.x.x.x.R.D.s.s.z.V.R.B.z.s.A.R.A.B.B.A.R.A.B.z.z. XZ.x.V.x.F.D.x.z.x.C.z.z.l.C.z.z.V.c.c.A.Y.Y.C.Y. XY.M.^.N.N.MXKXVXVXcXq.cXvXbXvXbXUXbXbXvXzXvXzXzX0X:X:Xq.4.4.3.=.&.&.-.-.=.<.=.%.X.K g r 1 3 , l b n S.K.I.F.I.I.I.A.K.A l > < ; ; - = = 9 9 9 9 = 9 9 ; q ; 9 9 ; 9 = 8 # % ",
"& * & * * - = u = 9 9 9 9 9 9 9 = = & $ $ % +     .             O     O O . . O   . : : : . . . . . : - a 5 1 1 a F H P H K 2.`.G v U.}.XXT.M.C.M.A.M.N.n.h.M n e.u.B M u.u.h.h.k.M.j.M.M.M.k.M.k.M.M.M.j.k.k.k.u.h.k.n.u.M m m m b b m m N N N M D M n t.t.g.l.Z.b.a.b.W.W.W.W.W.W.D.W.R.Y.k.t.t.r.t.t.t.y.t.t.y.k.j.t.u.B B f.N.J._.^._.yXQ.I _.}.mX}.mXCX}.m O.hXfX7...( w w ..i ( i w i w ( w i ' [ O.7.2.o.U.U.k.k.g.c.l.l.l.z.b.l.b.c.b.c.z.v.b.c.v.b.x.b.l.b.b.v.v.v.c.b.v.Z.v.l.l.c.v.c.l.j.l.z.c.b.l.y.j.h.B Y ~.!.,.:.;.&.%.s 6 < < <.nXvXVXqX~.!.|.~.N.B D B k.k.D D D D S ..t e @ e e w w e e w w e ( e ( e ..e t ..O.O.k.Y.Y.i.z.z.A.C.j.i.z.C.S.i.c.V.s.z.c.z.z.g.t.m.n.D A o.}.hX2.j g K X.K X.X.X.;.`.cXmXhX}.^.M.C.j.j.g.y.a.y.c.Z.z.a.s.D.d.a.x.x.E.x.a.a.a.d.a.r.x.Z.G.b.x.x. XW.x.x.x. XD.x.H.D.H.s.a.d.H.l.Z.G.V.V.Z.Z.x.s.l.g.T.D k.x 3 3 3 t X.8.hX`.O.P P O.O.S S D D S M.U.m M t.t.z.z.a.y.V.V.r.y.y.e.s.V.F.D.V.V.V.a.r.r.s.D.D.s.s.V.F.F.x.s.Z.E.D.s.a.V.Z.B.s.s.r.y.Z.A.i.e.m.f.p.m.MXBXZXBXwX_.eXNXyXmXCX.Xm h.n.n.n.N l x F 1 o 6 F d K j j h ] [ { { [ [ g f i r q 0 q 1 s %.-.s t r > > l !.(.~.Y (.}.yXyXyXeX}.8X{._._.Q.~ A I A l , v / J.L.Q.Q.~ ~ Z , 3 ~ 5././.,.5.'.cXzX:.J [.ZX}.D t.g.y.l.y.l.a.z.x.s.a.x.l.v.b.l.l.b.x.Z.B.i.s.B.A.C.B.B.B. XA.V.B.B.R.V.s.x.z.Z.Z.z.V.R.R.C.A.Z.Z.c.z.B.Y.Y.Z.R.A.z.z.z.i.t.Y.N.U NXCXVXAXqX4.rXbXbXbXbXbXvXvXbXvXzXzX0XkXq.q.0.0.9.<.<.&.-.%.&.=.%.%.K t t r ; # 3 x z b e.i.H.d.S.I.I.H.S.S.n.l , < o * * ; = & 9 9 9 ; ; q 9 9 q ; = q 9 = = = @ ",
"* $ $ & & = & & = = - = = % % # = = % $ + $ + O O .           + @ . @ O O . . O O . . : :   . . : : - 5 j j s 5 2 s d H H K <.1.o.Y U. XXXM.j.T.C.M.M.M.m.k.u.u.u.t.g.M h.k.k.k.j.j.M.j.c.C.j.j.j.c.c.j.c.j.k.k.k.g.j.k.u.M h.h.B D B N m D B B h.B M t.n t.g.g.b.b.a.a.v.W.v.v.v.v.W.E.R.R.C.t.t.t.y.t.t.t.t.t.t.j.j.n n M n V V ~._.(._.yXL.A J._._.XXMXmXmXo.hXhX..e e e ' w ( ( w ' ' ' ) p w w w w i X.O.o.U.T.k.c.g.c.l.l.l.l.l.b.l.b.b.v.c.v.v.x.c.v.v.v.l.b.b.b.v.b.c.b.c.v.c.y.y.l.v.c.c.c.l.z.z.l.l.y.i.j.h.Y ~.|.!.8.<.5.>.F 1 X o 0XvXvXVX{.:.|.^.Y.N.D B M D n.D k.D o.O.P t e e e e e e e w e e ( e ( ( ( e e e t S D o.Y.T.u.j.z.A.Z.i.i.z.B.z.s.B.V.z.c.V.z.z.z.i.j.h.m Y [.[.X.g t g X.s j X.%.0.'.hXhX[.|.|.^.U.C.j.z.i.l.y.l.V.V.s.a.x.G.x.b.b.D.W.x.a.d.x.v.x.a.H.W.E.x.x.H.W.G.x.x.H.E.H.a.s.x.v.x.D.W.E.F.E.E.Z.Z.G.d.s.s.a.g.c.k.D v , 3 t P 2.hXhX2.P P S O.S S S D D S Y Y.u.u.y.g.V.a.a.y.Z.B.r.i.s.r.r.s.F.s.r.d.F.R.s.r.a.s.s.a.y.z.R.F.D.Z.V.D.Z.Z.V.D.Z.s.B.Z.p.e.i.A.B.e.u.B B XXCXCXMXJ.I wXBXmXxX}.MXyX~.V n.D D c , 3 H s o 5 r g K j g j [ ] { [ ] f f f r = q @ # 1 s &.X.< < 1 > 3 3 |.(.~._.}.mXMXmXwXeXeX{.{._.eX_.(.(._.).A Z ! )._.eXyX_.~ ~ ~ Z Q ).).6.~ 5.,.5.[.[.5.1.qXZXjXh.k.c.v.s.a.a.a.r.a.r.a.a.a.s.a.a.a.r.y.r.e.e.e.e.e.e.e.e.e.i.m.i.i.r.i.y.r.y.r.z.l.i.z.z.V.z.c.c.Z.g.l.l.Z.c.y.B.z.t.y.y.e.e.u.D N.mXKXAXJX0X&.cXbXvXbXvXbXbXnXnXzXnXzX0X0XzXq.q.q.0.9.<.=.=.<.-.%.%.j r r 9 - ; 1 3 3 l b e.p.d.d.d.H.S.d.p.p.V z , < > * * * = u - 9 q q 9 9 9 = q q q 9 9 = 8 % # ",
"$ : $ $ $ $ $ $ = % = = = % % % + % $ % $ + +     O O O   O   O + O O . . . . . . . . : . : . : . : o a K d a < 1 2 1 6 L %.>.1.!.Y |.jXY.M.c.T.C.Y.A.M.A.M.j.h.g.k.g.g.k.g.k.g.j.k.c.k.c.j.M.c.c.c.g.l.k.l.l.l.c.l.c.k.k.t.k.t.M B m m B D M M M M M t.n t.g.g.v.z.l.l.v.D.v.b.W.W.W.W.T.E.Y.D t.n g.t.y.t.y.e.u.i.i.u.n n n n b J._._._.yX_.N.J.J.|.yXmXmXmX2.8...= e ( ( ( ..' ) ( w ' ( ( ( _ p w p i t S O.T.T.k.k.c.l.k.b.l.b.l.b.c.b.b.b.b.b.b.v.v.b.v.b.b.b.b.T.b.b.c.b.v.v.l.y.y.c.v.l.v.g.z.c.l.c.z.y.h.k.B Y ~.(./.`.5.0.<.5 < . s zXvXvXNX[.:.~.}.^.N.D B M B h.h.D D D O.O.t e @ e e e e e e e w w ( w ( e ( e e O.8.|.hX XY.j.c.z.Z.Z.j.i.B.C.s.i.Z.z.B.Z.v.c.z.v.g.m.m.B U.}.2.F g g g K g K X.%.`.nXhXhX|.|.|.|.M.C.M.z.g.l.y.a.c.z.a.y.x.D.a.a.a.b.G.H.a.a.x.G.x.z.x.D.W.x.x.x.F.E.x.x.b.G.D.a.s.s.x.D.D.W.W.H.D.D.Z.V.s.s.a.s.s.a.z.h.D D P G P o.2.2.o.o.P P S P S D D S D D D M.M.M t.z.x.i.r.z.x.s.y.i.Z.V.r.a.Z.s.r.r.s. XV.a.r.a.a.r.r.r.V.V.V.s.V.R.D.r.i.V.V.s.i.V.B.r.n A.K.t.b n.XXCXCXMXJ.z 8XSXSXmXwXyXMXBX_.V A n.A , , 3 5 a r - r a s g g g g f ] f f f i r r # r # ; t g K K < X 1 < > , (.}.wXmXmXmXyXyX}.eX_._.{.8X{.{.}.eXwX_.(.(.eXmXyXyXNXyX).).! ].wX].,.Q.,.,.,.1.1.5./.[.jXmXmXM.M.Y.D.Z.D.Z.x.z.i.z.c.x.x.v.v.x.x.b.l.r.y.y.y.t.e.e.n n n e.e.n e.e.e.r.r.y.y.a.z.g.z.y.y.r.t.y.y.y.t.g.y.g.g.t.r.g.b.l.l.t.t.B |.mXVXVXJX0XW 0XbXbXvXbXbXbXvXvXnXzXzXhXq.q.q.q.0.9.4.<.R K X.K $.K r # # # ; r - t l z m e.r.d.d.d.d.d.d.d.p.n z l , 3 1 1 ; ; q 0 = ; 9 = = 9 q ; q 9 = = = 8 = = ",
"$ O + $ $ O $ + & $ & % % % % & $ + $ % $ $ + O O   +     : O   + @ O O . O O . . . . . . . . . . . : a j K 5 o X 1 6 F E %.2.1.Q.U.Y.jXY.T.C.Y.T.Y.Y.M.A.M.m.k.j.j.k.j.j.j.j.j.g.c.g.j.j.c.j.c.l.l.c.c.l.c.l.c.l.k.l.c.g.t.g.k.M m m n M m M m M M M M t.y.g.b.v.b.a.l.W.W.W.W.W.W.W.W.Y.T.T.k.M n h.y.t.e.t.t.t.t.e.M n n n b b N.}._._.yXyXL.(._.}.}.}.mXcXo.X...q w ) w ( ) ( ' ' ' ' ' ' ' _ ( ( i i t S D o.T.k.l.l.l.l.l.l.l.l.l.l.b.c.b.b.v.b.v.v.v.x.c.l.l.c.b.b.b.b.b.c.v.l.y.y.z.c.z.c.l.g.z.l.b.z.g.u.k.D D ~.].1.`.5.`.>.2 < X K cXcXhX[.|.Y N.U.N.D D m B n.D D M D D D O.t e @ e e e e e e e e w w ( ( e ( e e *.nXjXjX|.M.j.B.B.Z.Z.j.g.B.V.s.z.Z.V.x.C.V.z.z.c.z.C.C.D U ~.O.s g g g f g P =.0.hXcXmXcX}.}.XX^.M.C.j.g.i.y.l.l.s.a.a.a.s.H.d.r.r.a.D.x.a.b.b.W.D.d.b.x.E.x.d.x.G.W.x.x.x.G.H.a.x.x.H.x.d.x.x.a.r.a.d.y.a.s.s.s.a.z.c.k.D Y Y O.;.2.o.P P O.P P P S O.P D O.D D B m.M.m.z.Z.V.z.x.Z.V.z.r.s.F.Z.a.y.s.x.d.a.r.s.Z.V.V.B.s.y.r.y.a.y.y.a.x.F.D.s.e.r.y.r.r.i.B.y.e.e.B.A.f. XBXMXyXJ.v eXSXCXBX{.wXBXNXyXXXn.l Y c , > < 6 r - ; a t t f t f f f f f f a q r = q 3 t S t 2 2 s 1 2 X X > > U }.mXXXyXyXyX}.eX_.{._._.].{._.eX{.}.(.).^.8XwXwXwXyXBXeX{.).8XyX].~ ~ ,.~ >.,.,.1.1.!.].hXXXm.M.Y.v.v.Z.Z.v.x.z.x.b.v.V.v.Z.D.v.x.b.c.B.z.m.i.y.e.e.e.y.i.i.B.c.z.B.c.B.V.c.B.c.z.z.i.y.t.r.r.y.g.c.v.Y.v.v.v.c.b.v.x.x.c.C.B ~.|.! ,.zX0.R 4.bXbXvXvXnXvXnXnXnXcXzX0XkX[.q.q.4.-.$.g s a s j j g r # = # q q 0 3 3 z b e.r.d.d.d.d.d.d.d.S.p.V l , > # # # - 9 1 - = 9 q 9 = 9 9 9 q = = % = = % ",
"O O O O + : O : O : O : + + @ @ + $ $ $ $ $ + $ O $ + $ $ O + O O O O O O O . . . . . : . . . : : . X 5 d K 1 X 2 d L E ;.;.>.,.~.N.^.XXY.C.Z.Y.Y.Z.C.Y.Y.C.C.c.c.c.k.c.z.l.c.g.j.g.l.c.c.c.l.c.c.c.c.c.c.c.T.b.c.k.l.k.t.t.h.t.t.M M M n m m M b M M M t.g.g.c.v.b.l.b.v.v.v.W.W.v.v.v.T.T.XXY.k.m t.t.t.t.t.y.i.t.e.n n n n n z A ^._._.}.yX_._.XX_.|.xXmXhXE f i i ( ' ' ) _ ' ) ) ' ) ' ( ( _ ' w ( ..t t D T.k.k.l.l.l.l.l.l.b.l.b.b.b.c.v.v.v.v.v.v.v.v.b.l.l.c.b.v.b.T.v.v.v.c.t.y.b.z.c.c.g.l.z.l.c.c.y.u.M.D Y ~.`.8.1.5.0.E 1 X . %.zXzX0.1.!.N.Y D B m N m M u.B B B D D S S S e @ @ e e e e e e w e w w ( e e e e O.|.hXhX^.T.m.v.z.Z.Z.B.z.C.V.z.V.v.v.z.v.v.c.z.Z.z.j.k.n.Y P S s g g s g P X.8.[.cXbXcXcXcX}.mX}.N.M.j.j.l.y.l.y.z.a.a.y.b.H.a.a.d.a.G.x.d.x.x.G.x.x.b.H.W.H.d.b.F.W.b.d.x.D.G.b.b.x.x.a.r.r.a.r.r.s.a.y.s.a.a.d.l.i.c.h.D Y Y o.2.2.X.U O.Y S S S P D S D D D D D k.^.Z.B.Y.Z.Z.Z.Z.V.z.y.x.F.V.x.y.r.x.x.s.r.r.s.s.V.F.V.a.r.r.r.r.e.r.s.x.z.a.s.x.B.y.e.e.i.t.e.e.i.M.oXMXCXXXn., yXCXBXNX(.{.NXBXyX}.BX}.V c c , > 3 1 1 = ; r a r r r r t f a f j h t t r r t S t t 2 x 2 > X > > X > U {.}.wX}.8X}._.eX8X_.].8X(._.8X_.eXXX{.{.}.wXwXeXeXwXNXNX8XqXqXNX{.~ ~ >.>.,.,.2.,.,.;.Q.|.}.n.k.C.v.v.V.V.v.x.v.x.x.v.x.v.x.v.v.v.x.c.V.V.B.z.j.g.j.y.j.z.B.C.C.Z.A.C.B.B.C.C.V.V.C.x.c.l.g.y.a.z.v.E.R.R.Y.Y.v.v.v.v.D.Y.C.M ~.Q.> X W R d &.0XnXnXnXzXzXnXcXnXzXq.q.q.4.=.%.j f 5 r ; 1 a g K K s r r 0 - ; 1 3 , l m e.r.d.d.d.d.S.S.d.S.S.f.A l , > # 1 r q - r q q ; = ; q = q q = = 9 = % + ",
"  : $ : O O O O O O O O + @ & + & $ $ % $ $ $ $ * + % $ $ + : $ O O O O O . . . . . . . . . : ; 5 o X o s d 5 1 K &.<.<.>.&.%.:.:.o.|.XXT.v.T.Y.Y.C.Y.Y.C.Y.C.B.B.C.z.c.c.c.j.z.l.l.z.j.g.l.c.l.l.c.c.c.c.c.b.T.c.c.T.k.t.k.k.t.M m n b b n b M M M t.e.t.t.g.b.v.x.l.c.W.W.W.W.v.v.W.T.T.|.CXCX|.B M M y.t.t.y.y.t.u.n n n n V V z ^.^._._.XX_.J.J.N.|.xXVXqXK r f ..' ( ( ' ) ) ( ' ) ' ) _ _ ( ' _ p ....S S D T.g.l.l.l.l.l.c.l.b.l.c.b.b.v.v.v.v.v.v.v.c.b.c.b.l.b.c.b.b.b.v.v.l.r.r.l.c.z.z.g.z.l.z.z.c.j.g.n.D D ~.1.,.2.<.<.d > . X 5.zX[.;.;.!.~.Y N.k.k.D m M D u.h.D D D D D S t # @ e e e e e w e w w e ( ( ..e e O.gX|.|.N.D t.y.y.g.l.y.y.i.y.r.r.a.y.y.a.y.y.g.l.l.t.y.D D Y t F g g g X.X.=.q.hXzXcXcXjXhXjXXX|.M.C.M.z.g.y.y.y.z.s.z.y.s.b.a.d.b.b.W.v.a.b.x.G.x.d.x.x.W.Z.x.s.D.G.x.x.v.W.G.x.a.d.b.a.r.d.b.s.x.H.V.x.s.a.a.s.s.l.M.k.h.Y U o.:.2.o.o.o.O.S 3 S D O.o.D o.D D n.M.^.Y.i.c.z.z.s.V.B.s.s.v.R.x.x.S.r.a.s.z.x.a.r.r.s.D.Z.S.a.a.a.r.r.r.r.r.r.y.V.Z.R.V.i.i.i.i.e.p.p.j.XXMX.Xf.z XXCXCXZX).J.mXBXNX}.yXSXBXU l x , < < 1 1 ; - r q 1 r r r a t g g g g P X.P S S 3 , v S U L x > > X X > qXVXqXwX{.}.}.8X}.}.{._._.{._.}.}.eXeXyXmXyXyXyXwXyXyXNXNXeXmXyXNX).I ,.~ ~ ,.,.,.,.1.:.~.|.^.n.m.C.Z.B.V.c.c.c.x.c.b.b.x.v.x.b.b.v.v.b.b.c.c.c.z.z.j.y.g.j.z.C.z.c.c.l.l.z.l.z.z.v.B.V.Z.v.z.a.l.z.c.v.T.W.Y.R.D.v.T.v.v.Y.T.n.|.Y > . o 5 5 d =.q.0XzXzXhXzXq.q.=.%.j h f - = X . .   . * r a g j f f r q r ; # 3 , v b e.r.d.d.d.H.H.G.S.S.K.m.A A , 3 # 1 q 1 - - r q 9 q q = 9 = q = 9 0 q 9 % ",
": O O O O O     . O O O + @ @ + @ $ $ % $ & $ & & % % $ $ $ O O O O O . O . . . . . . : . . * a K 5 o 1 g j s d %.<.0.5.>.E E ;.o.U.|. XY.C.Y.Y.Y.v.Y.Y.Y.Z.C.C.v.c.c.c.c.z.z.g.l.l.z.l.z.c.l.c.c.c.c.z.c.c.c.C.c.c.k.g.h.t.k.t.n n n b b n m n M M t.M t.t.c.c.b.c.c.b.b.T.v.v.v.W.W.v.T.Y.CXPXjXh.M M y.y.t.y.e.e.e.e.n n b V b V _._._._.yXXXA A J.XXmXVXzXt a ' ' w ( ( _ _ ) ) ` ) ) ' ) ) ) ) ) ....t S S k.k.k.g.l.l.l.l.l.l.l.l.l.c.b.v.c.v.v.v.v.v.v.v.b.b.b.l.b.b.x.c.v.Z.l.r.y.g.l.j.l.g.g.l.l.c.z.j.u.h.D Y :.`.1.>.<.=.2 # X X '.zX0.L U !.U.N.U.M.T.D D m t.D D k.k.D D D S t t e @ e @ e e e w e ( w ( e ( e ) ..|.hXT.T.M t.t.r.y.y.i.g.y.y.r.r.r.r.r.y.y.y.y.l.x.l.h.n.Y P F g K j j $.-.8.q.hXhX[.[.hX[.jX}.^.Y.Y.M.j.j.a.a.a.x.s.a.a.s.v.d.b.d.b.G.v.a.a.b.W.x.b.b.x.W.v.x.b.G.E.x.x.x.G.E.v.d.b.s.a.a.H.D.x.b.H.H.x.s.i.a.x.x.l.M.k.n.Y o.P o.2.o.P Y S S S O.Y Y o.Y Y o.k.D Y. XT.M g.y.y.y.s.l.s.z.Z.W.z.s.Z.s.a.a.s.Z.V.r.r.r.s.V.V.V.V.V.z.i.r.r.r.r.r.r.s.F.Z.B.Z.B.r.i.e.e.m.j.u.V z ^.CXCXBX~.c yXNXvXwX_.NXKX}.c , 3 3 < 3 1 ; 1 ; 0 - - 1 1 r 3 t s g P P O.O.D D S D Y n.Y U U c > X > > F KXSX_.{._._.{.eX{.}.{._._.(._._.{.}.wXyXyXwX{._.}._._.yXNX8XyXmXyXQ.I ! ~ ,.! ,.,.,.!.!.!.|.^.N.C.C.B.v.z.c.c.z.c.c.z.x.v.b.x.v.b.v.b.v.v.v.b.v.c.c.c.g.g.g.c.k.c.c.c.z.g.z.j.z.s.z.c.C.v.v.c.l.a.a.l.v.v.Y.R.Y.W.T.W.v.T.Y.Y.^.|.D , < o < 5 5 k R $.3.-.+.R j g 0     @ . . . . . . . O q a f g g r r 0 ; ; ; ; 3 x l b M y.d.d.H.G.S.K.G.K.S.K.J.Y x 3 # - - 4 - ; 0 q q 9 9 9 = 8 9 = q y 0 = % ",
"O $ : :   O O   O . O O + + & + $ $ + $ & : O & $ $ & & & @ $ & : O O :     O . . . . . . . 4 g $.5 ; a j H H K &.0.0.2.;.X.L L Q Y |.XXM.M.Y.Y.Y.Y.R.Y.Y.Y.c.C.C.Z.B.c.c.z.z.l.z.z.l.l.z.l.z.c.c.c.c.c.c.v.c.c.c.k.c.k.g.t.k.t.n n b n n n n m M M M t.t.g.c.c.T.v.c.T.g.g.b.b.v.T.v.T.k.k.|.KXMXD M t.t.y.r.y.r.e.n n M n n b b N.XX_._._.yXuX^.J.}.mXcXZXcXr a i p ( ( _ _ ( ) ) ) ` ' ) ` ) ) ) ) ) e S S D Y k.c.l.z.s.l.l.l.b.c.l.b.c.c.c.v.v.v.v.v.v.v.v.v.v.c.b.l.l.l.c.v.C.l.r.r.y.y.z.j.j.l.z.z.l.z.j.k.k.Y Y :.!.8.4.<.<.6 X . o q.'.>.L %.:.o.N.Y.N.U.M.M M D M k.M k.D k.O.O.S t @ e e e e e e e e e w w ( e ( ..O.gX|.|.O.k.k.g.l.b.b.Z.Z.Z.Z.Z.v.s.a.b.z.c.z.c.x.z.Z.C.M.U.G P K $.+.X.X.-.8.[.zX[.`.0.[.|.}.XX~.N.C.C.j.g.z.z.g.z.b.s.a.x.H.d.a.b.a.W.H.a.d.x.G.D.x.x.H.W.D.v.H.F.W.x.x.x.G.G.x.s.x.b.s.a.x.D.x.a.v.x.b.a.r.r.a.v.s.z.M.Y U.Y U L o.O.D S S S S U O.o.o.o.U.D o.U.^.Y.k.t.t.g.y.a.s.a.s.a.D.W.x.s.x.V.V.s.r.s.F.V.y.r.e.i.s.B.Z.F.Z.s.y.z.s.r.r.e.r.s.i.x. X Xi.B.p.n e.h.n b K.MXBXCXJ.l _.CXBX{.].yXKXmXc , 3 3 1 3 # 1 1 1 ; 4 4 - 1 3 3 t 3 2 S P S S S D O.T.U.Y.U.U.N.G , G }.`.F cXLXVX!.(.(.(.(.{.}.8X_._.)._.(._.].}.eXwXyX}.eXeXeXeXyXyXNXyXyXyXyX~ Z ! ,.! ! ,.,.1.!.`.|._.|.N.M.C.B.V.c.z.z.z.z.z.x.b.c.b.x.x.b.b.v.v.x.b.v.c.b.c.l.l.z.l.l.b.c.c.c.z.j.g.g.j.g.z.x.V.v.x.z.l.a.a.a.v.v.v.D.E.E.W.E.D.v.v.Y.^.|.v , X X 5 o ; 5 k 5 4 : . .   . . . . . @ # @ #   @ # 1 g X.$.$.K a r - q ; # < > 3 l c p.p.d.S.G.K.K.K.K.K.K.K.J.I F 2 # - u 4 4 ; - ; q 9 = = 9 = 0 0 0 0 = @ O ",
"$ O O O : O . . O O + + @ & & % $ $ $ $ $ & O $ + O & O O & & @ & O       O   . O . . :     - j X.a < r s s s K >.8.<.;.%.L K J Q Y ~.}.T.M.Y.T.Y.R.Y.C.Y. XC.Z.Z.C.c.B.c.c.c.z.j.z.z.c.z.B.c.x.c.v.c.v.v.c.v.v.v.c.c.k.g.k.g.u.n n n b n b m b M n M t.M g.k.c.v.E.T.T.W.T.v.W.W.W.W.Y.U.n.Y KXCXY D M t.t.r.y.y.e.n n V n b n M.^..X_.(._.yXMXyX_._.}.hXNXcXa f ' ' p ' _ _ _ ) ` ) ) ' ) ) ` ) ..........O.D k.T.j.l.z.a.l.g.l.l.l.l.l.l.l.c.c.b.c.v.v.T.v.v.b.v.b.b.b.b.b.x.c.v.c.r.r.t.y.g.z.y.j.z.l.z.z.k.m.n.D G P o.;.>.<.%.s . . < 9.0.%.K E ~.N.Y N.M.k.k.k.D t.h.t.k.k.k.k.D D O.S t e e e e e e e w e ( w ( e e ..8.gXhXO.T.k.j.l.x.l.l.V.V.c.x.x.x.s.b.z.z.c.z.z.l.l.Z.j.M.o.Y L X.$.$.$.X.X.=.q.zXq.[.[.(.(.}.mX^.U.C.c.j.z.g.l.a.z.s.s.a.x.H.b.a.d.b.W.v.b.d.b.G.H.b.x.b.H.D.v.H.D.F.x.s.b.D.D.z.b.x.H.x.s.x.Z.b.x.H.v.s.a.a.a.s.Z.z.j.k.k.N.Y G P o.U P S S S P o.U o.U o.U.o.k.U.XXT.k.g.l.c.a.a.l.s.s.z.H.W.z.s.s.D.F.s.r.r.V.V.s.r.r.y.y.i.s.Z. XV.s.x.V.y.r.r.r.e.e.r.A. XR.A.A.i.n m.m.^.MXBXMXK.l (.SXCXmX(.qXSXVXU > x 2 t 1 1 1 1 # < # ; & ; ; t 3 3 t t S x l S T.T.|.|.T.h.D D U.N.Y mXPXcXX.KXLXwXqX].].)._.eX8XeX_._.(._._._.]._.{.{.wXwX8X}.eXyXNXmXBXmXyXyX}.Z A ! ! ,.,.,.,.Q.,.!.(.|.~.N.m.B.z.z.z.x.z.b.z.z.b.z.c.b.c.c.b.b.b.v.v.b.b.b.b.c.b.l.l.l.l.l.l.l.l.y.y.y.g.i.y.l.c.V.Z.v.x.z.b.a.b.l.c.T.D.W.Y.Y.E.R.b.c.C.Y.^.c > X X X : o 5 k k u * . . + # # ; + + @ + @ @ O . O 0 [ -.-.*.[ a r r r ; # X X , z N p.f.m.S.P.S.A.K.P.f.f.f.f.A x < < = 4 & : ; = q q = q = = = 9 q 0 % % q a ",
"$ $ : O O O . O $ O + $ % % = % $ $ & O O & O O & O & O & & O O O O   O   . O .   . . O . . u j j 5 # ; 1 1 r s X.&.;.%.R L L P ! U ~.|.N.c.Y.R.Y.^.Y.M.Y. Xc.Z.v.C.v.C.B.B.c.z.c.c.c.z.c.c.c.v.c.v.v.v.v.C.c.v.c.c.c.c.g.g.j.t.n n n b b n b n m M M M M t.t.g.b.T.E. XE.oXE.E.E.W.T.Y. XU.m ZXKX~.D M t.g.r.r.e.e.e.n n b B m._._.^.^._.XXyXCXyX^.Y ~.}.vXhXa f ' ' ( ( ( ) _ ) ` ` ..' ) ) ) ) ` ......S O.T.T.M.c.g.z.l.l.g.l.l.l.l.l.b.c.b.c.c.v.v.v.v.v.v.v.v.v.c.b.l.c.x.z.c.l.t.r.y.y.i.l.g.l.z.j.j.z.g.h.m.D c , 2 F K %.L 2 . X s 0.0.;.H o.!.U.N.Y.U.T.k.k.M M h.D k.k.k.k.D D O.S t e @ e @ e e w e e w e ( e (  .O.O.8.O.T.U.c.g.l.l.z.c.v.x.x.x.x.x.b.b.l.c.l.l.z.v.C.k.M.U.U X.$.[ X.*.$.X.2.0.hX'.hX}.].~.|.XX^.M.C.M.j.g.a.y.y.z.a.r.r.b.b.a.d.b.a.W.H.d.b.a.b.b.d.a.d.H.b.x.x.D.D.b.a.s.D.H.a.r.x.D.V.a.x.x.H.a.x.z.a.s.V.V.D.Z.s.j.k.D o.P S G P P S S S S O.O.o.o.o.Y Y D D T.|.k.t.k.k.l.g.y.l.s.z.s.D.Z.a.s.z.R.G.s.a.r.a.V.B.V.V.s.i.r.r.s.R.F.z.V.Z.s.y.x.s.s.r.e.e.z.x.Z. X XS.n Z.MXBXMXn.l ~.BXBXmXyXeXVXKX!.> > t P t t 1 # 1 1 1 ; ; * ; ; 3 3 , , , l v o.Y.|.jXY.T.T.j.h.k.N.N.N KXGXx !.LXKXqX].wX8X{.{.}.eX8X{._.(.(.(.(._._.{.wX}.{.Q.A A ! )._.(._.wXyXQ.z N.J.,.! ! ! :.:.,.:.!.~.^.N.m.m.j.j.g.z.z.z.c.b.c.b.b.x.v.v.v.v.v.v.v.b.b.b.v.b.c.l.g.l.c.c.c.c.l.j.y.y.h.y.y.y.l.z.v.Z.v.x.a.a.l.l.c.v.v.Y.E.E.E.R.c.Y.C.U.|.Y > X X . X : - j -.$.k 4 : = # ; q @ # # +   + @ + O q X.=.8.7.X.f 0 0 1 # # o > , x N Y J.f.m.P.f.P.N.A A V A c Z 3 > X # & : : * = 9 8 = = = = = % = 9 = i $.8.",
"$ : $ $ : O O O O : * = - & = = & & * $ $ $ & + + O $ O @ @ + O O O       O   .   .     . . ; k j 1 1 . ; s s K L %.R L K H H J U Y ~.^.C.T.Y.T.E. XU.m XXoXk.C.v.B.B.C.v.c.x.c.x.z.z.V.c.c.c.v.c.v.c.x.v.v.v.v.v.c.c.j.j.k.g.n n n n b n b n n M M t.t.t.g.t.g.g.g.g.g.l.c.c.v.v.c.v.Y.Y. Xk.|.KXjXo.M t.t.r.t.r.n n n b u.XXXX_._.^.^._._.XXyXJ.^._.jXmXmX0.] ' ' ) ' _ ( _ ( ( ( ) ) ) ) ) ( ( ) ` ..S O.o.T.T.T.k.g.l.l.s.l.l.l.b.l.b.l.c.l.c.c.b.b.c.v.v.v.v.v.v.v.b.x.b.b.c.v.l.t.r.y.y.l.c.g.g.k.c.z.j.j.k.h.D v , > # a K P 3 X . F <.<.L G U ~.U.U.U.M.T.M.k.h.D t.k.k.t.k.D T.O.o.D O.t e e @ e e e e e e e e ( e ..e t O.O.T.T.T.T.T.b.c.c.v.c.b.v.v.b.b.b.b.c.c.c.b.c.c.c.M.o.o.%.$.$.X.$.j X.F <.`.[.cX}.!.N.(.XX XY.m.c.z.j.z.a.y.z.x.a.r.a.H.x.a.b.a.D.v.a.d.b.H.H.b.b.x.H.b.d.a.x.D.x.d.y.H.G.x.a.x.F.V.x.s.V.x.s.s.s.s.s.D.D.D.v.Y.j.k.Y D Y P S P S S S S S o.o.o.D O.O.D D m U.^.M.k.j.k.l.l.l.a.z.z.z.Z.x.a.a.a.D.D.D.x.a.s.D.a.x.D.E.D.r.r.r.s.x.x.D.F.D.z.V.F.Z.a.y.r.r.r.r.a.R. XS.i. XMXA.b K.MXBXMX_.J.).xX,.> > t L K X.r r 1 1 ; # 1 4   : 1 > , 3 , D U.|. X^.Y.T.k.k.c.A.R.k.B B l CXSX3 qXLXKXxX0XwXeXeXeXeX{.{._._.).(.^.)._._._.}.eXyX_.J.A v v Z J._.yXXXB A ~.N.~.J.! ! :.:.;.:.:.~.J.N.m.j.i.g.j.j.z.g.c.l.l.b.b.b.T.v.v.v.v.v.v.b.v.c.c.b.c.l.g.l.l.l.l.c.g.y.t.t.t.r.r.y.z.z.c.V.v.c.l.l.l.b.l.c.v.Y.E.E.E.E.R.Y.c.Y.}.c > > 1 X . . + r X.=.*.h *   = 8 # e @ # # = @ @ @ . @ [ =.8.7.$.g = - q > # > 3 3 S Y ! N.N.A A A A c l , l x Z 3 > X X . X     $ O 9 q = q q = = + + = f =.zXnX",
"$ $ $ : $ : $ : $ $ & 9 u u 9 = = = & $ & + + & @ $ $ $ & + & + O O O     . .   : . .   . . $ 4 a 1 j K 2.`.[.<.H K E E J R H H U I J.^.C.C.W.T.Y.^.M.Y MXXXg.v.V.C.V.V.v.B.x.B.c.x.c.c.B.x.v.B.V.v.c.v.v.v.v.v.v.c.c.c.g.h.g.M n b n n n M n M M t.t.t.t.g.t.t.t.y.r.t.t.t.t.y.g.g.l.T.c.^.k.U.KXCX|.D h.t.t.e.e.e.n b B.XXjXXX_.XX}._.^.J.N.B J.XXMXBXjX2.F i { ' ( ( ( ( ( ( _ ( ( ) ) ) ( ( ) ( ) ..O.o.o.T.T.T.c.l.l.l.l.s.l.b.l.l.l.c.b.b.b.l.l.c.c.c.v.v.v.D.v.v.v.b.c.x.v.C.l.y.t.y.y.l.z.l.l.z.z.l.l.k.h.h.N v , 3 2 6 P s > X X 6 <.>.L F U o.o.U.U.T.U.M.k.h.k.M t.k.k.k.k.k.D D D O.X.t e e @ e e e e e e e e e ( e ....O.T.T.T.T.b.c.c.c.v.x.v.v.v.H.b.b.b.c.v.v.c.b.c.C.M.N.o.o.$.X.j j s t t P <.hXhX].~.Y N.^.^.Y.M.k.j.i.l.l.a.b.V.z.a.x.D.H.a.a.d.W.H.b.x.D.W.G.x.a.x.v.H.x.b.x.Z.H.x.b.x.D.s.s.x.G.x.s.x.V.x.a.d.x.s.s.Z.V.x.D.R.C.M.k.D Y S S S S S S S S O.O.o.S S m D S m U.^.h.M.c.z.z.y.y.a.s.y.x.D.H.a.a.a.x.D.x.x.s.D.D.z.s.x.F.D.s.s.r.r.r.r.s.V.F.F.H.Z.Z.s.r.a.a.r.e.r.s.V.i.s.F.^.V A.BXCXXX_.N.A Z Z > > t F X.X.X.g 2 r r t r r + 0 < > , , m XXXX|.Y.T.k.k.c.c.k.h.g.C.m.M.A l VXSX> /.PXLXNX0XwXxXqXeX8X_.{.)._.(.)._._.).]._.{.eX}.eX{.).J.A J.yXmXXXJ.b u.N.N.N.N.N.U N.U :.U :.:.~.n.n.k.u.h.g.k.j.k.c.c.c.T.v.b.v.v.v.v.v.v.v.v.b.b.b.c.b.b.l.l.l.g.g.j.h.u.e.e.e.t.r.a.z.x.v.C.v.c.b.l.l.l.b.c.v.v.D.D.Y.R.R.Y.T.Y.|.N > 2 a a 1 r @ @ ] -.7.+.a % = 9 % # @ @ @ # @ + . . # [ *.=.7.$.g 1 - 1 # # > 3 3 G U Q.o.I A c l x , , > 3 2 2 > X X X X : # * = 9 9 @ @ = % O O 0 h $.q.nXbXJX",
"& * * & & $ * & $ & - - 0 u 9 9 = = = % + + & + O @ + & & @ +     O       . O   O . . . . . . : # s <.'.zXbXbX0.F K K H J H J H U I Y ^.Y.Y.Y.D.C.XXN ~.CX.Xt.Z.Z.V.V.v.B.v.c.V.c.B.x.c.x.c.V.x.v.c.x.v.v.v.v.v.x.c.c.j.g.g.k.n n n n n n n M M t.t.t.h.t.t.t.t.y.g.y.g.y.g.y.g.y.g.g.c.c.Y.k.N CXKX}.B b M e.e.n e.n u.XXMXXX X.X_.XX X|..X_._.uXMXmX^.S 3 t X.{ ' ( ( _ ( ( ( ( ( ) ) ) ) ( ) ) ( ( e S O.T.T.T.k.k.l.l.a.a.l.l.l.b.b.l.c.l.c.l.c.b.c.b.c.c.v.v.v.v.v.b.b.c.b.x.v.z.t.r.y.y.l.l.l.j.l.j.j.j.j.k.h.m m v x x F F 3 > X X 6 >.;.L P U :.U.U.U.U.U.k.h.D k.M k.t.k.k.k.D k.o.o.o.O...t e e e e e e e e w e ( ( e t S O.o.O.T.T.c.b.c.c.c.C.v.v.v.b.b.b.b.c.c.v.c.c.c.M.M.N.o.;.X.j g s r # 3 t 2.mXhX~.o.N.V D ^. XC.C.c.l.z.g.s.b.V.z.a.x.D.x.b.b.b.W.G.H.D.D.W.v.b.d.x.x.x.x.b.x.H.x.x.b.x.D.x.s.x.F.x.a.s.D.x.a.s.x.a.s.V.x.a.z.v.c.T.o.D P S S S S S S x S S S S S v S m S D U.T.h.T.T.z.z.l.l.a.z.a.x.F.v.s.d.r.b.b.l.b.x.D.F.D.x.x.Z.G.z.s.Z.s.r.r.r.s.D.F.V.Z.F.D.s.D.F.x.a.y.r.r.r.i.B.i.n ^.MXyX^.Y b z I x X , s t X.X.$.j s a s t t 1 r > 3 l c Y.XXjX XY.T.h.k.z.Z.T.c.k.t.j.B.^.J.v NXSX3 ~ LXPXSX0XqXeX{.).{.{._._._.).).J._.).(.(.(._._._.Q.Q.~.(.J.|.XXXXn.b B h.N.N.N.Y N.Y ! ! ! o.:.N.N.n.h.i.y.t.g.k.c.c.c.l.b.b.b.b.v.T.b.v.b.v.b.v.b.c.b.c.b.l.l.l.g.l.c.g.e.M e.e.r.r.y.b.V.v.C.Z.v.v.b.c.l.b.c.c.v.v.v.v.Y.D.C.Y.U.|.~.x s K K $.X.=   q +.-.=.j r q q @ # @ @ = e @ # @ @ @ g X.8.=.$.f e = 1 # # # # 3 t G U o.G , , , > > > > > 3 < X X # ; # ; * = = 9 = @ + = O @ 9 [ 9.zXHXIXJXFX",
"4 & ; * ; * & & = = 9 u u u u 4 = = = + & + + + O + & + + O @ O             O   : . .   : . . . X g 9.zXzXcXcX<.H F L K H H d H I G Y Y.M.Y.R.Y.Y.^.l ^.SXA.u.A.C.v.C.v.v.B.V.c.x.c.V.V.v.v.c.x.c.V.c.v.v.v.Y.v.C.v.c.z.g.k.k.t.n n b n b n n M M M t.M t.t.t.e.t.r.t.t.g.g.g.c.l.c.c.l.c.Y.T.D mXKXZX|.m M M e.p.n b A.XXjXXXjXjXXX^.XXXXjXuXMXXX^.n.z l S P [ ' _ p ( ( ( _ _ ` ` ` ) ) ) ) _ ` ....t 3 D U.T.T.T.l.c.l.l.l.a.l.b.l.l.b.b.l.c.l.c.c.b.b.c.c.v.W.W.v.v.b.b.l.c.C.Z.j.y.t.y.a.a.c.l.l.z.c.z.j.j.h.h.D N v x x F c , > > X 6 <.%.L P L U.U.U.U.T.k.k.k.k.k.M k.k.t.k.k.k.D k.D D P ..t @ e e e e e e e e ..e e ......O.O.T.k.T.l.k.k.c.c.v.v.Z.v.v.b.b.b.v.v.v.v.c.c.c.M.o.o.o.R j a 1 # # > > `.VXcX~.J.~.V b ^.^.C.C.j.g.x.z.l.V.Z.V.x.v.D.H.H.G.D.oXW.x.v.D.W.D.H.v.D.D.D.x.d.v.H.x.x.d.x.D.H.a.x.E.S.s.s.Z.x.a.x.V.a.a.V.z.s.y.g.k.k.D D S P P S S x t S S S S S S S S D D k.U.M.h.Y.c.j.l.l.z.l.a.a.x.F.H.z.a.a.b.a.r.r.r.s.F.x.s.s.D.E.V.x.F.F.Z.s.r.r.a.a.s.Z.F.F.Z.Z.F.A.s.V.s.s.e.y.A.A.i.Y. X^.f.V V Y mX{.G 3 1 t g X.X.g t t s s S t 3 , , D |.jX XT.k.j.Y.Y.c.l.l.l.j.g.y.r.p.A.Y v ZXKXC G KXLXSXeX].eX].).].8X8X).)._.)._.(._.).J.! J.J.J.(.(._._._.J.~.K.V b u.n.n.n.n.n.N.U Y ~.U ! ! N.Y k.k.u.t.k.g.k.g.j.k.l.T.b.v.v.b.b.T.b.b.v.v.c.b.c.c.c.b.l.l.l.l.j.j.g.M n n e.r.t.a.z.c.V.v.V.v.v.b.b.l.l.c.b.T.v.v.v.v.v.c.C.Y.|.{.J L %.=.9.=.[ 0 9 f -.7.*.h y q q @ = @ @ # @ @ + @ @ a *.7.=.*.g = q e 1 t # 3 # < t P t 3 > > > > X X X # 1 1 # # 1 q - = = % = # @ = q % O 0 +.q.nXHXJXJXnX3.",
"* - & = - & = & = = 9 0 u u 9 = 9 9 % % & + @ + + $ + O $ O O O : & O & O O     O   .   O .     . s 0.zXhX0XcX1.s H H F d d 6 6 G c c N.T.Y.R.Y.R.^.b mXCXf.u.Z.B.Z.V.V.C.V.v.V.v.x.v.v.V.v.v.V.V.v.x.v.Z.v.v.v.C.v.C.k.k.j.k.n b n n b b n M M M M M n t.t.t.t.t.y.g.g.g.l.g.l.b.c.c.c.c.c.Y.D !.PXLXjXN b u.e.n n n M m.^. XXX^.A.N.A. X^.A.V V b b z D P X.f p ( ' ' ) ' ' ` _ ) ` ) ` ` ` ) ) ....t S D U.T.T.c.T.g.l.l.a.l.b.c.l.c.l.c.c.c.b.c.c.c.l.l.c.v.T.v.v.v.v.v.b.z.C.C.j.y.t.y.y.l.b.l.l.l.c.j.g.h.j.h.M.Y m v N D A Z x , , H >.;.L H U :.U.U.U.M.N.D k.k.k.k.t.k.g.k.k.k.T.D o.D P ..r e e @ e e e e e e w w ( e t ..S O.O.T.k.T.c.k.c.c.v.T.W.v.v.v.b.c.c.v.v.v.v.c.c.n.N.o.X.X.g 1 1 X > > , `.VXmX~.~.~.N b A.Y.C.C.c.l.l.l.a.z.V.x.z.x.Z.x.x.D.G.W.D.x.a.b.H.E.W.E.E.E.W.H.b.D.W.G.x.b.H.F.v.a.x.E.Z.a.a.V.x.a.s.Z.a.a.z.s.s.z.c.j.k.o.D S S S S t x S 3 S S S S G Y Y Y T.U.U.N.T.C.j.g.c.y.y.a.y.y.x.F.Z.x.a.b.D.x.a.r.r.r.a.r.r.r.V.F.D.V.V.F.E.B.r.r.d.y.r.r.d.B.Z.V.V.F.V.Z.Z.F.Z.G. XA.R.A.A.A.m.n.^.XXBXmXU > 1 t a a a r 1 t x F F S 3 l o.jXjXY.t.e.g.c.v.v.c.l.l.l.j.j.g.r.t.m.V v CXKXI 2 SXLXKXvX).eX].!.Q.)._._.)._.L._._._.).L.J.I I ~ J.Q.~.(.~.N.^.M.b M u.j.m.m.n.M.N.N.o.U J.J.U N.n.n.u.u.t.h.t.g.k.l.l.l.l.c.T.b.T.b.v.v.b.b.b.v.c.c.b.l.v.l.l.l.l.c.k.t.n n n e.e.t.l.z.V.B.v.C.v.v.v.b.l.l.c.c.v.v.v.v.v.v.c.T.Y.^.hX~.%.<.=.9.9.7.[ q = +.7.-.[ f y = # @ @ @ # @ @ . . @ a X.7.8.$.f = e q r e q # # # t 3 t 1 > > X # # # # # # r # r q = 8 9 q 9 9 8 + = 9 ; u &.:XbXJXJXnX9.T u ",
"9 = 4 9 - = = = = & = = - 9 9 - = 9 % % @ + O O @ @ O $ O $ $ $ 9 & = - & $     .     . . .   * X r <.zXzXzXzX8.H s 6 5 6 6 6 6 C x v Y M.Y.T.Y.Y.M.D SXBXn.m.V.V.v.Z.v.V.v.C.v.C.V.C.v.v.v.V.v.V.c.v.v.v.v.Y.v.v.v.c.c.j.k.g.t.n n b n n n M M M t.t.t.t.g.g.j.l.c.c.c.c.c.c.c.l.l.b.v.c.c.T.M.Y CXPXZXm b B M e.n n n b n u.M V b b n t.M V b b M B B D S P ] ' _ ` } ` _ ' } ) ` ` ` ` ` ..) ..aXO.t t Y T.T.c.k.l.l.l.l.l.l.l.l.l.l.c.b.c.b.c.c.c.b.l.g.l.c.v.v.v.v.v.v.v.c.v.v.j.e.r.y.g.l.c.l.l.l.l.l.g.j.h.M.Y.N.h.D D Y N.N.I Z J ;.<.%.X.H U o.U.N.U.M.k.k.D k.k.M k.g.k.k.g.k.D k.k.U.O.P t e e e e e e e e w e w e ( ( ....O.O.T.k.k.k.k.c.T.T.v.T.v.v.v.b.c.c.v.T.v.v.x.c.M.U.U X.P s ; # 1 > # 2 `.hXwX|.}.^.V b M.Y.j.j.z.y.a.y.r.r.l.y.y.a.a.a.a.a.b.v.H.b.a.b.x.W.H.v.v.W.W.D.b.v.D.G.v.x.D.E.D.d.x.E.D.z.z.D.Z.r.b.V.x.z.z.z.x.b.z.j.k.k.D D S S t 3 t x 3 t S S o.o.o.o.o.o.U.T.Y.Y.M.z.j.c.l.z.v.z.a.v.R.x.d.s.x.F.D.x.s.a.s.r.r.r.r.r.x.s.x.s.G.E.H.s.x.V.V.a.r.e.s.Z.B.s.Z. XZ.V.Z.R.A.V.B.B.i.u.i.m.m.C.^.^.~.S > t s - a a r 2 2 x S x t v U.jXjXY.t.g.g.l.g.g.z.Z.Z.Z.C.c.c.j.i.m.M.z Z KXKXQ , NXPXLXNX].7X8X).~ J.)._._._._.).Q._._.~._.J.I c l , l l Y J._.N.b e.u.i.j.j.m.M.N.U.N.! o.U Y Y Y n.h.u.h.t.h.k.k.g.k.c.l.b.c.b.b.b.b.v.v.v.b.v.c.b.b.c.v.l.l.l.g.k.j.h.n b n n e.r.y.c.v.c.v.v.W.v.v.b.b.b.c.c.v.c.v.v.v.v.Y.Y.U.U.}.!.%.%.=.*.7.8.*.y 9 [ =.-.[ f q e @ + @ # @   @ @ . . r [ 7.7.*.t = = q e r # e t r r q t t ; # # # # # q 0 q q r 0 q # q 9 q q q = O $ u +.9.nXHXIXUXkX-.h 4 & ",
"& = = & & - & = - & % 9 = 9 9 9 9 % % @ + @ @ O O O + O $ % = 9 u y u u u 9 & & O   O   . .   * # s 0.zXzXzXhX9.L d 5 6 6 6 6 6 C l l D M.Y.Y.Y.^.n.U.KXBXn.u.B.C.Z.V.C.V.v.v.V.v.v.Z.v.C.v.Z.v.Z.v.v.Z.Z.D.v.v.T.Z.c.c.j.j.k.n n b b n b n M t.k.h.g.j.k.c.C.c.c.c.c.c.j.z.l.l.l.c.v.v.v.v.v.Y.c ~.CXCXN.m B b n b b n n n n n M n e.n n n u.m.m.n.k.D S P g ..] ' { { } ` _ ` ` _ ( w e e e ( gXZX|.t S T.T.M.c.c.g.c.l.l.l.l.l.l.l.c.b.c.b.c.c.b.c.c.l.l.l.z.v.v.v.T.v.v.v.v.C.C.j.n e.r.a.l.v.b.l.z.z.g.g.h.j.M.T.M.M.M.k.n.N.N.D Y Q.1.>.%.W F U o.U U.U.M.D D k.k.k.k.k.g.g.g.k.g.k.k.T.o.o.P t e e e e e e w e e w w w e e e O.O.O.T.O.T.T.k.c.T.v.v.v.v.b.b.b.c.v.c.v.v.v.c.c.T.N.o.P F r < # 3 3 > P |.|.~.|.}.^.b z u.y.e.r.t.y.l.a.l.g.z.a.a.s.s.a.d.a.b.b.b.b.b.x.x.b.d.a.a.b.x.b.a.b.v.D.x.b.x.D.x.a.a.F.v.l.i.x.v.a.a.x.s.a.l.a.a.l.g.t.k.k.S S S S 3 x 3 3 x S S o.o.o.U.o.T.U.U.^.Y.Y.M.c.g.z.l.v.D.v.s.H.D.b.a.d.x.W.D.V.H.x.D.x.d.a.r.d.y.r.r.a.V.D.V.x.V.F.R.F.V.B.A.V.i.r.i.V.S.r.r.y.r.e.e.e.e.n e.y.t.t.u.D Y G x t r - a 5 1 t 2 t v l S M jXjXk.t.k.g.C.c.l.z.Y.Y.C.c.j.M.j.i.y.m.M.V I KXLX(.> ].LXLXDX{.).7X).^ ! J.).)._._.).)._.).L.(.(._.(.).J.~.^._.XXXXm.n n u.j.j.g.j.C.Y.N.~.N.N.J.U Y D B h.u.B h.t.k.g.g.k.g.c.l.c.l.b.T.T.b.b.b.v.b.c.c.c.b.b.b.l.l.g.c.k.t.n b b n e.t.i.c.c.V.v.v.v.v.v.b.b.c.x.v.c.v.v.v.R.v.Y.Y.M.U.~.:.H R $.X.*.7.*.h f j *.-.X.j y = @ @ @ . @ @ O O O O 0 X.=.=.[ q = q q q e # # r r r r f i q = = e q q q q r q q q q q q = q 9 8 = = j w.zXFXJXHXnX:XR u u 4 4 ",
"4 u u = - & = = = & = % % 9 9 = = 8 % $ @ @ O O O O O @ $ 9 u u p k f h k y u - : O   O . :     X j hXzXcXzXhX'.;.K s 6 s a 7 1 C , , D n.T.C.Y.^.n.J.KXMXf.p.Z.V.v.v.Z.Z.C.v.Z.Z.Z.v.Z.v.V.v.V.v.C.v.v.v.v.v.Z.Z.v.C.c.c.k.g.M n n n n n n t.t.h.g.j.C.c.c.j.j.c.z.g.j.l.j.g.l.c.b.c.v.c.c.c.Y.Y.b |.XXn.b n u.n n n n n e.n B u.t.e.e.e.e.e.V t.B M m D S P { ` ` ` } ` { ` _ | ) `  .gXgXO.gXnXhX..t U.U.k.M.k.c.c.g.l.c.l.l.l.l.l.b.c.b.v.c.c.c.c.c.l.l.l.l.v.T.v.W.v.v.T.Y.j.M.g.n n e.y.l.b.l.l.l.z.l.j.j.h.h.M.U.Y.U.T.N.D A v Y /.`.>.L H F U :.J.N.N.m.k.k.k.D D k.k.k.g.g.g.k.k.M.k.D O.P t t @ e e e e e e w e w e ( e ....O.O.O.k.k.k.k.c.v.T.v.T.v.v.v.v.v.T.v.v.v.v.C.c.k.Y Y P s 1 o > # 3 > o.cX}.~.Y ^.N.z b u.Y.C.c.z.c.x.c.z.l.z.z.l.x.l.b.b.b.b.b.b.H.v.D.b.b.x.b.b.a.a.a.b.a.a.a.l.a.r.b.a.a.r.a.y.r.r.y.a.a.y.r.e.t.r.r.r.y.g.t.h.D m v S 3 t 3 S S S S P o.~.o.o.U.o.U.U.^. XY.k.v.g.l.z.v.R.V.z.D.F.x.x.a.z.D.Z.x.x.V.F.F.x.a.a.S.V.r.r.r.a.s.s.y.x.Z.F.D.V.F.R.B.r.r.r.e.r.e.r.r.r.a.s.z.x.V.A.Z.s.B.C.U.N.G x 1 r a ; 1 < 3 x v v v S hXjXU.M k.k.y.c.B.Y.R.R.C.g.i.C.C.c.j.y.B.m.V ~.CXLX}.> Q.KXLXLXeX,.].8X(.L.~ I J.L._.)._.(._.Q.(.~.(.(._._.}._.XXXXC.M t.u.t.y.a.g.j.C.Y.U.N.U.U U Y n.A B D u.k.t.t.g.k.k.l.c.g.c.c.c.c.c.b.c.v.v.b.v.b.c.c.c.c.c.l.g.l.k.M.t.b b b e.e.e.l.z.V.c.v.c.v.v.v.v.l.c.c.c.c.c.v.v.v.b.Y.C.Y.|.|.U F g K X.X.X.*.X.[ +.+.*.+...i q @ @ O @ @ @ . . @ . = [ -.-.[ = = q q r r q e r i r q r r q 9 9 q # = q q e q q q q r q e # # % f X.q.nXbXJXbXzX3.j a 4 4 * : ",
"u 9 = = 9 = 8 = % = = 8 = 9 q = 8 = @ @ @ + @ O . O % 0 0 u y y y a p a f a y y u 4 $ O . : $   # g hXzXcXzXhXcX8.K s s 6 s 5 6 F 3 l c n.U.Y.Y.^.n.J.KXMXA f.A.Z.Z.v.V.v.Z.v.Z.v.v.v.Z.Z.x.v.v.C.v.v.v.v.v.v.C.v.Z.c.c.M.j.k.n n b n n n b n M M t.g.g.g.k.l.g.j.l.g.g.g.g.l.l.b.b.b.v.v.T.v.T.Y.Y.M Y.^.M u.n b n n b n M M e.e.t.t.r.t.e.n n n t.M Y S O.O.X.] } { ` ` ` ` _ ` ) ( @.kXnXfXnXhXhXt T.jXT.c.k.c.k.k.l.l.l.a.l.l.c.l.c.c.l.c.c.c.c.c.c.l.g.l.g.l.c.v.v.v.T.C.C.M.j.n n e.r.g.l.c.b.l.l.l.j.j.h.M.h.n.M.Y.Y.Y.M.h.N c Y (.].1.E ~ J :.! N.J.M.n.D k.k.h.k.k.k.g.k.g.g.k.g.k.k.T.O.S t e # e @ e e e e e e e ( e e ..O.O.O.T.T.T.D k.k.T.c.T.v.v.b.b.v.v.c.v.v.v.b.v.c.k.o.Y P t X 1 # 3 > S hXZXjX}.|.N.B b b u.R.Y.C.C.v.v.v.x.z.z.z.s.a.s.b.x.H.b.v.b.b.H.v.H.v.b.b.b.b.v.v.H.H.v.b.a.a.a.a.a.z.l.a.y.y.y.y.y.l.y.y.y.y.i.l.y.l.l.j.k.h.D S v 3 3 x x S S P O.o.!.o.U.U.o.T.|.|.Y.T.C.z.g.l.l.z.z.l.z.Z.E.D.x.x.D.D.z.a.s.V.F.D.x.V.x.B.V.a.s.r.a.s.r.y.r.y.s.y.r.y.p.r.e.r.e.e.e.r.r.s.z.V.F.F.v.V.R.E.Y.x.C.T.N.Y S 1 a 0 1 ; 2 3 , v l D jXjX|.k.k.T.T.t.j.Z.Z.Z.c.i.j.C.C.C.C.g.z.m.m.V (.CXKXmXv Z SXLXSXNX~ 7X_./.L.~ A Z ~ L._._.).{.).J.Q.J.Y c l l l N.^.B M t.j.i.j.a.y.y.C.Y.M.U.~.~.Y Y N A D B u.M k.h.g.k.g.g.g.l.T.l.c.c.c.b.c.T.b.b.v.v.b.T.b.b.b.l.l.k.k.M.h.b b b n e.r.g.c.v.v.c.T.v.D.v.v.b.c.c.c.c.C.c.v.c.Z.T.Y.U.|.|.G t d j K X.*.X.X.[ [ +.*.X.h f 9 @ @ O . O O @ @ O O = h +.X.a = q q 0 = = = r r r f a q - u = 9 = = q 9 = q 9 q r = = = # @ r [ &.kXbXHXHXnXw.-.h a - : : * * ",
"= = = % % % # % & % % % 8 9 q q = 8 8 @ @ @ O O @ % 9 q y a u u u y y a f y a y k y u $   O + + X s fXhXzXnXcXcX'.K g s a 5 k 5 2 2 l v D Y.Y.Y.^.N.J.KXyXu.S.S.V.V.v.Z.Z.V.Z.v.V.C.Z.v.v.v.v.x.v.V.c.x.v.v.v.v.v.v.C.c.c.M.g.M n b b n n n M n n M M t.t.g.g.g.z.l.z.l.k.l.k.l.v.v.v.v.v.v.v.v.Y.Y.k.Y. XD B t.b b n n n n n M u.e.t.r.t.t.t.t.n n M k.D O.8.@.` ` ` ` ` ` ` ` _ ' w e { { ..O.|.hXO.|.ZXD j.c.c.l.c.l.l.l.l.l.b.l.b.l.c.b.b.c.c.b.b.c.l.l.c.g.l.c.c.c.C.C.C.j.u.M n n n t.y.l.z.z.l.g.l.j.k.k.B n.Y n.N.M.U.C.N.D G ~.(._.7X0X7X6.{.).J.N.N.M.k.M h.h.k.k.k.k.g.g.l.k.k.k.k.k.D O.S t t e e @ e e e e ..( e e e e ....O.O.D D k.k.g.g.b.v.v.v.v.v.v.v.v.T.T.b.b.v.c.k.N.Y P S 3 < > 3 , D hXmXmXmX}.U.u.b b n Y.Y.Z.Z.V.v.v.z.z.z.l.z.b.b.x.b.b.v.v.H.v.v.v.v.v.W.W.W.H.W.D.v.v.b.b.b.a.b.b.b.b.x.z.l.a.a.a.l.l.l.l.l.l.z.z.l.c.l.k.k.D D S 3 t 3 3 t S S D O.o.o.o.o.o.U.T.jXXXE.M.k.l.z.l.l.l.z.l.s.Z.F.x.D.x.F.E.R.x.V.V.Z.x.s.s.V.F.D.s.r.y.s.V.d.r.r.y.r.r.e.e.r.e.e.e.r.r.r.r.x.D.F.D.D.F.x.b.V.R.Z.b.c.M.n.o.S 3 1 r ; r < 3 v l S U.jX^.M.k.Y.Y.h.n u.C.j.z.z.g.j.C.Z.c.C.i.g.i.M.N (.CXLXCXC , NXLXKXAX,./.0X).L.J.~ / A I L.)._._.J.(.(.(.J.J.J.N.N.XX^.u.u.t.t.g.g.y.y.y.c.Y.M.U.N.Y N.~.N B B B u.t.t.k.t.t.k.g.g.g.c.l.c.l.c.b.T.b.v.T.b.T.b.b.v.c.b.c.g.l.k.k.t.b b b n e.t.l.c.c.v.v.v.v.v.v.T.v.c.c.c.c.c.v.c.v.v.c.C.Y.^.~.S s g X.[ [ [ [ [ [ j j [ [ ] i = @ @ O O O @ . @ @ @ # r f h r = # r r ; ; # q r f t a 0 9 9 u & e q q = 9 9 q 0 = ; = # + a $.8.zXFXJXbXzX9.R k u 4 $ : : * : ",
"% % % + @ % % % % % % % # 8 q q 9 # e @ @ @ @ @ & 9 0 y u u u u u u u u y a a y y f a u = $ * * X g hXzXcXzXcXnX[.K r 5 - 5 5 1 6 x 3 l D Y.Y.C.^.V J.SXyXf.f.V.V.V.V.C.C.v.V.v.v.x.v.v.C.v.x.v.x.c.v.v.v.v.v.v.Y.T.Z.c.C.k.k.n M n b n n n M n n t.M t.t.g.y.g.l.g.g.g.l.g.g.l.c.b.b.b.v.v.v.T.v.R.c.Y.XXc.M M b n n n n n M M t.t.r.y.t.y.y.h.M M M D S O.fXX.{ ` ` ` ` ` ` _ _ ` ' w e e e t O.ZX|.jXjXk.k.Y.c.k.c.l.l.l.l.l.l.l.l.c.b.c.c.c.c.c.c.c.c.c.c.l.g.l.l.j.c.c.j.h.n n b n n t.g.z.z.l.l.g.j.k.k.h.D D D D Y N.A.Y N.A N.(.8X^ / / / / / J.J.J.N.n.t.h.h.k.k.k.j.k.k.g.g.g.k.k.k.h.o.D D ..t # e e e @ e e e e ( ( ( ....O.O.D O.T.k.g.k.g.c.T.v.v.b.v.b.T.v.b.T.v.c.v.c.M.N.o.P 3 X > > > , U ~.|.hXjX^.N.B b b n A.Y.Y.Z.c.c.x.b.l.l.l.z.x.z.b.b.b.v.v.H.W.v.v.v.b.b.b.v.v.v.b.b.b.a.b.b.b.v.x.H.v.x.l.l.l.a.l.l.l.l.g.s.j.l.z.b.l.l.k.T.Y D S 3 3 3 3 t S S O.o.o.U.o.U.T.U.|.jXT.Y.v.c.g.l.l.l.z.z.z.a.Z.W.v.v.x.F. XW.D.F.W.E.V.z.s.z.Z.D.S.x.s.D.F.s.y.a.V.z.r.y.i.z.r.p.i.z.B.s.S.F.F.F.Z.x.D.x.b.Z.E.v.c.c.M.U.Y S # 1 ; 1 3 > l l l U.jX|.Y.U.U.T.M.Y.T.i.t.t.z.Y.Y.Z.C.C.B.c.z.z.m.B.B I CXKXKXQ < {.KXKXSX7X>.eX].).).L.~.J.Z A ~ _.eX(.).(.{.wXyXmXXXyXXXn.M u.u.j.j.r.y.a.l.c.Y.M.B D D Q.~.N Y B n.u.h.t.h.k.t.k.g.g.l.l.l.c.T.c.b.b.v.b.b.v.b.v.v.v.v.c.c.c.k.k.k.u.b b b n M y.g.c.c.v.v.T.v.v.v.v.c.c.c.k.c.c.v.v.v.Z.T.C.Y.|.~.x 6 F P [ [ [ [ ] g h h [ [ ..q e @ @ O O O O O O O @ # q f s y 0 - q # # # ; r r a f a r u = u & = 9 = q = - - - = = # r g -.hXbXJXHXnXzX3.+.a * $ :   : : : : ",
"% % % % % = 9 8 % % @ @ 8 = 9 9 e = @ % @ @ @ @ = q y y 0 0 u 9 q 9 9 9 9 u y y u a a a = = * = X K hXzXcXhXcXnXq.j 1 1 5 5 1 5 5 x 3 l D U.^.U.~.V _.SXyXf.S.S.V.v.V.v.v.V.v.V.Z.D.v.Z.v.V.v.x.c.v.c.x.x.x.v.C.v.v.v.c.c.c.k.n n n n n n M n M t.t.t.y.t.y.y.g.g.g.l.g.g.j.g.l.l.l.b.b.b.v.v.v.D.Z.z.j.jXY.b b b b b b b n n M e.e.t.t.y.y.t.t.t.M M S x O.8. .#.` ` { ` ` ` ` ' _ #.] ....S t jXGX|.jXjXT.z.T.c.c.k.l.l.g.g.l.l.l.l.l.l.c.c.c.c.c.c.l.c.c.c.z.g.g.y.g.j.g.t.n b M n M n e.i.z.j.z.j.z.c.j.k.n.Y D G A I N.N.n.J.I P.~ / / / / / / A / A J.A.n.D t.h.h.m.k.k.k.k.g.k.l.j.k.k.k.T.D O.S t e e e e e e e e ( e ( e ..t ..O.O.O.D D D g.g.c.v.c.v.v.v.v.b.T.v.b.b.b.z.c.k.T.Y P t > > , > S |.jX|.^.|.U.M.B b b n C.R.Y.C.x.z.z.z.s.l.l.s.b.l.b.b.v.b.v.b.H.v.b.b.b.a.b.b.a.a.a.a.a.a.b.b.v.D.v.v.v.x.l.a.y.l.l.l.l.l.l.g.z.z.l.z.c.b.k.k.k.D S 3 > > 3 t P S P o.o.o.o.o.Y D Y.|.T.T.c.c.l.y.a.z.x.l.z.z.D.D.x.x.x.D.E.D.v.E.E. XE.F.Z.x.Z.Z.z.V.Z.R.R.B.V.V.F. XB.B.V.F.C.V.Z.Z.V.s.V.F.F.x.x.D.W.v.x.Z.Z.v.l.z.T.n.o.S 3 1 1 1 > 3 l l k.XX|.T.T.T.C.k.h.m M.Y.t.g.Z.R.R.b.l.c.c.j.z.c.i.A.B v ZXKXKX{.x ~ SXAXKXNX~ ).).).).Q._.).J.Z v ~ Q.(._.}.wX}.}.yXmXmX~.b M u.h.u.g.t.l.l.c.C.Y.k.h.|.Y Y N.N D B h.u.t.h.k.t.g.k.g.g.g.T.l.c.l.l.T.b.b.T.v.v.T.c.b.T.c.l.c.l.c.T.k.D z b b n t.t.l.x.v.c.v.v.T.W.T.D.c.c.c.c.c.v.C.v.v.Z.T.Y.U.|.~.3 2 g g [ [ [ [ { [ [ ] [ [ f q @ @ @ O O @ @ O O . . % a f f r - # ; - # * # r a r a a 0 - = - - - = ; - 0 - = = ; # q X.q.zXFXJXbXzX9.7.=.k ; $ : $ $ : : : : ",
"% % % = q q 0 0 9 # @ % @ = 8 = 8 e # @ @ @ @ @ % q a q 9 = = = 9 8 8 = = 9 u u = u u a 9 = * * # K hXzXzXhXnXzXq.K s d d s a a 2 2 2 G Y U.Y.U.A.B yXLXyXf.S.V.V.c.v.B.v.V.v.v.v.Z.Z.v.v.x.V.v.x.x.c.x.c.x.v.c.v.Z.C.c.C.k.k.n n n b n n n M t.t.t.t.g.t.y.g.y.l.l.g.g.l.l.c.c.g.l.l.b.b.b.v.v.D.D.b.j.XX^.b b b b b n b n n n t.M e.t.r.t.t.k.k.h.k.D S O.7.{ ' ' ' } ` ` ` ` ` ) ' ..t S O.S |.GX^.jXXXh.M.z.k.k.l.l.j.l.l.l.l.c.l.l.c.c.c.l.c.l.l.c.c.c.c.l.g.g.g.g.g.h.e.b b m M M n t.g.z.j.j.j.j.k.j.k.D Y Y G Z c A I ~ J.A Z / >X>X1XpXpXpXiX8Xf.J.J.M.t.u.h.k.k.j.k.j.k.l.k.g.g.k.k.k.k.o.O.O.t t e @ @ e @ e e ( ( ..( e ....S t S D D k.t.g.g.T.c.v.v.v.b.v.T.b.v.v.b.c.c.k.N.U S x > 3 3 v U.ZXCXZXjXXXM.~.N.b b b M.Y.R.c.l.z.b.z.l.s.l.l.b.l.b.a.b.b.b.b.b.b.b.H.b.b.b.b.a.b.b.b.b.b.b.b.v.D.v.D.v.l.l.l.l.y.g.l.l.c.l.j.l.z.c.z.c.l.c.k.k.D S , 3 > 3 t S P P O.o.D o.o.D o.|.jX Xv.y.g.l.l.y.b.v.z.a.z.Z.W.b.x.v.Z.R.c.l.z.Z.R.R.D.R.R.F.F.z.B.B.V.F.V.V.B.A.F.V.S.V.F.F.Z.F.K.V.S.V.F.G.Z.Z.D.D.Z.b.c.z.l.c.c.T.M.o.S > # # # , , z D |.|.Y.T.k.D D D D m D V B h.Y.Y.c.y.y.j.j.g.l.z.j.A.A z eXKXKXZXx C AXSXAXDX6.6.).).).).).).L.J.Z , v ~ ~ J.(._.(.J._._.V n N.j.u.y.j.j.z.z.c.C.C.k.~.GXXXD Y N n.D h.t.h.t.t.k.k.g.g.g.l.l.l.l.T.b.b.b.b.b.v.b.v.b.v.v.v.c.T.c.c.M.k.M z z b M t.t.l.c.c.v.T.c.T.v.W.T.c.c.T.c.c.C.v.c.T.Z.c.Y.U.|.|.3 1 5 s f [ [ X.X.*.*.*.+.[ i e # 8 @ @ O @ O O O O O = q q 0 = = - # * # = - a a a r 0 - ; = ; = = = 0 u - * = = 0 g =.kXVXIXJXnXq.$.*.q.w.- . $ & * * : : . : ",
"= = 9 9 q i i r 8 e % @ @ 8 e q q q 8 @ @ @ @ @ 8 q y 0 = % & * = & % % % & = = = - 0 a u = $ # # P [.zXzXcXcXhXq.K s j h d a k s s L o.~.^.^.A.N.I BXSXuXf.f.G.V.V.V.v.V.v.Z.v.v.x.v.x.Z.v.x.v.v.c.c.v.c.v.v.v.Z.T.c.C.c.M.k.n b n n n n M M t.t.h.g.t.g.y.y.g.y.g.y.l.k.g.k.l.c.b.l.l.b.T.T.v.v.D.v.k. XA.z b z b b b n n n n M e.t.r.t.t.t.M h.t.k.O.O.O.7. .#.' #.' | ` ` ` ` ' ' { ....D O.U.ZX|.MXoXe.C.c.c.g.k.g.l.g.g.l.l.l.l.l.l.l.c.l.c.c.c.c.c.c.l.c.l.g.g.y.j.u.M b b b M n n e.g.z.B.j.j.g.c.M.n.n.A I G C C Z v l Z Z P.iXiX<XiXiXiXiXiXDXP.f.K.m.n t.t.h.n.k.h.k.k.k.c.g.k.l.k.k.k.O.D D ..t t e e e e e e e ( e ( ....@ e S U.|.T.M k.g.l.c.c.c.b.T.T.b.T.v.b.v.b.x.c.j.N.U.P 3 > > 3 x O.|.jXZXCXXX~.^.N.b b b k. X XC.z.z.l.l.l.z.i.l.a.b.a.b.b.b.a.b.b.b.v.v.v.H.v.v.b.b.v.b.b.v.v.v.D.v.D.v.v.l.a.y.y.y.l.l.c.l.l.l.j.l.z.l.l.c.k.k.D D v 3 # # > S S S S S S S D D D T. XXXY.k.t.g.c.y.l.b.Z.c.l.c.R.G.b.v.b.Z.E.v.b.l.c.c.c.z.Z.Z.R.F.B.x.s.B.B.i.y.r.i.s.s.y.x.A.F.A.F.F.F.B.s.V.D.Z.x.a.a.l.z.b.x.z.v.v.M.U.U.G 3 > 3 > 3 > D |.XXY.T.U.k.k.D U.}.}.}.Y z b t.j.g.t.g.c.c.g.g.a.i.A.N.z Y SXLXKXC , NXSXNXSXeX,.Q.).5.).Q.J.! ! A Z l I Z v c A N c n.Y z B M.u.k.j.c.C.i.g.j.j.M.B C.KXGXY.Y B D B u.D t.t.k.t.t.g.g.g.g.T.c.c.l.l.c.T.T.b.T.v.b.T.b.T.v.v.b.T.c.M.k.m z b b M t.t.l.c.c.c.b.c.v.v.T.W.c.c.k.c.C.T.v.Y.R.T.Y.U.Y.}.|., X 1 t a g [ [ *.7.*.-.*.[ a e @ = % @ O O O O O . @ 9 r r 0 0 = = # * $ ; 0 r a r - ; = = = % * = = = - = = = a *.q.nXHXIXJXnX9.+.+.7.q.=.u . % ; $ * + :   . ",
"9 9 q 0 y y r q q = @ % @ % = q e 8 8 @ @ @ @ % 9 q y 9 $ & + @ & O & & % % = = 0 = u y a = = = # g hXzXcXhXzXzX`.%.$.j R j R j R ;.2.~.|.Y.Y.~.B n.SXSXyXf.S.G.V.V.V.V.v.C.v.V.Z.Z.x.D.x.x.v.x.v.v.x.v.v.v.v.v.v.Z.c.c.C.c.t.n n b n n M n M n t.t.t.g.g.g.l.g.g.g.l.g.k.l.k.g.l.l.b.c.b.v.v.v.v.v.C.C.^.N.b z z b b b n n n n e.e.t.t.y.t.t.t.M k.D D O.2.O.{ ' #._ ' ` ` ` ` _ ' ) ....O.O.T.n.jX|.MXXXe.C.Y.c.g.l.g.g.g.g.g.l.l.l.c.l.l.c.c.c.c.c.v.c.c.v.C.c.g.g.g.j.k.t.b b b M b n e.j.z.B.k.j.j.M.k.n.Y G I C C J 7 < v / >XiXiXiX<X<X<X<X<XiXiXP.f._.N.n t.u.j.k.k.k.k.c.k.k.c.j.c.k.c.D T.D O.S ..q e e e e e ( ( ( w ( e @ e 8.GXGXjX|.D t.g.g.k.v.c.v.v.v.T.b.c.b.b.v.v.c.k.U.U.P 3 , 3 , v m D jXCXCXY.~.^.n.z b n u.Y. XC.z.z.a.z.z.l.l.l.l.a.l.b.b.b.b.b.b.H.b.v.v.W.v.W.W.H.v.v.v.D.W.v.D.v.v.v.v.l.y.l.l.g.g.l.g.l.l.j.g.z.z.z.b.c.c.k.T.D v 3 3 > # 3 t x t S S S S D D D U.T.k.g.g.z.l.y.y.b.v.z.z.x.R.v.l.v.v.R.E.R.R.R.Y.R.v.z.z.x.Y.R.V.V.B.V.V.i.r.r.s.i.s.y.z.A.A.V.B.Z.F.B.s.s.B.s.a.a.r.y.l.x.Y.D.v.T.M.M.N.S 3 # # 3 , l T.jX|.T.U.T.D o.|.CXmX!.xXZXQ.N b h.M.t.k.c.Y.c.j.i.t.m.N.v , {.KXKX(.> (.LXVXAXNX'.,.).).).).Q.J.I Z A I ).Q.l , l , z c V b M m M t.C.C.j.g.B.B.j.C.B m XXKXmXD N n.B u.t.h.t.t.g.k.g.g.g.l.l.c.l.l.l.l.b.b.b.b.T.v.T.v.v.v.c.c.c.k.M.h.b b z b n M g.l.c.c.v.v.T.v.T.T.T.T.T.v.c.C.T.Y.v.v.T.Y.Y.U.|.|.2 X ; a a g [ [ *.*.*.=.7.X.f q @ @ @ @ O O O O . . O @ q r 0 = = % @ + + = - r a 9 = # + $ $ $ $ * # % ; = y [ *.zXbXJXJXnXq.*.[ *.7.=.w.=.f O - = $ : :   O : ",
"9 9 q 9 q y q q q 8 @ @ e = e q q e @ 8 @ @ + % 8 y q = @ O O @ O O O O $ & $ = 9 9 u a u = ; - X g [.zXnXzXhXzXzX8.8.<.=.4.9.4.9.0.0.8.~.~.~.Y.A J.SXDX_.P.S.S.V.v.Z.v.V.v.V.v.v.v.v.v.v.v.x.v.B.c.x.c.v.v.c.v.v.v.c.c.M.k.t.n b n b b n n M M M M g.t.j.l.g.l.l.l.z.l.l.l.l.l.g.g.l.l.c.b.c.v.v.v.B.C.U.M.b z z b b b n n n e.M M e.t.t.y.t.t.t.D D D O.fX .` #.' } ` ` ` ` ` ' ' ....O.O.O.U.U.MXXXXX Xt.C.c.k.c.l.k.g.g.l.z.l.l.k.l.c.l.l.l.b.c.c.v.c.c.v.T.Z.c.c.k.j.k.M b n B M n n t.j.m.m.m.k.h.h.h.n.D G H C H Z > < 7XpXiX<X<X<X<X<X,X<X<XiXDX/ f.^.m.M u.u.j.k.k.g.k.k.g.l.k.g.k.k.k.T.T.k.D O.S r e 8 e @ e e w e e e @ ` nXIXPXGXGXjXk.D k.k.l.T.v.T.b.v.b.T.b.T.b.b.c.z.M.k.o.G x > 3 l o.|.|.jXCXMXU.A.}.n.b z b u.Y. XA.c.j.l.a.z.l.l.l.l.l.b.b.b.b.b.b.b.b.v.v.v.v.v.v.v.v.W.v.W.v.v.v.v.v.D.v.v.l.a.y.l.g.l.l.c.k.g.l.l.g.c.b.c.c.k.k.k.O.S 3 > # > t 3 t t x S S S O.D k.T.Y.M.c.g.y.a.l.l.l.l.y.i.l.v.b.a.b.c.v.R.Z.v.v.D.E.R.V.c.v.E.R.Z.V.Z.F. XZ.A.A.F.A.i.i.s.V.z.y.y.y.z.s.r.r.r.a.s.x.v.b.l.z.v.D.Y.v.T.U.U.D , > > , , Y |.oX|. XU.S Y o.mXKXL X ].VXKX|.m N n.u.M j.c.z.c.i.i.m.N.N , I GXLXNX> J KXSXNXAXqXQ./.(.)./.J.! ~ I I ! yX]., A ! ~._.N.z b V b u.M t.j.j.B.Y.Y.h.T.k.m U.KXCXD B n.B h.M t.k.k.t.g.g.g.g.g.l.l.c.c.b.b.T.T.b.b.T.b.b.v.v.v.v.T.T.c.M.h.b z b b M t.t.l.c.c.c.c.b.T.W.W.T.Y.v.M.h.M M t.t.k.c.Y.Y.D U.!.2 X 1 t a g ..[ [ [ *.*.7.7.[ q @ e @ O O O O O . O O . @ O O + # % $ + $ = 0 q 0 =   . O     O O - = = 0 a j w.zXnXFXFXzX7.+.h y *.=.w.q.w.a O - ; & & O : :   ",
"= = = q q q q q = 8 & % 8 e w e i q 8 @ @ 8 @ e q y q = @ @ O @ & O & O $ $ $ $ = = y y u 9 - ; 1 t 0.cXhXzXzXzXhXfXq.q.q.q.9.<.4.5.0.`.|.}.N.^.c yXLXBX8XS.p.G.Z.x.Z.V.x.C.Z.B.R.v.v.x.Z.V.s.B.x.C.v.v.c.v.x.v.v.Z.v.C.j.j.t.b b n b n n n n n t.t.t.g.g.g.l.g.l.l.l.b.c.c.c.v.b.v.c.c.b.c.v.v.x.Z.B.m.^.m.V z z b b b n n n n n e.n e.t.t.t.t.k.D D D O.gX@.` ' #.} | ` ) _ _ ` ` ..O.O.o.T.|.k.jXZXjX.Xm M.A.z.g.k.l.k.l.c.l.g.g.g.l.l.l.g.a.l.l.l.c.v.C.C.v.c.c.c.C.M.h.n n M M t.M n t.j.j.k.M.M h.N z l G J P F C 7 7 >XiXiX<X<X<X<X,X<X,X<X<XiXiXP.m._.m.M h.j.k.k.j.j.j.j.j.k.c.k.c.j.c.T.k.Y D P t t q @ @ e e e @ O O ..8.FXIXIXIXGXCXjX|.M k.c.j.c.c.v.c.v.c.c.c.T.v.v.c.c.T.k.U.Y x , 3 c jXCXCXCXCXoXY.~.|.N.z b b M Y. XR.T.j.z.z.i.a.l.l.l.b.b.b.v.v.v.W.v.v.v.v.v.v.v.v.v.v.W.T.b.v.v.v.v.v.v.x.b.g.l.g.y.g.l.l.l.T.l.l.T.l.l.c.c.l.T.k.k.U.3 > # # > # 1 t t t S S S D U.|.T.Y.C.z.j.l.y.a.l.a.g.y.l.a.l.l.l.l.l.l.l.l.l.l.l.l.z.l.z.x.v.c.z.z.z.V.C.B.s.z.B.j.r.t.y.y.y.y.r.e.r.a.z.a.a.b.v.W.W.v.v.T.b.v.v.T.T.M.U.D > , > , z U.jXY.|.jXD S [.ZXLXPXhXnXLXJXLXLX|.z h.h.b k.j.j.C.j.j.u.u.B D l cXLXKX1.X xXLXNXxXNX,.).Q.(.Q.J.U A I I ! BX{., }.KXSXCXN.V n.n n e.n n g.C.Y.z.j.j.M.C.M h.MXjXB b M.B M h.h.t.h.g.g.g.k.l.l.l.T.g.l.l.c.l.b.c.c.c.v.v.b.b.v.T.T.C.C.M.M m z b b n e.y.g.z.c.b.c.c.v.T.D.W.v.C.N N D D D n.U.m U.D o.VXjXx X r t s g [ [ X.[ +.*.*.+.[ h = # % @ O O @ g *.7.q.w.*.r . . + +   @   # = * # . . . . . . . . O   O 0 +.4.q.zXbXnX9.+.h a % y *.9.9.q.9.a O 9 & $ +   + +   ",
"= = = 8 q q e q 8 8 % % 9 8 q q i 8 8 8 @ @ % 9 y r q % @ @ O 8 O @ $ $ : $ & % & 9 9 q a u u - # t 8.hXzXhXzXzXzXhXkXhXq.0.9.9.4.>.0.[.yX}.J.~.N yXSXDXuXP.S.S.V.v.Z.V.B.Z.Z.V.b.v.D.v.b.x.B.x.c.v.c.V.V.v.v.Z.C.x.c.C.M.j.M b b b n b n n n n t.t.t.g.y.g.t.g.y.l.l.l.l.l.l.l.c.c.b.z.v.x.v.v.V.V.A.B. XN.l V z b b b b n n n n n n n e.n t.M D D S O.O.O.{ { #.` _ ' | ` ` ` ` ......O.o.T.Y.k. XoXjXXXB n.C.z.c.c.k.g.l.g.j.s.z.s.z.z.a.l.g.a.g.l.l.g.l.c.c.c.c.j.k.j.M M M M t.t.t.t.y.j.j.Y.h.k.jXmXxX).x L F P < < >XiXiX<X<X,X<X<X<X,X<X,X<XDXiXP.J.K.f.M u.k.m.M.k.j.k.j.j.z.k.j.k.c.k.k.M.U.o.O.S t = @ @ @ # . O i 7.nXFXIXJXJXJXJXGXZXXXD t.k.k.c.c.c.v.c.c.c.c.b.c.c.c.c.k.D k.U.D l v D XXjXjXjXjXXX}.XX}.Y z b z b Y. X^.C.j.z.z.l.l.l.l.l.b.c.b.v.b.v.H.W.v.W.v.W.v.v.W.W.W.v.W.v.W.v.v.v.v.v.v.l.y.y.g.y.g.l.g.g.l.l.l.l.b.c.l.c.c.c.T.k.Y P 3 X > # t t 2 2 S S S D D U.Y.T.Y.Y.B.g.i.y.l.l.a.a.l.g.l.l.l.b.b.b.l.z.b.l.g.a.l.l.a.y.y.y.r.r.r.e.y.y.e.e.n e.e.t.t.y.l.z.g.g.y.l.x.Z.v.b.b.v.H.v.W.v.v.v.T.v.W.Y.c.U.Y , , , , m ^. X^.Y.D D hXZXPXPXVXVXPXPXPXGXmXZXm D Y.u.n j.j.z.z.j.j.h.D ~.z Y KXLXxX< E KXLXBXCX(.~.~.~.J.J.N.A I N.mXKX(., wXLXKXMXN b n.n n n n e.g.c.y.l.z.m.M.Y.M.B M.B b n.h.V m.M t.t.h.g.k.g.l.g.l.l.l.l.l.T.l.c.l.c.b.c.v.b.T.v.b.v.c.M.M.k.M b z z b n M g.g.c.c.c.c.c.T.W.W.T.T.M.|.VXVXVXCXCXZXU.v x [.LXGXP X 1 g g g [ [ [ [ [ [ [ [ +.h q 8 @ O @ 9 ] 7.w.nXbXbXnXfX7.g q # #           . . . . . . . . . . . 9 $.4.w.q.kXq.=.+.a u $ O 0 -.q.w.q.w.a & - = $ $ O + O O ",
"= = 9 9 q q q q & & : & 8 q y w i 8 8 8 8 @ q f y q q # @ @ @ @ @ @ + $ & & # = - & q a u a u 5 1 s 8.zXzXhXzX[.fXhXkXfXq.9.=.=.&.<.4.`.{.).K.J.N.DXLXDXpXf.S.V.Z.Z.V.V.V.B.V.V.Z.Z.V.v.z.x.V.z.B.B.v.c.v.c.v.v.v.c.c.C.C.h.n n n b n n n n e.t.t.t.t.y.g.y.g.y.g.y.g.y.g.y.l.l.l.l.l.c.c.v.c.V.Z.B.B.m. XN.b z z b b b b n n n n e.n e.e.n t.M M D O.O.8.7.{ ` ` ` #.` ` ` ' ) ` { ..O.O.|.T.|.c.M.N.^.yXB f.C.c.l.l.l.g.j.g.i.g.z.g.z.l.z.l.l.l.g.g.y.y.g.g.c.C.g.t.t.t.M M n t.t.t.t.M t.g.M.M.B N.CXKXLXVXJ Q L 7 < L.iXiX<X<X<X,X,X,X,X,X,X,X<XiXiXA P.K.B M h.m.k.j.j.k.j.k.k.k.g.k.k.k.M.c.k.U.D G t > @ @ O @ g [ 7.zXFXHXHXGXFXHXGXJXKXZXjXT.D j.c.T.c.c.c.c.c.c.c.T.b.T.b.c.T.Y.U.D m l z M Y.D.v.v.D. X XXX^.m z b b b Y.XXY.C.z.j.z.z.s.b.s.b.b.b.b.b.b.v.v.b.v.W.v.v.v.v.v.v.W.W.v.W.v.W.v.v.R.x.c.a.y.y.y.t.g.g.l.k.T.l.c.b.l.l.c.c.c.b.T.D U.hXo.< 1 2 t s t t S S G D Y U.U.T.C.C.z.j.y.a.l.l.l.l.g.l.l.c.b.b.v.b.c.b.v.v.v.v.z.c.c.l.z.l.y.y.i.y.z.j.i.y.u.t.t.y.y.g.g.z.z.j.j.g.x.Z.v.b.b.v.v.v.v.v.W.W.T.v.T.T.c.Y.o., l , l Y |.Y.|.|.D U.jX[.GXcXbXJXzXbXPX<.2 ZX~.m M.M n j.m.C.j.j.j.h.t.N.N z CXLXPX(.l yXLXKXKXmXJ.J.n.n.J.B J.J.^.BXCXY l N.^.^.^.V n.n.u.n n e.t.u.u.j.m.h.m.m.M.^.n.b Y.D M h.B n.n t.h.t.k.g.g.g.l.l.l.b.l.l.l.g.c.l.T.T.l.b.v.v.b.c.c.c.k.M.h.m b z z n n t.g.g.z.c.c.c.c.T.v.T.W.Y.D mXPXPXPXPXPXPXxXF ;.JXPXPX1.X - a g g f f g [ h f h h [ [ q @ @ @ q f ] [ [ ] [ 7.8.9.9.7.$.;           . . . . . . . . . . . . j q.fX9.q.kX-.f 0 = 9 % $ y 7.q.9.q.9.f % - = $ $     +   ",
"= = 9 9 e i y q 9 4 & & = 9 u i i w q i O & [ -.a # q = 8 = @ @ @ 8 % $ * o = = - 9 0 0 u a - 5 1 K >.q.q.9.hXfXfX[.q.q.9.7.=.=.3.3.Q Q ! J.L.f.J.SXKXiXuXP.S.S.x.x.V.S.A.A.K.G.V.g.i.x.x.V.B.x.x.c.v.c.x.v.x.v.C.z.c.C.j.u.n b b n n n M n n t.t.t.t.y.g.g.g.g.g.l.g.l.l.j.l.l.g.l.z.c.c.v.V.c.C.Z.j.M._._.^.z z z z b b n b n n M e.e.e.e.t.M M S S O.O.7. .{ #.#.{ ' ) ' ' ' ....O.O.O.T.Y.T.A.m.u.^.MXn.u.B.l.l.T.k.j.g.l.l.i.g.z.j.l.z.z.z.l.l.l.g.g.y.g.c.c.k.t.n n n M M M t.t.M t.t.j.c.M.M n.GXKXKXVX].^ W X / iXiX<X<X<X,X<X,X,X,X,X,X,X<XiXiXP.^.A.V u.h.m.j.j.k.k.j.j.l.c.k.c.j.c.k.k.T.D N.o.2.8.-.*.X.-.fXnXbXFXHXbXFXFXHXIXIXJXGXGXZX^.B k.c.c.l.v.c.c.c.c.T.v.v.v.v.T.k.T.T.n.o.v M k.k.b.b.a.b.v.M.n.D b z b m b T.XX XA.m.j.z.l.b.s.b.c.b.b.b.b.b.v.v.v.v.v.v.W.v.W.v.v.T.v.v.W.W.v.v.v.Z.x.c.g.y.y.y.g.g.l.g.l.k.l.l.b.T.b.T.c.c.l.T.k.U.mX`.F s t s t t t t F S S U.U.M.M.Y.C.g.y.j.l.a.l.a.a.a.l.l.b.b.b.b.b.c.v.v.v.Z.v.Z.V.c.x.z.z.z.c.b.c.x.z.j.j.j.i.i.y.y.a.l.g.z.z.z.y.a.x.v.D.v.v.v.b.v.v.v.v.v.v.v.c.T.U.U.l l , D ^.Y.Y.^.T.D ~.S 2.nXhXbXIX4.zXPXvX> |.|.m k.M M k.C.C.B.j.j.h.u.h.h.b XXSXKXmXc c _._.}.J.V A N.B A b A B N N.c b b N z z A B f.f.V n n n t.u.t.m.B.h.h.h.B D m ~.CX^.z n.B B h.h.t.k.t.g.k.g.l.g.l.l.T.l.c.c.l.l.l.c.b.T.b.b.T.c.c.k.c.M.B b z z b m M t.y.g.l.l.l.c.c.v.T.W.Y.Y.m }.PXKXPXPXLXPXLX0.vXPXJXPXcX# 1 r r a f y f ] g ] ] [ [ ] a = 8 q q r q + . . . . O q a g f +     . . . . . . . . . . . . . . . -.zXfXq.q.9.y @   + O + $ = =.fXq.q.9.f $ = & * + + +     ",
"9 9 w q q e i q 9 & & 4 = 9 q q i 9 % 8 . q w.hXg = 0 - # ; # @ # = # = = # 1 = 0 0 0 0 1 - 5 4 X 1 d R R <.q.zXfXq.q.q.9.9.7.=.&.W ^ Q / Z P.A J.DXDXDXuXS.K.V.V.V.V.S.S.S.S.f.e.p.S.B.z.z.z.x.B.c.c.v.v.v.v.c.V.c.C.C.j.t.n M n n n n e.n t.t.t.t.y.y.y.g.g.g.j.z.c.c.c.c.c.c.l.c.j.z.c.c.v.V.B.A.u.M.MXCXyXb z b b b b n b n e.t.e.e.t.t.t.M D D O.O.8. .{  .+.} } #.{ ` ' ' ......O.T.|.T.T.Y.C.B ^.CXK.u.C.l.c.c.k.g.g.l.i.l.s.l.z.z.z.z.c.c.c.l.z.g.g.g.l.c.g.t.n M b M M t.t.t.t.t.t.k.z.A.m T.IXZXcXVXxX^ . 7 tXiX<X,X,X,X,X,X,X,X,X,X,X,X<XiXiXP.^.f.n h.k.m.k.k.j.k.k.c.k.k.c.k.k.c.k.c.k.Y o.|.hXnXmXnXnXcXnXFXbXbXnXFXGXHXHXJXIXIXKXGXZXjXk.t.c.c.l.c.c.c.c.c.v.v.v.b.v.T.T.T.U.Y D M M v.c.b.v.b.d.y.y.t.b z z b z b h.XX XY.B.i.z.z.z.s.b.b.x.b.v.v.b.v.v.v.v.v.W.v.v.v.v.T.v.v.W.v.v.v.v.v.c.l.y.y.y.y.y.g.g.g.g.l.T.l.c.l.c.l.c.c.T.v.T.k.k.~.o.P F r 1 3 r t x S S D Y M.k.Y.Y.j.y.i.z.l.a.l.l.l.l.l.l.l.b.b.b.b.b.v.v.v.v.c.b.x.c.x.c.c.z.l.z.g.z.g.y.t.t.t.t.t.g.g.l.c.k.l.k.g.a.z.v.W.v.v.v.v.b.b.v.v.v.v.v.T.C.U.^.v l l N.|.M.Y.|.T.m ~.!.VXPXGXbXUXJXKXPXPXhXjX|.z M.h.M h.m.C.m.j.j.j.u.h.u.m n.XXU.n.m z z l b b V u.f.N.K.N.A.N.B V b u.f.f.V V B B p.u.p.V n n p.V p.u.m.h.b N.N.h.N.MXCX^.N n.B B k.t.h.g.h.g.g.l.g.l.l.l.l.l.l.l.c.c.l.T.b.l.b.b.b.c.c.j.c.k.D b b z b n n t.g.g.l.c.c.c.c.c.v.T.E.Y.m mXPXVXVXcXcXKXPX[.bXPXq.KXVXs g a - r f f ] [ +.*.*.X.+.+.f 9 = 8 9 9 9 @ O = = @ @ . . . .   . . . . . . . . . . . . . . . . . *.zXfXq.9.*.O . O O O O O   -.fXfXq.9.f $ * # + # +       ",
"8 9 9 q i q q q 9 = & & & 9 y q u u 8 = O f kXnXj r ; # # # # # = = = # = ; ; 1 ; 1 r 1 - - 5 5 < . : 7 d q.zXzXzXq.fXq.q.q.q.9.3.&.^ / P./ P.Z L.uXuXDXpXP.A.V.H.V.V.S.p.f.f.V p. XoXA.s.s.z.V.x.c.x.B.c.V.v.V.c.c.c.C.j.n b n n n M n t.t.t.t.t.t.t.t.t.t.r.t.g.j.j.c.z.j.z.c.c.j.l.c.c.c.v.c.C.A.i.f.CXKX^.b z z z b b b b n n e.e.t.t.t.M M m k.o.O.g e @ e @ & e ( ] { { ......O.O.O.T.|.T.C.A.n.^.CX^.u.B.g.l.l.g.k.l.g.g.i.g.z.g.z.z.c.z.c.z.z.c.g.g.t.g.c.j.k.t.M n M t.h.t.t.t.t.y.j.M.C.M |.ZXO.2.vXxX/ : pXiXiX<X,X,X,X,X,X,X,X,X,X,X,X,XiXuXP._.A n u.h.k.M.m.c.c.j.k.l.k.k.c.j.k.c.T.k.k.N.U.hXjXnXcXbXnXnXnXnXFXbXbXFXHXHXJXIXLXPXKXGXjXT.M k.c.T.M.c.M.c.v.T.v.v.T.v.T.T.U.D v v m m C.v.b.W.b.a.a.^. Xn.z z z l b h.^. X XB.i.z.z.b.b.z.b.b.c.b.v.H.v.v.v.v.v.v.v.v.v.v.W.v.v.v.v.v.b.c.b.l.l.y.y.t.y.g.y.g.g.g.k.l.l.l.b.b.c.c.c.b.T.c.T.D S S P a < X # > 3 3 l S v D B M.^.Y.M.g.y.l.a.l.a.a.l.l.l.l.b.l.b.b.c.c.b.z.v.c.b.c.c.c.v.v.c.z.c.z.x.x.g.g.t.y.t.y.t.y.g.l.c.c.c.l.l.l.z.c.v.v.b.b.v.b.v.b.v.v.v.v.T.M.M.Y.m l b U.Y.T.Y.Y.U.c hXKXPXLXGXbXnXIXPXPXPXKXKX|.m n.M t.u.m.m.j.j.j.g.u.u.h.M b B M b u.n.b b B f.n.M n m.B.f.m.K.A.f.m.m.f.n e.e.n n M n u.M b n n n e.B u.B N.XXmX}.CXGXZXU.N D B h.M h.t.t.g.k.g.g.T.g.T.T.l.T.l.c.l.l.T.b.c.b.c.T.l.c.c.k.M.M.M b z z b b n t.y.l.l.l.c.c.c.v.T.D.v.T.k.jXCX|.S > X.KXPX1.VXPX8.bXvXg K g 0 0 a f h [ $.7.w.7.-.*.f % 8 q = % # = @ O @ = = + @ O @   . . . . . . . . . . . . . . . . . $.kXq.q.q.] . . = $ O $ O $ *.hXq.q.9.h $ * +   @     # # ",
"= 9 8 q q q q e 9 & & & & u q i y y 8 9 O j zXzXg # # #   > # > # e # # # 3 # 3 # 1 # 1 1 5 7 d < . W &.&.0XzX0XhXq.q.zX:XkXq.9.6.6.+XOX>XuX8XZ uXBXuXiXuXf.P.G.V.s.A.S.S.P..XI.I.uXuXF.i.z.c.x.c.c.x.c.c.v.C.v.c.B.C.c.k.n b n b n n M t.t.t.y.y.t.y.t.t.y.t.y.r.g.y.g.j.g.j.g.l.z.z.z.B.c.v.C.C.B.C.B XXMXB l b b b b b n b M n n n t.t.t.M M m o.P t a { #.} ' p 8 @ @ e ' { X.O.O.|.U.|.T.E.M.^.u.^.KX^.u.B.l.l.l.g.g.j.g.a.g.s.i.g.z.l.l.c.z.l.l.z.g.g.t.y.j.j.j.j.M n M t.t.t.t.t.t.g.j.j.M.h.U.U.3 `.vXtX/ / iXiX<X<X,X,X,X,X,X,X,X,X,X,X,X<X<XpXP._.f.e.u.k.k.k.k.M.j.k.c.k.c.k.c.k.c.k.k.k.k.k.2.hXcXcXcXhXnXnXnXbXnXnXbXHXGXJXIXJXIXPXPXGXCX|.k.k.b.T.c.C.c.c.c.c.T.c.T.C.Y.T.m l o.jXh.b Y.T.b.b.b.a.x. X.XN.z l z l z M  XoXjXz.y.c.x.z.b.b.b.b.b.v.v.b.v.v.v.v.v.v.W.v.W.v.v.v.v.v.T.b.b.b.l.l.g.g.y.t.t.g.y.g.l.g.l.k.l.l.T.b.T.b.c.c.l.c.k.Y D G F 2 3 3 3 3 3 3 3 v v z B Y.Y.M.Y.C.y.a.l.l.l.a.a.a.l.l.l.l.b.c.z.b.b.c.c.v.v.V.l.z.z.x.c.l.c.c.c.c.k.g.g.g.t.y.t.t.g.l.b.c.T.l.l.y.a.l.v.v.v.b.v.b.b.v.v.v.v.v.c.M.M.U.D z m U.Y.Y.^.T.D S |.GXhXzXbXJXJXAXJXLXKXLXGXD D n.M M u.h.j.u.t.i.j.i.u.j.h.e.M j.u.m.i.V e.B u.p.n e.p.u.n e.m.u.n n n p.V e.e.p.u.n n u.n n n n n V V n V MXCXMX|.CXKXMXU.m D M.h.h.t.h.g.g.g.g.k.l.l.l.g.l.g.l.l.c.c.l.l.l.T.b.c.l.c.j.j.M.m.M z z z b M M t.g.g.l.c.c.l.c.v.v.v.D.Y.c.T.Y.U.m , 1.PXKX1.bXPXcXCXzXs $.X.r 9 r f f h +.*.7.7.=.*.y O # r q @ @ O O + @ = #   . . . . . . . . . . . . . . .   .   . . . %.kXq.q.q.j . O $   $ @ . & *.fXq.q.9.f + $ + +         # ",
"& 8 q q e 8 9 8 8 & O O 8 u i i q i % =   h kXhXt # # t # # t # 3 # 3 # # > # # > # 1 1 4 7 7 7 o 7 vXvX4.4.q.kXq.q.q.fXq.q.9.4.6.^ 4XtXDXDXuX/ DXiXpXDX.Xf.S.G.D.S.A.S.f.uXuXuXuXBXoXs.i.V.x.c.x.c.c.c.x.x.v.v.c.c.C.z.h.M b n n n t.n e.t.t.t.y.y.t.y.t.y.y.y.g.y.g.i.l.l.j.l.l.z.c.c.v.V.v.V.B.B.A.p.u.M.n.b b b b b n b b n t.n e.t.t.t.M M D l 3 8.FXIXJXIXFXFXnXw.' @ O @ t ..O.O.U.T.|.T.A.K.B ^.CXA.M Z.k.l.g.j.j.g.g.i.z.g.i.z.l.g.c.l.c.l.j.c.l.g.y.y.j.j.j.k.M n n k.g.t.t.t.t.g.k.c.C.m.N D |.SXyX2X>XiX<X<X,X,X,X,X,X,X,X,X,X,X,X,X,X<XiXpXP.K.B V h.h.m.j.M.j.c.k.c.k.k.c.k.k.c.k.k.U.k.D U.|.hXhXnXbXbXnXbXnXbXbXFXbXHXHXJXIXKXPXKXGXKXjXT.k.g.c.c.v.c.c.c.C.c.M.h.D D c D }.GXKX~.z Y.Y.r.a.d.z.B.A.^.n.l l l z z N Y.XXXXj.i.z.z.b.x.b.c.x.v.b.b.H.v.v.v.v.v.v.v.v.T.W.v.W.v.v.b.b.b.b.g.g.l.v.y.y.t.t.g.g.l.l.k.l.g.c.b.l.l.T.b.T.c.T.T.D S S F s 2 s S 2 3 t x l m z D ^.Y.t. XC.y.a.a.b.b.l.l.l.l.l.l.b.b.b.x.l.c.l.x.b.c.c.v.c.c.c.z.l.g.l.c.z.g.k.t.t.t.t.g.g.g.l.l.g.l.g.l.i.l.b.v.v.v.v.b.b.v.v.v.v.v.v.c.T.T.U.M.m B Y.C.T.Y.Y.U.v |.}.1 0.PXLXPXIXq.o.P ZXjXz h.h.t.n h.j.h.e.e.y.j.j.j.t.m.h.m.j.j.j.u.u.V e.m.i.n n e.p.e.n n n e.n e.n n e.t.n n u.M u.n n e.V n p.M V n MXCXXX^.mXCXXXn.B h.h.n h.t.k.t.k.k.l.l.g.g.l.l.l.l.l.k.l.g.T.T.b.l.l.c.l.j.c.k.M.M.M b z b b n M t.g.l.g.c.c.c.c.T.v.T.Y.v.Y.k.D Y D Y CXPXKXU [.PXKXLX2.a %.$.f 0 r f f h [ +.*.-.7.*.0 O 9 q q @ @ O @ . . + + + @ . . . . . . . . . . . . . . $           *.0XfXq.q.+.. + $ + 9 @ . = *.:Xq.fXw.h   + +       X #   ",
"& & & 9 8 8 9 8 8 O O O 8 f { i h f 8 O % [ $.X.# #   # > # > # # 3 > o > X < < 1 1 1 2 6 < H W 7 rXLXbX&.&.9.q.7.7.w.9.q.w.4.9.=X-XtXiXDXDXpXP.DXpXpXuXpXf.A.Z.V.V.S.S.V uXuXuXuXBXV.e.s.z.v.z.z.b.x.c.x.c.v.C.c.c.C.m.M n n n n n n n t.t.t.y.y.t.g.y.y.y.t.y.t.g.y.g.l.l.l.l.l.l.z.c.x.v.v.x.c.C.Z.B.u.A.~.b b b n n b M n n M n n t.M t.D B D , 2.LXPXPXPXPXPXPXPXPXHXnXw.h   # O.o.N.Y h.m.m.M.n.N.BX.Xm.B.z.i.s.s.y.h.z.y.y.y.z.j.z.z.g.c.l.c.c.c.j.g.g.e.t.z.C.M.t.b n h.g.g.t.t.g.g.k.c.m.M.m U.KXKX>X>X1X<X<X<X<X,X,X,X,X,X,X,X,X,X,X,X,X<XiX>XK.K.V p.u.j.j.M.k.M.c.k.k.l.c.c.k.T.k.c.c.k.k.n.o.~.hXmXvXzXvXnXnXvXnXUXbXHXHXJXJXJXIXLXPXKXGXCX|.g.k.c.v.c.c.c.c.M.D b N Y o.~.[.KXPXLXwXD |.^.t.y.j.z.m.m.u.z l l l l z B N.XXjXs.t.c.z.z.b.b.c.b.c.b.v.v.v.H.v.v.v.v.W.v.W.v.W.T.v.v.v.b.l.l.g.l.z.C.g.g.y.t.g.y.g.l.g.c.l.c.c.b.c.l.c.c.c.c.k.n.D , 3 3 x F P x t x x S z z U.^.k.h.jXx.a.l.l.a.b.a.l.l.l.l.l.l.b.b.b.l.c.b.c.v.x.v.v.c.c.x.c.g.l.c.c.z.g.g.t.t.t.t.g.g.g.g.l.l.k.g.l.y.l.z.x.v.v.v.v.v.v.v.v.v.v.v.T.j.C.U.M.N.M.Y.M.Y.^.T.D l o.cX2.zXPXPXPXPXX.X :.cXD z M.h.n t.m.j.t.n e.h.j.j.j.m.A.^.A.B.i.u.t.u.n p.m.p.e.e.p.p.e.n e.V e.n e.n e.p.e.M n n n M M n n e.e.n M b b K.KXXX^.XX^.b M h.M k.u.t.t.t.h.j.g.g.l.l.l.k.l.l.l.g.g.c.l.l.c.c.c.l.c.c.c.c.j.k.M.D z z b b M M t.g.l.l.c.l.b.T.b.v.T.W.T.E.Y.^.S z cXPXLXcX1 >.LXPXPX'.g -.=.j 0 y y f q f f [ [ *.*.u . @ 9 % @ . O . . @ +     . . O . . . . . . . .   . .   # $ * $ .   -.zXq.q.q.*.= $ % * % + . $ *.q.q.fX9.[ . O         X X 1 ",
"; ; & & @ % 8 % . O q *.w.w.7.7.+.[ f f +.q.9.-.[ K g P g H P s g t s 6 F F F F P F F H s 7 H H -XJXLXrXk d 9.9.-.=.7.q.9.9.3.q.rXrXtXiXiXDXtX>XDXuX8XiX>Xf.S.Z.V.s.S.f.P.uXuXuXiX.Xp.S.Z.i.c.z.c.c.c.x.c.c.c.V.c.B.C.j.t.b b n n n n e.n t.y.g.g.g.g.g.g.g.g.g.y.y.y.y.y.y.y.g.z.l.l.z.c.x.c.z.V.C.A.A.C. X Xn n n n b n n m b b b n M M B D D S 3 hXPXPXPXPXIXIXIXIXPXPXPXIXJXhXt x ~.U.U.U.N.N.m.N.V MXXXA.V.s.y.p.p.u.i.r.i.i.y.y.g.g.l.c.z.l.c.c.l.z.l.y.e.y.M.C.h.M n M g.g.t.t.y.t.g.g.k.C.M.m |.LXSXP.>XiX<X<X,X,X,X,X,X,X,X,X,X,X,X,X,X,X<XiXpXP.K.V u.h.h.k.m.M.c.j.M.k.c.k.k.c.k.c.k.k.j.k.n.N.U.|.xXzXvXnXnXnXnXnXnXbXUXUXHXJXIXLXIXIXLXKXCXjXT.D k.c.v.Z.C.M.n.D U.ZXZXKXKXCXPXKXCX(.U.XXXX^.^. XB.j.f.V b z z l l z n.M.MXjXs.i.x.z.b.l.c.b.b.v.b.b.v.v.b.v.v.v.v.v.v.T.W.v.W.v.v.b.b.b.l.l.z.z.C.g.y.t.t.g.g.g.l.g.k.c.l.c.c.c.c.l.c.v.T.M.n.D , , 3 3 S F x c S S m z m Y.^.u.A.jXy.y.z.l.l.b.a.l.l.l.l.c.c.b.c.b.c.c.b.c.x.v.c.c.v.c.c.c.l.c.l.j.j.g.u.t.t.M t.k.g.g.l.l.g.c.l.l.l.l.l.b.v.v.b.H.v.v.v.v.b.v.b.C.M.k.T.M.T.Y.Y.M.Y.Y.N.o.l x L cXGXKXAXIXLXGXcXZX~.N D B n t.n u.u.t.e.y.j.u.i.h.i.m.M.A.m.u.u.t.e.e.i.j.u.n e.r.e.e.e.e.p.e.n e.p.M p.u.p.u.M M e.e.t.t.e.t.u.e.M b M  XN.h.N.M D h.B h.M M j.j.g.g.t.g.l.c.l.l.l.l.g.l.l.l.l.k.T.l.c.c.c.c.c.j.M.M.h.h.N z b b b n M t.y.l.l.l.c.c.c.v.T.v.Y.T. XY.D m hXKXPXKXL > cXPXGXPXbXK -.9.-.a 0 q y y y u f f h h % . @ 9 @ O . . . .   = = = = # * * + *   . . . . . . . O # +   # O   -.kXq.q.q.*.$   $ + % $ O % *.q.fXq.q.j . . .     X . # r ",
"4 & * % = 9 9 = ; +.fXnXzXzXkXq.fXq.=.8.hXnXbXzXhXq.`.q.0.8.1.1.2.>.1.1.1.5.!.5.5.,.Q W H Z 7 / UXLXAX;X7 T 9.q.*.=.9.w.9.4.9.:XrXrXtXtXiXDXiX8XDXiXpXiXI.f.A.V.V.V.A.p.F.iXiXuXuXP.b i.A.l.l.v.c.z.v.x.c.V.v.B.c.C.C.j.t.n n n n n e.n t.t.t.g.g.l.g.l.c.l.c.c.z.z.l.l.s.g.z.g.l.l.z.z.z.c.v.B.B.B.C.A.Z.^.^.t.n b b n b b b b m z b m n m M N l 3 VXPXPXPXIXPXPXIXIXIXPXPXPXPXPXhXP |.}.}.}..X.X_.XXA XXXXB.i.i.p.n V n V i.K.j.i.y.y.g.z.g.l.c.c.g.c.k.j.y.r.t.m.M.u.n M t.u.k.g.g.t.t.g.k.c.C.M.m |.SXBXP.1X<X<X,X,X<X,X,X,X,X,X,X,X,X,X,X,X,X<XiX>XP.K.V p.u.h.m.k.j.j.j.c.k.k.c.l.k.c.k.c.c.j.k.h.h.U.|.hXcXvXnXvXvXnXUXFXbXFXAXJXJXJXJXIXLXPXLXJXGX}.k.k.k.C.Y.T.k.N.U.ZXPXKXLXJXVXPXVX;.P Q.mXmXXXoX XM.h.p.b z z z l l z B Y.MXoXi.y.B.z.x.l.b.b.v.v.b.b.v.v.v.v.v.W.v.v.v.W.v.v.v.v.v.v.b.b.c.c.v.C.c.y.t.t.y.g.g.g.c.l.c.l.c.b.b.T.b.T.b.v.c.k.h.D l , , , S x v S D D D c D ^.^.B .XMXt.t.z.a.a.l.b.l.l.l.l.l.b.b.b.b.z.b.c.c.v.c.v.c.v.c.b.l.c.c.l.j.k.k.t.M M M M g.k.g.l.l.T.l.g.l.g.l.b.b.v.v.x.v.v.v.v.v.v.v.v.v.M.c.M.M.Y.Y.U.T.M.h.U.}.}.[.1.cXVX2.t o.bXKXVX:.c D M.M e.u.n t.e.n t.i.y.t.y.m.u.u.n.M.f.t.e.t.e.e.h.i.p.e.p.p.e.n p.t.e.e.e.e.u.p.B p.B n n B n n e.t.e.n e.n V n b h.n M B u.M.h.u.i.u.e.u.u.u.g.g.k.l.c.g.T.l.l.l.c.k.l.k.T.l.T.l.k.c.l.c.g.k.j.h.h.B z z m n n M y.y.g.l.c.c.c.c.T.b.Y.v.T.T.^.m U.KXPXGX`.2 S JXPX[.JXbXR $.7.9.[ y q f y q q i f y y @ . @ q # . . O . @ + r r a r a r 0 - u 0 ; $ . . . . . .   :   +   . $.zXq.q.fX*.% $ = % % = O $ *.q.q.w.q.] .       .   X 1 F ",
": ; = - u 9 = & ; 4.nXbXnXnXzXzXzXzXfXq.kXzXzXzXzXzX[.[.'.`.5././././.`.).`.(.].].`.>.E W J 7 ^ DXLXvX6.R T =.-.-.w.q.q.9.9.q.zXUXrX1XiXiXiXtX>XiXuXuXiXpXp.A.Z.x.V.S.f.p.I.DXBXuX.XS.i.V.B.l.v.c.x.v.c.x.c.c.c.z.c.C.j.M n b b n n n t.e.t.t.y.y.y.g.g.l.j.c.z.c.c.l.l.l.g.z.l.z.z.z.z.z.c.z.z.C.C.C.C.C.^.^.u.b n b b b b m z z z z z z z z S 3 F JXPXPXIXPXPXIXPXIXIXIXIXIXJXPXGX2.}.mXjX}.mXyXXXyX^.MX.Xu.A.p.p.f.S.p.p. XoXs.i.y.g.l.g.g.c.k.l.c.z.c.z.g.t.t.j.m.M b M u.j.g.g.g.t.y.g.j.k.m.A.D B {.uX>XiX<X,X,X,X,X,X,X,X,X,X,X,X,X,X,X,X,X<XiX>X_.K.V p.u.j.j.m.j.c.m.z.c.c.k.c.c.k.c.k.k.j.M.k.D M.~.hXcXzXnXUXnXrXnXbXHXUXUXHXJXJXJXIXIXLXLXLXKXmX~.D k.M.M.M.D D , }.LXLXLXKXKXPXVX> 3 |.ZXMXMXjXXXA.m.u.M b z z l z z D ^.ZXjXi.i.c.l.b.b.b.b.b.b.c.v.b.v.v.b.v.v.v.W.v.T.v.v.v.v.v.b.v.v.v.C.Z.v.j.t.t.y.t.t.g.g.c.g.c.c.b.T.b.b.T.b.T.c.c.t.M.U.l l l 3 l v v S D S N.Y n.Y.^.h.MXoXn i.z.l.b.a.b.a.l.l.l.l.l.c.l.c.b.c.x.x.c.v.b.c.c.v.z.c.c.l.c.k.k.k.M M M M t.t.k.l.l.l.c.l.T.l.l.l.l.b.v.v.v.v.v.v.v.v.v.v.v.c.c.M.M.Y.^.Y.k.h.M.U.XXZXZXGXKXJXGXcX0.;.F 3 > , v D D M M n t.n e.n t.t.t.t.u.m.B n u.n.u.M M B n e.m.i.e.n p.p.e.n e.u.n p.u.p.u.p.n V p.V f.p.u.p.M n n e.e.n n t.n h.n u.j.T.B.i.u.t.n n n t.t.k.j.g.g.k.l.l.l.T.l.l.c.g.c.T.l.l.c.c.l.c.c.c.k.g.h.D m z z m b n t.t.g.g.l.b.l.b.c.b.T.v.v.E.T.T.D hXPXKXjXS o.;.KXLXo.VXzXa +.-.9.-.f 9 p h f h ] h f h @ O = q = O . . O   - f f j j h g f s s a a r - = # . . .     #     . +.zXfXq.q.*.= $ ; = $ = $ O -.fXfXq.q.j O     X X X # 1 X.",
"& 4 - - = = * - 1 q.nXvX0XzXzXzXzXzXzX:Xq.kXq.q.q.q.'.5.5.5.6.,.).6.6.).).'.).)./.].,.>.~ 7 / UXLXLXrX#X&.5 j +.7.8.fXq.w.9.:XzXUXtXpXiXiXiXiX/ uXuXpXiXpXp.m.D.Z.s.A.A.b p.uXuXuXoXI.p.z.V.z.c.c.b.x.v.c.c.c.B.c.M.C.j.M n n b n n e.n t.e.t.t.t.t.t.t.y.y.y.g.t.y.y.y.y.l.j.z.j.z.j.z.z.z.C.c.C.A.C.C.A.^.^.m.b b b z z z z l l l z v N D G U x %.PXPXLXIXIXPXPXPXIXPXIXPXIXIXPXKX[.[.}.}.}.}.XX_.yXXXMX^.u.A.p.p.S.uX.XK.uX Xi.i.y.l.j.g.l.c.l.c.c.l.c.c.i.t.e.j.h.b n n u.g.k.g.y.t.g.g.k.c.j.M.N.l J.uX>X<X<X<X,X,X,X,X,X,X,X,X,X,X,X,X,X1X1X,XiXI.K.J.V p.f.n.j.m.m.j.j.j.j.c.k.c.l.l.c.k.c.k.j.k.h.n.~.}.qXzXvXbXrXnXUXbXUXUXUXJXJXJXJXJXIXJXLXLXKXVX}.~.m m M N.U.~.v |.KXGX[.cXKXLXbXF F qXNXZXmXjXXX^.n.V b b b l l l b Y N.MXXXj.i.B.z.b.l.b.b.c.c.b.b.b.v.v.v.v.v.v.W.v.v.v.v.T.v.v.v.v.W.T.R.v.c.y.t.t.t.t.g.g.l.c.c.l.c.c.b.b.c.b.v.l.b.T.t.Y.jXv v l l l v v D D n.~.~.~.^.K.B MXXXn z.z.a.b.a.b.l.l.l.l.l.c.b.b.x.c.z.b.v.c.c.v.v.c.c.c.b.c.l.k.c.k.h.M M b n t.t.g.l.l.c.l.l.l.l.l.l.l.b.v.v.v.v.v.v.c.c.c.c.z.j.c.M.k.Y. X^.M.D k.^.jXhXmXVXGXPXKXPXIXKXcX8.2.Y v m m M n n n n t.n e.t.e.t.m.A.u.V u.u.p.n p.e.M u.i.i.n n u.p.n e.e.e.e.u.i.u.p.p.V n b V V V V b n p.p.n n n n u.u.B.h.y.j.B.t.m.i.n n b m.c.t.i.j.k.g.g.l.l.l.l.T.c.l.c.c.l.k.c.l.c.l.c.l.c.g.h.h.B z m m m b M M t.y.g.l.c.c.c.l.b.T.v.v.W.T.T.z }.PXCX~.m ~.o.KXLX;.AX0.  $.*.-.7.j 9 y h [ +.*.[ *.[ q O # q = O O O . # q r g g j g g g g j s s a a r - #       #   # . . j fX:Xq.w.7.=   = = % = & + $.q.q.q.q.]         X # 3 g X.",
"; ; ; = 9 4 - 5 T :XvXtXzXrX0X0X0XzXzXzX0X0XzX0Xq.0.5.6.6.)././.6.).).).).).).].).].).7X/ X / DXLXAX:X:X&.; a =.9.fXq.8.q.q.0XzXtX>X1X1X<XiXtXZ tXiXuXiXuXp.i.A.Z.s.K.S.p.f.P.uX.XS.f.S.j.z.v.l.x.b.c.b.v.V.c.c.z.j.m.j.n b M n n n n n t.n t.t.r.t.t.t.t.t.t.t.t.e.t.t.y.j.j.z.m.C.C.B.C.C.A.Y.C.Y.^.Y.^.^.^.~.b z z z l l l , < , v c D Y Y o.F '.PXPXPXPXPXLXPXIXPXIXPXIXPXPXPXGX'.}.[.{.wX{.8X_._._.XX^.f.f.S.p.K.uXuXoXuXH.e.t.y.j.l.g.g.c.g.c.k.c.B.z.g.t.M u.t.n b n M j.j.g.g.t.g.g.k.c.m.N.N.A 8X8X>XiX<X<X,X,X,X,X,X,X,X,X,X,X,X,X,X,X1X<XiXpX_.f.B f.i.i.m.j.z.m.z.j.c.j.c.k.k.T.k.c.j.z.k.c.h.n.U.|.qXcXvXnXnXUXnXUXFXUXHXUXJXJXJXIXLXIXIXLXJXGXVXxX~.D v v B N.n.}.KX`.X ;.JXKXKXvX'.xXxXxXmXmXXXN.A N z l l l l l z Y ^.BXjXu.y.B.z.z.b.a.b.b.b.v.b.b.v.v.v.b.v.v.v.v.W.v.W.W.W.W.W.v.v.W.Y.Z.j.t.e.t.y.g.t.g.c.T.c.c.c.b.v.b.T.T.T.l.v.v.g.^.mXm z z l z v c c v D D N.^.XXN.m.BX Xe.z.g.a.b.b.a.b.a.b.l.l.b.c.b.b.b.c.v.c.x.v.c.c.c.v.c.c.c.c.c.j.h.B M n b m t.M g.g.l.T.l.l.c.l.l.l.b.v.b.v.b.v.v.c.c.v.B.C.c.T.A.C.k.T. X^.M.h.M |.MXxXhX[.[.GXKXGXGXKXPXPXKXmX|.D m M M n b n n e.e.t.e.t.m.M.m.p.u.u.e.e.t.e.e.u.m.p.n e.p.e.e.n p.e.p.t.i.p.B p.V V p.V V b b V A.A.n.n n n e.u.u.j.j.y.j.y.i.s.i.A.m.f..X^.k.t.g.c.g.l.T.T.l.c.l.c.k.k.l.c.c.c.c.c.l.k.c.g.k.h.D m b Y n.b n M t.t.g.l.l.l.c.b.c.b.T.T.v.v.R.U.l [.PXGXU.U.U.D KXGXL JX&.X =.$.+.=.[ y u i [ +.+.*.*.*.q . = 9 @ . . . . + = r a a a f a a a a t a r r a - #   X # X     . . j q.fXq.9.9.y . $ = $ + % + *.q.w.fXq.h     . X X X r F ;.",
"= ; = = 0 a 5 7 7 6.rX7XrXrX7X0X0X0X0X0X:X0Xq.4.6.6.>.6.~ ^ ~ ^ ~ ^ L.Q.L.).).).).).7XeXW < 9XLXLXvX:X0X4.- q *.q.fXq.w.q.:X:X0X9X9XtX<XiXiX>XZ uXiXpXiXpXp.B.R.Z.Z.A.p.K.I.I.I..XS.i.B.V.z.c.l.c.c.x.v.c.V.c.j.j.M.C.h.n b n b n n n e.n t.t.t.g.y.g.y.g.g.g.j.g.g.z.z.j.m.c.B.c.B.C.C.M.A.C.M.A.A.J.J.J.J.~.N.l z l l l , , , , < x A Y Y U ! < 0XPXPXPXIXLXPXPXPXIXIXIXIXPXPXPXVX`.qXqX].qX].8XXX{.^.}.^.M.S.p.p.K.uXuXuXoXf.p.y.y.y.k.l.g.c.k.c.c.c.z.B.j.y.e.u.M b b n n g.j.g.g.g.g.g.c.c.h.n.A B yX_.>XiX<X<X,X,X,X,X,X,X,X,X,X,X,X,X,X<X,X1XiX8XP.f.p.u.f.i.i.m.m.j.j.j.j.j.j.l.k.c.c.c.j.k.j.M.k.D U.(.[.zXzXvXnXnXUXnXUXbXJXJXJXJXJXJXJXJXIXJXJXKXKXKXVX}.~.D z z z m ~.c 3 1.VXVXJXLXVXvXcXxXxXmX_.I l l l l v c G Y Y ~. XCXMXy.t.x.z.z.l.b.b.b.b.v.b.v.v.b.v.v.v.v.T.v.v.v.T.v.v.v.v.W.W.T.v.j.t.e.n t.t.t.g.l.c.c.c.c.c.b.T.b.T.b.v.b.v.v.t.Y.mXY D D D D D Y D N N m N N._.n.^.BX^.e.j.l.l.l.a.b.a.b.a.b.l.b.b.b.c.b.c.b.b.c.v.v.c.c.b.c.c.c.l.l.m.h.B n b b M M t.g.g.l.l.c.l.l.l.l.l.l.l.v.x.b.c.c.c.c.C.C.c.c.C.T.C.k.M.^.Y.M D n.jXGXmXcXhXcXbXVXcXFXbXcXGXKXPXLX|.l m M n M M n e.n e.t.i.B.m.i.u.e.n e.e.t.t.t.u.h.e.n u.e.e.n e.e.e.i.i.i.n n p.p.f.I.uXI.V K.uXXXJ.V n B n u.u.y.i.g.i.l.i.z.i.p.K..X^.oXY.g.g.g.l.k.l.l.l.l.l.T.l.c.c.k.c.k.k.c.c.c.l.j.g.M.h.h.B B N.N.b M h.t.y.y.l.l.b.l.c.T.b.v.v.T.v.Y.U.l zXPXGXU.T.Y Y PXCX8.AXj * $.j j $.$.+.h y i h [ X.*.$.y . @ # @ . O . .   = 9 r r 0 1 0 - 1 r r 1 r 1 1 1 # . . .   X #   . y 9.q.q.w.q.+.* O ; % $ & % $.fXq.w.q.[   . X   X # t g ;.",
"- ; * a a 5 o : o / 2X^ / OX2X^ %X6.6.;X6.6.6.^ ^ W / W W ^ ~ W / ~ ~ ^ ^ ).).).]./.eX0X/ Z DXLXUX6X:X0X0.j f X.7.8.8.9.fX:Xq.q.OX9X1X1XiXiX8X/ iXuXuXiXuXp.B.Y.B.Y.m.B.K.K..X_..X Xf.y.Z.z.z.z.x.z.c.b.v.c.z.z.j.c.j.j.M n M n n n n M t.t.t.g.t.h.k.j.k.C.C.C.C.C.C.m.C.j.m.h.h.n.h.n.n.n.n.h.Y A B N c b m N l l l , , , , > , < 2 G Y G U U 4 0XPXLXLXJXIXPXLXPXIXPXPXPXPXPXPXVX`.].eX].].8X_.}.wX_._.K.f.S.p.p.oXuXoXuXP.p.i.i.y.g.g.g.g.l.c.j.c.c.c.z.j.y.t.B e.n n n e.h.g.g.g.y.g.g.c.k.u.N.Y z 8X>XpXiX<X<X<X,X,X,X,X,X,X,X,X,X<X<X,X<X,X1XiXpXP.V B f.j.f.i.m.i.i.i.j.z.g.c.k.c.c.k.c.c.l.j.j.k.B Y ~.qX0XrXvXrXvXzXUXkXUXUXUXAXAXJXJXJXJXAXUXJXKXLXPXLXKXKXCX}.~.~.c l G cXNXVXJXKXSXJXcXcXcX{.{.Q.Z A Y (.wXNXVXCXCXMXyX|.XXMXB.i.x.l.l.b.s.b.b.v.v.b.b.v.b.b.b.b.H.v.v.b.b.b.v.v.v.v.T.W.v.g.e.e.e.n t.t.t.t.g.c.c.T.c.v.T.b.b.c.b.T.T.c.b.t.Y.jX^.U.Y.^.~.Y.|.U.Y N m b B ^.n. XCXA.t.i.a.b.a.a.b.b.l.l.l.c.c.v.c.z.b.x.c.c.v.c.b.c.c.v.c.c.c.c.k.k.h.m b b b b n t.k.g.g.l.b.c.c.l.l.l.l.c.c.c.v.Z.v.V.v.c.z.h.M u.k.m.h.m.U.M.n D D jXGXKXKXCXKXKXZXbXVXVXVXmXhXZXCX~.z N M n n M M n n t.u.u.m.u.p.n n n p.e.t.t.B i.u.n e.u.e.e.e.e.n u.S.j.u.e.p.p.V f.uXuXuXP.uXuX XV n b n u.M i.m.i.r.l.z.i.p.e.e.m. XyX.Xk.t.t.k.l.g.g.l.T.b.l.l.c.c.l.l.c.l.T.l.k.l.c.c.k.c.h.h.n.N.~.N b B h.t.t.g.g.g.c.c.c.b.T.v.v.D.W.Y.^., ].PXCXN.k.D U.KXGXcXJXk * j h j +.*.7.[ u 9 9 ] [ +.[ y O # @ @ . O @ .   + - - 0 ; = # . # # # # ; - ; # # X X   X # #   . 9 =.q.9.7.q.9.u + = % = $ + +.q.w.q.9.j @ . . X X X 1 F %.",
"o 4 4 4 7 o o 7 +X>X1X>X@X/ @X/ / / / / ^ / ^ / / / / / / 7 ^ / / ~ / / ^ ^ L.).'.'.).,.7 2XLXLXtX7Xq.0Xq.-.h a +.=.8.fXhXkX6.6.+X4X1X<XiXtX4XtXDXiXpXiX.Xp.S.A.B.A.i.A.oXA..XoX XK.G.S.s.z.B.z.z.l.c.c.v.c.c.z.g.C.c.h.M b b b V n b M h.B B m.h.n.n.n.f.n.f.B f.u.n.n.f.n.u.f.A n.A n.N.N.N.N.N.I N.Y G ~.U.c l , , , , , , > > , , J G G :.H 2 VXLXAXJXKXIXPXLXIXLXIXPXIXLXPXPXcX`.}.[.].eX].{._.8X_.XXN.m.S.V V .XBXBX.XS.n p.y.y.g.g.l.l.l.k.c.v.v.c.v.c.j.t.u.n n b M t.k.k.g.g.g.g.l.T.c.t.XX_.A 8X8XiXiX<X,X,X,X,X,X1X,X,X,X1X1X,X,X<X<X<X1X1X.Xf.V f.f.f.p.m.S.S.B.S.V.j.z.j.c.l.c.c.k.c.j.c.h.u.n.Y Q.wXeXcXvXrXvXzXrXrXUXUXUXJXJXJXJXJXJXJXUXAXHXAXJXKXLXPXLXLXLXLXSXVXSXLXLXAXAXAXNXvXvXwXeXqXeXeXeXNXSXKXKXKXSXSXSXZXMXXXmXBX XB.C.z.l.g.l.l.b.c.b.b.z.b.b.v.v.v.v.v.v.v.b.v.v.v.v.v.W.T.z.y.t.e.n t.e.t.y.y.g.l.c.c.v.c.c.b.c.v.c.c.c.c.k.k.k.U.Y.}.^.^.U.^.|.Y.|.k.k.M n.~.m.yXBXA.t.g.s.a.l.b.s.l.l.l.l.c.c.v.b.b.v.v.c.b.T.b.v.b.v.b.c.c.c.c.k.m.M b b b n n M t.t.g.g.c.l.b.l.b.l.l.l.c.l.T.b.b.v.T.v.T.k.M.|.N.z n.D Y.^.h.M h.B n.U.|.}.ZXKXKXLXKXKXGXGXCXZXCXCXD N D M n M t.n n p.n M u.u.e.b n n n e.p.e.e.u.u.p.n u.p.e.e.e.e.e.p.z.i.p.n f.p.V I.pXpXI.uXuX_.V b n n n e.u.i.i.j.i.z.B.s.i.p.u.S..X.Xm.M t.j.u.k.l.l.g.l.b.b.T.l.c.k.c.l.k.c.c.k.c.z.c.k.k.h.N N.|.N.B M h.k.h.t.t.k.g.l.l.T.c.b.T.T.v.T.Y.U.S qXLXCXU.N.n.~.KXKXKXbXr u a f f +.*.w.-.h q q y [ j X.q & + 8 O + @ . @   = r r r r # #     # 1 # r r s a 2 #     # # # #     j 8.w.=.q.q.*.& . u & . & [ q.q.q.w.X.- # + # o 1 1 t %.",
"o < 7 < . X / 9XiXiXiXiX1X1X>X/ @X@X@X@X/ / / / / 7 / / / / W 7 / / / / L.L.L.7X/.5.^ / Z tXLXUX4X%X:Xq.q.3.R k j *.7.fXkX:X:X^ +X>XpX1X1XiXiXDXiXiXuXuXuXV S.K.A.A.m.A.uX XoXoX.XF.A.S.S.B.z.z.c.c.c.B.v.v.c.k.k.c.k.h.M b m b m B u.V m B B b N B m b b z V b z b V p.A N.N.J.K.~.^.^.~.(.(.~._.(.(.(.~.{.(.Y l l , , , > , , > < , 3 Z L L C C AXPXJXAXIXLXIXIXLXIXPXPXIXPXPXPXzX`.{.].{.8X_._.8X}.XX.Xf.m.J.p.V p.K.uX.XK.p.i.y.y.y.g.g.g.l.c.c.c.v.c.C.z.g.t.t.M b n n M g.c.l.l.g.l.c.c.M.h.jXCXyX8X>XiX<X<X1X,X,X,X,X,X,X,X1X1X1X1X,X<X<X<XiXiX.XA V u.u.f.p.f.f.p.p.p.e.S.j.z.j.c.c.c.l.c.g.j.g.h.f.A J.].qXcXrXvXzXrXnXvXvXnXUXUXUXUXUXUXUXJXUXUXUXUXUXAXJXLXLXJXKXKXLXLXLXPXLXSXLXLXAXUXUXUXNXvXAXVXDXSXSXSXDXNXNXNXNXZXCXCXBXBX.XK.z.z.z.c.l.k.c.b.b.x.b.b.v.v.v.v.v.v.D.T.W.v.W.W.T.v.T.c.g.y.n e.n e.e.t.r.y.g.l.c.v.c.c.c.l.c.c.b.c.c.c.c.k.M k.^. XU.k.N.M.T.U.Y.U.T.h.n.K.^.MXCXB.e.i.s.a.a.b.l.l.l.z.z.c.b.c.b.c.c.b.b.b.v.v.v.v.v.v.c.c.k.c.M.h.M b b b b M M t.g.g.T.c.c.c.c.b.b.c.c.c.c.c.T.T.W.v.v.c.D mXKXZX~.N z XXjXB M Y.k.M n m m h.U.hXZXGXGXKXKXKXGXKXjXN N n.M b b b b V e.V n n n n n n f.i.f.m.f.n B p.e.e.e.e.e.n e.r.p.y.m.i.e.n p.b S.uXuXI.uXuX_.f.V V V n n e.u.i.j.i.i.j.B.B.j.j.i.A. X Xn t.t.g.g.g.k.l.T.l.T.l.l.c.l.l.l.c.l.k.l.c.l.b.c.j.k.D N N.|.m.B M h.k.t.t.g.g.g.l.l.b.c.b.b.v.v.T.Y.Y.v }.KXCXN.N.N.Y ZXPXPXzX. 4 y y k k +.*.-.[ i q a h g [ y + O @ .   @ . +   r r r a a 1 r r 0 r r t s j j g g t # 1 # > # #   + r *.4.9.9.q.w.h @ O & & O [ q.q.w.q.X.0 - r 5 r t 2 s X.",
"7 s 7 o < / pXiXiX<X<X<X<X<X<X<X1X1X>X>X>X>X>X/ @X/ / / / 7 / / / / / / ^ 2X7X'.6.>./ 7 / DXLXtX6.6.:Xq.4.9.=.k a [ 7.q.fX:X6.^ +X>X>X1X1XiXUXDXDX1XpXiX.XV B.A.A.Z.z.i.A.V.A.S.B.B.S.z.z.z.z.z.z.c.z.c.C.v.z.g.g.j.k.h.m m z m b z b m z z m z z z b z z z V N B A n.N.J.^.^._.(._._._._._._._.).).(.(.(.{.(.U > > > , , , > > , > X X < I Q 2 J LXLXJXJXJXIXLXLXIXLXIXPXPXPXPXPXqX`.{.].].].].]._._.XX}.N.m.S.V V n f..XK.f.p.p.t.u.u.g.g.j.l.c.c.c.c.c.c.c.j.t.u.M n b n M t.k.l.l.g.l.c.c.k.b jXKXCX2X>XiXiX1X,X,X,X,X<X,X,X,X1X1X>X1X1X<X<X<XiXiX8XV V f.B p.n p.V b p.S.r.B.B.z.k.l.T.T.l.z.z.j.j.u.V A J.8XeXvXtXzXUXvXzXrXzXzXnXUXUXUXUXUXUXUXUXUXvXUXvXvXUXUXVXvXAXvXAXAXAXLXLXKXLXLXSXAXAXAXAXSXSXDXAXAXVXVXNXNXNXVXBXCXKXCXuXXXK.K.B.y.l.l.g.c.c.v.b.z.b.c.b.b.v.v.v.T.W.W.W.W.v.v.b.b.g.g.g.g.t.n e.t.e.e.y.g.g.l.c.c.c.c.l.b.c.b.b.b.l.T.M.k.M k.jXXXh.m D D k.k.T.M.T.M.M.N.^.BXCXm.e.i.a.a.a.s.a.b.b.b.c.b.b.c.c.v.b.v.T.T.b.b.v.b.c.c.v.c.c.k.c.u.m b b b n b n M k.g.l.l.c.b.b.b.b.b.b.g.c.c.c.v.v.v.T.T.D ZXPXLXCXY v ZXZXM B M.M.C.M.h.B m m m D U.^.XXjXZXGXKX^.z D n.M n n n n b b n n M V b m.K.^.A.A.m.n n e.t.e.e.p.p.n e.p.e.e.y.i.y.e.n V V uXBXuXuXuX.XA z A B V p.n e.t.j.i.i.y.i.B.B.B.B.B.Y..XY.n t.t.y.t.g.l.l.g.l.T.l.T.c.l.c.k.c.c.l.c.g.g.c.c.j.h.N z N.U.D M h.h.h.t.M g.l.g.l.T.l.b.c.b.T.v.Y.c.U.m }.KXSXB n.^.m ~.KXLX2.. 4 y y f p h [ *.X.f f f g i a r = @ @ O . @ .   # r f a g g a s s s t g j g X.X.X.X.g 1 1 t r 1 # #   # f =.9.8.9.fX9.a . @ & $ [ q.fX8.fX-.f a f s s s 1 2 X.",
"d < o 7 @XiXiXiX<X<X<X,X<X<X<X<XiX<XiX<X1X1X<XiX1X1X1X9X@X@X/ 7 / / 2XL.L.).7X~ E W C 7 2XDXDX&X^ q.:Xq.9.q.4.$.a K =.=.9.:X6.^ +X@X1X1X1X1XiXDXiXuXiXuX.XV S.A.B.C.B.t.e.e.p.p.e.p.y.i.i.z.z.c.j.z.c.c.C.c.c.z.j.h.h.B m z l l l l l l l l l l l z N A A A n.A N.J.J.J.J.~.Q.^.Q.~.Q.~.).Q.(.(.(.Q.).~.!.(.!.U v , , , > > > , < > G Q > < E > ^ PXLXJXJXLXLXIXIXLXIXLXPXPXPXPXLX[./.[.].].8X_._.{.8X_._.K.N.f.p.V f.S.f.f.K.e.i.y.y.g.h.g.g.c.c.c.c.c.c.C.C.j.u.u.M n b n M t.g.k.k.l.k.k.c.M.M jXKXSX/ P.iXiX,X1X,X1X,X<X,X,X1X1X1X1X>X1X1X,X<XiXDXpXA B f.u.n P.^.I.f..XuXoXi.j.c.c.l.c.c.l.c.j.j.j.u.u.N.eXNXNXvXUXUXrXzXrXzXrXrXrXrXUXUXbXUXUXrXUXUXvXvXUXvXvXVXUXUXAXAXAXAXAXAXDXAXLXLXAXAXAXSXDXSXAXAXNXNXNXDXVXNXNXSXSXKXMXXX_. X^.A.S.l.z.l.g.l.z.b.b.b.b.x.v.c.v.v.v.v.v.v.T.T.b.l.g.l.g.g.l.j.t.n n e.e.t.t.g.l.c.c.c.c.c.b.b.c.v.c.v.c.c.c.k.k.c.jXjXU.M.T.D k.D k.k.M.A.M.M. XCXMXu.e.z.i.a.a.l.b.l.b.c.b.c.c.b.v.b.T.b.c.c.c.T.v.v.b.c.c.c.c.c.M.u.V b b b b M M M k.k.g.l.l.b.l.l.b.c.l.c.l.c.c.v.v.v.W.k.M jXPXPXLX(.A CXMXz h.k.C.C.Y.C.T.T.M.T.M m D M M U.|.XXD b h.h.n b n b b u.N.u.b b n B.^. Xi.M f.u.e.n e.V e.e.M e.e.u.t.e.u.i.i.p.n n p.V I.uXuXuX8Xf.Z f.A b b n n e.i.z.B.i.y.i.z.z.B.A.B.A. XY.i.t.t.g.g.g.g.l.l.b.b.b.b.c.c.l.c.k.c.k.k.j.c.l.k.k.h.m v Y N.b m h.k.t.t.t.g.g.g.g.l.b.T.c.c.b.T.v.T.T.D ^.KXCXJ.M.^.m N jXZX;.# 4 u u y a y h [ ] f h h f r q q @ @ + @ @ O . @ # a g f j j j j j g j [ j K j X.$.X.j s 1 a t r X       # X.w.7.9.fXzX*.= O & & ..w.q.9.w.7.j s g g s s 1 1 L ",
"< . 7 >XiXiX<X<X<X<X,X<X,X,X,X,X,X<X<X<X<X<X<XiXiXiXiXiXiXiXpX@X/ / ^ 2X2X).^ H 2 o < 7 tXLXvX^ W :X0Xq.q.q.:X=.k d X.-.9.q.;XOX@X@X>X1X1X1XiXDXiXpXiXuXK.f.A.K.C.C.C.j.i.B.z.i.i.i.z.z.c.c.c.c.B.B.B.c.B.c.j.m.j.n.h.D z l , l v o.A v c v l v c A Y N.J.I J.J.N.J.N.J.J.Q.Q.J.~.~.Q.L.~.L.Q.Q.Q.Q.).Q.(.(.!.:.Q S 3 , x S L `.[.xXJXCXU X 7 > 0XPXSXJXJXJXJXLXLXIXLXIXLXIXLXPXKX`.`.[.{.{.).8X8X]._.{..XJ.N.n.B f.^.K.K. XI.u.i.h.t.y.g.g.k.c.k.c.c.M.m.c.C.j.u.u.u.b n b M M k.k.g.k.k.c.k.k.h.^.mXyXZ / iX<X1X,X,X1X1X,X1X1X1X1X1X1X>X1X1X1X<XiXiX8Xz A f.u.b K.BXuX.XuXuX Xu.i.c.c.j.k.c.c.z.j.z.m.i.n.^.yXAXDXUXUXrXrXzXrXzXrX:XrXrXzXvXvXzXvXrXUXnXUXUXUXAXAXAXJXLXLXLXSXDXLXKXLXLXLXLXDXSXSXAXAXUXNXvXNXDXvXNXvXeXNXSXKXMXXXJ.K._. XS.s.d.s.s.y.i.s.x.d.b.b.x.b.v.v.v.v.W.v.W.v.v.T.v.b.g.y.y.M.C.y.n t.n e.t.y.g.g.z.b.x.z.c.b.c.c.v.c.v.b.T.g.c.g.t.XXjX^.^.U.k.M M k.k.k.M.A.N.XXCXuXe.e.z.a.a.a.b.b.b.b.c.c.c.c.c.v.v.v.b.T.T.v.b.b.v.T.b.v.c.k.c.j.M b z b n b M n t.t.g.k.l.l.b.l.b.b.b.l.l.l.T.T.T.v.v.v.k.D U mXKXPX|.F CXmXz B M.m.j.j.c.j.c.Y.Y.T.v.T.c.t.t.k.g.M h.h.M.B b b b b N. XV b m.^. XM.n b n e.p.e.n n n e.e.e.e.t.i.i.e.u.i.i.e.e.p.p.b V uXBXuXuXP.A f.V z b u.u.i.B.B.B.z.g.i.z.z.V.Z.C.C.A.B.e.t.t.g.g.g.g.l.T.c.b.b.T.c.b.c.c.l.c.k.l.k.l.l.k.k.h.z v Y D z b M k.k.t.t.g.g.g.k.c.c.b.c.c.v.T.T.Y.Y.k.N.XX^.n.^.N.Y.n.v :.X.> 0 9 u a i a f ..f i ..f [ [ = @ @ @ . O O . @   ; a h j [ j j $.$.X.*.%.$.X.X.X.X.$.X.s 1 r t r #   #   . r -.9.9.q.kXq.+.O . @ ] 9.q.fXq.=.X.j j j H g 1 2 K ",
"o / >XiXiX,X<X,X,X,X,X,X,X,X,X,X,X,X,X,X,X,X<X<X<XiXiXiXiXDXiXiX>X/ / +X7X6.W 1 X X X < tXDXtX/ 3.q.q.kXq.q.:X3.5 k k d R W ~ ^ @X>X1X1XpX1XiXDXiXiXiXuXP.f.f.A.C.c.c.c.j.C.j.m.j.m.j.m.m.j.j.c.m.j.m.m.M.B.C.m.m.h.D N v v x x cXKXNXU I A c Z A A I ~ N.I Y J.~ I f.~ J.Q.Q.Q.L.~.Q.(.(.L.(.Q.Q.)./.6././.!.:.:.:.;./.hXvXVXKXLXPXPXLXVXQ > 7 UXLXAXJXLXIXLXIXJXLXIXLXPXPXPXPXKX[.`.{.(.{.).].).]._._._.J.f.f.b f.f.m.^..XK.f.u.g.t.g.g.y.g.j.c.c.C.c.c.c.C.c.k.h.t.n b n n M t.t.g.g.k.c.c.k.B b V A 2 >XiX<X1X1X,X,X,X,X1X1X,X1X1X1X1X1X1X>X1XiXDXP.V f.f.V V K.uXuXuXBXoXn p.m.C.c.l.c.l.c.z.z.z.m.n.f.J.XXyXNXNXvXUXvXzXrX0X:X:X:X:XrX:XzXzXrXzXvXUXUXUXAXDXAXAXAXSXAXAXAXJXJXSXJXSXAXLXJXAXAXUXVXVXNXUXVXvXrXtXNXSXLXSXmXK.M.N.K..XK.i.d.s.i.s.i.y.y.a.r.l.b.x.x.v.v.v.D.W.v.v.v.v.v.v.v.b.l.g.c.j.h.M e.e.t.r.y.l.l.c.c.c.c.c.l.b.b.b.v.c.c.v.l.c.k.M c.Y.T.Y.Y.D D k.M k.h.j.M.n.XXCXuXV e.B.y.l.l.l.b.l.c.b.c.b.z.b.c.v.b.b.b.b.c.v.c.b.v.v.b.c.c.k.M.M b z b b b n M t.t.k.g.g.T.l.T.b.T.b.b.l.l.l.c.v.v.b.v.C.T.l ~.LXPX[.3 ZXMXm M C.j.c.v.c.c.l.l.v.T.D.E.R.Y.v.Z.g.j.j.u.h.M b b b M.MXXXK.^.XXXXf.M b n m.u.n n p.e.n p.n e.e.p.i.p.t.p.y.p.e.n p.V V f.uXuX.X8X8XZ v l b B u.i.j.j.c.C.z.j.i.l.c.Z.Z.Y.R. XB.n t.t.t.g.g.l.l.l.c.l.l.b.l.c.c.l.l.T.g.k.l.k.c.c.k.D m c Y D b m M t.M t.g.t.g.g.l.l.l.c.c.b.c.v.v.v.v.C.u.B V N.^.N.M.M m U.L 2 1 9 = y f i r f f y r f [ *.9 O f a + O O . + . q g j j X.X.$.$.X.%.%.=.&.$.$.*.%.$.X.g 1 r g r # X # # . # j =.9.=.q.kX9.0 . O f 8.q.9.q.9.$.[ K K g s 1 1 P ",
"/ pXiXiX,X,X,X,X,X,X,X,X,X,X,X,X,X,X,X,X,X,X<X<X<X<XiXiXiX<XiXiX<X>X/ / 2X^ F o o ; : 7 DXDX&XW 3.:Xq.q.q.9.:X&.5 5 a d T 7 H / / >X>X1X1X>XiXiXuXiXDXuXJ.J.N.M.Y.T.C.M.k.u.u.m.n.k.M.m.M.M.M.M.M.m.m.M.N.C.M.M.n.n.Y Y Y G F x o.cX8.x G J Z c c A A A I ~ J.I A ~ ~ ~ ! J.J.J.Q.~.Q.(.(.~.~.).Q.).)./.(./.!.!.:.!.].mXVXCXGXKXKXKXAXAXPXcXX H LXLXUXJXJXJXLXJXLXLXLXIXLXLXPXPXKXq.].].(.{.).].]._._.}.}.M.N.f.u.m.K.A. X XK.A.y.t.y.y.y.g.g.z.l.c.c.c.c.C.c.m.c.j.h.M M b M M M g.k.g.l.k.j.M.m.V V v 7 pX<X>X1X1X1X<X,X1X1X1X,X<X<X1X1X,X1X1X1XiXDXP.V f.u.n P.uXuXuXuXuXP.n i.j.m.z.c.c.c.c.z.z.c.j.u.B A J.8XeXtXvXUXrXvX:X:XrX0X:X:XrX0XrXrXzXvXrXrXUXUXUXUXbXvXNXUXvXtX0X7X6.6.^ W ^ &.^ 6.6.0XvXNXUXvXwXNXxXNXSXLXSXXXJ.B S.A K.uXXXr.s.B.s.i.f.e.p.S.r.a.b.v.v.v.v.v.v.T.v.W.T.W.v.W.W.v.c.c.j.j.t.e.t.e.e.y.y.g.l.z.c.z.c.c.b.c.b.v.b.l.v.T.c.c.l.k.k.h.B k.k.k.k.k.k.i.u.t.u.p.yXBXXXn p.z.y.l.a.a.b.b.b.b.c.l.l.b.v.b.v.T.b.T.b.T.b.b.b.b.T.c.c.j.M.n b b b b M M M t.M g.g.k.l.c.l.l.T.T.b.l.l.l.T.T.v.Y.v.C.M.D {.PXPXmX, mXjXm M M.j.i.l.l.l.c.v.D.v.v.D.Y.v.v.Z.Z.Z.C.i.u.n n b b _.CXCXMXyX Xn V u.n n p.u.n e.p.e.e.e.e.n p.i.j.u.e.t.e.e.e.e.f.V f.K.K.K._.A A v A l b m B h.h.j.j.z.l.z.z.z.v.Z.Z.Y. XR.c.e.t.t.g.g.g.l.l.l.l.c.l.b.l.c.l.T.c.g.k.l.k.l.k.k.h.B v v Y A D h.M t.t.t.y.t.g.g.l.l.l.c.l.c.T.b.D.v.v.Y.m.V N.^.N.p.M h.XXmXo.6 - = - q q 0 q q i q q i [ *.q i hXw.y + @ . @ . - g K X.$.X.X.%.X.*.*.2.-.%.X.2.-.-.*.g # r g 1 X   # #   . 1 X.=.7.9.hXfX*.+ . a w.q.q.fX9.-.$.X.j s g 1 3 g ",
">XiX<X<X,X,X,X,X,X,X,X,X,X,X,X,X,X,X,X,X,X,X<X<XiXiXiXiXiXiX<XiXiXiX>X/ / 7 < X * 4 : +XDXrX7 7 $.9.w.9.w.9.q.$.5 k k K R 7 / / @X>X1X>X1X1XpXiXiXiXDXuXJ.f.J.A.U.^.U.N.Y.M.U.N.M.N.M.U.Y.U.~.U.^.N.^.N.A.N.M.M.N.N.~.U.:.Q C > X 3 > F :.G Z v Z Z Z I A ~ I I ~ I ~ ~ ! J.Q.Q.L.L.Q.Q.).Q.).Q./.)./.Q././.!./.hXhXVXVXVXVXGXGXKXJXJXvXVX'.X 0XPXAXUXJXUXUXJXJXJXIXIXLXPXIXPXPXLX'.].].].].).{.]._.(._._.K.N.f.p.V u.f.p.p.f.e.y.t.t.y.g.g.k.l.j.c.C.C.c.c.C.c.M.j.h.b b n b M M t.g.g.g.k.M.k.u.P..XA / pX1X1X1X1X1X,X1X1X1X,X,X1X<X,X1X1X1X1XpXiXiXP.V f.f.n I.BXDXuXuXI.V p.m.S.z.j.k.c.c.b.z.j.j.h.u.f.f.J.(.7XrXvXrXzXrXUXzXrXrX:XrX:XrXzXzXrXrXvXUXvXvXvXvXtXxXrX7X>.W C C d < o < 7 < o C 5.vXSXDXNXxXtXNXAXLXLXBX(.V V N.m.V K.BXoXn p.S.p.p.n n S.oXoXy.b.v.v.v.v.v.v.v.v.T.W.v.W.T.v.v.c.c.c.j.t.e.n e.t.y.y.l.l.c.c.v.c.c.c.b.c.v.v.b.v.b.c.k.k.c.g.k.D h.h.k.k.M t.t.t.M M B MXCX.Xn y.z.r.a.l.a.b.b.l.c.c.c.l.l.b.v.v.b.v.v.b.v.v.v.T.v.b.M.c.c.k.b b z b m M M M M t.g.g.l.g.l.l.b.l.b.b.l.g.l.c.v.c.v.v.c.U.D Q.KXPXbX> mXZXz M h.i.g.g.g.l.b.c.v.v.v.v.W.D.v.c.Y.v.C.C.m.b b z b B m.N.M.M b V m.f.n n u.e.n e.u.p.e.n e.n t.m.i.y.p.e.e.n e.p.p.f.K..XP.P._.v , L.yXA z m h.M.g.i.j.z.j.l.c.Z.Z.v.R.v.Z.Y.j.y.t.y.g.y.g.g.l.l.l.l.b.T.b.c.l.b.b.b.l.k.g.c.l.g.h.B m c Y Y N.M.D t.t.M g.g.g.g.k.l.l.l.c.c.c.c.v.v.D.v.V.m..X_.b u.oXMXjX}.I 3 1 0 9 9 q q q q y q i r q f q X.FXzX] # @ .   . ; g j X.$.$.$.-.%.*.%.-.-.X.-.%.-.2.%.g # r F r # #   X # .   f =.9.7.q.zX9.q . i w.q.9.q.w.=.*.$.j d d 1 1 s ",
",X,X<X,X,X,X,X,X,X,X,X,X,X,X,X,X<X,X,X<X,X<X<XiXiXiXiXiXiXDXiXiXiXiXDXtX7 4 7 : 4 1 : 6.UX/ 7 7 a -.q.9.q.kX:X-.5 k $.=.E W ^ ^ P.>X>X1X1X1XpXiXpXpXpX/ A Y N.J.U.~.U.U.~.N.U.N.~.N.J.U.J.U.Y N.Y Y D N V b b b N N.Y Y G x 2 x > 3 , J (.I G Z Z v Z A / I ~ I I J.~ J.~ J.J.~ L.Q.Q.Q.(.Q.).).).)./.Q.(./.!.(.bXZXVXVXGXGXKXIXJXJXVXvX5.< < AXJXAXAXUXUXUXJXJXIXLXJXJXIXPXLXPXLX[.'.qX(.]._.].].(._._.^.K.f.n.B V n u.u.n e.p.r.y.t.y.g.g.l.l.l.c.c.c.C.c.c.m.C.M.h.n M n M n t.t.t.g.g.k.c.m.u.K._.A P.iX<X<X,X1X1X1X,X1X1X1X,X<X<X<X,X1X,X1X1XiXiXf.V p.m.n f.pXBXuXuXP.f.f.f.j.j.c.c.l.c.c.z.z.j.i.u.p.B J.Q.8XqXtXvXvXvXUXUXvXrXrXUX:XrX0X0XrXrXvXvXvXvXvXUXNXNXvXwX0X0X7X7X0X0X0XeX0XqXvXUXSXLXSXvXqXqXVXKXLXSX}.A z b f.S.J.V ^.CXuXV p.S.V p..Xp.I.MX Xr.a.x.z.b.c.c.v.v.v.v.v.v.v.W.v.c.v.v.j.t.t.t.n e.t.y.y.g.l.l.l.c.c.c.c.b.c.b.v.c.T.c.b.c.g.l.k.k.k.k.k.M.h.D k.t.i.u.n K.BXBXXXn p.s.i.y.z.s.a.z.i.c.x.g.z.l.c.b.T.b.T.v.c.c.b.b.v.v.b.c.k.k.k.b b b b n M b t.M g.g.g.g.c.l.T.c.l.b.b.b.g.l.l.T.v.v.v.C.U.D U KXPXbX, jXCXM M t.t.r.y.y.y.g.y.g.l.c.Z.D.D.Z.R.Y.Z.A.A.m.n z b z z z z z b B u.u.M n n n n e.e.t.e.e.t.t.e.u.j.u.y.e.t.t.t.e.e.f.K.f.f._._.L.V Z uXDXV l V k.k.h.j.j.c.c.V.Z.D.Z.v.v.c.c.V.z.y.t.y.g.g.g.l.k.l.l.T.T.l.b.T.b.l.b.l.b.T.g.g.g.k.h.M v c Y Y Y.U.M M t.t.t.g.g.g.g.l.l.c.c.c.T.c.v.Z.c.R.r.m.MXyX_.BXBXXXh.~.I < 0 - = q q 9 = q e q = = q q . =.JXnX*.% . O     - g X.R $.$.%.%.=.%.O.%.-.X.*.=.=.=.-.j # 1 g 1   # # . . .   # j =.w.8.fXkX=.. = 7.q.9.q.w.=.X.X.s j K 1 1 5 ",
",X,X,X,X,X,X,X,X,X,X,X,X,X,X,X,X,X,X,X,X<X<XiXiXiXtX>X/ >XtXiXDXDXDXDXiXpX7 : 4 5 . o 6.tX/ o 7 k *.9.w.w.q.q.-.k d $.>.E ~ 2X2X>X>X>X1X1X1X1XpXtXP.Z < l l l z z v v m v z c v v v v v l l l , , , l l l b b V b m l l l l > > 3 l > Z (.:.A Z Z Z A I I I A ~ ~ A I ~ J.~ J.J.Q.Q.Q.).~.).Q.Q.Q.Q.(.(.(.!.:.1.mXcXbXZXKXKXKXKXKXbXcX9.T . 6.LXAXUXbXAXJXUXJXLXLXLXLXJXJXLXLXPXLX[./.].].(.].).{.(.{._._.~.m.n.f.p.B p.e.e.t.u.i.y.y.g.t.g.g.g.c.c.c.M.j.c.B.c.A.M.M M b b M M M t.k.g.g.k.j.m.f.K.uXP.>XiX<X<X,X1X1X1X,X1X1X,X<X,X,X,X,X,X1X<X1X<XiXf.A f.f.p.b .XuXBXuXI.f.S.m.j.j.j.k.c.c.c.c.B.z.j.u.V f.J.).].tXvXvXvXrXUXrXUXUXzXvXrXrX:X6X0X0X0XrXrXvXvXtXeXrX0X0X]./.).)./.Q.6.).6.0XvXVXAXNXrX].].NXLXLXBX_.V z n f.K.N.K.z K.CXMXp.p.f.f.A.uXuXuXuXS.r.s.b.z.b.b.c.v.v.v.v.T.v.v.T.v.c.v.c.j.t.t.t.n e.t.y.g.l.z.c.c.v.c.b.c.c.v.b.c.b.v.c.c.l.T.c.k.k.h.h.u.k.k.t.k.t.u.e.b ^.CXBX.XV r.i.i.r.r.a.s.B.z.j.g.z.c.x.b.b.b.b.T.v.v.v.c.b.v.T.v.c.T.k.h.b b b b b n M t.k.t.t.g.g.g.l.l.l.T.T.b.l.l.l.T.c.T.v.T.T.Y.h.o.KXPXZX, |.KX^.t.t.t.u.y.y.y.y.l.r.t.y.g.l.c.v.Z.D.Y.R.Y.m.n z z b b b b V V u.n.B V n e.e.n n e.e.n u.p.p.t.y.m.i.u.p.e.e.u.t.e. X XN.XX_..X/ x 8XDXDXJ.z A D k.c.B.C.B.c.c.c.z.l.x.b.z.b.v.c.g.t.t.t.g.g.g.l.l.l.l.l.b.c.b.c.b.T.b.c.l.g.g.k.t.D m v v D Y |.Y.M t.t.k.t.g.g.g.g.g.l.l.l.c.c.c.v.Z.x.R.y.B.CXCXSXoXB M n.|.G X 1 0 0 = q ; = 8 = q = 9 @ % O zXHXnX=.f @ . . # r g K +.$.-.%.-.X.*.-.=.=.-.2.=.2.=.=.X.# r g r X # #   . .   + q X.9.9.8.zXfXh 9 *.q.q.q.q.=.%.j s K K 5 1 5 ",
",X,X,X,X<X,X,X,X,X,X,X,X,X,X,X,X,X,X,X<X<XiXiXiX>X^ / C 7 W / ^ 4XiXDXDXDX9X4 : 5 . o 6.UX^ 7 7 d R =.=.*.=.3.=.d j %.&.E ^ 7X>X>X>X1X>X>X1X1XpXiXpXZ Z / A l v l , , , , , , , , , , , , , , , , l v v c A B B  X.Xf.b l l l l l l , v ~.Q.! I A Z Z A I / I ~ A / ! J.! ! ~ L.J.Q.Q.Q.Q.).^.).Q.Q.).)./.!.:.:.|.VXKXKXKXPXKXGXzX0.&.R 5 o vXLXvXvXvXUXUXJXJXJXJXLXLXJXAXJXLXLXKX[./.].)._._.].{.(._.(.^.K.N.B n.B B B V u.u.u.u.i.h.y.g.i.g.j.c.k.k.c.C.z.B.C.Y.k.M b m b b M t.t.t.g.g.l.k.j.V K.uXpXiXDXiX,X,X,X1X1X1X,X1X,X,X,X,X<X1X,X1X1XiXiXuXf.A f.p.p.f.P.uXuXI.S.f.f.s.j.j.c.c.c.c.j.j.c.c.j.m.u.B J._.).eXcXUXrXUXvXvXvXzXrX:XrX:X:Xq.;X:X6.6.;X;X7X'.,.W Z Z 7 7 , < > < < 6 C W 7X0X'.).'.wXVXSXBX(.A l z V i.m.A.K.K.V L.BXBXf.V p.p.P..XuXuXoXp.a.z.b.z.v.v.v.v.T.W.v.W.W.T.v.v.c.c.c.j.t.t.t.e.e.t.y.l.l.l.c.c.c.c.b.v.v.c.v.c.b.T.b.c.g.c.c.k.k.k.M M M k.t.t.t.u.e.n .XCXCXuXn p.i.i.d.p.p.p.r.p.i.s.z.z.v.b.b.v.T.b.v.v.v.b.b.T.c.c.v.c.k.u.M b b b b M t.M t.t.g.g.l.g.c.T.c.b.b.v.c.g.g.l.T.v.v.v.v.Y.h.o.KXPXVXx U.CXjXy.u.p.t.t.y.y.y.g.y.t.r.t.y.y.g.z.C.C. X^.n.b z b z m z V b M n B n n n V e.n n e.n t.i.i.p.t.u.i.u.e.M e.t.t.e.V K.^.n.^.A J.Z P.iXLXDXP.l A n.M.m.z.j.j.g.y.y.y.y.a.s.b.b.C.c.l.t.t.g.t.g.k.l.l.l.l.l.c.c.c.c.b.c.b.l.T.k.g.k.k.h.m v v G N.^.^.m M M t.t.k.g.g.k.l.c.l.c.c.c.c.T.Z.B.Z.i.u.uXCX XB V n.~.|.> < 1 = # # = # 9 q q q 8 9 @ + @ kXJXnXw.X.= .   # r j X.X.%.*.X.-.%.%.O.=.2.-.-.=.-.-.=.X.# 1 s r # # # # # .     % r =.9.=.fXzXq.g *.9.w.9.9.=.-.K j K $.s ; 1 ",
",X,X,X,X,X,X,X,X,X,X,X,X,X,X,X,X,X,X<X<XiXiXiX4X7 W 6.'.7X6.Q W / @X4XiXDXiXOX: . 5 . W UXrX/ 7 7 W %.*.$.*.=.3.&.$.$.R >.6.L.L.>XpX1XpX>X1XpX1XiXtXP./ ~ ! A A Z C x l , , , < , > , , < , C C Z G I I Y J.f.p.uXMXoX XP.A V Z z l l l J.(.J.I I J I Z A I I I I I A ~ ~ ! J.,.J.Q.L.Q.).J.Q.).).).Q./.(.!.:.U [.NXGXKXIXKXcX8.K K K $.5 6.AXAXvXUXvXAXJXDXLXLXLXJXIXDXJXJXJXLXLX[./.].(.].].).(._.]._._.N.N.A A B B B B B h.B u.t.h.h.h.j.k.M.M.M.M.Y.U.A.N.N.N.D m m b b b M M M t.t.k.k.c.m.f.P._.P.pXiX<X1X1X1X1X1X1X1X1X,X,X<X,X,X,X1X,X1X1XiXiXf.f.p.p.S..XI..XI.f.f.f.f.i.m.c.k.l.k.c.z.j.c.C.j.j.f.n.K.)._.7XtXrXvXrXrXrXzXrX:X-X:X:X-X:X7X7X6.6.6.^ 6.^ W / Z Z Z Z / ~ ~ ~ ~ ~ ~ 6./.`.0XqXwXxXNXyX~.v l z A N.m.m.m.f.N.z K.CXCXN.V f.V P.uXoXuXP.p.s.x.x.x.x.v.c.v.v.T.T.W.v.v.T.v.c.c.z.h.t.n n n e.e.y.l.b.c.b.c.c.v.c.c.v.b.b.c.c.c.v.c.T.c.c.k.k.t.k.t.t.M t.t.t.h.u.n .XBXBX.Xn i.S.p.p.p.e.n n V K. XB.s.l.v.v.v.b.b.b.T.b.T.c.b.c.c.T.k.h.k.h.b b n n M t.t.g.t.g.g.l.T.l.l.T.T.b.v.b.l.l.l.v.v.v.T.T.Y.n.Y GXPXCXc m MXuXn e.e.u.t.y.y.y.y.g.g.y.y.y.y.y.y.g.j.A.^.u.b b z V V m V m b V B b n e.e.n n e.n n i.i.u.t.u.u.i.e.e.e.e.e.u.e.e.b V V V V l / pXDXiXDXuXv V N.n.h.t.t.t.y.y.y.y.a.a.s.l.v.Z.V.c.y.t.k.g.g.l.k.g.T.l.T.l.l.c.l.l.b.b.l.l.l.k.k.k.D D v v c :.|.U.m M k.M M t.g.g.g.g.l.k.k.c.c.c.Z.Y.c.A.j.e.M.A.B u.N.^.~.Q.X > # + + + # O + # = # @ + O + . *.nX-.g r . .   . r j K $.X.%.X.-.$.%.-.-.-.%.O.=.*.2.<.X.# # r 1 #     # +     . # O h =.9.8.fXzX=.=.w.q.w.9.=.$.j g K R s 1 1 ",
",X,X,X,X<X,X<X,X,X,X,X,X,X,X,X,X<X<X<XiXDXtXOX/ 3.:XnXnXnXvXzX0X^ 7 7 @XtXDXiX^ X 5 : o tXUX@X/ 7 d W &.$.*.=.-.=.3.&.E 6.2X^ / P.>X1X1XpX1X1X>X1XuX/ / A ~ A Z Z x 7 , , 3 < l , , , 7 l C C Z Z Z ~ A f.f.f.V oXuXuXuXuXuXuX.XP.f.V V J.J.J.~ ~ Z I / I / I / / I J.I ~ ~ J.J.J.Q.).).Q.Q.Q.Q.).Q.(.).(./.:.;.`.hXVXKXVX5.s ; R &.<.R d bXJXAXAXAXAXJXLXDXDXIXJXIXLXJXJXDXIXLXSX'.).].].).].).(.{.(.{._.A N.A V A Y B D Y n.n.n.n.n.n.N.m.M.N.M.N.M.N.N.N.N.N.Y m z z m m b m M M g.k.j.j.j.m.f.f.z P.iXiX<X<X,X1X<X1X1X1X1X,X<X<X<X,X<X1X,X<X<XDXiXA V V p. XK.K.K..XK.f.m.f.i.j.j.c.k.c.l.l.c.k.c.j.j.n.n.J.(.8XqXtXzXrXzX0X:X:XrXrXrXzX0XrXq.7X'.6.6.^ W / Q / J J / I ~ ~ I / ~ ~ ,.).].].qX0X].).J.U Y v z z A J.K.f.f.m.N.f.v J.CXCXK.V p.V oXiXuXI.S.p.s.x.z.z.v.v.b.b.v.v.T.v.v.v.T.v.c.v.c.t.M n n e.e.t.a.l.c.c.c.b.b.c.b.c.c.v.c.b.l.c.c.c.l.c.k.g.k.t.t.k.M M t.h.t.j.M V .XCXBXXXn i.i.p.p.p.I..XP.S.MXoXV.B.l.v.v.b.c.b.T.c.v.c.b.T.b.T.k.k.t.M.M.b n M M M t.t.t.g.g.g.g.g.l.c.l.b.v.b.b.c.g.T.c.T.v.T.c.Y.n.Y GXPXCXI m ^. Xn V e.e.p.y.y.g.y.a.y.y.l.g.i.y.t.y.t.m.M.M b z z z b b V M M B u.n n e.M n e.n n e.m.j.u.e.u.i.u.u.e.e.e.e.t.e.M b b z V Z l >XiXiXiXiXiXP.l B B M e.e.e.t.y.y.a.l.a.l.b.x.x.V.v.g.t.t.g.g.k.g.l.k.c.l.c.c.l.l.c.l.c.c.c.k.k.h.h.D D x , x U |.N.m M M k.M g.t.k.g.g.g.l.k.T.c.T.c.v.v.Y.A.j.u.e.C.A.Y.N.~.U 2 2 a 1 - - = # + O @ @ O . . O . = r . . @ . .   . 1 j K X.$.$.$.$.$.X.$.%.-.%.X.-.=.=.8.X.# X # #         +     + O   = *.9.9.9.zX:X9.9.w.9.9.=.K K j K K d 1 1 ",
",X,X,X,X,X,X,X,X,X,X,X,X,X,X,X,X<X<XiXiXiX/ W 4.zXzXzX0XzXnXvXvXqX$X/ / pXiXDXUXT X : < 9XDX9X/ 7 / W 3.&.&.&.&.=.4.&.&.6.L./ P.>X>X1X1X1X>X1X1XiXiXL./ ~ ~ / A Z Z Z C C Z v 7 Z C Z Z Z Z Z J W ~ I I A f.f.p.uXI.I.I.oXI.uXuXuXuXuX.X_.J.! J.~ I J I I A ~ A I I A ~ J.~ ~ ~ ! L.J.Q.).L.).).Q./.(.)./././.`.[.cXbXzXK . 1 &.0.4.<.k 0.AXJXUXAXUXAXLXJXLXLXJXJXDXJXJXLXJXJXLXAX/./.{.].].).].).].(._.).A v c c V V c N A B N N N N N N N N N m N N z c c N N z z l z v z m m m M M g.h.j.j.m.f.A v >XDXiX<X<X1X<X<X<X1X1X1X<X,X1X<X<X<X,X1X1XiXiXuXV f.f.p..XI.K..X.XI.S.i.i.B.j.k.j.l.j.z.j.z.c.c.j.j.f.n.J._.).qX0XrX0X-X:X:X-X:X:X0XrX0X:X6.;X;X6.3./ H 7 Z 7 7 Z x < , v v C v Z I ~ ~ W Z x , , l , l l N I J.K.N.A V f.f.f.z ~ CXCX^.b V b P.uXBXuXI.p.s.x.z.s.b.b.T.v.v.v.v.v.b.v.v.v.v.v.c.t.n n M e.e.y.y.l.l.b.c.v.c.v.c.v.b.c.c.c.c.T.c.c.c.k.g.k.g.M M D t.t.k.t.g.k.n n XXBXBXuXn r.p.d.V p.uXuX.XuXBXI.r.B.v.b.v.c.b.v.b.v.c.c.b.c.c.l.l.t.k.M.Y.B M M n n t.g.g.t.t.g.g.l.l.l.k.c.b.v.b.l.l.g.c.v.v.v.c.Y.M.Y CXPXVXY A M.M.p.e.e.e.u.t.y.a.l.b.a.a.a.a.l.l.g.t.t.u.u.b z b z b b m b V b n n n M t.n n e.e.e.e.i.j.t.e.t.j.i.t.e.M e.e.t.e.e.V V A V l / iXiXiX<XiXiXpXA z V u.e.t.t.y.y.y.a.a.l.a.b.x.v.v.v.g.t.t.y.g.j.k.l.g.l.k.l.l.T.c.c.c.c.k.k.k.h.h.h.Y c x 3 x G |.A m M B M M t.t.g.k.g.l.k.l.l.c.v.v.Y.Y.T.C.C.z.c.B.^.N.~.Q.U H F j s f k f a r a r q 8 . .   . . . . +   . . # + 0 j j [ X.K X.K X.K X.$.X.X.X.$.2.-.-.g #   # #   O @     O # + . * + 0 7.w.8.fXkXq.q.9.9.9.$.g j d j H d 5 4 ",
",X<X,X,X,X,X,X,X,X,X,X,X,X,X,X<X<X<XiX>X/ 7 4.kXkX:X:X:X:XzXzXzXvXvX6./ OXiXDXDX6X< . o >XDXtX^ / / W 6.3.W &.&.&.4.&.E ^ ^ / >X1XpXpXpX>X1X1X>XpXuX>X~ P./ A ~ / J Z Z Z Z v Z Z Z Z Z Z J J J Q Q I A A f.f.S.I.I.I.I.I.I.pXoXoXuXuXBXuXJ.~ ! Q W ~ / ~ A / I ~ A / ~ ~ ~ J.~ J.,.L.Q.Q.Q.).Q.).).).!./.`.!.'.cXzX5.1 .   j 9.q.%.s &.AXJXUXvXUXAXJXJXJXLXJXJXDXJXDXJXLXJXLXLXKX5.,.0X{.].(.).).'.].(.}.A l A v z , l l l l l l l l l l l l l l c v v c G c , l , l l v z c m m M M u.g.h.m.f.f.A / uXDXiX<X<X<X<XiX<X1X1X1X<X,X<X<X1X,X<X<X1XiXiX8XV n.i.p.R. X XI. XA.S.S.j.j.j.c.j.c.j.j.l.c.k.j.j.k.h.f.N.(.(.].0X0X:X0X:X:X:XrX:X:X:X%X6.#X6.6.Q ^ H Z 7 7 Z Z Z Z C v Z v , , x , > , X > , v l v v N N._.}.^.N.A V V V V A l Y BXCXK.V f.V b .XuXuX.XS.a.x.z.b.b.c.b.v.v.T.T.v.v.T.v.v.v.T.c.y.n n e.e.t.t.g.l.l.c.c.b.v.v.b.c.b.c.b.c.c.c.c.k.c.l.g.k.t.M k.T.k.M g.t.u.i.n V oXBXBX.Xn p.p.p.n p.uXuXuXuXuXf.p.V.x.b.b.T.b.T.v.c.c.b.l.c.c.g.g.t.h.k.U.m.h.M M M t.y.g.g.g.g.g.l.l.g.c.l.b.b.c.l.l.l.c.c.v.Y.T.Y.k.D VXLXCXU A m.f.e.p.n e.t.y.y.a.a.b.d.a.b.l.l.a.i.g.j.u.M b b z z m M V M n n n M n B M n n t.t.n u.j.i.t.e.i.u.t.u.e.e.e.t.M t.V n f.f.Z Z uXDXiX1X<X<XiXiXK.z V V t.e.p.y.y.y.y.y.a.l.l.x.x.v.Z.c.t.t.t.j.g.k.c.k.l.k.c.c.c.c.c.c.c.c.k.k.D D D D c 2 < 3 C ~.Y m M M M M t.k.k.g.g.g.l.l.c.c.c.v.Y.Y.Y.C.C.v.D.R.A.N.~.~.G F 2 s a a a f s f g f a r + . O   $ q = #   . . .   1 g K K X.K K K X.X.K X.K X.K $.%.X.[ t # X . X       . .     + . O O O f =.w.w.q.kXfX9.9.9.$.d g s a 5 5 5 1 ",
"<X,X,X,X,X,X,X,X,X,X,X,X,X,X<X<XiXiXpX/ 7 3.q.:XkXnXzXkX:X:XzXzXzXvX7X/ @X>XiXDXUX/ o . ^ iXiXtX/ / ^ ^ &.W 3.&.=.4.&./ ^ / / @X>XpX1X1XpXpX1X>XpXiXpX/ / / P./ ~ I I J Z Z Z Z Z Z I I ~ ~ / ~ W ~ ~ ~ P.f.p.d.I.I.I.I.I.I.I.I.oXoXuXBXuXJ.J.~ ~ ~ J I I / I / I / A ~ ~ ~ ~ ~ ~ ! ,.Q.L.Q.Q.6.).~ /./.(./.E L L s < . . d =.4.<.j o AXPXAXvXvXJXLXLXDXDXJXDXJXJXAXJXJXJXLXLXPXLX'.>.).(.).).].).).].qXwXJ.Z J.~ Z Z x v l v v v C x Z Z c G G U o.! Q Q.Q.U l , , , , l v v c m m M u.h.k.m.f.A A P.DXDXiXiXiXiX<XiXiX<X1X<X<XiXiX<XiXiX1XiXpXiXiXP.z f.p.p.S.p.p.p.p.p.m.i.i.j.j.c.j.j.j.l.j.k.c.c.j.B.n.n.J.^.).'.7X7X9XzXrXvXvX0X:X6.3.3.3.W W W W 7 Z 7 Z Z Z Z Z A A Z A A Z A J.Y J.(.}.(.(.! J._.}.yXZXMX_.Y N z V Z V V V l A CXCX~.z f.f.n P.oXP.f.p.i.z.c.z.c.b.T.v.v.v.v.v.v.v.T.v.T.Z.B.y.n n n t.t.y.y.l.b.z.b.c.c.b.c.v.c.b.c.c.c.T.c.c.k.k.k.t.M k.Y.^.k.h.h.j.u.m.p.V uXBXBX_.n i.p.p.V P.uXuXuXuXP.r.p.z.b.v.b.b.c.b.c.v.T.c.l.c.l.k.g.k.u.h.A.^.M.M M t.t.g.g.g.g.g.g.g.g.l.l.T.T.b.b.g.l.T.T.v.T.v.k.Y.D c VXPXSXI b A u.n V e.e.e.r.y.a.a.b.a.b.a.a.z.g.y.j.j.u.m b z z m z b z b z b n B n p.e.n n t.i.e.j.i.h.e.t.u.u.t.e.M t.M t.e.e.B V B Z x P.iXiX<X<X1X<XiXiXuXV z M p.u.u.t.r.t.y.a.a.l.l.b.v.v.V.c.k.t.k.k.k.k.k.T.T.c.T.M.k.c.T.k.k.M.k.k.D D D J x C 2 > G !.Y z m D M D t.t.k.k.k.k.g.k.T.T.M.T.T.Y.Y.Y.Y.Z.Y.Y.M.U.~.o.3 > # # o * * ; 0 u a a 0 = + .   $ % # #   @ # #   O - j [ j R $.K X.K X.j K j j j X.X.K a ;   X . .   O +   O . O . O O . . & X.7.9.3.kXhXw.9.=.$.g a 1 1 o 1 1 o ",
"<X<X,X,X,X,X,X,X,X,X,X,X,X,X,X<XiXiX@X7 #X:XkXkXzXzXkX:X:XkX0XzXnXzX0X7X/ @XpXiXDX=X4 : 7 iXiXiX>X+X/ / / 3.T 3.3.+.3.^ / / / @X>X>X1X1X1X1XpX1X>XpX>XP./ P./ ~ ~ ~ I Z I Z J ~ I Q I ~ ! ! ~ Q ~ W ~ A f.P.e.S.I.I.I.I.I.I.I.I.I.I.uXuXuXP.f.~ / / ~ ~ / I I A ~ I ~ A I ~ ~ / J.~ Q.Q.).Q.L.Q.).L./././.].1.X X > X . 1 K =.4.R 5 :XJXJXAXAXJXLXLXLXLXSXLXAXAXJXUXAXAXJXLXLXLXPXUX^ ~ Q.).).).)././.(.qX(.I ~ Q.! ! ~ U I Z G Z J J I I Q U Q Q Q Q Q ! ,.Q , > > > , , l l l z z D m h.k.n.n.V Z L.iXDXDXiXiXDXiXDXiXiX>XpXiXiXDXiXDXiXDXiXiXiXBXf.V p.p.p.d.e.p.p.e.p.i.S.i.B.i.j.z.j.j.k.c.g.l.g.j.j.M.M.N._._.{.qXrXzXrXvXvXvXvXrXrX:X:X;X6.6.Q E ~ Q ~ ! I A A A A A N.N.N.n.N.MXSXSXBXXX(.~.J.Y ^._._.~.v z z z V v v z l Z , A ZXSX^.b f.p.P.P.K.K.P.p.z.z.z.z.z.z.B.v.B.v.v.v.C.v.Y.v.v.Y.C.t.n n n t.t.y.g.a.l.l.l.l.b.b.c.c.T.b.b.c.c.T.k.c.k.c.j.k.M n.^. XU.h.h.h.B h.V B BXBXuX^.e.p.f.p.p..XDXuXuXP.p.V S.B.l.v.v.v.b.v.c.v.c.c.b.c.l.k.k.t.k.k.Y.XXD m M t.t.j.g.c.g.g.g.y.l.l.l.l.l.c.l.l.g.l.c.v.Y.c.T.M.N N.CXPXLXJ.Y MXJ.M M e.p.e.r.r.y.a.a.l.a.a.l.a.l.g.l.M.u.m z z z z z l Y |.n.m b B M M n e.j.m.n u.u.m.u.t.M u.u.M t.M e.u.M u.t.m A N , f.iXiXiX<X,X<X1XiXiXBXK.l B B n e.t.t.g.r.y.i.y.z.c.c.Z.C.C.h.M M h.n.n.n.n.U.N.U.M.N.U.M.U.M.U.U.Y D G G G x 2 1 3 C ,.U c m N N D B B D D k.n.n.n.M.M.M.Y.U.Y.Y.^.Y.T.Y.Y.U.U.~.L > X X   * = # * * * = = . O O . . * * 0 #   . .       r s [ j X.j X.K $.K K X.j K $.%.K r # X . . . X           O O O O O O O O q $.9.q.q.q.q.q.w.j a - 1 ; # 1 # X ",
"1X,X<X,X1X,X1X,X,X,X,X,X,X,X<X<XiX9X@X^ rXzXzXhXhXkXfXzXzXq.kXq.fXhX[.0X>X/ OXtXDXtX7 : 7 &XiXiXiXpX@X/ +X+X+X3.3.3.T / / +X@X@XpX>X>X>XpX>X1X1XpXpXpX/ / P.P.~ J.~ ~ I I / I ~ ~ ~ ! Q ~ I ~ Q Q ~ ~ J.J.f.p.S.I.I.I.I.I.I.I.I.I.I.I.uXuXP./ ~ ~ I I I I I / I A / ~ / / ~ ~ J.J.~ ! Q.^ Q.Q.Q.Q.Q.Q././.].!.t P K s s f X.=.j : 9.UXJXAXJXDXAXAXLXLXAXAXAXJXLXLXLXJXUXAXAXAXLXLXLXUX~ W ~ ~ /.).)./.).].qX,.! ,.! ~ U I J I G H G J J J J L I Q Q U Q Q >.J < > > > > > > , , l l m v D A n.Y P.A / 8XL./ ^ @X^ / / +X>X^ ^ +X4X=X4X>XiXiXDXDXDXuXV V V p.i.p.a.p.i.y.i.i.i.S.i.s.j.j.z.g.g.j.g.j.j.k.k.M.C.N.^.}.}.xXcXtXvXrXrXzXvXvXzXvXrXvXrXvXvXtXeX(.~.~.J.J.N.n.N.f.f.f.f.B f.MXKXyXJ.c b b l l c Z z l z z v c v v l l , 7 > G ZXCX^.n f.p.f.S.I..XK.f.S.B.B.z.B.z.B.c.c.v.C.v.T.v.v.v.v.Y.c.t.n n n t.t.y.y.l.l.c.k.c.z.c.l.c.b.c.c.c.l.c.c.c.k.T.Y.M.V B m.m.h.t.h.h.M.N.V A uXBXBXI.n s.i.p.V S.uXDXBXuXf.V i.s.z.b.b.T.c.v.c.v.T.b.T.l.c.k.g.k.k.M Y. Xh.M t.M g.j.c.j.l.l.l.g.l.y.l.l.l.c.k.k.l.l.v.b.v.k.C.N.~.ZXLXSXKXxX_.KX.Xz V e.t.r.r.y.r.a.a.y.y.a.a.l.g.y.j.C.k.m z z v U ~.mXCXKXjXN b D M b b n B u.u.n m.m.u.b M M V h.M t.u.M b B B V N , / iXiX<X<X<X<X1XiXiXiXDXuXA z B u.u.t.e.t.y.y.l.g.c.c.j.v.Z.C.k.B b z b c c c c N N N D G D D D D G G S F P P x t 3 3 2 :.Q c G c c c c D N D D Y n.N.N.U.~.~.^.^.|.|.^.^.|.^.|.!.o.t X X X   o o : : # + : $ .     . . & * ;   @ . . .     0 g X.K X.X.$.$.%.$.$.K $.K %.%.%.g 1 # X X . X . O O   O O O O O O O O @ = [ 7.9.w.fXq.q.w.j r 0 1 ; o < o X ",
"1X1X1X1X1X1X,X,X,X,X,X,X,X,X<XiXiX+X/ ;X:X:Xq.9.8.8.4.4.9.9.9.=.<.9.q.7X6./ / >XiXUXW : 7 +XiXiXiXiX>X@X/ / / +X/ / / / / / @X>X1X>X>X>X>X>XpXpXpXpXpXP.P./ ~ L.~ ~ ~ ~ ~ ~ ~ Q.! ! ~ ! Q ~ Q ! ~ Q ! J.N.f.p.I.I.I.I.I.I.I.I.I.I.I.I.uXBXL.P.~ ~ / I / I / A / I / A ~ A ~ / ~ ~ ~ J.J.J.Q.~ ).Q.Q.Q.)./.[.[.L K %.g g K <.K . =.JXLXLXJXLXLXAXDXJXSXLXLXUXvXvXLXLXLXAXAXAXAXAXLXLXPXvXQ I ,.).Q.Q.(.(.).qX).Q.,.! ! Q Q Z Z W Z J J J J I J W J J J E E Q J 2 < > > X > > > > , , v , Z v v Z Z Z v 7 7 < o o : : : : 7 7 o 7 7 4 7 7 / / +X8XDXL.z A n.u.m.t.i.y.i.i.i.u.i.m.i.j.i.j.j.g.z.c.g.j.c.z.j.j.m.n.n.J.(.{.0X0X0X0XrX0XrXqXqX0XcXqXvXxX].!.J.I A A f.n.n.N.m.n.u.i.m.n.b ^..XD z z V B c V N Z z v v v v v l l 3 l 3 C > G BXCX_.n f.p.S.K.K.oX.XS.z.B.z.z.x.B.z.c.B.c.v.c.v.v.Y.v.c.Y.C.t.n b n t.t.y.g.l.l.c.l.k.l.c.c.b.l.c.c.c.l.c.c.M.g.T.XXk.b b m b b M h.h.^.^.V N.BXBXuXK.e.p.s.p.b b P.BXuXuXS.p.p.B.c.z.b.c.c.v.b.v.c.c.l.l.k.g.g.k.g.t.Y. Xt.M M M g.j.c.l.z.l.b.l.b.l.l.l.l.l.c.g.l.c.v.l.v.C.M.n.~.CXLXCXKXCXXXKXXXb n e.p.t.y.r.y.a.a.a.a.a.a.l.y.g.c.M.k.z c ~.}.NXCXKXZXwXU l l B z m B n.M.b b b b u.B B B N.B b m n M M m V z N v Z pXDXiX1X1X<X<X<XiXpXtXDXDXP.z n B n u.t.e.e.y.y.y.l.z.l.c.c.C.m.B b l l l , , , l l , l l l l l v l , 3 t S t s 2 2 < 2 >.:.G G c v l l l l v m v m S N N D Y D Y Y Y N.U.U.N.:.U x > . X . .         *   .   . . . . : = = #     . . .   # 1 g K [ j +.$.X.%.$.R $.K %.X.=.2.X.d 1 X . . .   : O   O O O O O O @ O O O y [ w.w.9.9.q.9.j - 1 5 1 1 o # X ",
"1X1X1X1X1X,X,X,X,X,X,X,X,X<X<XiXtX@XT +Xw.$.*.*.*.*.$.*.%.=.-.*.=.0.'.].)./ / >XtXDX^ : 4 @XiXiX<XiX<X>X@X/ 7 7 / 7 7 / / @X/ >X>X>X>X>X>X>X>X>XpXpXpX>X/ / P.~ L.~ ~ ~ ~ ~ ~ Q.! ~ ! ~ Q ! ~ ~ Q ~ ! A J.B p..XI.I.I.I.I.I.I.I.I.I.P..XuX8X~ ~ ~ ~ I A I Z / J I A I / ~ I ~ ~ ~ ~ ~ ^ ! Q.^ ! ,.L.,.Q.!.].[.`.t s P s -.%.: K JXPXLXJXJXLXKXSXLXAXrX0XUXDXvX6.7XAXLXLXLXLXAXJXJXLXLXPXqXW ,.!./.Q.(.].{.{.!.,.! ! ! Q I Z J Z J J J J I W L J J E Q W E E W 6 < < > > > X > > X 3 > > Z A / / Z / / 7 / L.7 7 / / +X7 7 7 / &./ 7 7 7 < 7 Z / 8XA A Y B n.h.u.u.p.u.f.f.i.i.j.m.i.j.j.j.j.j.j.k.c.j.g.c.j.k.m.n.N.J.Q.Q.).].7X0XzXzX0X0X0X8X'.~ ~ Z A I I B A f.n.n.f.m.i.h.m.u.m.e.u.u.b V n.A D m z v v l v x v l , , , 2 7 7 Z X A BXSX.Xb f.p.S.K.K.K.K.S.j.z.z.z.z.c.c.x.c.c.v.v.Z.v.v.v.v.Z.c.t.n n n M t.y.g.g.l.l.l.c.c.k.l.c.b.T.l.l.T.c.c.M.u.T.XXn m m n B h.u.h.k.XX.XA K.CXuXuXK.e.e.p.p.p.f.I.uXI.P.f.p.y.z.c.l.c.c.v.b.T.v.b.c.c.l.l.c.g.g.g.M Y.^.M n t.t.g.k.j.c.c.c.c.b.b.v.l.b.l.c.c.l.g.c.b.b.c.c.C.h.M.CXKXKXKXBX_.MXK.n e.e.e.r.r.r.y.a.a.a.a.a.l.y.l.y.j.u.B l x jXCXNXmXU :.}.|.~.N z ~.^.N.XXmXn.z B B z z z l N b z D b z z l V z l Z 8XDXiXiXpXpX1XiXiXiXI.P.pXLXuXz b p.M t.e.y.i.y.y.y.z.z.s.B.C.C.M.M z l z l , l v v v v c c c v c G 3 > > 3 s 2 1 6 5 < 2 >.:.G G c x l l l , , l l , l , , l , > , l , , l , , x , X X X . .       :         . . O O . O - 9 = +   . . .     q g j X.X.X.X.$.X.X.K X.$.X.X.%.-.%.K r X X X .   .     . O O O O @ @ @ O O = y *.8.9.9.9.9.g ; ; a a 1 1 X . ",
",X,X1X1X1X1X,X<X<X,X,X,X<X<XiXiX4X/ / +X&.+.=.7.7.-.-.=.=.8.8.8.9.:X0X0X[.! / L.pXiXvX7 . / pX<X<XiXiX1XpX&X@XT / / / / >X@X/ >X@X>X1X>X>X1X>X>X>X>X>XL./ P.L.J.~ ~ ~ J.~ ~ ! ~ ~ ! ~ ~ U ~ ! Q ~ I U J.N.A f..XK.I.I.I.I.I.I.I.I.K..XK.8X).L.~ ~ ~ I Z Z / / A / I I I / ~ A ~ ~ ~ ! ~ ~ ! ! L.Q.L.,.,.!.].[.[.K 1 K K X.; k bXPXJXAXJXLXAXUXAXDXAX7XW W tXvXcX~ 3.0XSXLXLXAXKXKXLXLXPXLX(.W ~ (.).!.Q.{.].Q.,.,.~ ! I J Z H J Z J J J E I E I Q E E E E Q J 6 7 < < 7 < < X X o < < < 2XtX>XtXtXtXpX/ tXiX/ 2X4X9XDX5X7 ^ UXiXDXtX>X/ / ^ ^ / / v V A A D D n.n.f.h.h.m.m.i.f.i.m.m.m.m.k.j.k.c.k.z.j.j.j.k.j.n.N.N.N.! ! ).'.).].0X(.).!.,.J.Q.}.yXMXBXXX^.M.h.m.j.B.m.m.j.i.j.j.k.h.h.h.n.B n.N v z v l 3 C , , , > > 2 2 2 2 C > I BXDX.XV f.f.i.i.p.n p.i.s.z.z.l.z.c.x.v.c.v.v.v.v.v.v.v.v.C.c.M n n n e.t.y.y.g.c.l.c.l.g.k.c.l.c.c.l.T.c.M.l.M.k.Y.jXN.m.h.n.Y.^.M.u.n.^.^.V K.BXuXuX.Xe.p.i.e.u.K..XK.I.S.f.p.y.z.c.l.c.c.T.b.v.b.c.c.c.l.l.g.g.g.g.M A.Y.t.e.e.t.g.g.z.c.c.v.c.v.v.v.b.b.c.c.c.c.l.l.b.v.v.c.C.k.D |.XXXX_.~.f.A.p.b n e.r.r.y.y.y.i.a.a.a.a.a.a.g.y.h.h.b l l ~.ZXxX`.> G SXLXZXc v XXZX^.mXmXXX~.^.XXJ.Y N.n.v l ~.XX~._.|.~.}.(.v P.iXDXiXiXiXiXpXuXiXpXP.P.>XDXSXf.b V e.V p.i.t.e.t.y.z.i.e.j.C.C.N.h.z l z c c G Y Y U U ! :.:.o.:.Q x < 3 2 a 5 1 5 < < 2 >.;.G Z G c v l , l l , , , , , , > > > > > > , , > > > X . : . : ; k - ; ;     :   . . . . : * 9 y r = @ . . . . # r f K j j $.$.$.$.R K K X.X.%.%.%.%.K s 1 X X : : O     O . O O O O O O O O @ # h 7.9.9.q.9.g # o s s s 5 1 X ",
"1X,X,X1X,X,X<X<X<X,X<X,X<X<X<XrX+X/ +X3.&.-.8.7.8.8.=.8.8.8.8.8.q.:X0XzX[.Q.A P.>XtXDX^ . 7 9XiX<X<X1X<X<X<X1X>X@X@X/ / >X/ / >X@X1X1X1X1X1X1X1X>XpX>XP./ L.~ L.~ ~ ~ ~ J.~ ~ ~ ! ~ ~ ! ~ ~ I I J Q ! ! J.B f.K.K.K.K.I.I.I.K..XK..X_._._._.! ^ ~ Q Q / Z Z I A I I A / I I ~ I ~ ~ ~ ~ ^ Q.! ,.~ Q.! ,.1.[.[.hX2.F K X.g k bXPXLXAXJXDXJXDXtXrX9XvXNXeX).~ 6.tXeX6.W 5.vXKXLXSXLXKXLXPXPXAX<.H ~ (.(./.).).Q.).,.~ ~ Q W H Z H J J J J J ~ Q W E Q Q Q E E W C 7 C x 7 7 < < X < < < 7 >XDXtX>X>XiXiX>XiXiX>X>XpXtXDXtX7 ^ DXiXtXiXtX/ >XiXiXpX8X~ Z , Y A N A n.D B u.n.n.n.m.N.m.m.C.M.C.M.A.M.M.k.k.j.M.j.j.u.u.A Y I ~ ,.).'.6.5./.,.! Q.}.CXSXKXCXyX^.n.n.j.j.m.m.z.z.j.z.z.j.h.m.n.n.n.N D N l , , , > > > > > 3 2 6 5 1 1 2 > L.SXBXuXV p.B.u.u.e.e.i.e.i.j.l.z.z.c.c.v.v.v.c.v.v.v.Y.v.C.Y.j.e.n n n n t.t.y.g.l.k.k.c.c.c.k.c.c.c.c.c.c.c.c.M.h.Y.jXY.^.n.n.Y. XM.M n B B l ^.BXuXuXK.e.r.r.e.I.F.S. X.XA.S.i.j.g.c.c.c.b.b.v.b.T.b.v.c.c.l.l.g.g.g.t.C.Y.t.n e.e.u.g.g.j.v.v.Z.v.v.v.b.v.v.v.c.c.c.l.l.v.v.c.Y.k.n M m l V A b b e.n e.e.e.t.r.y.y.y.a.a.a.l.a.l.y.g.h.u.b N.N.l ~.VXCX|.G ~.}.N.l N XXmX_.XXN._.^.J.MXyX}.}.BX(.Y mXmXXX}.mXMXyX~.L.DXDXDXDXDXDXiXiXiXDX8XP._.L.uXDXyX^.J.V b b V b n n n n e.n e.n h.M.N.A c c G I I ! ! :.~.:.:.:.:.;.L 1 X ; 5 5 a 1 ; 1 < < >.;.J G Z G C x , , , , , , , , > , , > 3 2 x J J 6 X X X . . . * -.=.j a -       . . . . . % = = a g 1 @ . . @ . # 1 f j X.X.X.X.X.X.j X.$.$.R X.%.%.%.X.g r o #       + + O O O O O O O O @ O @ @ r X.9.9.9.9.k # o a s g s 1 X ",
",X,X,X,X,X,X,X<X<X,X,X,X1XiXiX9X/ W ^ 3.3.4.7.4.7.7.<.9.8.9.0.9.w.:X0XcX}././ P.P.pXDXDX/ : +XiXiXiX<X1X1X1XiX1X>X@X@X>X>X>X>X>X>X1X>X1X1X1X1X>X1XpXpX>XP.L.J.J.J.~ I ~ ~ ! ! ~ ,.~ ! ~ Q Q ~ J J I I ! Y Y J.N.N.f.f.J.P.f.P.N.P.J.^.J.J.).,.Q.~ ~ W Z Z Z / / / I / I I ~ I ~ ~ ~ ~ J.~ ! ~ J.,.! J.,.1./.`.[.0.%.K $.d q.LXJXAXUXUXUXVXAXUX7X).~ 2XNXNX7X^ ).tXvXtX6.^ xXKXKXSXAXLXLXLXPXVX6.H ! )./.!.,.5.,.,.~ Q W I J J Z J J I E Q W W Q W Q Q Q J J H C v 7 x 7 v , < > < < X o 9XiXpX/ @XiXiX1XiXiX>XtXpXpXDX>X7 @XiXtXP.pXiX^ 9XuXtXDXDXtXL.Z A c Z V N D Y A A B n.D n.n.N.M.M.M.N.M.M.m.k.M.M.m.k.n.n.n.B A A Z I ! ~ 3.,.,.J.! ~.}.}.XX^.n.M M B u.h.j.z.j.j.c.z.j.k.j.k.k.n.D M D Y c , , , > > > > > < 1 6 5 5 1 s 6 > ).DXBXuXV V m.u.j.i.i.B.r.s.g.z.z.z.c.B.c.c.c.C.v.Y.v.Z.Y.A.Y.M.e.n n e.n e.e.y.g.l.z.l.c.c.k.c.c.b.T.b.b.c.c.T.c.h.k.Y.^.Y.D B h.M.T.k.b B V V uXBXuXuX.Xe.r.e.p.oXoX XoXoX XV.y.g.l.l.T.c.T.b.v.v.v.b.b.b.l.l.l.y.g.g.y.C.A.n t.n t.y.t.g.g.c.v.v.v.v.v.v.v.c.c.c.c.c.c.v.v.c.c.c.M.M.M.B f.^.f.B K.A.n e.e.e.r.y.r.y.y.a.a.a.a.y.l.y.y.g.M b |.mXN v ~.CXCX|.N l l b Y mXMXXXCXN.~.|.J.XX}._.N.wXwX~.].}.|.J.(.mX{.Q.NXDXiXuXtXiXuXpXtXuXuXL./ _.P.uXuXMXyXyXf.z V n.N.^.A.u.f.A.A.m.p.u.n.n.n.A Z A Y ! ! ! :.:.U U Q Q E H < X 5 a 5 - ; - 1 o < >.,.I J G G G x v , , > , , , 3 3 x 2 6 L W E >.&.5 X . X . . . 0 q.zXj - ; :     . . . .   = * ; k [ a   . . .   # r g g [ j X.X.j j K K X.X.$.$.%.$.X.X.K s # X # * : + + @ @ O O @ O O @ O O O . + j 9.9.9.9.g X o s s j d s o ",
",X1X,X,X,X,X,X,X<X,X1X1X1X<XiX>X/ W ,.>.<.w.=.9.9.9.9.q.fXhXhXfXq.:XqXqX}._.K./ P.pXiXDXOX: / iXiX<X<X1X1X1X1X>X1X1X1X>X1X>X1X>X>X1X1X1X>X1X1X1X1X1XpX2X/ >X/ L.~ ~ ~ / ! ^ Q.! ~ ! ~ ! ! ~ I ~ ~ J J I I U Y A A I A A A A A A A A ~ I ~ ).~ Q.~ ~ ~ J Z Z A I A I I I / I I ~ ~ ~ ~ ! ~ ~ ~ ~ ~ ~ ! ,.,.1.8.[.0.L K X.K q.zX9.:X0X;X;XrXvXDXNXrX^ / ^ ].eX7X7XxXNXDXNX).eXDXKXSXLXSXLXLXPXPXvX~ J Q ).).,./.~ ,.Q Q E Q J J J I E I Q E Q E E Q E Q W W H H C 7 v 7 l x 7 7 , , 7 7 Z tXDXtX/ OXiXiXiXiX>X>XpX>X9XiX9X/ >XiX4X@XtXtX@XpXiX>X/ iXDXNX/ Z , Z v A U U.N.A A N N b N B B A N.n.n.N.N.N.N.n.m.n.h.n.B A c l , I /.7XqXcX}.{.~.n.V b m z b B h.j.h.j.j.j.j.m.z.M.k.k.M.n.D k.n.D Y Y F , X X > X X X > 1 2 1 s s a s 2 X 8XBXuXuXV f.m.t.k.j.t.i.i.j.j.j.j.m.j.C.B.M.C.c.c.v.Y.T.A.Y.Y.j.M n n e.t.n e.t.y.g.g.c.k.c.c.c.b.c.b.b.b.c.c.c.c.k.h.h.T.D M M b u.U.^.B J.K._.CXBX8X.X.Xn r.a.r.oXoXoXI. X XZ.l.c.c.l.c.c.b.b.v.b.b.T.b.c.l.l.l.g.g.g.g.c.C.n e.e.e.g.y.y.g.l.l.v.T.Y.v.v.v.v.v.v.b.c.c.v.b.c.v.C.c.C.M.B ^.MXV f.MX.Xb n e.e.r.r.r.y.r.y.a.a.y.l.y.g.y.j.u.n m.jXMXN.z ^.BXKXmXY b m N Y.M.m.XX^.^.^.^.|.Y J.Y ~.(.!.U Q.Q.(.{.{.qXeXuX>XL.>X>XP.>XP.P.L._.P.J.L._.8XyX8XyXXXA ^.yXXX.XyXMXXXyXXXMXuXXXC.m.n.B B A I I U U Q o.! ;.Q ;.Q %.d o X - a - 4 ; 1 5 < 1 >.>.J G J J J Z Z x Z C v x Z Z J J J Q >.>.>.5.%.X . . X . . . r q.zXj   : #     O O . .   u & = h +.a . . . @   # - g g j j j X.j K j K K R $.L X.$.K X.K s o X X * * + # . O O O O O O O O O O + . h =.4.q.9.d   1 a s s s s 1 ",
",X,X,X,X,X,X,X,X<X1X1X1X1XiXiXP.Z ~ J.,.5.5.<.9.9.9.q.kXzXzXzXzXzXzXqXeXwXXXK.P.P.1X<XiXDX/ 7 pXiXiX1X1X1X1X1X1X1X<X1X>X1X1X>X>X1X1X1X1X>X1X1X1X1XiXpX>XL.P.L.~ ~ ~ ~ I ~ ~ ~ ~ ! Q.! ~ ~ ! Q Q W J J U U U F A A Z Z Z Z Z v v v C Z A Z ,.).:.~ ~ ~ I Z Z A ~ / I I ~ / I I / A ~ / ~ ~ I ~ ~ ~ ~ ! ,.,./.`.`.0.L K j j 0X:X9.4.6.6X7X0XNXDXDXDXLXtX8X9XtXNXNXtXNXNXuXNXuXNXBXDXSXSXSXKXKXLXLXSXQ 7 J ~ ,.).,.Q ~ Q Q Q J I J E I J Q W I E E Q E Q W E J C C C , < l v 7 C 7 Z C Z ^ DXDXDX2XtXiXiXiXiX1XpX>X@X9XiXtX@X>XiXiXpXiXtX/ tXDX/ 7 ^ AXDX).C , C Z G :.{.~.Y A c l l l z z z z v N c c z v z c b b N N U J.G Z ~ ].xXxXNXwX{.~.n.n.A h.n.h.h.n.h.k.m.j.k.k.k.k.n.D k.k.D D D Y D Y F 2 > X . X X X X < 1 s g g s s s 2 < yXDXBXuXz V n.h.B k.j.e.i.m.m.j.m.m.m.j.j.m.n.m.M.m.M.M.M.M.M.i.M n e.t.t.e.e.t.t.g.g.g.c.c.c.c.c.c.b.l.c.b.c.l.k.k.k.k.k.m M D B Y.XXXXM.^.~.uXSXuX8XuXK.n r.y.r.s.S.x.y.x.x.x.z.z.c.c.k.c.c.T.v.c.b.v.v.b.l.l.g.y.g.g.y.m.j.e.n r.e.y.j.l.y.y.y.b.T.v.v.v.v.v.c.v.v.c.b.c.v.v.v.c.c.c.M.M MXMXK.BXBXp.n n p.e.e.r.r.r.y.y.y.y.l.y.a.g.g.c.c.j.h.Y. X^.h.M Y.XXjXY.h.u.u.n b M u.B B M N z Y (.|.Q.!.,.! :.:.:.(.}.wXwX8X).L.8X8XP.8X_..X.X_.8XXX8XyXyX8X}._._.eXyXyX_.A.^.uXMXXXXXMXMXMX^.u.u.n.D N Y I I Y U ! :.;.Q Q E ;.d X o ; - u - - 1 1 < 1 ;.,.I J J I I I I U I I U I I U I L Q Q ;.%.0.5.a X X . o X X . # [.zX+.  .     . . . . . $ - O $ k $.0 . . . O + # r r f g g g g g j g H K K K K K K K X.H a o X # * * #   + @ @ @ @ @ . @ O O @ O . f 9.9.9.9.g # ; 1 a s s 1 1 ",
",X,X,X,X,X,X,X<X,X,X1X1X1XpXpXP./ P.).)./.5.5.4.q.9.q.[.zXzXnXzXhXzXqXeXyXyXpXP.I.pX1XiXiX8X7 / iX<X1X1X1X1X,X1X1X<X1X1X>X1X1X1X>X1X>X1X1X1X>X1XpXpXpXP./ ^ L.J.~ ~ / I I ~ ! ~ ~ ~ ,.~ ~ ! ,.~ ~ J J H F H C 2 x 7 , < , < < < 3 < x 7 < ,./.6.>.~ ~ W Z Z A ~ I I I A I I I I I I I I I ~ I I ~ ~ ! ,.,.1.5.`.1.K K d j nXAXbXvXvXAXUXUXUXUXAXDXLXLXLXLXLXDXBXNXuXtXyX8X_._.XXXXuXmXNXBXSXSXLXLXDX).C C H ,.,.~ Q I Q ~ Q Q I I E Q I I W W Q E E E Q W C x 7 2 2 , 7 7 C Z H / Z 7 ).DXtX8XL.iXDXtX9XDXiX>X>XpXiXiXiX>X9XiXpXiXDX>X@XiXiX/ 7 / iXDX6.7 x C 7 2 ~ ].!.U I A Z l l l l l l l , l v v c c N A G Y J.{.}.! J C C C C C c c N A D N.n.Y D D n.n.m.M.n.M.N.M.n.N.N.U.D o.Y Y G S x 3 # X . . . . . X ; 1 s F s 2 a r 1 7 NXSXDXyXV A n.n.h.h.h.M n.u.B B B B B B B u.n.n.n.N.N.M.M.A.Y.n.n n t.e.u.i.u.t.t.t.y.g.g.c.c.c.c.c.c.c.c.l.c.c.k.g.k.k.h.t.U.T.n.T.XXXX^.m.B .XSXuXuXBX^.e.p.p.r.r.r.r.r.y.l.s.l.c.c.c.c.c.c.c.c.c.c.c.c.c.g.l.y.l.y.g.y.B.i.e.e.e.n y.j.z.g.g.g.g.l.c.b.v.T.c.v.c.c.c.v.v.c.v.c.c.C.c.M.u..XKXSXMXN.b b n e.e.e.r.e.y.y.y.y.y.y.g.y.y.g.y.j.z.g.h.j.j.k.t.M n t.g.j.c.C.j.j.g.j.h.t.n M B U.}._.!.(.!.1.Q.!.~.Q.{.wXwXqXeXeX8XyX8XuXuX8X8XyXXX8XXXXXyXyX.X}..X}.XX_.J.A N._..X^.K.K.A.A.s.i.n.n.A A A I I U ! o.:.:.:.;.E ;.d X : 5 0 - 0 r r 1 1 3 :.1.Q U ! U U U U I U U ~ U Q Q ! Q Q Q Q ;.0.1.1 X X . o X   X > 9.zX-.* . # . . . . . . $ u   $ h j - . .   .   # - r a a a t a s a s d g g s K g F j j g 1 o # o : # * + +   @   @ @ O @ O O @ . . s 9.q.9.9.K - o 1 1 a a 5 1 ",
",X,X,X,X,X,X<X<X1X1X1X1X1XiXpXP.f.K._.~.Q.Q.,.5.4.0.0.q.fXzXzXhXhXhX[.8XuXuX.XP.pX1X1X1XiXiX>X/ 1X<X1X>X1X,X<X<X1X1X1X>X1X>X>X1X1X>X>X1X>X1X1X1X1XiXiX^ P./ L.~ ~ ~ ~ ~ ~ ~ ~ ~ ! ,.,.! ,.! ,.~ ~ J W J H H 6 X < o X X > X > X < > < > > ! ]./.~ Q ! ~ Z Z Z ~ ~ I I / A I I I A / I I I I I A I ~ ! ,.,.,.5.0.<.K K s j bXAX0XvXUXUXUXAXNXtX7X7XeXDXDXDXDXeXyXuXuX_.P.P.K.K._.K.^.K.K.^.}.uXCXSXPXSXNX).W Z ! ~ Q ~ I Q I ~ I E E Q Q E J L Q Q Q Q Q J C 2 , 3 < 3 x Z 7 Z / 7 7 Z rXLXrX/ / DXDX^ tXDXtX@X4XDXtXtXDXtX>XtX>XiXiX/ @XNXtX/ 7 / DXDX^ 7 7 C 7 < Q ]./.~ Q I G c c Z Z G Y Y :.Q.Q.Q.(.(.(.(.].).(.mXqX,.J C > > > > , , z z z Y D n.N.N.N.N.M.N.N.N.N.Y N.Y Y D Y G G S x > > . . . . . : .   # 1 s s g s r s s 1 < 4.).).J.v Y Y D m m b b b b b m N D N.N.~.^.^.}.XX}..XXXXX}.XX^.b b u.M n u.u.u.u.t.u.t.y.k.g.k.c.l.k.l.c.T.c.k.k.k.k.m.n.U.XX|.M.h.U.M.B B z ^.BXMXyXuXK.n u.i.i.i.i.s.a.y.g.l.g.c.k.c.c.c.c.c.c.v.c.c.l.l.g.l.g.y.g.y.y.z.i.e.e.e.e.t.g.c.g.g.y.y.g.l.T.v.v.c.c.c.c.c.c.c.v.C.c.c.C.c.C.B N.CXBXA.b V b n n e.e.t.r.r.y.y.y.y.y.y.y.y.y.y.y.y.y.t.t.t.y.g.t.n r.y.l.j.g.g.l.g.g.i.t.t.t.n.(.}.(.~.!.!.!.].(.~.Q.{.eX{.}.wXwXeX}.8X8XyXyX8X.XyXXXyX}.XXXXXX.X_.^.).^.K.N.N.f.p.n e.e.e.e.r.i.m.n.n.Y A Y U U ~.! :.:.:.;.E E s X o a r - - r r 1 < 3 >./.! ! Q ! I I I I I I I Q ! ! Q Q Q :.;.,.'.5.2 . o # X . X X X -.zXq.5 . : . . . .   $ = = O $ h f O . . O . + = # - r r r r r r 1 a a s s s s s s s s 5 1 X X   # : # $ + + # @ @ . @ O O @ O O   h 9.q.q.q.K 0 # 1 1 5 1 4 1 ",
",X,X,X,X,X,X,X,X1X1X1X1XpXpXpXP.P..X.XP.N.J.,.,.5.5.9.0.1.9.0.[.hX[.{..XuXpXI.P.I.1X1X,XiXDXpX/ >XiX1X1X<X1X1X<X<X<X<X1X>X1X1X>X>X1X1X1X1X>X1X1XiXiXpXL.P.^ ~ ~ J.~ J.~ ~ ~ ~ ~ ~ ~ J.! ,.! ! ~ Q Q L H K L 2 X X X X X X X o X < X < X > ,.].Q.,.~ ^ / Z Z A ~ I ~ I I I Z Z Z Z Z Z A Z I A / ~ ~ ,.,.,.>.,.1.<.s d 5 k vXbXT W vXUXtXrXrXtXtX).^ ~ ).8X_.L.8XyX_.^.J.P.K.P..XuX.X^.m.f.f.A.^.}.NXKXPXLXyX, ~ Q Q Q U Q Q Q I Q I J W W Q J W E Q E Q J G x 3 3 C 7 C 7 Z C / / H / 9XDXDX>X2XDX7X/ 4XUX+X>XDXtX^ +XDXiXtXpX/ 9XDX>X9XiX4X/ / tXDXNXW 7 7 7 7 < E 0X`.~ Q ~ I I I I ~ Q.(.(.{.].].{.qX{.].qXqX].1.cXqX~ ,.,.I J J c Z Z v l , l l l v N D D N N D G Y D Y G x t x x 3 > > > X . . . . . . : : * t g g g s s r r 5 X X > > , v v l z v N n.A u.N.N.J.~.^._.XXXXyXXX}.XXXXXX}.}.XXmX^.b b u.e.M u.u.n.n.k.h.h.h.t.k.k.k.k.c.M.M.k.M.k.M.M.M.n.k.M.^.Y.D m m B B A V _.CXMXuXMXf.b p.i.u.p.i.j.i.z.j.B.c.c.c.c.c.k.c.M.c.v.c.c.j.l.l.g.y.g.y.g.y.j.i.n e.e.e.y.g.c.z.l.l.g.g.l.c.b.c.c.c.c.b.c.v.c.c.v.c.c.c.c.C.u.p.m.u.V p.p.b n n e.e.e.r.t.y.y.t.t.y.y.r.y.y.g.r.r.y.g.y.y.y.y.g.g.g.g.y.y.y.r.y.y.t.t.i.g.M B }.|.|./.!./.(.].].].(.}.wXwXwX}.}.yXwXyX.X8XXX8XXX}.XXXX_.|..X{._.^.~.^.^.K.N.f.B V p.i.p.i.S.B.B.j.f.n.A A ! U J.! :.:.:.:.U U E s o 1 a a r r - r 1 < < 1./.:.! ! U U I I G Z G I I Q ! ! :.:.,.;.,.`.>.< X 1 X # X # X   s fX:Xa .   . O . . $ = - $ : = k = . . . .   # # # ; - r r - r r 1 1 a 1 1 1 r s s s 1 1 ; o X X     # + + # @ @ @ @ @ @ @ @ O @ O ..q.q.9.q.[ - - - - - 5 o ; ",
"<X<X,X,X,X,X,X1XpX1XpX1X1XiXI.P.S.I.I.I.P.J.J.! ,.!.0.`.!.`.`.]._._..XoXuXpXP.I.pX1X1X1X<XiXiX@X>X<X1X<X<X<X1X1XiX1XiX<X1X1X>X1X1XiXiXiXtXpXiXiXtXiXtXL.P.~ ~ P.~ ! Q.~ ~ ~ ~ I ~ ~ ~ ! ! ,.! ~ Q Q H 6 >.=.1 X X : X X X o 1 # o ; < > 3 1.(.,.,.Q ~ ^ / Z I ~ J.I ~ I I Z I Z Z Z I Z Z Z Z A Z ~ ! ,.:.;.>.>.%.g s 1 k vXAX3.7 zXvXvXvXtXvXNXtXeX^ ^ L.L.L.J.K.L.K.J.J.P.K..X.X.X XK.K.m.f.m.N.N.(.yXSXKX(.Y ! I ! ! ! Q I Q Q I J Q I J W J E Q J J G G Z x x C G C C C J J H / < / 2X+X/ / ^ / : / / 7 / =X/ 7 / tXtXtXtX/ 2XiX>XtXDXDXDXUXLXDX8X7 7 7 7 C < W './.~ ,.~ ~ ! ! ! Q.Q.!.`.`.].(.[.`.(./././.1.Q qXqX6.,.`./.,.Q.,.Q.! U U Y v v , , , , l , , , l x x x x 3 3 3 < o > #     . . . . . . . . ; a g s g s s a 1 s r X X > > 3 , , c Y J.~.(._.)._._._.}._._._.}._._._._.|.(._.(.yXJ.z V n.n.f.B n.B n.n.n.k.n.h.h.k.N.N.N.N.N.U.U.U.N.U.N.h.D m N h.n.n.B M.|.n.n.XXCXBXBXuXB V u.h.f.n.i.h.h.j.m.k.j.M.c.M.C.C.c.M.k.c.c.c.z.z.g.g.g.y.y.y.y.j.j.e.n n e.y.g.c.c.z.c.l.g.l.l.c.c.b.c.b.b.c.c.c.c.c.c.c.c.c.c.m.u.u.n A.n.b n n n n e.e.e.t.t.t.t.r.r.t.r.t.y.t.y.y.y.y.y.y.y.g.y.y.t.y.g.a.y.y.y.y.y.y.g.t.M D _.|.|.(.!.,.1./.].{.{.}.wXwXwXwXXXxXyXyXyXyXyXwX}.}.XXXX_.}.}._.|.K._._.^.K.J.m.b b e.f.i.S.B.B.B.m.f.n.A D Y N.U ! :.,.:.:.;.L E F 1 a g f a 0 q r 1 < 1 2.`.1.Q.,.! ! I G G Z Z Y ! ! ,.! :.:.,.;.,.`.;.o . # o     #   . ; <.zXj . . .   . . $ = = O   = u   . . O . O * * + = # = ; # # ; ; 1 1 1 o 1 1 r r 1 1 < 1 # X #   X + #   + @ @ + @ . @ O O O O . g q.q.w.8.g - ; - - - ; ; ; ",
"<X,XpX1X,X,X<X<X1X>XpXpXpXI.I.I.I.I.uXI..XK.J.~ :.!.`.|.].(.|.(._..X8XuXuXI.P.pX<X1X1X1X<X<XiX>X>X1X<XiXiX<XiXiX1XiX1XiX1X9X9X1XiXDXDXiXiXiXtX>X2X8X8X/ L./ ~ ~ ~ J.^ ! J.~ ~ ~ I ~ Q ~ ! ! ! Q ~ Q H J '.0.o . X X X # ; 1 1 1 - ; ; < 3 /.].,.~ ~ ~ Q I Z A Q ! ~ I I I A / A / A Z Z / A Z I I / ~ Q Q ;.>.;.H 2 s 5 j vXJXbX3.;X0X7X7X;X7X7XtX8X_.).L.~ A Z ~ K._._.P.f.J.N.K.J.K.K.A.K.K.^.K.N.Y n..XCXmXQ.N.! U ! ! U Q U Q Q W E J J J L J Q U J J G G G G G G G Z G Z J 7 Z 7 / / / 7 7 7 7 7 7 7 : 4 4 7 : o 7 / / W 7 7 ^ / ^ rXUXUXSXDXtX/ 7 7 / 6 6 < ~ 0X).~ ,.Q.! Q.L.Q.(.(.{.{.{.[.}.{.{.].'./.5.~ H cX0X/.,./.Q.Q././.(.(.(.(.]./.Q.,.U G c S c , x 2 x 2 F F 1 1 o ; o o :   . X . . . . . .   1 g s s s g a a 1 a s 1 r 2 3 > , , ! (.(.Q.^.(.~.J.J.Q.Q.^._.(.{.}.{.{._._._.(._.wX).z z A N V B V N V B D n.M.U.N.U.U.N.J.o.U.N.N.Y Y D D D D D m N.^.^.M.U.XX~.A N.^._.XX^.V V N B A n.N.N.M.M.M.M.M.M.M.M.C.T.C.c.c.M.c.M.z.z.j.y.y.y.g.g.u.u.f.n n e.n t.j.B.j.c.j.c.l.g.g.g.l.g.l.l.c.c.c.z.c.M.c.c.v.C.c.B.B.m.B.A.i.n n n n n e.e.t.t.r.r.t.t.t.y.t.y.r.r.y.y.y.r.y.y.y.i.g.y.g.g.a.y.y.y.g.g.y.u.t.t.n A |.(.Q.!.1.1.!.(.].}.wXwX}.}.}.yXXX}.yXwX8X}.{.yX}.{._._.}.}._._._._.}.yX_.eXXX_.J.f.m.i.u.u.i.m.m.M.m.n.A A G U U :.:.:.1.:.:.L L H 1 g j j g r 0 ; 1 1 < 1./.!.,.Q.! ! I J A Z I I U Q ! ! ~ ,.;.;.,.0.%.> . X # #   +   . : -.zX4.$ . O * . + : ; $ . : = u O . .   O   = * #     # # # #   o X o # # X > 1 1 < # o 1 o o o o * # # # + + + + + @ @ O O O O O h 9.q.9.*.a ; = ; - ; - ; - ",
"1X1XpX1X,X<X<X<X1X1XI.pX1XI.I.I.I.I.I.I.I..XK.^.~.~.~.!.(.|._._..X.XuXuXpXI.P.1X<X<X<X,X<X<X<X<X>X1XiXiXiXiXiXiXiXtXiXiXiXiX1XtXDXDXiXtX9X2X/ Z / 7X8X^ L.~ ~ L.~ L.J.,.~ ~ ~ ~ I ~ ~ Q ~ ! ~ Q I ~ I E 1.=.< . : : # 1 1 # 1 # - - - < 2 /.].,.~ Q Q ~ I Z A I J.I ~ I I I I I I Z A I I Z / A J I I Q Q ;.;.%.1 6 s 5 R 6.zX0XW ^ 3.^ / Z 7 / / ~ L.).L.I Z Z J._._._.J.A A A A K.K.J.J.m.A.K.^.^.Y.N.N.^.XX|.J.U U ! ! ! Q Q I E J J J H H J L Q U J G I G A G Y Y G G Z G Z Z Z ^ tXtX>X>X>XtXpX>X4X@X@X/ @X/ / 7 7 7 Z 7 < . : . o o 7 W ^ 6XW 7 7 7 W d s < ~ 0X].,.! ).Q.Q.(.(.(.].].}.{.}.}.{.[.].'./.,.W H qXqX/.:.,.Q.,.,./.(.(.!.(.(.].].[.].(.!.!.~.:.:.o.J F 6 s 1 # o ; ; * $ . . . X . . . . . : a g d a g g a - a 1 r   1 # 3 # > > J {.).! Q.~.(.(.~.Q.).^.)._._._.{.{.{._.(._.].}.,.v l z z z l l l z l z z l z m v v v v x l v , l l z c B Y Y N M.|.^.U.U.XX~.N l A n.n.A z z z z V N B n.n.N.N.N.M.M.M.M.M.M.T.T.M.c.j.j.c.j.j.y.y.y.u.y.y.i.i.n e.n e.t.i.c.j.c.c.c.c.l.g.g.l.g.l.l.l.b.c.c.M.c.c.c.c.c.C.c.Z.V.B.z.m.p.n n n e.n t.n e.t.r.t.t.r.t.t.r.t.r.t.t.y.y.y.y.t.t.y.t.t.e.e.g.g.y.t.y.y.u.u.u.M N ~.~.U 1.].[.{.].[.qXwXwX}.eXyX}.8X8XyXeXeXeXeX}.wXwX}.}._.}._.}._.{.eXwXyXmXBXBXBXMXXX.XK.Z.z.m.m.m.f.D A Y A I ! ! :.:.2.:.;.L Q H s K j g ] g a r r 1 < >./.,.Q.:.! Q I I I J I I I I U I Q Q Q ;.1.0.%.X X .     +   O   . *.zXzXa . : *   - * $ + . O - - O . O O . $ * +     # # # #   # X X X X X X X X # X X o o < ; 1 o # ; = + @ + @ @ @ @ @ @ O O @ + f q.fXw.*.q 0 ; = ; ; * * - ",
"1X1X1X1X,X<X<X<X<X1X1X1XpX1XI.P.H.I.I.P.I.K..X}.|.!.~.U.~.|._.K..X8XuXoXuXI.P.pX<X<X<X,X<X<X<X1X>X>XiXDXDXiXDXiXUXiXtXrXrX9X@X=X9X2X/ 7 o o 7 7 L.uXtXL.~ L.~ ~ ! ! ^ ! J.J.! ~ I ~ I ~ Q Q I ~ Q J J F 2 2 # 1 o o = 1 # 3 r r * ; 1 o 2 /.'.~ >.~ Q ~ ~ A I ~ I ~ I I I I / I I I Z / I A W Z Z J Z J J Q %.E 2 5 5 o k k T k k 5 T ^ 3.W 7 7 7 Z Z I ).K.A Z J._.8XJ.Z Z v z Z A J.K.m.f.B u.n.n.^.N.N.A.K.^.N.J.Y N.! ! I Q I I W J Z Z J H J J J Z c c c c N N N m c N G Z Z 7 >XDXDXiXiXiXiXiXiXiXiXiXiXiXiXtXtXpX4X>X>X>X^ / 7 7 o o X X   . < 7 7 d d s < ~ eX7X,.).).Q.(.(.(.{._.{.[.wX}.wXqX{.{.'.6.,.6 C qXqX(.,./.!./.!.,.Q.!.!./.`.].'.].[.'.].].].].`.5.;.F 6 6 1 o ; ; * $ : : : . . . . . . . $ k j g a a s a - 1 ; r r t   # 3 < X Z (.).J.Q.L.L.~.L.^.(.(.)._._.{.8X{.{.(.].).).].J.Z v A Y A J.Q.J.~.Q.Y N l , , l , , , > > > > , , , v Y ~.U.Y N.U.N.n.^.XX^.N.N._.XXJ.V A A V v z l l l m z m V B D B B h.M.M.C.M.M.M.j.j.c.g.h.g.y.g.i.u.h.f.t.n M n h.k.M.c.C.C.v.k.c.c.g.g.l.z.k.c.c.k.c.j.M.M.c.M.c.C.c.C.z.C.C.j.t.n n e.n n n e.n e.t.t.e.t.t.r.t.t.t.t.y.t.t.e.r.g.y.u.i.g.g.g.r.t.g.u.t.t.g.t.t.M N Y :.U ! 5.;.;.,.Q.!.(.{.{._._.yX8X}._.8X}.}.wXwXxXmXyX}.yX}._.).Q.Q.{.qX8XwXyXyXyXMXMXXXMXMXuX Xi.u.N.A c A G I I U ! :.:.:.Q L ;.K t K j g ] h g a r o < >.'./.,.,.! ~ ~ Q I I I I I I Q Q I E Q >.>.0.L . . .   # $ + + O . +.zXzXk . * * $ a $ $ + . O u ;   .     .   * + + #     # # # # * X o o # o < X > # # < 1 # # 1 ; 1 ; # # # # @ + + + @ O @ @ O + f q.fX8.[ 0 0 0 - = ; $ * $ ",
",X,X,X1X,X,X,X<X<X<X1X<XuXpXI.I.S.I.I.I..X.X.XXXXXXX.X^.(._._.^.XXuXuXoX.X>X>X1X1X,X<X,X<X<X<X<XiX>X>X9X9X4XOX2X^ / / / 7 7 7 o < . o 7 7 7 / Z / 8XtXL.J./ ~ L.~ Q.Q.,.L.,.~ L.~ Q ~ Q Q ~ I Q J Q H 2 > < o # # ; r 1 r q r 1 # r # < F /.5.Q ~ Q ! ~ ~ I N.I ! I I I I A I I I I / I I Z Z / Z Z Z Z W Q >.L 2 < ; a K +.T k k k k W zXvXtX,.~ ~ Z A J.J.A A J.J.J.A z l l , l Z ~ n.A V V z V N B N.N.N.M.A.k.n.Y Y Y Y U U Y Y J J G G J J J J U A c v m z z c m m c c S v x < >XDXiXiXiXiXiXiXiXiXiXDXiXiXiXiXiXiXiXiXiXiXiXiXtXpX>X@X@X7 / 7 7 4 < 7 5 5 5 ~ 0XqX7X/./.(.(./.(.`.].].].{.{.{.{.}.qX7X'.Q < 6 qXqX/./././.5.Q.5.Q.,.Q.Q.5.(.].`.(./.[.].].].`.].<.s 6 s - 4 * * & * : : O . . . . . . # a R j g a a g a a r a r r - ; > X > X C {.(.J.).Q.Q.Q.~.L.).Q.).(.]._.{.].].8X].).(.].Q.! U ! J.(._.].}.{.{.(.Q.! v , 3 2 2 3 3 1 > X > > , 3 x G G D D Y N.U.^.MXjXU.}.jXmX}.J.J.Y A c v v v l v l z l z z z l z z m B B B u.m.C.c.j.g.t.k.t.t.M b m.B B n.D N.M.U.T.T.Y.U.Y.Y.Y.U.C.A.M.Y.Y.Y.U.M.M.Y.Y.T.Y.Y.Y.A.Y.^.A.^.B.e.n n n e.e.n n e.t.e.t.t.y.t.t.t.r.t.y.t.t.t.r.t.y.y.t.k.t.g.g.t.g.t.t.t.t.t.M M M N c Z A Z Z 2 > > > < 7 Z ~ L._._._.8X_.yX}._.yXyXwX}.wXwXyX}.eXJ.A _.BXvX8X_./.Q.~.J.~..XXXMXMXoXv.u.k.D N A G J I ! Q o.:.;.U U E L F s f [ f f f g r > > E /.1.,.,.:.! ! Q I I I I I Q J I Q Q L ;.8.8.j r # = - - - #   # @ d q.q.a . ; = # 0 = O . O & - 0 @ . . . @   #     +   # # # 1 - 1 # 1 1 1 # # > 1 X X # # 1 1 # 1 # 1 # # # #     + @ @ O @ @ @ @ h w.fX9.$.q ; 9 - 9 = ; = % ",
",X,X1X,X,X,X<X,X,X<X<XpXiX1XpXP.I.I.uX.X.XXXXXyXmXmXmXmXmXMXmXuXuXyXuXuXpXI.I.pX,X,X,X,X<X<X<XiXiX/ 7 7 7 7 o < X : X o o 7 7 7 o < / 2X).^ ^ ^ Z / ~ L.J.~ L.~ ~ J.L.Q.).Q.Q.~ ! ~ ~ Q Q I I I J J J 6 < > 1 ; 1 # = = = 3 r # # r o 3 P `.,.Q ~ ~ ! ! I J.J.Y A A n.I A ~ I ~ I A I Z I Z I Z Z Z Z J J ~ >.H 6 t a X.=.=.*.$.T a k R 0XVXAXwX)._.J.Z Z z V z z V N A c , l l , Z A Z Z z l l v z A B n.m.m.n.t.M B M N B N c A A A G J I I I ! Q.U A v b m b b v z z m v v v , 3 tXiX1X<XiX1X1X1XiXiXiXiXiXiXiXiXiX<X<X<X<X<X<XiXiXiXiXiX1XiXpX4X@X/ 7 7 o o < >.tXrX'.).(././.).(.(.(.]._.(.(.(.].7X{.0X/.W > 6 qXqX)./.5././.!.).Q.Q.5.Q./.(.`.].`.`.].}.[.]./.[.>.6 5 d 1 o ; * & $ O O . . . .   . . * k j g a r a a a f r r 0 - # # # X X X F qX{.J.Q.J.L.Q.L.~.J.).~.Q.(.(.)._.]._.].).).).L.~ J.~ ! Q.Q.Q.!.(.(./.Q.,.~ J 2 3 2 r r 1 X X X X 3 3 3 , , , S U ~.^.|.XX|.k.^.XX}.}.^.Q.Q.! A Z c l , l v l l v v v z z l z z z b n.B.m.M.j.g.h.M t.n M V n.A m m D N z D D D Y h.n.N.n.N.N.N.n.n.n.n.n.M.N.N.N.n.N.U.M.J.U.N.N.N.m.V n n e.n e.e.e.e.e.t.e.t.t.t.y.t.t.t.t.t.t.y.t.y.t.t.g.t.t.t.t.t.M t.t.t.t.t.t.M n z c c l C x X X < Z ~ Z v x A L.).8X).L._.XX}._.{.{.{.}.}.yX}.}.{.J._.BXNXmXeX{.(.(.J.Y B m.A.Y.Y.l.h.M.Y N G c G I U U ! ! :.U ;.L s g s g g f f r r s 1 < L `.1.!.,.:.,.~ ! Q Q I I I I Q ~ J Q %.2.0.8.P g f g j h h f q # # 5 d d 1 # + - q a u & O . O = q + O . . . . @ @ + + + # @ @ + # # r # 1 1 t r - 1 # < < 1 1 < 1 t 1 1 1 #     # # + # e @ @ @ e @ ] q.hXw.[ q 8 9 9 = = $ % $ ",
",X<X,X,X,X<X,X,X,X,X,X1XpX<XI.P.I.oXuXuXuXjX}.mXyXmXZXZXBXCXCXCXBXBXBXuXpXpXpX<X<X<X<X<X<X<XiXiXiX@X/ 7 4 o : o o 7 7 7 7 / ^ 6.7 7 W 7X9X^ ~ 7XL.C Z J.J.L.L.! Q.L.L.).).).Q.,.! ! ~ ~ ~ I I I J Q J 2 > < < # - - - r r r 1 r 1 1 1 > L ].Q I ~ ~ :.! I J.Y A B A A A f.A A A A ~ A I I A I A A Z Z Z U :.:.H s d X.*.=.w.-.+.+.k k 7 6 E ~ U ,.~.J.N z l z z z z z N V I Q.I v v l v Z v c Z v Z v N N n.n.h.M M M M m m z m m c N N G A G I U ! Y Z z z b m V m z z m c v v l C >XpX>X>XiX<X>X@X>X1XiX1XpX>X1X1X<X1X<X<X<X<X<X<X<X<X<X<X<XiXiXiXiXiXpX>X/ 7 < / xXqX).].].).(./.Q.(.(.(.(.(.(./.].].].[.'.J > 7 qXxX`./.`./.)./.!.,.,.5.Q./.!.`.].].{.].].{.[.].[.1.s 6 d a : - ; - & *     . . . . . . # f j f 0 ; r a a r u a 0 # # # # X X X C [.].Q.).Q.~.J.Q.Q.Q.J.L.(.).Q.(.(.{.].].)./.).J.J.! I I ! ! Q.Q.:.! ! ,.,./.,.H 6 g s r t r 1 1 > 3 3 3 3 > , S D o.U.U.|.U.N Y ~.}.}.(.(.(.!.J.! I J Z A v z l z l l v l l l l b n.A.^.M.C.M.k.h.B M M m z z A z , l z z l l z m z l l z l l l l l l l z z l z z l z z z M b B M n M b b n n n n n e.n t.t.t.t.t.t.t.t.t.t.t.t.r.t.t.t.t.t.k.t.g.t.t.t.M t.M M e.M M n M V z v l Z , > ).SXLXKXBX8XL./ v ~ L._._.8XeX}.}.XXeX{.}.yXyX}._.).! Q.).).].(.NXNXyX}._.D u.m.M j.g.j.M.B A A G G J U Q Q U Q L >.L K K X.g h [ ] g r s 2 X F `.1.Q.:.:.:.! ! ! ~ I I I I Q J Q U %.2.0.<.f r ..f f g h f f q q   . a $.j a g a a y a - & ; r r @ @ O O @ @ @ @ @ + @ @ + + O @ # # # ; - r 1 r r r r r r 1 r 1 1 q r - # # # # # @ @ @ @ @ @ @ @ f fXfXq.{ q q 9 9 9 % % 8 & ",
"1X1X,X1X,X,X,X,X,X,X1X1X1XuXpXI.P.uXuXuXyXmX}.xXhXxXxXmXNXZXVXZXBXBXuXuXuX1XiX<X<X<X<X<X<XiXiXiXtXtXtX9XOX^ / / / / / / / / / 7X#XZ 7 W 6.Z / L.8XJ./ J.~.J.(.Q.J.Q.J.Q.Q.L.J.! ! ~ ! I ~ I Q ~ ~ J J 7 o X 1 ; ; = - - q - r 1 1 1 2 > I {.! ! J.J.J.J.N.N.J.n.V V B A A A A A A A A A A Y A A I A Z A I ;.:.P F X.=.8.7.=.$.$.j k T k < > > Z I A N z z N V V V b V b A MXKXXXZ A Z Z C x l l v v Z V N h.M.h.n M M M M M m V z z m c c N N c N N N m b z m b z b z b N c v x 7 7 2XpX@X@XiXiX1X@X@X>X1X>X@X>X@X>X1X<X<X<X,X<X,X<X<X<X,X<X,X1XiXiXiXiXiXiXiXrX/ J tXeX].(.]./.(.Q.(.Q./.(.(.(.(.(.).].5././.C < x [.xX].).).'.)././.!.,.L.5.Q./.(.(.`.].{.].].].1.`.<.2 s d 1 - & = $ $ $ O O   . . . . . - g j a 0 r a f a 0 r 0 r q = ; 1 # < > 6 qX{.Q.).Q.Q.Q.L.~.J.).^.L.~.(.).)._.].(._.(.Q.! I A ~ Y U ! ! ! ! Q :.,.,.1.;.6 o 1 r + # 1 # X X X > # 3 3 3 3 , v S U.}.}.Y o.jXmX}.(.(.(.(./.(.(.).Q.J.I ~ I G A Z Z A A Y J.~.^.^.~.M.U.M.k.D m m z z V z L.P.Z , < , l l l c c v l v v c c N A Y N.Y Y A D Y N c z l z z z b b b b b n n n n e.n n t.e.e.e.t.t.t.t.e.t.t.t.t.e.t.t.t.M t.M M t.M M M M M n n M n n b z b z Z A l x eXSXSXDXSXKXDXyXL.Z A ~ L._._._.yXeX}.).J.~.(._._._.J.! v c A I wXyXeXmXMX^.N.A.m.j.z.m.h.B N G c A U U U U Q E L ;.K 2 t t q 0 0 q q + # X . 2 1.Q.1.1.Q.:.! ! I I I J J J I I Q U %.o.`.7.@ @ e @ e 8 e e e e ..q f =.fX=.[ a q y f p u & & @ @ O O O O O O @ @ O O O O O O O O O @ @ @ @ # @ # # + # q q r r a q r i r q # @ @ @ @ @ @ @ @ @ O O i w.fXfX+.i q u q 9 8 8 8 8 ",
"1X<X1X<X,X,X,X,X,X,X1X1XpXiXpXP.P.uXuX8XyXyXeXwXxXxXxXyXqXmXmXmXyXuXyXpXuXiXiX<X<X<X<X<XiXDXiXpX>X>XiXtX>X8XOX/ L.2XL.^ ^ / / L.7X6.W W 6.^ / ~ J.L.).J.J.J.^._._.J.).).Q.J.J.I ! ~ I I ~ I I I I W J 2 < < 1 - 1 - - 1 ; ; 1 1 1 2 2 , :.}.^.~.^.~.J.J.n.J.Y.n.b n V V V V B V n.B B A B A A A B A N G I U ;.P 2 K $.=.=.-.$.$.j j g L X.U c !.~.D z b b V n b b V M b B jXMX~.c A I A Z I Z v v G U A N N.C.k.t.M t.M n M m n m N m m c m N N m N m z z z b b m z z c D D c 3 l Z 9XDX1X>XiXiXiX9X@XiX>X@X1XpX@X>X,X<X,X,X,X,X,X1X,X,X,X1X,X,X<X<X1X<X<XiXDXDX~ ~ vX8X].]._.).(.(./.!.~.(.(.(.(.(.'.).5./.6.7 < 7 (.xX].'.)././.(./.5.1.,.Q.5././.].`.].].].].].1.1.%.1 s K a 4 ; + O O O . . . . . . . . = f a 0 # = q f r = + @ + O @ @     . X < `.qX(.).J.Q.L.Q.~.L.~.Q.~.).).^.).(.]._.].).J.~ A I I ~ J.! ! U ! ,.:.,.,.;.R ; . = q q q = = 3 # r S 3 # > X X > , v ~.ZXjX~.~.cXmXxX{.(.Q././.(.].(.].(.(./.(.).(.(.(.(.(.{.}._.~.N.h.D T.D D S v z l , , v tXDXpX9XP./ Z Z I ! ~.:.Q.Q.(.(.(.].{.}.}.}.}.|.}.}.}.~.~.Y V b m b m B b b b n n V M M n M M M n M M e.M e.n t.n n M t.t.M t.M M M M M M M n n n b b n b b b V z z v v v < l Z ~ ! ).tXuXNXL.~ I J.J.(._.}._.(.J.A Z A ! ~._.).J.Z ~ ~ J.xXxX).}.mX_.N.M.A.z.j.m.m.n.B D A G G I U Q U W J H H 1 > s ..g e # r r t r 1 P ;.1.:.Q.:.! ! Q I I I I I I I W U Q E 2.9.O.e e e e e e e ( ( ....i *.gXfXgXO.{ { +.+.+.+.O. .O...' ..i ....( e e w ) ( e ( e e @ @ @ e @ e e e @ e e @ e ( f ..f ..] f ..i e @ @ @ % e @ @ ] { [ ' [ w.fXfX+.i i w i w 8 e e e ",
"iX<X<X1X<X1X,X,X,X1X,X1X<X<XpX.XP.>X8X.X8X.XyXyXXXwXXXyXyXyXmX}.yXyXuX8XiXiXiXiXiXiXiXiXiX1X@X/ @X@X@X/ / ^ 2X^ / >X>X2X2X/ / ^ '.7X6.6.~ ~ 7 , l A J.N.K.J.J.^.^.).^.J.^.J.J.J.! N.J.I ~ N.! Y I I H 6 3 1 2 5 5 r r r r 1 1 1 t , x Y |.~.N._.^.^.A.N.N.J.^.n.n n n n M M V V V V V V B V V B N N N N G Y U F 3 2 s K =.<.=.$.K E K L L G D |.^.N b M V b n n e.b b B b B n.l z z c A Q.{.(.I I I U N.D N.Y.n.M t.t.M e.n n n b M n m M m B N D B m b b b b m b z b b A A Z v < 7 >XDXiX@XiXDXiX1X>XiX>X=XDXiX@X1X<X<X,X,X,X,X,X,X,X1X1X,X1X1X,X,X1X<X<XiXiXiX/ L.NX8X(.7X8X].(.(.(.(.(.(.(.(.(.(.).'.'.6.>.< > > ,.xX].].'./././.)././.Q.1.Q././.(.].].].].`.`.;.%.F 1 1 a a 0 $ O . @ # + O .   . O   # r h f q r y h ..f f q q q q i e q r 1 1 s ].].(.(.).).^.J.).^.(.)._._.~.~.).(._.]._.).~ A Z A Z I A ! I ~ U ,.!.1.>.&.[.zXhXzXzXzXnXnXbXnXnXcXnXhX8.t # > 3 3 S o.hXhX!.U.}.}.cXqX!.).)./.).).(.(.(.].(.(.{.].{.qXqXqX}.}.(.(.|.|.|.|.|.|.|.U.2.J.U I ^ iXtXiXDXiX9X~ L./.(.[.{.{.8X(.].{.].].{.].{.].{.}.xXmXmX{.~.N b b b b b b z b b b m n n e.n M n M n n M M M M n M M n n n M m m M m m m M b b b b b b b b b b V b z z A J.I Z Z Z Z Z A ~ )._._.~.J.N.J.~.J._.}.wX(.I l l Z J.~.Q._.yXmXyXSXCX_._.mXXXN.n.u.C.m.m.n.n.A N A N A Y I J L L J &.hXzXzXcXhXnXhXhXnXhXnXbXcXnXhX!.Q.,.! :.! U I I I Z I J I I Q ;.X.8.8.gX....) ) ) _ ) ` ) ) ) ` { O.gXfXfXfXfXfXfXfXkXkXnXlXlXnXlXlXkXlXlXhXlXfXhXkXfXhXgXgXfXgXfXfXfXfXfXgXfXw.7.7.*.O.7.*. .@.[ { { ..i ' '  . .*. . .gXnXlXfXgXlXfXgX*.' ( ' w ( w w w w ",
"iXiXiX<X<X1X,X1X1X,X<X1XpX1X1XpXpXP.8X.XuX.XuXuXyX.XuXoXuXoXXXuXoXuXpX8XuXiXiXiXiXiXiX1X>X@X/ / >X>X@X/ / / >XtXtXtXuXtX8X>XL.^ W W / Z C > > v A N.f.V f.n.m.N.K.~.J.J.J.J.J.J.N.J.Y ~ N.! Y I I J Z 3 > 3 2 1 2 1 2 3 2 < < 3 2 , l Y ^.B n.M.N.f.m.n.n.K.A.B n n n n n n n n V n b V b n V b n m m N N G Y 2 3 3 < F X.%.E E H L L P S x U.|.D b b M B n M n n b b M M z n m m z l v J.}.Q.Z Z c I D D N.M.h.t.t.t.e.t.n e.n n b M b n M M B M B n b b b b b m m b z N c v x < Z pXDXtX>X1XDX1X@XtXiX@X>XiX>X>X1X<X<X,X,X,X,X,X1X1X,X1X,X1X1X1X,X1X1X<X<XiXpXZ 8XNX7X(.eX{.{.{.(.(.(.(.!.(.(./.Q.1./.'.'.>.H F 6 >.cX].].'./.`././././.Q.!./.!././.`.'.].`./.0.0.`.4.=.=.-.-.4.=.=.w.w.w.w.9.9.gXq.fXfXfXhXfXfXfXhXkXzXkXkXhXfXfXzXfXfXzXzXfXzX[.0.qX].].(.).).Q._.).).J.~.(.(.Q.).).(.(.(.].J.I Z v Z Z Z Z I U ! Q :.1.1.>.<.nXJXIXHXFXFXFXFXbXFXbXVXnXhXhXhXhXhXhXhXhXhXhXZXjX|.hXhXwXcX(.(././.Q./././.)./.).].).(.(.].(.(.(./.].}.mXZXCXGXGXGXGXGXKXCXAXDXiXiX>X>XDXiXOX>X).8X].{.{.].].].(.(.(././.(.`.{.cXxXxXcXmXhX(.D z b b z z z z z z V b m n M M n M M b m n n b b m b n b m b b n m m b m b b b b b b b b b b b b n b V V N.}.MXyXyXyXyX.X_._._.yXyXXX_.J.J.J.N.~._.mXmX(.Z l V J.~._.}.mXmXNXCXNX{.(.}.}.^.n.n.m.i.u.B n b z N B A A A G J J J [.VXKXGXJXGXJXIXIXGXJXGXKXKXKXVX:.~.~.:.! U ! I G Z I Z J I I Q ;.%.O.q.gX..{  .|  . . .O.aX . .O.aXdXgX7.dXfXdXgXfXgXfXgXgXgXhXgXgXfXgXgXhXlXgXfXgXfXlXhXgXgXkXlXfXlXfXfXlXlXnXnXhXgXgXfXgXgXdX@.@. .{  . . . .gXgXgXgXdXgXgXgXfXgXgXgXdX@.` ` ` ` ` ' ) ` ` ",
"iXiXDXDXiXiXiX<X<X<X1X1X1X1XiXpXpXI.pXuXuX.XuXI.uXuXuXoXuXuXoXuXuXuXuXuXuXDXiXiXiXiXiX>X/ / >XiXiXiXiXpX/ Z 2XuXtX2XpXtXL.^ / 7 > < > X X C ~ _.NX.Xf.V B u.p.p.n.f.m.m.n.m.N.n.f.N.n.N.A n.f.I A G l > > , > X > X X X X > > > , , z N n.b u.t.e.e.e.M k.Y.A.e.n e.e.e.n n n n n n n n n n n n n M M M A B G , > > X > 3 , , 2 2 2 x x l c ~.~.N M M n n e.n n n u.M n n n M m b V b z N A c z z , l b m N.M.t.t.t.t.t.t.e.M e.n b M n M M M n M n b b b m b b z b N z b c c Z ~ 2XiXiX1X>XiXiX>X>XiXiX>X@X>X@X>XiX<X<X,X,X,X,X,X,X,X1X,X,X1X1X1X1X1X,X<XiXiX8X/ tXyX).].8X).].{.{.{.(.(.(.!.Q.Q.).6././.0.6.>.`.>.`.NX].'.).(.).(.].).)././.!././.(./.`.(./.5.;.0.[.[.0XzXfX0XkXkXzXkXzXfXzXnXzXhXnXzXnXkXnXzXnXnXnXnXkXzXnXnXnXnXnXnXkXzXkXfXzXzX[.cX{.(.(.(.).).~.).~.Q.L.J.Q.L.~.).).].(.).L.I Z Z l v c Z I :.1.,.>.,.<.&.-.=.q.7.7.7.7.{ ..t O.8.8.X.O.8.hXcXnXnXjXhXjXhXhXhXhXhXmXcXhX]./.).].(.(.(.)./.)./.(.`./.(.].(./.(.(.[.{.}.hXhXnXjXjXZXcXmXxXwXUXiXDXtX1XiXpX@X^ L.0X{.qX0XeX0XqX].].`.(.].].{.{.}.mXcX}.wX{.|.N z z c l z z l v z z b m m b M m V m m m b b b b b b z z b b z b z b z b z b z z b z b b b b b b b M b V J.}.XXyX}._.XX8XyX_..X^.J.N.~.K.M.N.D N Y ^.yXyX|._.}.eX_.I Q._.8XyXNXBXeX~.Q.^.N.B B B n.n.u.B b V B n.n.Y D N N I J o.hX[.2.fX`.`.0.`.8.|.fX8.8.[.!.:.:.:.:.J.J.! I I Z Z J J J J E L O.7.8.O. . . .aXsX| sX .aXaXaXaXaX7. .e ) { ) ` `  .aXsXsXsXaXaX . .aXsX.. . .aX . . .aXaXaX.. . . .aX . .aXaXaXaXdXdX@.@.@. .dX .@. . . . .7.dX@.aX .@. .@. . .}  . . .@.}  . .@. . . . . .",
"T @X9XtXtXDXiXiXiXiX1X1X1XpX1XpXpXpXpXpXpXI.I.I.I.I.I.pXI.I.uXI.uXuXuXuXuXpXuXtXtX>X@X@X@XiXiXiXiXiXDXiXP.7 / iXtX~ / P./ Z l > , < 7 / L.eXBXBXSX.Xp.n p.e.e.p.u.u.p.B u.p.u.B f.B B u.B B B N N z c I G Y U U U U U :.U U U U Y Y D M.m.M t.e.e.u.n e.t.B.m.e.e.t.n n n n n n n n n n n n M n n e.n M V A Y I Z c Z Z Z Z Z Z x x A Y Y ^.U.B D M M u.n n n e.n M V n M n n M n t.n b V N V n.A N.D n.M.A.M.u.t.t.t.t.t.n n n n M M M t.M M M n M n m b m b m m z m z l v , ! tXDXDX1X1X>XiX1X>X1X<XiX<X>X@X/ 1X<X<X,X,X,X1X,X,X,X,X1X1X,X1X1X1X,X1X1X,X<XiX>XL.NXwX7X{._.8X].{.{.].].(.(.!.Q.Q.,.,./.7X'.<.W J E '.xX].].`.].'.].'.(.]./.(./.(./././././.,.E H 5.0.%.%.-.-.=.7.7.*.+.*.[ X.+.[ *.X.[ *.X.X.{ [ [ { [ ] { { ] { { ] ] ..h ..f r g 1 !.[.(.(.(.^.L.(.Q.).).J.).Q.Q.).(.).(.(.(.!.! I Z Z A I I ! ! ,.,.>.<.<.<.X.f # 8 e e e e e q [ 8.8.O.O.X.O.X.X.P O.O.o.P o.G L |.cXxX{.].(.(.(.].].].].(.].(.(././.!./.!.!././.|.:.Y S S O.S S S S U C , / tXiXtX1XDXpX/ P.2X).{.qXqXeXeXqXqX{.].].].].{.qX{.cX}.[.wX}.(.A l c G G Y J.c l z m N b b b b z z b z b z z z z z z z b z z l z z z z z z z z z z b b z b z b M b M D h.M.M.k.N.D m M B B h.B n n u.u.M B b b N N J.}.BXNXuXyX}.eXJ.v A ~ _._.wXBXmX).! N m f.B n.N.^.^.K.N.m.m.n.n.n.n.Y Y Y U S 3 t S S S t t t t S S S S P !.~.! U ! ! U ! I I I Z J Z W E ;.o.2.fXO. .aXaX .sXsXaX .sXaX .aXaX .w ' lXFXgXe ( `  .aXaXaXaXaXaXaXaXO.sXsX|  . . . .|  . . .| sX . .sX .| sX .| | sX|  .sXsX .aXaX .aX . .sX} sX}  .} } } sX . . . . . .aXaXaX .aXaX .sXaX",
"4 4 4 7 / +XtXDXDXDXiXtXiXiX1XiXiXuXI.I.I.I.I.I.I.I.I.I.I.I.I.I.I.I.oXuXuXP./ / / / @X9XiXDXiXiX1XiXiXDX>X/ P.tX8XP.L.L.J.L.).J.)._.eXyXNXBXBXBXBXK.n e.p.p.e.p.p.e.M e.e.M u.V M e.B V V V n V l N ~.}.XXmXZXNXmXmXmXmXmXmXjXmXXXXXXXXXm.e.t.e.e.e.e.e.t.z.i.t.e.e.e.t.e.n n n n n n n n n n e.n e.n b b B _.XX_._._._.eX_._.}.}._._._.}.mX^.z V u.n n e.p.n b M n n n M n t.t.n n M M M V V N.XXXXXXXXXXY.j.u.t.t.t.e.e.M n n M M n n n M e.M M n n M b b b b m z m z z z , I ^ DXDX>X>X>XiX1X>X1X<XiXiXiX>X>X1X<X<X,X,X,X,X,X,X1X,X,X,X1X,X1X1X1X,X1X<X<XiXpX8XNXeX8XeX].{.].{.(.].(.].(.(./.Q.).).'.'.4.H o 2 < H qXqX(.(././.).(.]./.(./.!.!.(.!.Q.!.1.~ E %.<.-.s a h a h f i y 9 q q q i e ..i q ( e e i e 8 e e e e 8 8 e @ 8 e 8 e q 8 0 r > 0.hX(.).~.~.).).Q.~.).~.(.(.).).(.).Q.).).).Q.J.! ! ! ~ ! ! ;.>.>.;.2.<.<.[ [ ......{ ..{ { ..X.7.8.O.O.O.O.O.P O.P X.o.O.P o.o.}.mXcXhX}.(.(.(.]._.{.{.(.(.].(.(.(./.!.,.,.!.!.!.o.o.S P D O.O.P P J H Z L.iXiXiXiXiX>X@X>X7X).{.0XqXwXwXeXwXqXqX{.{.{.}.}.qXcX}.}.cX}.(.Y U |.}.mX(.U D l l l z z z b z z z z l z l l z z l z z l l z z z z z z b z b z m b z b b b b b b n m M D D D D h.M m M M M e.B M e.u.i.t.M h.Y.XXXXyXmXyX}.{.).J.J.~ v z Z I Q.).mXCXmXJ.V N A N.K. X^.U.m.h.h.j.m.M.m.h.n.n.N.o.Y G Y o.X.P O.O.o.o.O.O.o.o.o.~.:.~.U ! Y J.Y U U I I G Z I I ;.X.O.fXdX .O.aXaXaXsXsXaXaXaX .aX{ e ` nXIXPXIXkX_ ( } aXaXdXaXaXaXgXaXsXaXaXaXaXaXaXaXaXaXaXaXaXaXaXaXaXaXaXaXaXsXsXsXsXsXaXsXaXaXaXaXsXaXaXsXsX .sXsXsXsX}  . .sXaXaXsXsXaXaXaXsXsXaXaXsXsX",
"+X7 : : : : 7 ^ rXrXUXrXtXiXiXtXuXuXpXI.I.I.I.I.I.I.I.I.I.I.I.I.I.I..X.XJ.Z < > o 2XiXpX1XtX1X>X>X1XiXDXDXiXuX8X8X8X8XyX}.yXmXyXyXyXyXyXyXyXXXyXoXm.n p.p.p.p.r.r.t.t.r.e.e.e.t.n e.e.M p.M n M b N.XXXXXXmXmXXXXXmXmXXXXX}.XXXXXXMXMX^.u.e.r.r.e.r.e.e.i.j.y.e.t.e.e.e.n n n n n n n n M n n n n e.n V b f..XuXyXyXyX.X.X8XyX.XyXXXXXXX_.BXZXA z b B M n n e.n n b n n n M e.n e.n e.t.e.n u. XXXXXoXjXoXM.t.t.t.t.t.e.e.n M n n n M n t.n M e.n n b b b b b z m m z b v z x C < 8XDXpX/ >X<XpX>X1X<X<X<X1X>X>X1X<X,X1X,X,X,X,X,X,X1X,X,X1X1X,X,X1X1X1X1X<XiX8X8XuXeX_.{._.8X{.{.].].].(.!.(.!.Q./.5./.0X>.< . 1 X 3 [.xX|.`.).(.`.(.(.(.!.(.!.!./.!.!.1.Q.,.Q 1.9.%.s a h f h [ [ [ ] ] ] [ [ { [ { [ [ ] { { ] ..] { ..{ ] ..{ ..{ ] { { { ] ..t 3 8.}.(.(.(.).L.~.L.L.~._.).(.Q.(.~.!.~.).).Q.Q.Q.Q.! ! ! Q.,.:.,.1.<.-.<.=.h ....{ { { { { [ X...O.8.o.2.2.8.O.O.O.O.o.o.o.o.o.2.hXjXzX[.qX]._.{.{.{.]._.{.{.].[.{.{.(.!.:.:.!.!.:.o.U o.o.O.O.o.Y L J ~ ~ 8XDXiXiXDXiX>XpXDX8X).8X{.wXwXxXwXmXwXwX}.qX}.cXwX}.}.}.}.}.{.|.`.xXmX[.~.U U |.~.D b m m m M B m M m m b z z z z l l l l l l z z z z v b m N b b b b b z b b b b m M M M m M D M M t.M t.M t.t.t.t.g.g.t.n j.XXBXMXyX{.(.~.~ Z Z x ~ ~ Y I ! Q.J./.yXwXY z A N.J.K.A.N.M n M t.j.j.z.k.k.M.M.n.o.Y o.U.o.o.O.o.o.o.o.U.o.o.o.U.:.N.N.~.~.J.! ! J.I I I J I I U U o.8.8.O.aXaXaXaXsXaXaX .aX . .O.e { FXPXPXIXPXIXlX' ( @.dXaXaXaXaXaXaXaXaXaXaXaXaXaXaXaXaXaXaXaXaXaXaXaXaXaXaXsXsXsXaXsXsXsXsXsXsXsXsXaXsXsXaXaXaXaXsXsXsX@.sXsXsXsXsXaXaXsXsXsXaXsXsXsXsXsX",
"=X+X/ / / 4 : : 4 7 / / ~ / ~ P.I.pXI.I.I.I.I.I.I.I.I.I.I.I.I.I.I.I.I.K.V l 7 < H iXUX@X@X@X>X1X<X>X>XiXDXuX>XL._.P..X_._.^.|.^._.^.^.J.K.J.N.^.K.i.p.r.r.r.p.r.t.r.t.t.p.t.e.e.p.e.e.p.t.t.p.e.V A.^. X^.K.~.K.~.J.Y.J.J.K.J.^.K.^. XA.e.r.y.e.e.r.t.r.z.y.y.t.t.e.n n n n n n b n n n n n n n n n n e.b n..X.X XK..X_..X_.K..X.X_.^._.^.N.MXMXN.l z V b b p.V V b M M M n n n t.e.e.e.n n m.oX X X XoX Xj.p.y.e.e.t.e.M e.n n n M t.n M t.t.M n M n b b b b m m m b c v c Y S < 2XDX<X>X1XiXpX1X<X<X<X,X1X>XpX<X,X,X,X,X,X,X,X1X,X,X1X1X,X1X1X,X1X,X,X<XiXiX.X8XuXmXeX{.{.}.].].{.|.(.].(.(.(.).(./.6.'.W X X 2 2 C cXxX].{.(./.(.(.(.(.(.!.(.Q.!.!.!.!.1.5.>.0.9.$.s j [ [ [ h h ] f h ] g ....] ........{ ..] ..{ { ] { ..' ' ] { ' ..' ..f g ..t !.hX_.^._._.^.(.^._._.^._._.^._.(.(.(.(.~.).).Q.J.J.J.! :.! :.,.>.;.%.%.*.h ] ` ..{ { { { { ..X.O.O.8.O.O.O.O.|.O.o.O.o.O.o.o.U.cXmXhX}.[.{.].{.{.{.(.].].}.].{.}.{.].!.:.:.:.:.:.o.o.o.O.O.O.o.O.G J ~ / ^ tXtXP.pXiX9XtXDX7X).{.{.{.wXxXwXwXxXqXwXwX}.}.}.}.cXqX}.}.{.!.}.`.!./.(.|.jXCXSXXXU.n.k.h.M.M.n.h.h.h.M m b z z z z z z z l l l l l l l l l z z z z z b b b b M M D t.M M M t.M t.t.k.t.t.g.t.y.y.t.t.y.t.u.^.XX~.N.J.! I Z I I l N._._.Q.J.J.Q A I I z N N.J.N.N.V b b b e.u.g.j.C.z.C.C.C.U.k.o.D o.Y O.Y O.O.o.o.o.o.o.U.o.Y D Y N.N.~.N.N.N.J.Y I Y I I U U :.!.fXO.O. .aX .aXaX . . . .) e 7.FXPXIXkX@.HXPXPXnX#... .{ aXaXaXaXaXaXaXaXaXaXaXaXaXaXaXaXaXaXaXaXaXaXsXaXsXsXaXsXsXsXsXsXsXsXaXaXsXaXsXsXaXsXaXsXsXsXsXsXsXsXsXsXsXaXsXsXsXsXsXsXsXsXsXsX",
"@X>X@X=X=X+X@X7 7 4 : : o : X , b P.oXpXI.I.I.I.I.H.I.H.H.H.H.I.I.I.I.K.V A W 7 9XDXtX>XpXpX1XiXiXpX>XiXiX).L.P.P.P.P.J.K.~.~.^.K.~.K.J.K.J.A.K.A.i.p.y.r.r.r.p.t.p.r.e.e.n e.e.e.t.e.e.e.e.n e.u.A.^.A.K.^.^.~.^.K.~.K.^.K.K.^.^.^. XA.p.y.e.e.e.t.t.e.B.j.y.y.t.e.n n n n n n n n n n n n n n e.n n n n f..X.X.X.XI..X.X.XI._.I.^.K..XMXb m yXyX~.b z b V n b V n n n n b n t.n n n n n e.A.oXoX XoX.XA.z.p.r.e.e.e.e.e.n n n e.n t.M t.n t.M M n b n b b b b b m b m z N o.G , L.DXDXiXiXiX<X1X<X<XiX<X1X1X<X<X<X,X,X,X,X,X1X,X,X<X,X,X1X,X1X,X1X,X1X<XiXiXP.V ~._.XXyXyX}.}.{._.(././.|.~.(./.)./.6.'.W X X 1 2 2 qXcX(.].(.(.(.(.(.!.Q.(.~.Q.!.!.!.Q.1.,.,.0.=.j k g j ] h ] ] h ] ] g [ ..{ { { { { { ..{ ..{ { { { ....' { ' ....{ ..' ..t ..3 2.}.}._.^.^._.^._.^._..XXXXX}.XX_._.}._._.~.J.J.J.J.J.Y J.! U :.:.2.<.-.X.[ { { { { ` { { { {  .O.O.8.O.O.O.O.O.O.o.O.o.O.o.P o.hXxX}.}.{.{.{.{.].(.(.(.].].}.}.qX{.[.!.:.:.!.2.o.o.o.O.D O.o.o.P U J Z C 7 / 2X/ +XiXNXiXDX7X)._.{.qXeXwXwXcXwXwX}.qX}.qXcXqXcX}.{.].(.1.1.xXVXNXZXKXLXGXjX^.M.k.h.k.k.k.k.h.h.D D M M m b m m B N N D B N N N z N z b b b z b b b n V M M M m M M M M M t.M D t.t.k.t.t.g.t.t.t.t.t.n h.M.Y A A Z l I _.8X).J.~ U I ~ Z l , , l v A N.N.B B b b V B k.j.k.c.C.Z.Y.Y.Y.Y.U.U.o.D o.Y O.o.o.o.o.o.T.O.T.T.n.D D D B D N.N.N.N.J.Y J.Y ! ! o.U.|.8.aXO.aXaXaX . .aX@. ...' gXHXPXHX:Xw O +.FXPXPXlX` .. . .O.aXaXaXaXaXaXaXsXaXaXaXaXaXaXaXaXaXaXaXaXaXaXaXsXsXaXaXaXsXsXsXsXsXsXaXsXaXsXaXaXsXaXaXaXaXaXaXsXaXsXsXaXaXsXsXsXsXsXsXsXsXsX",
"9X1X>X@X>X=XrX=X4X=X/ 7 7 Z C A V f.I.I.I.H.H.H.H.I.H.I.I.I.H.I.I.I.oXf.Z W W / 0XDXDXtXDXiXtX>XiXiXDXiXpXL.P.P.K.P.K.P.K.^.^.^.~.A.K.A.^.K.A.^.A.i.r.t.p.r.r.r.r.e.e.e.e.e.e.e.e.e.e.t.e.e.e.n m.A.^.K.K.A.K.K.K.A.K.K.^.K.K.K.K. X XA.r.e.e.r.e.e.e.i.Z.z.y.t.t.e.n n n n n n n n n b n n n n n n n n n f. X XK.S.K.S.S.P.I.K.A.K.K._.BXyXz v }.MX}.N b z z p.b b V u.M n n M n n e.n n e.S.A.A.A.K.R.V.i.r.e.e.e.e.e.e.e.t.n M e.n e.M e.M t.n n n b b b b n b b b m v G o.L < / DXDXiXiXiX<X<X<X<X<X<XiX<X<X<X<X<X,X,X1X,X1X1X,X1X,X1X,X1X,X,X1X1X1X<XiXiXP.l b A N.^.}.}.mX}.{.}.|.(.(.(.(.).)./.).'.H . < 1 > , {.mX}.(.(.(.(.(.(.(.~.Q.Q.~.Q.Q.Q.,.,.1.5.0.%.j g h j h ] h ] ] ] ..] ] [ ....{ ....{ ..{ { ' ' ..' ' ' ......` ` { { ..{ ..O.t ~.mX}.XX_.^.K.N.m.m.m.N.N.N.K.K.^. XXXXXXX~.J.~.~.~.~.J.! J.Q.2.!.1.8.2.X.i ..{ { { ` ` ....{ X.O.O.O.8.O.8.O.|.O.o.o.O.o.o.G U hXcXcX}.[.qX{.8X].].].]._.].].[.}.}.].|.2.!.!.2.o.P o.o.O.P O.o.L G Z 7 Z 7 X 7 7 / rXDXDX8X~ 7X_.].}.{.qXwX}.wXwXwXqXqXqXqX}.qX{.].]./.,.vXPXLXKXPXPXMXU.m m m M M t.k.t.h.t.t.t.t.M M M M B B N N B D A D Y N.Y n.Y Y B B B B B M M M M m M M M n m M t.t.t.t.t.t.M M t.t.t.g.M t.t.M B N D A A z Z ~ J.eXNXL.l Z V Z v , v l Z I J.A B b b b n M t.u.u.m.c.Z.T.Y.Y.Y.Y.U.U.D o.o.o.o.o.o.O.o.o.O.D O.T.h.t.M M M M B h.N.Y N.N.N.J.Y N.U.O.O.8.8.aXO.aXaX .aX7.' ( +.lXPXPXHX+.e p ] 8 @.FXPXIXnX{ f ` aXaX . .O.sXaXaXsXO.aXaXaXaXaXaXaX .aXaXaXaXaXaXsXsXsXaXaXsXsXsXsXsX@.sX .sXaXsXsXaX .sXaXaXaXaXaXaXaXsXsXaX .sX .sXsX . .sX .",
">X1X9X@X@XrXtXrX1XtX9X@X^ 8XtXpXP.I.H.I.H.H.H.H.I.H.I.I.I.I.I.I.I.uX.XA < 7 7 7 / 9X3X^ 4XiXiXpXtXiXDXiXL.A P./ P.P.f.f.m.m.m.m.M.m.n.h.m.n.n.A.M.i.t.y.y.y.p.e.r.t.e.t.e.t.t.e.e.e.e.p.e.p.e.e.u.m.B.m.C.N.m.f.f.m.K.K.K.A.f.J.S.B. XS.e.r.e.e.e.e.e.j.B.j.y.y.t.e.e.n n n n n n n n n n n n n b M n n e.m.A.S.S.S.p.S.d.p.S.p.S.f.S.p.N.BX}.N , ~.ZXmXXX~.b b b n n V B n n b n n p.n e.p.f.S.m.f.V.K.S.p.p.e.e.e.e.e.e.e.e.e.e.M t.e.M t.M t.n n n b n b n b n b b m m S o.X.2 / tXiXiXiXiXiXiX<XiXiXiXiXiXiX<X<X<X<X<X1X<X1X<X,X1X1X1X<X1X,X1X1X1X1XiXuXuX/ A V z z b B N.~.{.|.{.}.}.|.|._.!.(./.'./.6 . > 3 > 3 ].mXcX|._.|.].{.{.}.(.|.Q.Q.Q.!.Q.!.Q.5./.1.$.j j h h ] [ j ] ] j ] ] [ ..[ { ..{ { { { { ' ..{ ' { ..{ ' { ` { { { { { ....P S hXmX|.~.m.B p.n b b n n n b n n B n.N.M.N.J.J.J.J.K.J.J.J.~.~.~.!.1.`.2.[ ] ] ` { } { { ` { X.O.7.8.O.O.|.O.U.2.O.O.o.O.U o.P ~.hXhX}.qX{.qX{.{.{.{.].(.].].].|.].].(.!.!.!.1.o.o.P o.O.o.O.O.o.G Z Z / 8X/ 7 : : 4 7 ^ 7X/ ~ 8X(.8X[.].cX}.qXqXqX}.qXqX{.qXqX].qX[.`./.>.VXPXPXPXCX~.v z M M k.g.t.t.g.t.t.g.g.t.k.t.M M n b b z z z z z V m N B D B A B B B B M M M M M n M b M n M M M M M t.M M t.M t.M t.k.t.M t.M B V N c z A J.! A J.eX(.v I I I A I Z A A N.N.A z b n V n b B h.m.M.c.C.Y.T.Y.Y.Y.U.U.T.Y o.Y X.P o.O.O.Y T.O.T.T.k.t.M M u.M n b B B n.Y A Y A Y Y D U.8.O.aXaXaX . .@.` i  .FXIXPXFX .@ { @.@.] e 7.FXPXPXFX .(  . .aXaX..aXO.sXaXaX .aXO.sXaXaXaXO. .aXO.aX .aXsX .sX} sXaXsX . .sXsX . .sX .sXaXaX .aX@.sXaXaXaXaXaX@.sX .sXsX .sXsX .sX| sX",
">X9X1X4X>X1X1X1X>X>X1X=XpXtXuXtXuXuXI.H.H.I.I.H.I.I.I.I.I.I.I.I.oXuXK.V , 7 4 : o < o 7 / tXDXtX@X>X@X/ Z / P.A A V p.p.p.f.f.e.h.h.h.k.h.h.h.C.j.i.y.i.y.t.t.r.t.r.t.e.e.e.e.e.e.e.e.t.t.t.r.t.i.B.B.m.A.A.A.K.N.K.K. XK.B.A.S.A.B. Xi.e.i.e.e.e.e.t.C.z.z.y.i.e.e.n n n n n b n n b n n b n n b V n b p.S.K.S.S.S.S.S.S.S.S.S.p.m.S.f.b n.yXmX~.l v ~.XXmXXXK.B b z b b b b V V V V u.V p.B.S.S.i.A.G.i.e.r.r.e.e.e.e.e.n n e.e.e.e.t.t.t.t.t.n M n n n n n n b b b v m o.o.o.S , I >XpXI.pXpXpXuXiXpXiXiX<XiXiXiXiXiXiXiXiX<X<XiXiX<X<X1X<X1X<X1X1X<XiXiXuXA B u.B b z z z l m D Y ^.|._._._.(.(././.,.5 . < X , x |.}.}._.].|.{.}.}.}.}.}._.|.(.~.Q.!.!.!.!.<.X.j j [ h h h ] ..] ..] ] ..[ { { { { ....{ ..{ { ....{ ' ..` { { { ..{ { { ....t S hXjXN.V b V e.p.e.r.t.p.p.y.u.p.e.n e.n b b b V B A A B N.A Y U U o.8.2.i ' ' { ` { ` } { { {  .O.O.O.O.O.O.2.O.o.O.o.O.o.o.o.:.xXcX[.}.qX{.0XqX].].(.].(.(.`.(.(.`.|./.!.|.:.o.U O.Y O.O.O.D U U Z / tXDXDXtX^ 7 4 : o < 7 ~ 8X7X].{.].{.qX{.}.qXqX].{.qX{.].].[.].(.!.,.VXPXKXZXD l D D k.k.M g.g.g.g.t.g.g.t.g.g.t.t.t.M M M m m m b z z z l z b z b m b n M b n n n n b n b n n n M M M M M M M M M M M M M M M M m V b c V v I ~.).~ Z ~ (.~ ~ J.J.I ~ A I J.Y A c z b b b b M u.n.k.M.C.C.U.Y.Y.Y.Y.T.U.U.o.Y O.o.U O.P O.o.O.O.|.T.T.D t.t.M n n n b n V b m m B N D S O.O.8.O.O.aXdX .) e 7.JXPXPXnX} e  .7.@.7.@. .)  .FXIXPXFX .) ..O.aXaX .aXaX . .aXaXaXsXaXsXsXsXsXsXsXaX .aX@.aXaXsX@.aX .aX . . .aXaX .aX . .aXaXsX@.aX@.aXaXaXaXaXaXaXaX .sXsX .sX .sX .",
"@X>X9X>X>X>X>X@X@X>X>X>X>X>XP.A I.uXI.I.I.I.I.I.I.I.I.I.I.I.I.I.oXuXI.A 7 2 5 : : : o / 4XDXDXpX/ / / / >XpXiXyXf.m.m.B.B.m.M.c.M.C.T.C.C.T.Y.Y.g.g.k.g.g.t.y.t.t.r.t.r.e.r.e.e.r.t.e.e.t.e.e.t.B.B.B.A.V.A.A.A.B.^..X XK.A.A.A.A.K.K.j.p.i.e.r.e.t.y.x.B.y.i.i.t.t.e.n n n n n n n n b b n n n b n n n f.S.S.G.H.S.S.H.H.S.S.d.S.S.A.f.V b V ^.mX_.h.l z Y |.mXMXXXN.Y V b z z b b b b e.m.A.A.B.S.G.K.r.r.y.e.r.r.t.e.e.e.e.e.e.e.e.e.e.t.y.t.e.n n n n n n n n b V b c P o.P P t , ~ P.P.P.P.P.>XI.I.I.>XI.pXI.pXI.pXuXpXiXiXuXiXiXiXiXiX<X<XiX1XiXiXpXpXP.p.V M V V n M V b z z z N N B Y Y n.J.I Z E 5 . < > l Y ~.D ~.^.^.^._.}.XX}.XXXXXX|._.^.~.Q.J.:.2.%.j K [ h [ h [ ] ] { [ { ..[ { { { [ { ......' { { { { ` ..{ ' ' ' ] ..{ { ....X.S O.|.D m b t.t.y.r.y.r.r.y.y.y.a.y.i.j.j.u.M b b b b b z z b z b m m S P P ] ] { ` { | ..{ { { { O.*.O.8.O.O.O.O.O.O.U.O.O.o.o.D |.hXcX{.[.qXqX{.].].(.].(.(.|./.(.`.`.|.`.|.8.o.L o.o.o.O.o.O.o.P I Z Z DXiXDXiXDXiX@X/ 7 : < < )._.).8XqX].qX}.{.qX{.[.{.].].].].].].(.Q.:.CXPXmXN m m k.k.t.g.t.k.t.k.g.t.g.t.k.g.k.t.j.h.M M M m m m m m m m m m m m m n M m n n M n M n n n n m n b n n n m m M M n M M M m M n M M n M V z c A Q.Q.).J.~ ~ A ~ I ~ ~ ! ! I A ! I z l b b b b M M B n.M.M.M.M.C.C.T.Y.C.Y.Y.U.o.U.O.O.o.o.o.o.o.O.O.T.|.c.t.n t.t.t.n n n n M n m M M M M D D O.gXO.aXaXO.( w gXHXPXIXnX( e ( { @.{ `  .{ { (  .FXIXPXFX .w } @. . .aXO.aXaXaX .aX .aXaXaXaX .aXaXaXaXaX . .aXaX .| aXaXsX .} aX .sXaXaXaXaXaXaXaXaX .aXaXsX@.aX@.sXaX .aX .sXsX .aXaX",
"=X=XpX9X=X9X1X1X>X>XpX>X>XtX>XZ f.I.I.I.I.I.I.H.I.I.I.I.I.I.I.I.I..X^.A 2 6 5 4 : o 7 ~ 8X9XtX^ @XpX1XiXiXDXSXmXJ.m.B.C.C.C.C.T.T.T.T.T.T.c.T.c.k.g.g.g.t.y.y.t.t.y.t.r.t.t.r.t.e.e.e.r.t.e.e.i.B.C.A.C.A.F.A.A.A. X X.XK.S.A.S.B.A.^.B.u.p.e.e.e.r.i.V.c.i.i.h.u.u.u.M e.n n n n e.n n n n n b b n n p.e.p.G.S.S.S.H.S.S.d.H.S.i.S.A.f.V b z V ^.XXMX}.N.m v c N._.MXmXyX}.^.~.~.A.K. X.X XV.S.V.S.G.V.r.e.r.r.t.t.r.e.e.e.n e.n t.M e.t.t.t.t.n e.t.n n n n n n b b c S Y O.P t F F Y XXuX.XI.I.I.I.I.I.I.I.I.P.P.I.P.P.S.I.I.I.pXI.uXuXpXiXuX1XuX<XI.I.I.P.p.V M M n V m b b m b b z z z z z z l > W '.k X X > , N.U.M M b M B A h.n.N.n.N.m.n.n.f.A D A G G X.F j g g [ ] [ ..] X...[ [ [ ..[ ....{ ..{ { ..{ i w ....{ { { ] ] ..] ..{ ..] ..P U.T.k.t.t.e.r.y.p.y.r.r.r.y.y.y.y.y.y.y.r.e.n n n n b V b b b b m m D P X.....' ` ` { ` ` ..` O.*.O.O.O.O.2.|.O.U.O.U.O.O.T.o.o.hXcX}.}.[.qX{.{.].(.(.(.(.)./.(.(.(.(.[.!.!.!.o.o.U U L O.P O.o.Y I Z / iXiXiXiXiXiXDXiXtXOX/ Z L.7X).].{.qX{.qXhX}.cX{.{.}.].(.|.(.{.(.Q./.NXyXD b M B k.g.g.t.g.t.k.t.k.k.g.k.g.k.k.k.k.k.t.M M M m n n m m m b m b b m m b b m m b b b n b m n m m m m m n m n m n m b M M n b M M M M b b b A N.J.Q.~ Q.! I ~ I I I I ! ! ~ Y Y A z l z b z b b M B D h.m.M.M.C.M.Y.T.C.k.T.T.U.U.o.o.o.O.O.O.o.|.U.T.T.k.t.t.t.t.t.t.t.M n n M M M M D M D o.O.O.O.O. .e ..kXIXPXHXgXe @ w w w ( w ( ) ( ) e @  .nXPXPXHXO.e )  .aXaXaX .aX . .aXaXaXaX .aXaXaXaX .aXaXdXaX .aXaXsXaXaX .aXdXaXaX .aXaXaXaX . . .aXaX .aXaXaXaXsX@.@.aXaXsXdXaXaX . .",
"+X/ 9XiX>X9XiXtX1XtXiX>XL.tX7XZ V P.pXI.I.I.I.I.I.I.I.I.I.I.I.I.S.P.f.A Z C 5 4 o 5 7 H Z 4 < / iXDXDXiXDXDXiX.Xf.N.C.Z.C.C.T.T.T.T.c.k.c.T.M.k.k.g.g.g.g.t.g.y.y.y.t.t.r.t.t.t.e.e.e.e.r.r.e.i.B.A.A.Z.V.A.A.Z.A.R. X XG.B.H.A.F.A.F.A.t.e.n e.r.e.z.V.B.j.j.i.i.u.u.t.t.M n n n e.n n p.n n n V n b p.p.S.I.S.S.H.d.d.d.d.d.S.S.S.S.u.n V b b b B M.}.mXmX^.A z z z N J.^.XXXXyXXXMXXX^.A.A.A.A.A.V.i.e.r.r.t.t.r.t.e.e.e.e.n e.t.e.e.t.y.y.t.t.e.M n M n n n n b m m m S X.P P P G x J.XXuXuXI.I.pXI.I.I.I.I.I.I.I.I.I.S.d.S.f.f.f.P.P.S.P.I.I.I.>XP.P.K.f.n B M M m n m V M m N b m m N m m N c , (.vX5 . X , l U.U.B M b b b b b b b b n b b b b b N v N G L g g X.h [ g ] [ ..[ [ [ [ ] { ..{ ..] ] { { ] ) e w e e { ..' ' ] ] ' ..{ ..[ S o.U.U.t.j.h.e.t.r.r.r.r.r.r.r.a.y.y.r.t.r.t.t.n n n n n n V b b b m m D O.O.{ { { { { { ` ` ` { { O.*.O.8.2.O.O.O.O.O.O.U.O.O.o.o.jXhXwXmX{.qX].].(.)././.Q.!.!./.`.(.`.|.`.1.o.2.L S 2 S S O.P o.Q I Z / iXiX<XiXiXiXDXDXiXiXuXtXuX8X_._.0X}.{.{.{.{.{.].(.(.(.!.(.(.(.!.Q.~.(.N l B h.t.t.t.t.t.k.k.g.k.t.k.g.h.k.k.k.k.k.k.k.M M m b m b z b c m b b m m m m b m b b b b b b b b n m m b b m b m n m m m M M n m M M n b b z A J.J.Q.J.! Q.J.I ~ ~ J.~ ! ! J.I J.Y z z z l b z z b b m B B h.k.k.M.M.C.C.C.T.T.|.~.O.S 3 x t t 3 3 S T.T.T.g.t.y.t.t.t.t.t.e.t.M M t.M M t.t.M k.O.|.aX| O.@.nXPXPXFX{ @ e w.kXkXlXkXkXlXkXfXlXgX .e i fXIXPXHX7.( ` aX .aXaX . .aXaXaXaXaXaXaX . .aX .aX .aX . .aXaX . . . .aX .| aXdXaX . .aX . .@.aXaX .aXaX . .@.aX@.aXdXaX .aX@.aXaX",
": 4 / 9X=X9XtXtX>X9X>XL.^ 8X7X/ A I.pXI.I.I.I.I.H.I.I.I.I.I.I.I.S.f.z V ~ H 6 d 5 W 6./ 7 < < / iXiXiXiXiXiXpXP.f.B.C.C.v.c.T.T.T.T.T.T.T.T.T.c.g.t.k.k.t.g.t.t.y.r.r.r.e.e.r.e.e.e.e.e.e.e.t.l.C.A.A.C.Z.A.A.A.A. XoX.XA.A.A.V.A.Z.A.B.y.p.e.r.e.e.x.B.i.j.u.i.j.h.g.u.t.M e.n n n n n n n n V n n e.n n S.G.S.S.d.d.S.H.S.S.d.H.A.S.p.n n V M b n b b h.^.XXMXXX^.N.A m l l z z b i.A.i.S.V.S.S.G.V.p.r.e.r.t.e.t.e.e.t.n t.n n n t.e.t.t.u.t.e.n n e.n n n n n n m N S D o.X.X.P 2 > l A K.uXoXpXI.I.I.pXpXI.I.I.I.I.I.I.I.H.I.S.S.p.p.f.S.d.S.S.I.P..X Xm.M M M V n n M M m M m V V m V N N N A , qXNX< X > , l U.T.h.h.u.B M n n n M M M n n n n b m m G P X.g g j g [ ] ] [ [ [ { { ..] ] { ] { { ..{ { ....7.fX7.i ] ' ..p ' { ....{ ......O.T.T.t.y.t.t.t.r.t.r.r.r.y.y.y.y.y.y.y.t.t.y.e.n n n n n b b b n m D D O.O...` { ` ` `  .{ ....X.*.O.O.O.O.U.O.U.8.U.O.O.U.O.o.o.jXjXhXcX}.}.(.(./.Q.)./.!.Q.Q././.!.!.].|.!.o.O.P o.o.L S o.O.o.U Z / >XiXiXpX1XiXiXiXiXiXDXDXiXiX8X)._.{.{.}.{.eX}.}.}.{.(.}.(.(.!.(.(.:.Q.Y l V n.h.t.t.t.g.g.g.k.k.g.k.k.g.j.k.k.k.c.M.k.k.k.M M m m b b z b z z b z b z m b b b b b b b m b b b b b b b b b b m b n M M M n M n b M b b V N.^.Q.J.Q.Q.~ J.J.,.J.! J.,.J.J.J.Y A l l z z z z b z b m m M B B h.k.k.k.M.c.T.T.U.U.S S P O.8.[.O.S S O.|.T.k.g.g.t.t.t.t.e.e.t.t.t.t.t.t.M k.D O.T.O.O...O.FXPXPXnX{ e w 7.FXPXPXIXPXIXPXIXIXIXPXnX{ e ) gXIXPXHXgX.. .aXaX .aXaX .aXO.aXaX . . .} ` ) ( ( )  . . . . .| _ ( ( ) | aX| _ ) {  .) ( ) _  .aX .aX . . .} _ _ ` | | | } } } ",
"7 : 4 7 T / +X9XtX9X9X2X2X8X>XP.P.>X8XI.I.I.I.I.I.H.I.I.I.I.I.I.I.I.f.Z Z H s K 5 E 5.W 7 C < / pXiXiXiXiXuXP.A m.B.C.v.T.v.T.T.T.M.T.T.T.T.C.T.M.k.j.j.h.y.t.e.r.r.p.t.t.t.e.e.e.p.n e.e.e.r.i.B.C.A.B.Z.A.A.A.K. XoX.XK.B.A.A.A.A.A.m.y.e.e.e.e.r.B.B.i.i.u.u.u.j.h.u.u.u.u.t.n n n n n n n n b b n b Z.oXG.S.d.S.d.d.d.S.H.S.G.V.s.r.e.n n n n n n b b b B n.}.XXMXMXXXXX^.^.M.m.^.XX XV.A.A.A.A.m.p.p.t.e.t.t.t.e.t.t.n e.e.e.t.t.e.t.t.y.t.e.t.n t.n n n M n n n m m G o.2.%.K 1 > , , z f..XuXuXoX.XI.I.I.I.I.I.I.I.I.I.I.I.I.I.I.H.I.H.I.I.I.I.I.oXA.i.t.M n n n m M m M b M m V m m b z z v > cXVX5 X > 3 D U.k.h.h.M n M e.M M M t.t.t.r.p.M M M m D D o.s P ] ] [ ] ] [ { { [ ..] ..[ { ..[ { ..{ { f { FXIXHXgX( ..' { ' ' ..........O.O.O.T.k.k.t.t.r.r.t.y.y.y.a.y.y.a.y.l.y.y.y.y.e.n e.n n n n n n n n M D O.O.....{ ` {  .` ..{ { { O.7.8.O.2.O.O.8.T.O.O.o.O.T.o.U.jXZXjXjX}.}.].(.(./.(./.Q.6.,.,.,.,.!.|.`.2.o.X.O.hXGXbXO.o.o.X.G I =XiXiX1X>X>X1X>X@X>X1XiXiXuXpX8X_.}.}.}.}.}.}.}.}.}.}.{.(.~.(.(.(.).! J.A b B M M y.e.g.y.g.g.k.k.k.k.g.k.k.k.k.M.k.k.k.h.h.t.D m m m b z z z b m z z m b b z b b z b z b b z b z b b z b b b b n b m n M b n n b b m N N.J.~.~.Q.J.Q.J.,.L.Q.Q.Q.Q.L.Q.Q.~.I z l z z z z z z b z b b b M M D k.k.k.j.c.M.k.U.Y o.hXZXPXPXPXGXZX|.O.T.D g.g.g.t.t.t.r.e.t.e.t.t.t.t.k.k.M D D O.|.O. .gXIXPXnXe @ { *.7.FXPXIXPXPXIXPXIXPXPXPXlX#.+.i ..fXIXPXHXaX|  . . .aX .aXaX .aX . .` ' w | @.dX@.{ ) ' _  .#.| dX@. . . .) w #.@.{ } #.@.{ ` `  . .@. . .} ` | | `  .` `  .` #.",
"rX+X7 : : : : / #X^ L.2X>XtXtXtXeXuXuXP.I.I.I.I.I.I.I.I.I.I.I.I.uXuXK.v l 6 < o R W ^ W 7 < < 7 >XiXiX<X1X>XP.p.P.C.Z.T.v.c.T.T.T.T.T.T.T.T.T.C.T.c.c.j.j.g.u.p.e.e.e.r.r.e.e.p.e.e.e.e.e.e.t.B.B.A.A.C.B.A.A.A.A.^.XX XA.B.S.A.A.F.B.p.u.e.e.n t.i.C.j.i.j.u.i.u.g.u.h.h.h.u.u.u.t.M n n n n n B b b S.uXoXS.d.S.d.d.S.d.S.S.H.R.S.p.e.e.n n b n n M M M b b n b B N.^.}.XXMXMXBXMXMXoXA.p.f.A.S.K.m.u.e.t.e.e.e.e.t.e.e.e.M e.t.n n e.t.u.u.t.M n e.n M n n n M M m m N G ;.1.X.g < X > > , l p.K.uXuXoXI.I.I.I.I.I.I.I.I.H.I.H.I.I.I.I.I.I.I.I.I.I.oXI.x.r.n M n M V M n n b b b b m V M B m N c x NXvX1 . > l U.|.T.k.t.M n e.n n e.n M e.e.e.e.e.n M m D D O.g K ..g ] f ] { ..[ ..[ ....] ] ..{ ..] { ..e @.IXPXPXnXt i ..' f ] { ..{ ....S O.T.D t.g.t.t.t.t.y.t.y.y.y.y.y.a.l.a.y.g.g.y.e.e.n e.e.n n b n n M D D P ..{ { ` { `  ... .{ { O. .O.O.O.O.U.O.U.O.O.o.o.O.o.U.U.hXjXZXmXxX}._.(.(.Q.Q./.Q.Q.! ,.:.,.!.`.`.!.X.S o.GXPXKXo.S o.U Z ~ tXDXiX>X1X1X1X9X@X/ >X1X<XuXP..XyXXXyXXXwXyXyX}.yX}.}.}.}._.|.(._.~.A Y A b b b M y.t.g.g.t.k.k.k.k.k.k.k.k.k.h.k.k.k.k.h.h.B M m n m z b z z z z z z b z z z z z z z z z z z z z z z z z z z b b b b M n M n b b b N Y ~.~.).J.! Q.).Q.).)./.).).Q.:.! Q.Y c l z z z z z z b z z b b b n M M t.t.k.k.k.T.T.U.O.hXPXPXPXIXPXPXPXZX|.T.T.t.g.t.t.t.t.t.t.t.t.t.t.t.t.t.M M k.U.o.fXO.O.kXPXFX..e { @.{ dXIXPXIXIXIXIXIXIXIXPXIXlX{ @.{ ) ` fXIXHX ._ aX .aX .aXaX .aXaX .} p ..gXFXHXIXIXnXgX' w { @.aXFXIXIXFX{ ( 7.lXFX@.dXFXHXHXlX .)  . . .} ` #.lXFXFXgX{ dXnXnXlX",
"iXrX>X/ / 4 : : o 4 7 / ^ 2X9X9XeX_.J.p.S.I.I.I.I.I.I.I.I.I.I.I.uXoXP.l 3 C 1 1 ; 6 R H Z 7 > 7 P.iXiXiXiXpXP.f.B.C.Z.Y.v.T.T.T.T.T.T.T.T.T.C.T.C.M.C.M.j.j.j.i.u.p.p.e.p.e.p.e.e.p.p.r.e.e.y.S.A.B.A.B.B.A.C.A.A.oXoX.XA.S.A.S.m.A.n.n B B u.i.i.C.z.i.j.i.u.u.u.u.h.h.u.h.h.u.u.u.u.u.u.u.u.u.XXoXXXuXuXH.S.S.d.S.H.S.H.d.S.S.F.S.e.n n n e.n u.e.n n u.u.M V b b z b b b n.^.^.^.A.f.m.M.A.m.A.A.i.u.t.t.e.t.t.e.n e.n t.t.M e.e.M t.t.t.g.t.e.t.t.n n M n M M M M m N G U X.K g r X X X , l l z B..XuXoXuXI.I.I.I.I.I.I.I.I.I.I.I.I.I.H.I.I.I.I.I.I.I.p.e.n n M M n V n M b V M m M m m b m c v F '.;.X X , , U.U.k.k.M k.n n e.e.M t.t.r.t.e.r.e.t.M M D o.o.P g [ g ] f ] [ ....[ ] ..] ..] ..] ] ..] ..e fXIXIXIXFX..) { ] ' ....] { ..g ..O.T.T.k.g.y.t.t.y.t.y.y.y.a.l.l.a.l.g.g.g.g.g.y.e.e.e.e.n n n n M M M D O.O.{ { { ` { `  ...{ ..X.7.O.8.O.8.O.O.O.U.O.o.o.O.D |.U.D U.XXMXmXXX}.}.(.(.~.(.(.Q.Q.!.Q./.|.[.!.1.o.s |.IXPXKX8.P P :.Z ^ iXDXpX>XiX1XiXiX@X>X1XiXiXpXA A K.^.^._.}.}.}.XXXX}.}.XXXXXXXX}._.~.Y A m n M t.t.t.y.t.g.t.g.k.g.k.k.k.k.h.k.h.k.h.k.h.h.h.M m m m b b b z z b z z z z z z z z z z z z z l l z z z z z z z z b z m m b n n n m z b A J.~.).Q.Q.).Q.).Q.!.(.).).!.Q.Q.J.J.A z l z z z z b z b z z b b b m b M t.h.g.g.k.k.U.D D GXPXGXzXhXhXGXPXGXjXjXT.t.g.t.t.t.e.t.t.t.t.t.t.t.t.t.t.t.D k.D O.7.O.nXIXnXe  .w. .) fXIXPXPXIXIXIXIXPXIXIXPXHX{ }  .7.e 7.IXHX .`  .aX .aXO.sX .aX ...w #.FXIXPXIXPXPXPXHXlX#.{ @.gXIXIXPXHX@.fXIXPXIXw.w.IXPXPXIXgX)  . .@.' ' kXIXPXPXnX` gXIXPXPX",
"tXiXiXiXtXtXOX/ 7 4 : . < < 7 Z Z V z b f.I.I.I.I.H.I.I.I.pXI.I..X.XI l Z W X.%.R R K H W C < Z / iXpX1XpXpXP.f.m.B.Y.Z.T.l.T.T.T.T.M.T.T.T.C.T.k.M.c.C.C.C.C.B.i.i.p.e.n n e.p.e.e.e.e.p.e.p.B.B.B.Z.A.A.A.A.A.K.oXXX.XK.A.A.A.A..Xn.b V b n V u.A.j.i.m.u.t.j.h.h.u.y.u.u.h.h.u.u.h.m.m.m.m.m.MXBXjX XS.e.S.S.H.H.d.H.S.d.H.H.A.V.e.e.n n M n b e.n n n n n B B B B V b n b z b b b B C.K.A.C.N.B.i.u.e.e.t.t.e.t.e.t.t.e.t.t.e.t.t.e.y.y.h.y.e.n n t.n n n n M M M m N G L H s g a # X X X > , > , c K..XoXoXoXoXI.I.I.I.I.I.I.I.I.I.I.I.I.I.I.I.I.oXS.e.e.r.M n b n b b b M M b n b b M M m N v l 2 . X > , S U.T.t.g.g.t.e.e.e.e.e.e.t.t.t.t.t.t.M D m m Y X.g ] g ..] ..] [ [ [ ..{ ] ..h ] ..{ ..{ { { w O.IXIXIXFX) w { ' ] ] ........] ..D o.k.g.t.t.g.t.t.y.y.y.y.y.l.a.g.y.l.l.l.l.y.u.e.e.e.n n n n M M M M D O.X.....` { | { { | ..{ { O.O.O.O.O.U.U.O.O.o.o.O.O.T.|.U.D m k.|.XXjXXX}._.^._.(._.(.(.(.(.|.}.[.~.o.o.t hXPXPXPXzXP L ! 7 Z iXDX>X1X1X>X1XiX@X>X<XiXiXpXA z b M V B n.N.N.^.^. X_._.^.^._.^.~.N.N V B b M t.n t.g.t.k.t.t.h.h.k.k.k.k.k.h.h.h.h.h.h.D B M m n m b b z z z z z z z z z z l l l l l l l l z l l l z z z z z z z b b b b m b b b N Y ~.Q.Q.Q.Q.).Q.Q.Q.).).)./.Q.Q.Q.Q.:.Z l z z z b z z z z b b z z b n b m M t.t.h.j.T.T.D O.GXKXO.# # S hXKXZXO.T.D k.t.t.t.t.t.n t.n M t.M h.M M t.M m D S U.O. .nXIXfX..*.@.` | nXPXIXPXIXIXPXIXIXIXIXPXHX{ { @. .) X.IXHX@.`  . . . .aX .aX . . .#.FXIXPXIXIXPXIXPXPXPXkX@.] 7.HXPXIXFXfXIXPXIXIX7.+.HXPXIXIXgX..{  .@.{ #.FXPXIXIXgX( fXPXPXIX",
"1X9X1XDXiXiXUXiX9X=X@X/ 7 4 4 : > , b p.I.I.I.I.I.I.I.I.I.I.I.uXuX.XY I Q 2.8.0.q.9.9.%.R H H J P.iXiXiXiXiXI.f.m.K.A.A.c.M.c.T.k.T.T.U.T.M.T.T.M.M.C.C.B.M.C.m.B.m.f.i.p.e.p.p.e.e.n e.e.n e.B.A.B.A.V.A.S.A.A.F.oXuXoXA.M.A.A.^.CXBX^.N.B M V B j.m.j.i.i.k.u.u.h.u.h.B h.h.t.u.t.u.u.u.e.u.e.h.u.V n e.p.S.H.H.H.S.d.H.S.S.H.V.i.e.n n n n n n n n n n n b b b M B b B u.n B n n M m.K.Y.J.Y.A.A.i.u.t.t.u.y.e.e.t.t.t.n t.t.t.t.e.t.e.t.y.y.t.t.t.t.n M n n M m M D m c H F a a k y X . . X X > > > , z A K..X_..X.XK..X.X.X.X.X.X X.X XI..XI.oXoXoXA.e.p.e.n n M b M b b n M b m n n m m m N c x > X > > , D Y.k.k.t.t.t.t.e.e.t.n t.t.t.t.y.t.t.t.M D D D X.X...q y f e i { ....[ { ..{ ....[ ..q i ..[ ..' FXPXIXfXe i { { i ....e ....P S O.T.O.g.g.t.t.y.t.t.t.y.y.g.y.y.y.l.g.l.g.g.g.y.t.n e.e.n e.n n n M D D O.O.....` ` ..| .. .{ ..O.O.O.7.O.2.O.U.O.O.2.O.U.O.|.ZXT.k.D b n h.J.^._.}.XX_.}._..X_.|.}.!.~.!.o.o.F t GXPXPXPXjXP P L Z Z iXiXiX1X1X@X1XrX>X/ pXiXDXP.V V M m n n n b b n V M B u.M B B m b b z z b M n n t.e.r.t.t.t.g.t.k.k.k.k.k.k.D D k.h.D D D M m m m b m z z z z z z z z z l l z l l l l z l l l z l l l l z z z b z m m m m b m m b A Q.Q.).Q.Q.Q.).Q.Q.).Q.Q.).Q.! ,.Q.J.A v l z z b z b b z z z z b z b m m M t.t.k.t.k.T.T.S O.LXnX# t P t O.ZXhXD k.M M M M M t.M n M n M M n M M M D m D D S o.O...FXPXfX{ @. . .{ FXPXIXIXIXPXIXIXPXIXIXPXHX ... . .w gXIXHX ... . .aXO.aXaX . . .O.lXPXPXIXIXPXIXIXPXIXPXIXgX] @.IXPXIXFXFXPXPXPXHX+.p nXPXIXIXlX'  .@.{ { +.IXIXPXHX] 8 kXIXIXIX",
"1X@X@X9XiXiXiXiXiXiXiXtXtX>X+X^ P.P.P.I.I.I.oXI.I.I.I.oXI..X.X.XuXyXQ.U ;.<.8.9.q.0.8.<.%.L L J / tXiXDXDXBX_.f.f.m.C.B.m.c.k.M.T.k.T.k.T.M.Y.M.C.M.M.m.m.C.m.m.p.M.K.K.m.f.B n n e.e.p.A.S.d.B.A.A.B.A.A.A.K.m.^.XXXXoXK.A.K.A.n..XMXSXCXMXyXXX.X^.i.i.j.u.j.i.u.h.h.t.u.u.u.u.M M M M n n b b b n n n r.d.S.S.d.H.d.H.H.d.H.S.S.i.n n n n b n n n n n n n n n M n V b n M V n B V B n.M.N.N.^.J.A.h.M e.M e.n t.t.t.e.t.t.t.t.n e.t.e.t.j.g.t.t.n e.n n n M t.M M m z v U o.H d j h y # . . . . . . X > > , , l z b A I n.I J.! N.N.N.n.K.N.M.m.K.K.^.S.n n n b n b n m n b M n M m M m M M m c S 3 > X # > 3 O.Y.k.k.g.t.t.t.e.e.e.t.t.t.t.y.t.t.t.M M M D o.O.t r r ..{ q e f { { ..t e q f { e ] ] e e w i e ..fXnX{ ..w f ] ' ..e i ........o.U.k.k.k.t.t.t.t.y.g.g.y.y.y.y.y.y.g.y.g.g.g.u.t.n e.n n n n n M t.D D O.O.{ { .. .| .. ...` { { *.O.O.o.O.2.O.o.O.o.O.O.O.ZXZXk.t.h.n n b n M u.f.n.m.N.K.~.J.U.N.Y D Y Y O.g 8.PXPXPXPXFXO.U U Z / tXiXiX<X>X1XiXiXtX>XpXiXuXf.b u.t.M e.n e.n M n n n n n b n n b b b b b n n n n n e.t.t.M t.M k.D t.h.k.k.t.k.k.h.h.k.h.B M m m b b m b z b z z z z z l z l l l l l l l l l l l l l z l z l z z z b m b M b m b z Y ~.Q.Q.,.Q.,.! ).).Q.).,.).,.! J.! ! c l l z z z z z z z b z b z b b b b m M M h.t.k.k.D l !.PXhXg O.2.O.X.|.U.U.U.T.k.D M M M m b b b m b b b z b z m z m S O.O.O.FXPXfX.. .{ { dXHXPXPXPXIXPXPXPXPXPXPXPXIX7. . . .i gXIXFX{  . . .aXaXO.aX . .` 7.HXPXPXPXIXIXFXHXIXIXPXHX+.' w.HXPXPXHXIXIXIXPXJX+.9 kXIXPXPXnX] { +.@.p 7.IXPXIXFXp p kXPXPXIX",
"9X=X@X@X9X1X1X1X1X1XiXiX<XiXtXiX1XiXuXpXuX.XI.I.I.I..X.X.XyX8XuXmXNX].Q ;.2.=.8.8.<.8.=.%.X.X.L Z / P.pXDXiXP.f.f.A.B.A.B.M.M.c.T.k.M.T.C.Y.Y.A.m.C.M.k.M.m.h.u.A.A.B.i.p.e.u.i.A.^. X.X XA.i.B.V.B.A.B.B.A.S.m.K.oXuX XA.A.K.m.f.c V I _.XXXXXXXX Xh.j.j.u.h.h.h.u.h.h.t.u.u.B u.B B e.M M V M n n e.p.S.S.H.S.H.d.H.d.S.S.H.H.i.e.n n n b n n n n n n n n n b b b M n b n n V b V n.n.n.N A n.M.A.h.u.u.u.u.t.t.M n M t.t.M M e.t.t.M t.t.t.h.n n t.M n M M M m M D N D U :.P K [ h a = . . . . . . : o < > X > > > > > > , , > , , , , l l l z z z f.n.B M u.M m b M n M n n b n m b m M M m m S 3 > X > > v k.Y.k.t.t.g.t.M e.n e.t.t.t.t.t.t.t.t.M M D m o.X.3 ..8.hXkXw...q ..f { X.7.[ { ..e 7.nXfX .i ..*.{ e e @ w { { ' i e ..fXhX7.e O.jX|.D k.t.M t.M t.t.t.t.y.g.g.g.g.g.t.t.y.k.t.t.u.n n n n b n M M t.M D D O...{ ` ` { | { ..O...{ O.O.O.O.o.O.O.2.2.O.O.S |.KXjXD h.g.t.h.n b n b n n n n n b m B N D S S D S P nXPXPXPXPXJXO.H I Z / tXiX1X>X@X>XiXiXDXpX>XuXP.V B u.k.M r.p.e.t.t.t.t.t.e.t.u.u.t.M V n M n b n n n n e.e.M M t.M M M k.t.h.k.k.t.k.D h.D M M m m z z z b z b z z z z z z l l z l l l l l l l l l l l l l l l z z z m z z m m b N z N U /.Q.Q.,.,.).).,.).Q.~ Q.Q.J.! J.! A l z z z b z b b b z z b z b m b m b m M M t.D t.D k.3 !.PX8.t 8.O.8.S o.O.D D m z m m b b b b b z b M M N N D D m m D v S g O.nXPXhX` O. .} gXFXIXHXHXHXHXHXHXHXIXHXIXHXgX`  . .' fXPXFX{ }  .aXaXO.aX@. . .} hXPXIXPXIXlXw.*.kXHXIXIXkX' p gXIXIXIXIXPXPXPXIXnX+.& w.HXPXPXFX#.] @.{ p kXIXIXIXkX' p nXIXPXIX",
"1X1X@X@X@X1X9X@X@X>X1X1X1X1X<XiXiXiXpXpXpXpXpX.X.X.XyXyXyXyXmXyXmXNX(.o.o.%.8.=.-.8.'.[.[.[.[.|.).P./ / P.uXK.f.m.M.N.M.m.m.j.M.M.M.M.T.U.Y.T.M.n.C.M.m.C.n.u.m..Xm.M f.N.A. X.X X XK.B.B.y.p.V.S.A.S.B.A.A.K.m. XXXMXoXA.m.A.S.K.XXJ.z z z z b M u.h.M.m.j.i.t.h.h.u.t.D t.M t.e.M e.V e.M e.u.u.M e.f.S.S.H.d.d.H.d.H.d.H.S.S.i.e.n n n b b b b n n n n b n n b n n n V e.n b b f.N.n.N A N A N.M.B M M M t.n M t.t.t.M M M t.t.M M t.t.h.t.n n M M b M b b b b b m z l v J %.K [ h f 9 O . . . . . . : o 1 < < o > X X X X X X X X X > > > , , l l Y N.B n V V b M n m b b m m m n M M m M D c S , X X > , v U.T.k.k.t.g.t.t.t.e.n n M t.t.t.r.t.g.M t.D D O.O.t q.FXIXIXFXdXe ..i *.nXIXnX{ e ) hXPXIXhX..*.FXIXfXe i { ' e @ e e *.HXPXnX@ 2.GXU.S D M t.D u.y.t.u.t.y.t.t.y.g.g.M.c.c.c.M.h.h.n M n n V B M M M D O.O...{ { ` { ` .. . ...X.X.O.7.8.8.O.U.2.o.O.o.2.P jXIXT.M g.g.t.y.u.e.e.u.e.n n n n n n M m D Y o.o.S O.GXPXGXIXPXKX2.H / Z / iXiX>X@X>X>X1XrXiX>XL.uXP.b h.t.g.t.e.r.r.t.y.t.t.y.y.y.g.y.h.t.n n b b b b n n n t.t.M M M M M M M M M D t.D D t.D M D m m m b m z z b z m m z z z z z l z l l z l l l l l l l l l l l z l z z z z m m N z N c G J.Q.:.^ Q.,.~ ,.J.,.J.Q.! ~ ! I Y I c l z z b z b b z b b b b z b z b b b M m M M t.D k.D l |.PX`.# O.o.O.O.o.S D U.^.|.^.^.|.^.^.^.|.XXXXjXyXjXMXjXMXmXmXZXhX8.r ..FXPXgX( @.7.{ { *.+.+.kXkXkXkXkXzXkXkXw.gX..} 7.@.' fXPXFX` { 7.aXaXaXaXaX .} @.HXIXIXPXnXp & p 8 dXIXFX+.' +.w.IXPXPXIXPXIXFXgX[ +.i +.HXIXPXIX+.w @.{ +.FXPXPXIXw.p +.lXIXIXIX",
"1X>X>X@X>X>X>X>X>X1X1X<X<X<X<XiX<X1X>XpXuXpX8X8X8X}.yXwXyXmXmXmXxXmX).Q O.2.8.hXhXhXcXbXVXZXbXbXNXyX8Xf.V f.P.n.m.A.M.M.m.m.M.k.M.M.C.Y.Y.U.M.m.M.C.m.n.m.m.m..XBXXX^.oXXX.XK.^.B.m.n n n e.r.B.A.B.S.S.S.A.B.m.K.uXBXXXK.A.A.B.A.CXKXMXuXXX^.A.n.n.m.j.j.u.j.h.h.h.B B u.B u.t.B t.M n M n M M e.n e.p.d.d.S.d.H.d.H.d.H.d.H.S.S.p.n n n n b n n n M n n n n b n M n n ^. XM.M.^.^.K.Y A c c c N.M.B B B M M n M M n n M m m m m M n n M k.h.n n b b b z b m m m D D D S x F K X.X.h h u $ . . . . . . . o o * * o : o # ; ; 1 < ; o < o < > , > v v ~.N.D B V b V m m m b b b M M n m m M M m D S > X X > > v U.T.g.t.t.t.t.M n e.t.t.t.t.t.t.t.t.t.M M D D T.X.g nXIXIXIXIXhXe ....gXIXPXHX7.e ..nXPXIXfX..fXIXPXHX7.) f @ e 7.fXfXfXIXPXnX@ *.GXU.m T.M M h.M e.M t.t.j.j.B.j.j.k.t.t.M M M B B b n M b b b M M M D S O...{ ..{ } { | .. ..... .O.O.O.8.O.U.o.O.O.O.O.O.GXGXD k.k.g.e.r.e.e.e.e.e.e.r.r.r.e.n u.m m D U.Y t q.PXJXbXIXPXPXhXJ Z Z >XiXiXpX>X1X>X@X@X@X@XpXuXJ.n j.t.g.t.e.t.y.t.g.t.y.t.y.t.t.t.M M n n n b n b n n n n n e.n M m M M M M M D t.M t.M M M M m m v z z z z z z z z z z v z z z l z z l l l l l l l l l l l l l z z z v m m m z v z A ! ! J.! ! ! ~ ! ~ ! ~ ~ ~ ~ ~ A I A A l l z b z z b m z z b b z b z b b b b m m M M M D D m 3 nXPXbXt t O.o.o.o.S |.CXCXZXZXMXMXmXmXMXjXmXXX}.|.^.^.|.~.|.hXZXPXGXX...HXPXgXw @.*.{ w O O i nXIXHXIXHXHXnX+.& & 8 #.@.+.' fXPXFX)  . . .aX@.@.@.@.{ fXIXPXPXHX7.e ` { ( #.kXgXe ] #.w.IXPXIXPXIXnX..e i  .p +.nXPXPXIXgXe @.p @.HXPXPXHX+.p ] kXIXIXIX",
">X1X>X>X>X1X>X>X1XiX<X1XiX<X<X<X1XpXpXpXpXpX8XuXeXeXwXwXwXcXyX}.mXxX`.;.!.[.hXnXcXnXbXmXVXVXZXmXmXeXyX_.P.S.f.m.M.U.Y.C.C.m.M.M.k.M.C.A.Y.C.A.m.m.M.n.m.m.u.M. XBXjX.X XY.u.n n V e.e.i.z.p.p.m.S.A.B.A.A.S.m.K. XMXBXoXK.A.K.S.N.A. XMXMXCXCXjXMX Xm.u.u.u.j.n.u.h.u.B M M M B t.B M t.t.B e.M M e.e.p.d.S.d.d.d.H.d.H.d.d.S.S.s.t.n n n b b n M n n n M b n b n n b e. XXX X.X.X^.N.Y c l l c Y N.D D D M B V M b b m M h.B D m b b n b m M.XXXXXX^.}..X}.XXXXjXMXMXmXZXmX[.;.$.*.+.h u : . . . . . . . : : ; - ; * $ # @ # ; # o o # o : o X > > , Y N N B B M M M m M M M m m b M m M M m m S x > X X > , v ~.T.t.g.y.g.t.t.e.t.e.t.t.t.y.t.y.t.t.t.M D D o.O.X.bXJXGXHXIXnX..q ..hXIXIXHXfXe { FXIXIX7.e nXIXIXhX..e @ ..fXHXPXIXHXIXPXhXO O.GX|.v D z z m b b b n M M u.u.M M M m M M D h.B B b z V B B B M M D m D P O.{ { ` ` { .. ... ...O.7.O.O.O.O.O.2.O.8.o.O.|.IXjXD k.g.g.y.r.e.e.e.e.e.e.r.e.e.e.e.t.B D o.o.S t hXPXFXhXIXPXPXhXJ Z Z 2XiXDXiX1X1X1X1X>X@X@XpXuXf.V h.e.y.y.r.r.t.y.t.y.t.y.t.y.g.y.t.t.n n b b b b b b b M n M n M M M M M M k.k.M M D D m D B M m b z m z z z m m m z z m m z z v z v z z z l l l l l l l l l l l l z z z m v v v v I ! ! I ~ Q ~ ~ W ~ ~ ~ Q I A I Z c c v l z z z z b m b b b b b b b b b z b b m n m D M M D l S KXPXGXnXO.t S o.L P XXMXU.D N c v N N b c z z z l l l l l l 3 S ~.hX7.[ HXPXfX{ O.{ { gXw.& p FXPXPXPXPXPXHX#.& ] @.{ #.@.' fXIXFX..{ 7. .O.aX . . .[ fXPXPXPXlXp ' 7.7.[ #.#.{ ' #.' gXIXIXIXPXHX) e `  .+.{ p kXIXPXIXkXp } ] kXIXIXPXnX] ' ] nXPXIXIX",
"tX1X>X@X>X>X>X>XpX<XiX<X<X<X,X1X1XpXpX1XpXtX8X8X8XwXeXeXeXyXyXXXwXmX].!.hXhXhXZXcXvXcXmXmXmXmXmXNX}.uXBXuXK.n.f.C.Y.Y.M.C.M.M.M.M.C.A.~.Y.M.M.m.m.m.m.m.m.n.m.m.A.m.u.V b V u.u.u.m.S.m.i.y.u.B.B.S.S.m.A.S.S.J. XMXMX.XA.A.A.A.C.u.n u.u.u.M.m.Y.M.u.h.m.h.u.M h.B t.B M M B t.M n n M n M e.n e.n e.r.d.d.d.d.H.d.H.d.d.S.S.H.S.p.e.n n n b n n n M n n n M M n n e.n m.M.B.N.h.h.A Y c , , Z Y N.D z b z b m b b D T.|.XXjXjXXXXX^.^.n.z m N.^.XX}.XXXX}.}.}.|.}.^.!.|.(.o.d $.$.j h * . . . . . . . . . : * * $ * + # = # ; : o : : : X o X < X 3 o.N l z z b m b m m m M M D B M M B M M D D x > > X > 3 S ^.k.y.g.t.g.n t.e.e.t.t.t.t.t.y.y.t.g.M M D D o.O.{ FXGXHXHXIXnXh @ ..nXIXIXIXhXe *.HXPXHX{ ..nXIXIXgXe ..e hXIXIXPXPXIXIXIXfXO 7.GX}.z m m N n.Y.N.A.M.n.h.k.h.M.Y. XjXMXMXZXMXCXBX^.b b z b b m m D D S O.X...` { { `  ...{ { O.{ O.7.O.8.8.O.O.o.O.O.P hXPXjXM k.g.g.y.y.p.e.e.e.r.r.r.r.r.r.e.e.t.D o.o.x P IXPX|.8.KXPXPXGXW C Z pXDXiXiX<X1X1XiX1XpXpXiXuXV p.p.e.t.r.y.r.y.t.y.t.t.g.g.g.g.t.t.M n b b b b b b n n n n n n m M M M M M M M M M M m M m D D m z z z z z z z m z m m z z v z z m z z z l l l l l l l l l l l l z l z z z z z v Z Y ! ! I Q I Q Q ~ Q J / Z A Z Z v v l z z z z z z b b b m b b b b b z z b z b m m m M M D D x !.PXPXIXPXbX2.S S o.P o.G l m v c N D N D A Y N.U.^.|.~.|.|.|.2.S t X.t O.HXIXgX{ { { gXHXIX:X#.kXIXPXIXPXPXkXp @.FXFX@.i @.) lXIXFX..} 7. .aXaX . . .{ FXPXIXIXfX@ {  .{  . .{ } @.@.p kXIXPXPXPXgXe ` dX .@.{ p @.IXPXPXFX' p #.FXIXPXPXgXi ] ] nXPXIXIX",
"iXrX=X@X@X>X1X@X>X<X<X<XiX<X,X1X>XpXpXpXpXuXpX8X8XyXXXyXyXyXXXyXyXmX}.}.mXhXhXmXcXmXhXmXmXmXmXyXmXZXCXCXMX_.N.M.M.U.Y.Y.M.M.C.M.M.C.A.Y.A.N.m.m.m.n.n.m.n.m.m.B e.n b B f.m.m.n.m.m.f.u.m.p.r.i.B.A.S.A.m.A.S.A. XMXuX^.K.B.A.A.B.B.t.n n b b M n u.h.h.u.u.u.B u.M B M M M M M M M t.M e.B t.M e.e.e.r.d.d.d.d.d.d.d.d.d.d.H.S.i.e.n n n n n n M n n n n M n n M b M n b e.p.b B N.N.Y c x 3 , c D N z b m Y N.^.}.jXjX}.^.^.^.|.XXjXmXMXMX^.z z b m z m m m m N N N D Y S F K X.+.h y O . . . . .   . . . O : u - * # + # #   : X :   :   #   > > O.mX|.U.N z z z z z b b m m M m m m M m m m v , > > > > 3 Y Y.M.t.g.t.t.e.t.e.e.t.t.t.t.t.y.t.t.t.t.k.M D U.P O.GXIXFXFXIXnXq @ ..FXIXIXPXFXO.7.HXPXFXq ..FXPXHXgXe e gXIXIXIXIXIXIXPXIX9.. *.GXZXo.~.}.XXMXMXjXmXXXMXXXjXjXjXjXMXMXjXMXXXMXMXMXXXN.n.A z z z m m D S S { ..{ ` .. ... .{ { { O.O.8.O.O.O.U.o.O.O.O.O.ZXPX|.m k.g.y.y.r.r.e.r.e.r.r.r.r.r.r.y.n h.D o.D t 8.PXIX..X.IXPXPXZX;.C Z tXDXDXiXiXrXiX1XtXiXiXDXP.V p.p.p.r.t.r.t.y.t.t.y.t.y.y.t.t.g.t.t.n b b b z b b b b n b m n M m M M M M M M M M M M m B D D v z z m v z z m z m m z m m m m m v v z z z l l l l l l l l z z l z z l z v z l Z Z I U ! U I J I J I I J Z I Z c Z v l l z z z z z b m z b b b b b b b b b b z b m m m m M m D S mXPXPXPXPXPXGXhXO.3 3 U.}.}.jXjXMXZXmXMXmXMXMXmXMXmXMXmXMXmXZXGXGXGX`.q { IXIXO.i { w.HXPXIXHXkXkXIXPXIXPXIX3.*.HXPXIXkXi e i kXIXlX.. . . .@.aX .@.{ @.HXPXPXHXw.' +. . . . . .@.@.#.p gXIXIXPXHX#... .O.*. . .' #.HXIXPXHX+.8 @.IXIXPXHX+.' ] +.lXPXIXIX",
"9X>X@X/ @XiXiX9X>X1XiXiX<X<X1XpX1X1XpXpXpXpXpX.XuXuXuX.XuXI.uXuXuXoXuX.X}.eX}.8X}.XXXXyXyXmXMXmXZXmX_.J.Y Y Y U.Y U.U.U.M.M.M.M.M.K.A.K.m.m.m.m.m.m.j.h.m.h.m.h.n.f.m.m.m.m.m.f.m.n.u.h.i.u.p.i.B.S.S.A.S.K.m.K..XoX.XV.S.B.B.B.V.B.i.i.u.u.t.e.t.u.u.h.u.u.M M M M V M M B M M M M t.M M e.t.t.e.e.r.r.d.d.d.d.d.H.d.H.d.d.d.S.d.e.e.n n n n n M n n M n M M n n n n n n n p.i.A.N.J.Y G , , , z o.U.^.}.XXMXjXXX}.~.Y N z l l z l N N.|.MXCX^.N.Y U.N.U.^.|.|.XX}.XXmXmXmXhXX.X.[ h & . . . . . . . . . . O - u u u ; & ; * = = * * : : * o o 3 X S ZXGXZXhX}.U.o.D N v m v v m z z z m M m m S o.3 X 3 > , D ^.k.y.t.t.t.e.e.e.e.e.t.t.t.t.t.t.r.t.t.t.D D o.S ..FXGXHXHXIXhX8 @ 7.HXIXIXIXHXgX7.HXPXnXq { FXPXHXw.@ i nXIXIXPXHXHXIXIXIXfX@ X.JXGXcXZX}.|.N.n.A B N.N.~.A.N.N.n.B B D B u.D D n.Y ^.XXyX^.~.D N v S t ......{  ...{ ` ..{ { .. .O.O.O.O.O.O.O.8.O.O.O.GXKXo.M k.y.y.y.e.r.e.r.e.t.t.r.r.r.r.t.t.t.D D P P VXPXcX% X.GXPXPXGX/.7 Z ~ eXtXiXiXiXiXiXiXiXiXiXP.n V t.t.t.y.y.t.t.t.y.t.r.r.y.t.t.t.t.M n b b b z b b b b b n m M n m M M M M M M M M M m m N A N v l z z z z m m m b m z m m m b m m z v m z z z l z l l l l l l l z l l z z v l Z Z Q I Q Q Q I J ~ Z I J Z Z Z Z l l z z z b z b b b b b b b m b b b z b b b b b b b m m m m S S [.KXPXPXPXPXPXPXZXO.# hXKXMXXX}.}.|.^.|.^.~.N.N.n.N.n.Y n.n.o.o.|.KXhXt *.IXIX+.i fXJXPXIXPXPXFXkXHXPXIXPXFX:XFXPXPXIXIXkX#.w lXPXlX' #. . . . . .{ { @.IXIXIXHX+.' +.{ @. . .@.{ { +.{ kXIXPXPXHX+.` @. .{ {  .] ] FXPXIXHX@.& fXIXPXPXFX+.{ +.+.nXPXPXIX",
"1X=X@X@X@XpXiXiXiXiXiXiXiXiX1X1X1X1X1XpXpXpXuXuX.XI..XoXoXI.oXoXuXuXoXuX.XpX.X_..XyXXXXXoXuXBXBXwXU l , l x G U o.N.U.~.^.N.Y.M.M.A.N.N.B.B.m.f.u.j.f.m.i.m.i.n.m.n.n.m.m.m.h.n.i.h.f.f.u.u.i.j.S.m.m.B.N.S.m.K.^. XK.B.f.S.S.s.S.x.s.i.y.p.p.t.e.t.i.h.j.u.B B B n u.n M M B M M B M t.M t.M t.r.e.r.r.r.d.d.d.H.d.d.d.d.d.d.d.i.r.n n n n n n n n M n n n n n e.e.n e.e.e.s.B.A.K.N.Y Z , l , l mXCXjXjX|.M.D m z l z N Y N.U.A D c l l N |.BXXXmXMXmXmXMXXXjX}..X}.|.].[.0.-.j h u O . . . . . . . O O + $ * a a u - - = = * * * & $ : & o o > 3 , D o.|.jXhXjXjXmXmXjXjX}.XX}.|.}.}.}.}.}.}.ZXZX:.X X X v U.|.k.t.h.t.t.t.g.g.y.i.t.t.t.t.t.i.t.y.t.M M D D P t bXIXIXIXJXgX@ e 8.HXPXIXIXGXhXfXIXIXkXe ] bXIXIXfX@ X.HXPXPXnX@.w.HXPXIX8.@ g GXPXhXG z m l B Y Y n.D B D n.n.Y.^.XXjXMXMXMXMXMX~.m B K.^.XXXXXXjXhXhXO... ...`  .` ` { { ..O.O.O.O.O.|.|.O.T.O.U.O.O.GXKXT.M k.y.y.y.r.e.e.e.r.r.r.r.t.r.r.r.e.e.D o.S 8.PXIXq.q X.FXPXPXKX[.C C x Z Z ~ 2XtXtXuXiXBXDXBXf.V p.u.t.t.t.t.t.t.r.t.r.y.t.y.t.y.t.t.M n M b b b b b b b m b n b m m n b M n b n M b b b m N N v z l z z m v m m z m m m m m b m m m m z m m v z l l l z l l l z l l l z l l v l c I I Q Q I J J Q J Q J Z Z v l C ! A , z b z b b b b b b b z b m m b z b z b b b b b m m m m m S P hXIXPXPXIXIXPXPXjXO.U.}.D z b b z b b z z z z z z z z z z b z v 2.O...7.IXIX{ ] FXIXPXPXPXIXIXnXHXPXIXPXFXkXHXPXIXIXPXIXw.u lXIXkX' {  . . . .{  .` 7.IXPXPXIX@.( @.@.@.{  .{ #.@.{ ' kXPXIXPXFX#.{ @. . .@.+.{ { kXnXnXq.-.p kXPXPXIXkX( ] { { nXPXPXIX",
"1XrX=X>X>X1XpXiXtXtXiX9X9X>XtXiXiXiXiXiXiX<XuXpXpXI.I.I.I.I.I.I.I.uX.X.X.X.X.X.X.XoX.XXXoXyX_.J.v , > 2 F x F G U Y U.~.U.Y.Y.M.K.A.N.S.f.N.m.m.f.i.n.u.h.n.u.h.u.n.n.f.m.u.i.n.n.u.u.u.u.p.p.B.N.A.S.P.f.N.f.K.K.K.A.S.B.S.i.S.s.z.i.p.y.u.t.t.t.t.i.i.u.B t.B B M M B M M M M M M M t.M e.t.t.t.e.r.a.d.d.d.d.d.H.d.H.H.d.d.H.S.p.n e.n n n n M n M n M n n t.n n n n e.p.S.B.A.N.J.I G x , , S ZXjXD m z z D N.U.|.jXMXZXZXMXMXZXMXXXXXU.m D N.U.N.Y D D m z z b z z l x J j j a $ . . . . . . . . . $ u u u f a u 4 4 & = ; * * $ $ * : ; o 1 > l Y x l , , N Y ~.|.}.}.}.XXjXjXjXXXXX}.}.jXmXxXU X X 3 v U.U.h.h.h.u.u.k.j.h.j.h.h.h.h.B t.e.t.t.k.k.k.o.o.S # hXGXIXIXHX7.@ e fXIXIXHXIXHXFXnXIXIXfXe ..nXIXPXnXw 7.IXPXHX[ @ w hXPXIXfXO 7.VXLX!., o.XXjXMXMXMXMXjXXXMXMXMXMXMXMXMXjXXXMXMXCXMXN.b l z b U.}.jXhXhXO.t { { { ` { { { ` {  .O.7.O.O.O.|.O.o.o.O.O.O.GXGXD D k.t.y.r.r.e.e.e.e.r.e.t.t.r.t.r.e.M B D O.jXPXGXX.. t nXPXPXPXvXK J J Z 3 < Z 2XpX8X>X8XuXBXK.n p.t.r.t.t.t.t.t.r.t.t.t.r.t.t.t.t.t.M n b b b b b b b b b b b b b b n b b b M n M b m m N c N z l l z z v m v m b m m M m m m m m m m m m z z l z z l l l l l l l l z v z z v l C I G I I L I J I I Z Z v v C ! x (.|.l l N b b b z z b b b b m b z b b b z b b b b b m m m m D D x t |.IXPXPXIXPXPXKX`.S D z m m m n b m M m V B B B B B n.B D Y N o.O.t fXIXHX] f FXPXPXPXIXIXIXkXJXPXIXIXFXkXIXPXIXIXPXIXw.8 nXIXkX( { @. . . . . .{ 7.IXPXIXHX#.p +.@. .`  .{ { @.{ ] kXIXPXIXFX' { *. . .{  .{ #.w.7.+.+.+.+.FXPXPXIXw.i { { +.FXPXIXIX",
"1X1X1X1XtX>X>X@X@X+X+X/ / / / OXtXtXiXiXiXuXpXI.I.I.I.I.I.I.I.I.I.I.I.I..XI.oXoXoXoXoXuXyX(.A , > > 3 C C F F P G P U U.U.~.~.K.N.N.A.N.S.m.m.f.i.f.i.u.f.u.n.u.n.u.u.n.i.n.n.i.h.f.u.u.u.u.u.m.S.N.N.f.m.S.N.f.K.K.m.m.B.S.s.B.i.S.s.i.p.y.t.e.t.u.u.u.u.u.u.M t.V n M M V M M M M t.M e.B e.e.p.r.r.d.d.d.d.d.H.H.d.d.d.d.d.H.B.e.e.n e.n n n n n n M t.n n M e.n n n e.p.s.S.S.K.n.I I 2 , , , v v v U.XXjXMXMXMXMXjXXX^.Y.^.Y.^.}.MXCXCXXXn.b z z b b z m b M m m N v S P g a * . . . . . . O . . .   a a u k a y 0 9 = = * * * $ $ $ $ # < 3 > P ZXZX:.D Y l l l l l l l z l l l l l l l l , l G s > > , S D b b n b n b n n n n m m m n n t.n M B D D o.U...# fXHXIXIXFX[ @ ..hXIXIXnXFXIXHXFXIXIXhXe e fXIXPXFX..gXIXPXFXe e ' 7.hXnXO.O X.HXPXGXhXZXjX}.U.m.B n.A.^.M.B.M.C.t.n e.n e.M b h.^..XuXXXN.n.b l v S t t  ...{ ` { { ` { { ..{ O.O.8.O.O.O.O.o.o.O.O.U.GXGXD D g.t.y.y.e.e.e.r.e.e.r.t.r.r.r.t.t.u.m D |.IXIXbXX.t X.hXIXIXPXJX2.H J Q Q C F 0XDXuX>XA f.P.K.p.e.t.r.t.r.y.t.r.t.t.r.r.t.y.r.e.t.t.M m b z b z z b z b b b b b b b b b b b b b b b b m N m v l l l z z m z m m m m m m m m m m m m m z z z z z l l l z l z l l z z l z z z z v Z G I J I I I Q Z c Z C l l c {.A v _.^.l z c N z z b z b z z z b m b z b b b b b b b m S m S D o.P 3 t fXGXPXPXPXPXIXhXY U.k.B D M D h.B B B M M B B n.B u.h.B U.o.|.o...8.IXIX] 8 nXPXIXPXIXPXIXkXJXPXIXPXUXnXPXPXIXIXPXFX#.w FXIXkX(  .@. . . . .*.` dXHXIXPXHXw.`  .{ #.{ @. .{ @.#.{ nXIXIXPXFX_ `  . .{  .{ 7.7.w.7.7.=.+.+.FXPXPXHX[ ] +.] ] nXPXIXIX",
"9X1X1XiXiXpXpX+X/ 7 : : : 4 7 4 / +XtXiXiX<XpXpXI.I.I.I.I.H.I.I.I.I.I.I.I.I.I. X X.X.X.XJ.N , < X < < X < 1 s s F S G o.N.~.U.U.N.N.B.f.m.K.f.u.u.f.u.u.u.n.f.n.n.h.n.u.n.f.h.n.u.n.u.u.n.u.u.n.m.m.m.M.K.K.^.K.K.A.N.A.B.B.S.i.B.i.i.i.p.y.t.e.p.t.t.u.u.M B t.n M B e.M M M M M M t.M t.M t.t.r.r.d.d.d.d.d.H.H.d.d.d.d.d.S.G.S.p.n n n n e.n M n n n n n n n e.n n e.e.p.s.V.m.m.A ~ Z 2 , < , Y XXZXjXjXXXY.M.n.M b b n M b b b n M h.XXCX^.b M M h.B h.h.h.u.B D Y Y G F t # @ . . . . . O . O + . O y 0 = f a a 0 = = % = * $ $ $ $ * * o 3 > S hXZXmXZXMXjX}.|.~.U.U.N.Y Y N.N.N.U.~.~.U.~.(.mX`.> X S jXXXY.Y.^.N.Y.Y.U.n.M.n.Y D Y h.h.h.B n b z m S P S . ..bXIXIXFXf O [ nXIXJXfXnXIXIXHXIXIXfXe e 7.IXIXHX7.w.PXPXhX....{ ....q O e { HXPXKXhXT.m m b b b b n n n e.n e.n u.j.h.u.m.j.M n u.K.^.XXMXjXjXhXhX8.....` ` ..} } { `  .{ O.O.O.O.8.O.O.O.O.U.o.O.2.KXGXD m k.r.t.r.e.r.e.e.e.r.t.t.t.r.e.r.e.u.D v hXKXPXGXVXFXGXKXPXIXPXKX8.P X.O.;.X.;.vXLXLXBXJ.V f.S.e.p.a.r.r.t.y.y.t.t.y.t.t.t.r.t.t.e.M M b b z z z b b b b b b b b b b b b b b b b b z z c z v l l l l z z m v m M m m M M m m m n m b b b z z z v z l z z l l l z z z z z z z z Z Z Z I I I I I I Z l l v l l v |._.v N }.U.l l m b v m m b z z m z z z z b b b b b b b z m D D D O.o.S S t O.hXPXPXPXPXZXN.M.k.k.M h.M t.M B M M B u.B u.h.h.n.D Y Y ~.8...8.IXHX{ @ w.IXPXPXIXIXHXnXIXPXPXPXFXFXIXIXIXPXIXkXp 9 FXPXkX'  .@. . .{  . .] X.FXPXPXHXfX' ] [ @. .{ } ` { @.{ kXPXPXPXnX' { {  .{ @.+.7.w.7.w.w.=.+.k q.HXPXFXf ] ] ] +.FXIXIXIX",
"pXpXuXiXiXtXtX2X/ 7 7 4 7 R T T 4 7 ^ pXuXiXuXpXI.I.I.I.H.I.H.I.I.I.I.I.I.I.I.I.I. XN.A l , > o X o o 1 r r r 1 a t F P U U ! N.N.B.S.N.m.m.f.f.f.u.u.f.u.f.u.h.u.f.u.n.i.h.m.u.n.u.n.u.u.u.u.n.N.f.J.N._.^._._.J.^.K.N.m.m.f.m.m.B.B.j.y.y.r.e.e.t.t.u.t.u.M M M M n V M M M M M D M u.t.t.t.p.r.r.d.d.d.d.d.d.d.d.d.d.d.d.d.S.B.e.n n n n n n b n M n n n e.n n e.n e.p.i.d.B.S.N.n.I Z < , , , |.CX}.U.k.M n M n M t.t.t.t.t.M h.n M b e.Y.Y.M M h.h.t.M M M M n V D N Y S 3 # . . O . . . . . = 9 . . a a f f a u - ; % & = = % @ $ O $ * < # , , v D Y U.~.}.}.}.jXjXyXmXmXjXmX}.XXXXmXXXXX^.(.[.P > > o.GXGXZXMXMXMXZXMXMXMXMXMXMXMXMXZXMXMXMXMXMXjXhX|.hXX.@ r nXJXJXJX7.@ f bXIXJXw.fXIXIXIXIXIXfXe @ { HXIXHX7.gXIXIXnXi e { i e e e q 7.VXIXPXo.l m M M M e.u.t.t.t.i.y.y.j.s.i.y.i.i.m.j.p.b b b f.N.U.|.jXcXhX....{ { { { { ` ......O. .8.O.U.O.O.|.O.O.o.O.o.GXGXD M g.t.r.r.e.e.e.e.e.e.p.r.r.t.r.t.e.t.D z }.PXPXIXPXPXPXPXPXPXPXIXhXP X.O.8.X.%.VXLXKXSXyXK.K.S.r.r.a.r.y.t.y.t.y.y.t.y.y.y.y.t.t.t.M M b b z z z z z z b z z b z z z z z b b z b m b z z z z l l l l z z v m m N m B B M M M M m m b z z z z z z l l z l z z z z z z z b c z Z c Z G I J I G Z v l , l l l l z Y |.~.z Y |.N.A l l l z z v z b z b b z z z z z z b b m m m S D D o.D O.O.S t S hXIXPXPXGXo.k.D M M M M M M M M M t.M M u.n.n.u.h.N.Y o.!...fXIXIX] 8 ] FXPXIXIXPXJXbXFXIXIXIXnXnXPXIXIXIXIX@.w p FXPXgXi [  . . . . .{ } { FXPXPXIXzX' i  .[ { ' gX7.w ] ` kXPXIXPXkX( {  . .{ { @.+.7.*.7.*.T +.u h fXnXw.q ] +.h +.FXPXPXIX",
"L.P.>X>XeXtX8X).W W W 3.W 3.3.&.4 : 7 / uXiXiXI.I.I.I.I.I.H.I.I.I.I.I.I.I.P.I.K.K.M.V l < < : : : : * * * + * 1 1 r x F G I Y Y f.m.N.m.S.m.m.f.u.f.u.u.u.n.u.h.n.i.m.h.h.n.h.f.u.m.u.u.u.B B n.J.N.J.J.J.~.~.J.^.^.K.m.N.m.m.M.A.A.m.j.i.y.t.e.e.t.t.u.M t.M M V M M n m M M V M M t.M M e.t.e.r.r.d.d.H.d.H.d.d.d.d.d.d.d.S.H.S.e.n e.e.n n n n n n n e.n e.n e.e.e.e.p.d.x.S.B.f.A A Z , , , l ~.~.m b B n n e.u.h.u.u.t.u.g.j.u.t.n.g.n n e.n n n M M M t.k.u.u.B D G S 2 X X   . O . @ @ . # h +.a 0 j $.+.f f u 0 = = = = = % % + + + = # 3 3 x c D v z z z z N D D D A D Y Y A Y D N z z N c x , > > l ~.M.B B N m D D D M.n.N.n.Y N.N.M.Y.^.|.XXjXmXZXVX..# [ bXHXHXIXnX..h bXIXHX7.] HXIXIXGXIXfX@ @ 7.HXIXFXO.fXIXIXnXq e { ....[ ] 8 ..bXIXPX|.v D k.u.M M M t.t.e.t.e.e.e.e.n r.j.y.i.i.i.p.n n n z m v 3 O.8.{ { { { |  .{ { { ..{ {  .O.O.O.O.T.O.U.U.O.o.o.GXGXD m k.e.t.r.e.t.e.e.r.e.r.t.t.r.t.r.t.e.B m hXIXIXJXGXGXFXJXIXPXPXPXnXP P *.O.X.O.ZXPXLXCX^.N.K.V.y.y.r.r.y.y.y.t.y.t.y.t.t.y.t.t.t.t.B M b b z z z z z b z b z z z z z b z b z z b z z z z v l l l l l l z v m m m M m M B M m m m b b b z z z z l z z z z z z z z z z z z b b z Z G A G Z A Z Z v l v v z z z l z D }.N.z J.|.|.G c l l z z z m m z z z z z z b b z b m m D D D O.D O.P O.O.o.3 8.GXPXPXGX~.k.T.t.M M t.t.B t.t.u.M M u.h.m.n.n.B n.U.o.o...8.IXJX' p #.kXIXPXIXIXHXkXT +.-.+.7.HXIXPXPXIXnX+.p ' FXPXgX(  .{  . .{  . .{ ] fXPXPXIXFX7.i e e e 7.FXFX{ w ] lXIXPXPXkXi { { { #.+.7.+.7.*.=.$.+.u u & h +.f y +.] h @.UXPXIXPX",
"J.P.A J.J.~ ^ / T T +.3.3.3.3.T 5 o o 7 / uXDXuXpXI.I.I.I.I.I.I.I.I.I.uXI.I.K.K.f.c , > > . : o : : & : $ % = = - 1 2 s S G G Y N.N.f.m.m.m.m.f.p.p.u.p.u.f.u.f.u.n.u.n.f.h.m.n.u.m.n.u.h.n.A N.I f.N.! N.J.U N.U ~.J.Y A n.N.A.M.A.M.m.u.y.r.e.r.t.t.t.u.B M M M B M M M V M M M M M e.e.u.e.u.r.d.d.d.d.d.d.H.d.d.d.d.d.d.d.V.s.e.n n n n n M n M n n n n n e.e.e.r.r.s.s.d.s.S.m.n.A Z , , , , z D m B k.u.u.u.u.t.e.t.t.t.e.u.n t.u.t.i.j.u.t.t.t.t.t.t.t.M h.u.n.N c x 2 # #   . . O O O . q *.q.w.*.-.+.j f y u u 9 = = = = 8 & + % * # # # 3 3 G U.n.B D M m z b z z b m z b m b b b V m m z G x X > P ~.U.D Y n.Y n.n.N.n.D D n.D A D B M m n z l 3 P o.t + fXIXIXIXIXIXfX*.FXIXIX[ @ nXIXIXIXHXfX@ ..nXIXPXnX..fXIXIXFXi @ { ..i i i @ ] JXPXKXcXD z D h.t.u.e.t.n e.r.e.e.s.B.i.R. Xz.i.i.i.i.e.n B V N l t hXhX....{ ..` { ` { ` ` O.O.O.O.8.O.8.O.O.O.O.O.O.O.ZXGXk.m t.t.r.t.e.e.e.e.r.t.t.e.t.t.r.e.g.M B m !.KXhXO.X.O.O.O.bXPXPXPXVXX.O.O.X.O.O.FXPXLXCX~.N. Xi.r.r.r.r.t.t.g.t.t.y.t.y.y.y.t.y.t.u.t.V b z z l l z z z z z z z z z z z z z z z z z l z v N l , , l l l v z m m m m V m m m M b b b z z z z z z z z l z b z z z z z z V N z V N N c A c c Z l l l z l z z z b b b l N.}.~.l c |.}.~.D l l l l l z z z z z z z z z b b m D D o.D D O.O.O.S O.O.O.t HXPXPXGXo.k.M.t.t.t.M t.M n n M M M M h.n.h.B Y.Y Y o.O.t 8.IXIXp p ] @.IXIXPXIXPXFXp &   p nXPXIXIXPXIX+.p p ] HXIXq.' {  .#.{  . .O.@.' fXHXPXPXPXFXw.f ' w.FXPXIXfX] h nXPXPXIXfXi {  .+.{ #.w.7.-.+.+.+.+.u k u y p p +.*.+.] +.FXPXPXIX",
"_.K.K.J.J.~ Q H W W $.3.3.4.3.T 4 4 7 4 7 / 8XuXuXI.I.I.I.I.I.oX.XoXuX.XK.J.A c > < > X X : : o : $ $ & $ $ % + # r 1 t t x G G A N.N.m.f.m.A.S.f.u.e.u.p.u.u.u.u.h.h.h.n.u.f.n.m.m.u.h.B D D n.N.Y ! A G G I I Y Y Y G N Y N.N.Y.^.Y.C.j.y.t.r.e.e.u.t.B M M n M V t.V M M M M n V u.t.t.e.u.r.r.r.d.d.d.d.d.d.d.d.d.d.d.r.S.G.i.e.n e.n n n n n n n n n e.n n e.e.e.s.s.d.S.x.B.m.f.I l , , l l N U.n.M M t.t.r.e.e.e.n n t.u.e.e.n n n e.t.u.n t.e.t.u.n n k.u.M n l c G X # . . [ f . O O O [ 9.fXq.w.-.7.j f f f r 9 = 8 = 8 % % % % # $ # # > > S Y n.m B M m B n b m b m B V V B D n.u.B B A G F , > !.KXZXMXMXMXMXMXMXMXZXMXMXMXZXMXZXMXMXjXXXXX|.~.!.t . X.FXHXIXJXHXIXFXzXHXIXFXh @ fXIXIXIXHXgX@ 7.HXPXIXfXe 7.IXIXIXfX& @ e O i 7.h r HXPXJXxXU.D M M u.M M t.t.B.oXj.r.MXoXZ.MXoXB.r.B.r.e.n n B m S v O.bX8.e ( ` ` { ` { ` { ..{ aXO.O.gXO.|.O.8.o.O.O.P O.jXGXk.M D t.t.t.e.e.e.e.e.e.r.t.t.e.e.e.t.n k.v |.KXO.> t 1 1 1 8.IXLXPXGX8.t O.O.P 8.GXIXPXZX|.MXXXs.e.r.y.y.t.g.t.k.y.t.y.g.y.t.y.y.t.t.B M b z l v z l z z z z z z z z l z l l z z z v l l N G l , , l l l v z v m m m m m m m m b z m z z b z z z z z z z v z z m m m m N m b b N N Z N c z v v l z z z z N b b m m z z N.}.^.Y l Y |.{.~.Y A b l l l z z z z z b z b m M k.o.D D S O.P S o.X.O.....bXPXPXGX~.D Y.k.M t.e.M M M M b M B n u.n.h.M.XXh.v ~.8...O.PXIXw ] { ] FXPXIXIXPXPXkXh ] kXIXIXPXIXPXFXp ` +.+.FXPXw.' #. .{  .{  .}  .{ { FXIXPXPXIXIXFXHXIXPXIXPXFX] ] nXIXIXIXkXp @.{ { +.7.7.7.+.$.+.$.+.p u u y k +.-.w.+.h +.zXPXPXIX",
"^.^.~.~.J.~ Q E &.W $.3.3.4.W k : o : o > l A J.uX.X.XI.I..X.X.XoXoXoX^.J.A l > > X X X X X X : $ $ & $ O $ & # # # 1 1 2 2 x G A n.f.m.N.m.N.f.i.u.p.u.u.u.u.u.u.u.u.n.u.n.f.m.h.m.m.h.n.Y Y Y ~ U U G G F H L x C x x c D N.~.~.^.^.Y.j.g.r.r.e.e.t.M t.M M M M M M M M M m M M M t.V e.V e.r.d.d.d.d.d.d.d.d.d.d.d.d.d.d.d.V.p.n n n n n n n n M M n n n n e.r.r.r.y.s.s.s.x.i.m.N.A v , l l l D n.k.M t.g.t.e.e.t.t.e.u.n n b n e.u.u.i.u.e.n u.M M t.n j. XA.u.D ~.[.2.X . + j q.*.@ @ O @ w.fX*.g f ] 7.X.f f q q = 8 # = = = = @ % % = ; > 3 > v Y D M M M n m m B n b M n b b n M V B B B N c x X > o.jX^.U.N.~.U.U.U.U.Y.Y.Y.^.Y.^.Y.^. XXXXXjXZXZXZX8.# q.IXIXHXnXHXIXIXFXJXIXnXi O [ HXIXIXIX8.@ 8.IXIXGX*.O 7.HXPXIXFXfXi f 7.nXFX7.y FXPXGXhXo.D m M t.M M e.n B.oX Xg.oX Xz. XE.c.i.i.r.e.r.u.b m v x !.nXO.e ..{ { { { ` ' { { { O.O.O.O.O.O.O.O.o.o.o.O.D hXGXD D t.g.t.t.e.e.n e.e.n n n e.r.t.r.y.M D v |.GXP S O.O.X.P %.VXPXPXGX8.S 2.%...8.GXPXPXZX|.MXXXn e.t.t.y.t.t.k.t.t.g.y.t.y.t.t.t.t.n Y.^.n.N A N N c z l z z l l z l z z z z z l l z z N ! Y l , l , l l l l v v z m m z m m z m m z m z v z z v z z m z m m m z z m m m V m m m c c Z c v V z z z z m b z b m m m N m z N ~.|.~.l z D ~.|.|.~.N.c z l l l z z z b m m D D D D O.O.O.hXt O.O.o.X.t bXPXPXcXS T. Xk.t.M M M M n n n M b M B B n.^.BX}.|.ZXhXt 7.IXHX..] [ w fXIXIXPXPXPXIXw.w.IXPXPXIXIXIXw.p +.{ ] HXIXgXp #.{  .{  .{ {  .{ ..w.IXPXPXIXPXPXIXPXIXPXIXkX] ] nXPXPXIXgX( { { { @.+.+.+.+.+.+.+.j 4 4 p h f h +.+.h y & +.FXPXPX",
"^.^.^.(.Q.! J L T $.3.=.4.=.T 4 o 4 5 1 X X > , P..XuX.XK.J.N.n.f.Y D A c 3 > X X X . X   X # X # + + + & + % + # = 1 1 3 1 2 x c A n.N.n.N.m.B.u.p.i.u.u.u.i.u.h.u.h.u.u.f.h.m.h.m.m.u.B A Y Y U Q L F F H K L j F F F G v G ~.|.|.}.Y.j.y.r.t.e.e.u.u.B M M n M n M M M V M M M M M e.M p.e.u.r.d.d.d.d.d.d.d.d.d.d.d.d.d.V.S.e.e.n n n n n n n n n e.n e.n e.e.r.y.i.i.B.B.s.B.n.Y N l , l l l m k.k.t.t.y.t.t.z.A.j.n n.m.C.^. X X X^.B.u.n e.t.M e.e.n m.XXMXjXjXXXxX`.1   r 9.nX7.@ O O 8 w.8.q . . r 7.*.a y q q = 8 e # % % 8 @ @ % = 0 # 3 , x D D m M n M n n n b b B M V M B V M u.M b N G x , > l Y m z b b b b b b b n b b b b b n b n t.m D Y !.hX8.FXIXIXkX+.fXIXIXHXIXIXfXe @ i nXIXIXHXfXq 8.IXPXHX..@ { FXPXIXIXHXnXFXJXPXIXfXf FXPXGX[.D o.D M M t.t.e.n t. XA.e.l.z.e.r.y.y.i.s.i.e.C.^.B N.U.o.nXfXq ) ` { { ` ` ` { { { ..O.O.O.T.O.O.O.T.O.o.o.T.S U.hXT.D M t.M e.n n e.n n u.u.i.h.i.r.y.t.M D v U.hXS O.o.-.2.P K bXPXPXKX[.P X.X.P 8.GXKXPXmXY }..Xt.t.t.t.t.t.k.t.t.t.t.t.g.t.g.y.t.y.n  XCXXX^.Y l l N A c l , l z l l l l l l l l l v c ~.~.Y , , , , l , l l v l v z z z z z z z m v z z z z v m m v m z m v v m b m D m m m m m b N z z z v z z z z b b m m b M M m z b z z Y ^.}.~.c l z G N.~.^.N.Y N m b b z m m D D D o.D D S hXGXO.3 O.O.t O.JXPXIX!.t o.|.M.M t.M n M M M M n b B n.m B ^.MXZXhXjX2.# fXPXFXi e +...7.HXPXIXIXPXIXw.w.PXPXIXIXPXFX] p @.u +.HXHXw.' { { {  .{ @.{ { { w ' kXPXPXIXIXIXPXIXPXPXkXp i ] nXIXPXIXw.] { { { @.7.+.+.+.+.$.[ f % y h [ f p f f u y O . +.nXHX",
"^.^.^.~.Q.U H H $.3.*.=.9.&.k ; 4 7 5 t 1 # > , l ! P.~ V c l l l l l , , > X X X . . X   X X   # # +   $ % % + # # # # X < 1 3 v Z Y Y n.n.f.N.m.u.u.u.u.u.h.u.u.h.u.n.D u.n.h.m.j.n.h.n.D D F L P H s s g j R $.X.F F P 3 > S ~.|.|.Y.M.t.t.t.e.t.t.u.t.t.M e.M V n n M M n M M M n M e.n p.e.r.r.a.a.d.p.d.d.d.d.d.d.s.S.V.i.e.n n n n n n n n n n n n n e.e.e.e.i.m.m.B.m.m.M.m.Y G x , , l l z D D t.y.y.t.e.C.jXoX XoXXXoX X XY.K.V.m.u.e.e.n n t.t.n u.A. XoX_.o.U ;.d k *.q.fXf . @ & q 9.7.8 . O q *.[ f q q = = @ % = % % = @ + # 9 a # # 3 3 N D M M M n n M b n V b m b n b n V n n N.~.U.S > , c Y D n M B B B M M u.t.u.B B u.u.u.t.u.M M m l P GXGXIXPXIXfX@ [ FXIXIXIXIXfX8 e e gXHXIXIXhXe gXHXIXHXO.e e 7.IXPXIXIXIXPXIXIXIXkX] bXPXIX8.3 D D m M h.M M e.n e.y.e.r.e.e.t.y.i.z.i.y.n A. Xk.|.hX|.hXO.e .. .` ' ` { { ` ....{ aXO.O.gXO.T.O.8.O.o.O.o.O.O.|.U.M t.t.t.e.e.e.n A. XoXoX X XC.i.e.t.t.M m o.|.S O.o.O.X.P O.cXPXPXPXcXO.X.L F `.IXPXPXjXv n.~.u.M t.t.k.t.M M k.g.t.g.t.y.g.t.t.t.t.U. X_.Y V l l I Y Y v l l l l l l , l l z N A Y Y J.U c , l , l , l , l l l l l l l v z v v z z v z m v v v v m v m m z m m m m m m m m M m b z N z z V z V b b b m b n n b M m M m b l z m Y ^.}.^.N.N m v A Y N.~.~.J.n.B m M D k.D k.O.D ..jXPX2.# g t = 8.IXPXGXO.S T.Y.k.t.M M M M n M b M M V u.B B B n.U.~.8.S # fXIXPX7.q ] { [ nXIXIXPXPXbXh +.HXPXPXIXIXkX8 ] ] & w.IXIX7.' {  . . .}  .} { @.) e p lXIXPXPXPXPXPXPXnXp 8 i @.FXPXPXIXw.' [  .[ +.7.*.+.$.*.+.[ a 9 y h h h k h k = u 9   . ] :X",
"^.~.~.(.!.;.E $.$.*.=.w.w.*.f 1 r 5 s a r r - 3 < 3 l > > , , 3 3 3 3 3 > # X # . O O .     X X # #   O + + % @ % = # = o # o < 3 c Y U U n.n.n.n.n.u.B u.m.m.h.u.h.n.u.n.f.u.n.m.h.j.n.Y D c x 2 2 1 5 r a h +.*.-.j s K t > , G Y ~.Y.C.g.r.y.t.t.u.u.u.M M t.M V M B B M M M B V M e.e.e.e.e.p.S.S.B.S.S.S.S.S.S.S.A.S.K.B.p.e.n n n n n n e.n n n n e.n n e.e.u.n.n.n.n.n.N.N.U ! ;.U P G Y D D D D t.g.t.t.e.j.jXoXXXoXY.N.p.t.e.n e.p.e.e.n e.n e.u.e.n n u.b z l 2 H R $.=.7.[ @ O e 8 q 8.7.% O @ = h f y q q 8 % % % % @ % % + + % 9 r = 1 > 3 m D M M e.n M u.n n.Y.B b b b n u.m.A.^.^.^.o.x > > Y U.n.M h.u.M u.t.t.n e.n t.M u.u.u.m.u.f.n.N.c Y KXIXIXIXFX7.O 8 fXIXIXIXIXgXe w w ..FXPXIXfXe 9.IXPXHXw.e @ i hXIXPXIXIXPXPXPXIXfX{ FXPXPX8.3 O.S D k.M M M g.t.e.n i.i.r.i.j.j.i.i.i.u.n t.m.D N.o.2.O.i ..{  ...` ..` ` | ......O.O.O.O.O.O.O.O.o.o.o.U.o.D U.U.D t.M t.e.e.n e.B.A.A.B.m.j.t.n e.r.t.m m U.o.O.o.o.o.o.X.P hXJXKXPXZXO.P O...8.IXKXPXZXc Y N.n.k.t.t.M h.t.t.y.t.g.t.g.t.g.t.y.n t.M b V l l l l c A I Y Y c v v l l l l c A Y U Y U Y c , , l , , , l l , l l l l l v l v l l v z v m z v m v m v v m m v m m v m m m m D M m m m b m V b b b m b b n b b b n b n m b b B b l z N A N.^._.~.Y m c N B Y n.N b M D h.D D O.D O.o.FXIXjXP @ # O.bXPXPXhXP D D Y.k.M M M M M n M M M b b B h.u.N m N U o.o.g 7.IXPXHXw.9 @ f zXIXPXPXIXw.@ i kXIXPXPXIX7.8 p 8 ] FXPXHX@.{ {  .`  .}  .{ {  . ...w p w.HXIXPXIXIXkX#.8 { { +.nXIXIXFX7.' { {  .7.7.7.+.+.w.*.[ f 9 a h [ h [ [ h = + 8 9 O & u ",
"|.|.^.(.!.1.<.<.=.w.9.q.9.X.s g s a a a t r r 1 < > > > 3 3 3 t 2 1 # 3 3 X # #   . O .     . # X     # # + + $ % @ # # * o o < > C J U ! Y A Y n.h.B u.h.C.U.M.h.h.u.u.u.n.u.n.h.j.n.h.Y D S 3 X X o ; - a p +.*.*.h a j g r 3 > v Y U.U.j.u.r.e.t.u.u.B e.M M t.M M M V M M M e.n n u.M p.p.V A.A.K.K.A.K.A.K.K.A.R.K.A. XC.e.e.e.n n n n n n t.n n n n n n n h.m.~.^.J.D N c c c G J L ;.:.~.~.~.~.T.D g.g.t.y.r.z.i.i.u.b n n e.e.e.e.e.n n n n e.n n e.e.n u.m b c G 6 a j g f # O O @ 8 q ] f O O @ @ f f r q = @ # @ @ % % $ % % @ # 9 0 # # 3 3 S m t.M M n n M b M.XX^.N.N.K.^.^.^.K.^.h.D v l , > S Y D n n n n n n e.e.e.t.e.t.t.t.t.e.n M B Y l o.PXPXIXbX*.e 8 @ e fXIXIXFX......e e nXIXFX .e 7.HXIXhX{ w ..e ` fXHXPXIXIXIXHXnX .{ nXIXnXO.t O.D D D M M M M e.y.e.s.y.t.y.y.y.g.i.i.i.t.n n m v 3 P g q { ` ` ` ` { ' { .... ...O.O.O.8.O.|.T.O.O.o.O.O.O.D U.T.k.u.M e.e.n e.n n n n n n e.t.e.e.t.t.M D o.O.o.Y P L o.X.F 8.PXPXPXIXhXO.O.P hXPXPXPXZXc Y U.D D t.M k.t.t.t.t.t.t.t.g.g.t.y.y.t.t.M M b b z l l v c c A I I G c N G c D I Y Y Y A c l l , , , , , , , , , , l 3 l l v 3 l v v v v v v v m v v v S m m v m v m m v m m m M m m M b m b b b b b b b b b b n b b b b z n b b z m z z l z v N N.~.~.~.J.Y V z z b m B D h.T.D D D |.GXPXPXFXhX[.VXPXPXbXP S o.D U.k.t.M M n M M M n M M M B u.u.B D Y :.o.O.[ ` hXIXPXIXgX8 O 7.HXPXHXgXw q { [ nXIXPXFX] O 8 *.FXPXIXkX{ { {  .{ { ` }  . .{ {  .' e e { w.gXfX{ 8 w e { { { 7.@.7.} ..` [ { [ gXw.7.w.*.7.3.+.y 9 p [ h h +.[ f 9 $ & % O O @ ",
"|.|.`.!.`.0.9.4.q.fXfXw.*.j g s g f f a q a a - 1 2 6 2 2 1 1 1 u 4 r 1 # #           :     O .   .   + + + + @ % % % % * * ; o < 7 F U I Y Y B Y h.h.D n.Y.U.k.u.h.h.n.u.n.n.m.h.m.n.h.B Y G S 1 # # & 9 y p h +.+.+.h j K g 2 > 3 c D M.B.j.t.t.u.u.u.u.M t.M n V M M M M M V B n n p.e.e.p.p.^.^. XK. X^.K..XK. XK. X X XS.M n n e.n n n n n n n n e.n n e.u.Y.~.(.}.~.G , , , > > X 2 F P o.U.|.|.U.k.M g.y.t.e.e.n n n t.u.n e.y.p.p.r.e.n n n e.e.n e.t.t.e.B A G 3 > #     # @ # @ @ O @ @ @ @ @ q q f f i q = @ @ % % @ $ $ % + % % 8 = q 1 3 3 v D M M M M b n b f.XX^._. X^.K.N.n.e.b m m v l , , S k.B n M e.e.t.t.r.t.r.t.t.M e.e.n e.u.f.m.Y l U KXGXnX7.e @ p i @ ) hXnX@.e ..{ e e 7.fXdXe @ ) fXgX} @ e ..i e e @.kXnXnXhXgXe e ' 7.gXt t t S D D k.D k.t.M e.t.y.y.r.y.y.y.g.z.u.i.i.u.n m M v S P P ....) { ` ` ` | ` ` ` O. .O.gXgXT.O.O.O.O.O.o.o.o.o.T.U.U.k.D M e.e.e.e.e.p.e.n e.e.n e.e.e.y.M M D Y Y O.o.P P P X.P 8.GXGXPXIXhXX.X.O.hXIXIXGXhXD o.n.D k.D t.M t.t.t.t.h.t.t.t.t.y.y.t.g.e.n M b V N l l c c G c v v c A G Y Y I Y G A c l l , , l 3 , , , , , , l , , l l 3 l v v l v v v v m S v m m m S m v m m m m m m m m m M m M M m n m b b b b b n n b n b b b b n n b b b b b b b V z z l l v v D N.A c z z m M D h.D D D O.D D hXGXPXPXPXPXPXIXjXO.3 S O.o.k.k.M M M M M n M n b M u.M B M B D Y o.o.X.X.= @ fXIXPXIXfXe @ w.nXw.i 8 +.+.h +.FXnX7.& u w.HXPXIXq.q { { { {  .`  .{  . .` {  . . .i e e e e @ w ] { {  .} ( e @ e i {  . .+.7.7.w.*.3.*.3.+.u i h [ h f h h 9 u 9 9 & . O & ",
"!.`.|.`.5.9.4.w.w.q.q.=.f f j g g g a r 0 0 4 5 0 r 1 - r r ; - ; 4 * %   #     . O   : O : : O .   X   + + + $ % = $ = & ; * o o 1 F H J G Z Y N.D B B n.U.N.M h.g.h.u.n.n.h.f.j.m.m.u.D G I L F r = = u p ] +.+.+.+.+.[ j j g F t l N D c.j.y.r.u.u.u.u.t.M t.M M n V M n M n M n n M V n u.f..X^.K.^.K.K.K.^.K.K.^.K.^.^.K.V n e.n n n M n e.e.n n n n n u.N.^.~.|.(.Q.c > > X < < 1 s a 2 t S o.|.U.D M t.t.e.t.e.u.e.e.t.e.e.r.t.u.e.e.e.e.e.b n p.e.n n e.e.M b c > X X . . @ # r # @ @ = = = q @ q f f ..r q = @ % @ % $ % $ $ % = = = % ; # 1 3 l m D M b u.n M b b B A B V b b n b n M h.D S S 3 > v n.D M e.t.e.t.e.t.r.e.e.t.t.t.t.t.B.B.n z b c G X.{ i O @ w 8 i w e .._ w ) e ( ( ( e ..( e ..( ' ..w w ..) ) ) e e @ ( w e e @ ..) ....@ t ....O.D D k.M t.t.t.t.r.e.e.r.r.i.y.t.j.i.t.n n D D G O.t ..{ ` .. .` ` ` ....` ....aXO.O.O.O.O.O.T.O.o.o.O.o.o.o.U.U.k.D M n e.n n e.e.n e.M t.e.e.e.e.t.n m N D O.P P Y L P o.X.O.hXhXhXhX2.P o.O.O.|.|.2.o.S o.Y k.D k.D k.t.t.t.t.t.k.g.g.y.y.t.y.t.t.t.B B N z l , , v A G A c c G A I D c c v l l , l v , , l 3 , , , , 3 , 3 , 3 3 x 3 3 v x x v S v S m S S v S m S m S S m S v m S m m D D m M n m n n b M b b b b b b b b b b b b b b b b b b b z b m N b l z z z l z z m m M M t.D D D D D S S 8.hXGXIXGXjXfXS 3 D o.D o.T.k.M M M M n n n M n M b n B h.D D N o.o.X...{ i @ 7.HXPXPXhX8 O i w f ] +.+.] p ] p O u fXIXPXFX@.8 w +.{  . .| {  .{  . .{  .{ ` +.{  .{ ` ' { {  . .{ { { { ` ` { { { { 7.7.7.7.7.7.*.7.+.p 9 f [ +.h y y y 8 & & = 8 @ O O ",
"[.8.1.<.4.4.4.9.9.:Xw.+.a k f g j a u = u - - u 4 u 1 - - - ; ; - = - & * $ $ +   O     O   O         O   + + + = = = = = = = 9 ; 1 5 5 6 6 x c Y D D t.h.n.n.D n.j.n.h.n.f.m.n.m.m.u.B D G G H T k a u i h h [ [ [ ] [ [ [ ] g t F x l D T.C.g.t.k.h.m.t.M u.n n M V M V n V n n n p.V V b A N.^.~.K.^.K.~.^.~.~.^._.^.^.^.M.m.r.t.t.t.t.n n n e.n n n n u.N.N.~.!.|.1.%.2 > # 3 1 # # a X.K P P o.U.U.Y M k.g.t.t.t.t.t.t.t.e.t.t.t.t.r.e.e.n n n n n n e.e.n n V N Z 3 X .   = 9 9 q q r y u f i i f t f f f a 0 q = # % $ O $ $ = = # q ; q r # 3 3 l N h.M n n M n n b n b n b n M V M u.M D D D S # t S D T.M M t.e.t.M t.e.e.t.t.t.t.t.n oXMX XU.}.hXY # O @ w w p w w p w i ) e ( i ( i ) ( ( ..i ( ( ( ( ( ) ..) ' ' ..e w e w ( w ) ..) ..........S ..O.D D t.t.t.r.t.e.t.r.t.r.y.t.y.y.i.t.M M m S S P ......] ` ` { ` ` ' { ....{ ..O.O.8.|.O.O.|.O.O.U.O.o.o.o.T.U.k.D D t.M M M n t.e.M e.n M p.e.e.M B D N P P P P P X.L X.P P g 3 t t X.P P P S S t t S Y Y o.k.M M g.t.g.t.t.t.M k.t.t.t.g.t.g.g.t.t.t.B m z z l l l l l z c N c z z l l l l l l 3 x 3 x 3 3 3 3 3 3 t 3 3 t t 3 t 3 x x 3 S 3 S S S S S S S S S S D S S S D S S D D S D S D D M M M m b n b b b b b b b b b b b b b n n b b n n b b V D N m N N N m z z z b b D M M D D D D O.O.S S t S O...S 3 S O.o.D O.O.T.k.t.M M M M n b m n M n M M M M N S Y O.X.{ { X...@ 7.HXPXPXnX..@ ..{ *.[ { [ ] f O { FXIXPXHX+.@ i { #.{ { { } { {  .{ } { } `  .` .. ... . .{ { {  ... .{ {  . .{ { { { +.7.7.7.7.-.w.=.+.f y [ +.h q & % 8 % 9 = 8 % & O @ ",
"8.8.&.<.8.9.9.=.w.:X3.h u a j j f a - = - ; - ; 9 ; = - ; = ; ; ; & ; = = * + * + + + $ + $ + + + + O     O + # $ = - = = = = 4 o 4 4 4 5 6 2 x Y n.h.D h.h.h.h.h.i.u.n.h.h.u.m.h.m.n.D D G G C s a k h h j [ [ [ [ [ [ [ [ ] f r F t x D U.M.g.y.t.j.j.M n M n n n n b n m V n n e.n M b V A J.(.^.(.(.{.{.{.{.}.}.|.^.^.^.A.h.i.j.j.u.u.u.t.r.e.e.n n M D N.~.!.,.2.2.L t X # # # # a *.=.-.X.X.S D D D k.k.t.t.t.t.t.t.e.r.t.t.t.t.t.t.M n n n n n n n n M M V M N c x 1 * ; y y 0 a a a y a f r a f i f t f 0 0 q = # + $ : % $ % = q q 0 q e # # 3 , m D M n n M M n n n b n n n V t.p.e.M M m S S 3 # 3 D Y M M M M t.t.t.t.t.t.t.t.t.e.t.E.oXXXXXjX}.P # i i ' i ( i ( ' ( e ) ( ( ) ) ) ) ( ( ( ) ( ..( ) ) ) ' ' ) ' ) ` ..{ { { `  .....) ) ........P O.D D k.t.t.e.e.e.e.e.r.t.r.t.t.t.g.t.M M D S P P ..f ' ' ' { ` ` ` ` { ' ' { ..O.O.O.O.O.O.O.O.O.O.O.O.o.o.O.o.T.D M g.M t.t.e.t.t.t.n e.e.e.n e.M M N G S s P g P X.P X.P P K P P P K X.P P X.U P P P Y O.D D D k.k.t.t.t.t.M t.t.t.t.y.t.y.t.t.t.t.M M n m m z z l v v z l z z z z z z v l 3 v 3 , 3 3 3 3 t t 3 3 t 3 t t 3 t 3 t 3 t x t S S S S S S O.S S D S D S D S O.S S S S D D D D D D D m m b m b m n m b b b b b b b b b b b b n.M.^.M.b l z z c N N N z z z b b M m M D D D D D D S O.S D S S S S S O.D O.o.D D o.T.M M M M M n n n n b M n m B M N N P X.O.O.{  . .( e *.HXPXIXnXw @ ' *.+.{ [ ] O 7.HXPXPXFX{ O ' ] { { } { #.] } { { } { } {  .{ {  .{  .{ { {  . .{  .{ {  .{ { { {  . .@.7.7.7.=.7.7.7.$.f 0 [ h f 8 O O % % = 8 = % & @ @ ",
"2.>.&.<.9.9.3.3.w.3.+.5 4 h j j a 4 ; 4 4 & * * 4 = * * * * & : & * * * * * * $ * $ * $ $ $ $ * + +   O   O $ + * * 9 = ; - - = - 4 7 ; 5 1 2 3 N n.k.h.u.h.h.D n.h.n.h.n.u.n.h.h.m.n.B A c x 2 a k j j +.R [ h [ ] [ [ [ [ [ j t S x v D T.M.k.t.k.k.h.M n n n n b n V b b n n n n n b b N Y Y J.Q.!.(./.!.!.Q.Q._.N.N..X^.A.h.j.m.m.B.m.B.z.z.z.z.j.h.h.N N c G 6 F H F 1 1 * - = a 8.hXq.9.8.2.o.D D D t.t.g.t.t.t.t.t.M e.t.t.t.t.t.e.n n n n n n n n M n e.M V N G 6 1 - u i y r f f f f a i i y i i y y q a 0 - = = & * $ $ & = = # r 9 9 r # 3 3 , m u.M M M M n M n n n n n V e.V t.B t.D D D t 3 # 3 S T.B M t.e.t.e.y.t.t.t.k.t.t.M t.M k.B D c x # # ' ) w ( ( ( w ( ( ( ' ) ) ) ) ( ( ( ( ) ' ( ' ) ..) ( ' ) ' ) ) ) ` ` ..` ` ) ) ..) ............S D D D t.y.t.e.t.e.e.t.y.y.y.y.i.g.h.m m m S S t ..f ' { ' ` ' { ` ` ` ` ..{ O.aXO.|.O.|.O.T.O.T.O.o.U.o.o.U.o.o.k.M t.t.t.M M M t.n t.p.e.e.B M M D N S S s s t s f s t g K P X.X.X.P X.X.X.P X.O.X.X.O.P Y D D k.M t.t.t.t.t.t.t.t.g.t.g.y.t.t.t.t.u.M b m B N z l v v z l z b z m b v v v l 3 3 3 3 , 3 # 3 t 3 # t 3 t t t 3 3 x t 3 S x x S S S O.S S S D S O.O.S O.S O.D O.D O.O.D D O.k.k.M m b b m b m b m b b b b b b b b n b b b B N.^.^.N.B B B A B m z z z z z m M M M M D k.D D O.O.O.O.O.O.D O.O.D O.O.S D D T.T.k.M M M n M b n n n b m M M V N N S Y O.{ { { { [  .( @ [ HXPXPXnX{ @ ..*.+.8 O 7.FXPXPXzXe O { [  .#.] ] } ] ` { } { } } { { { {  .{  .{ ` .. ...` { { { { { { { { { { *.*.7.7.*.-.-.*.*.$.f a h f - O O   + $ & = & $ O O O ",
"%.%.&.&.4.9.3.=.4.3.T p k j T k a 4 ; ; ; ; : ; : ; : * $ : * * * & : * $ $ * : : $   $ : : $ : : $ $     : O   & $ 4 * - & = 4 - 5 4 5 r 2 2 v c Y n.D B h.h.h.h.i.h.h.h.n.u.m.j.h.n.D N Z x < o - - k [ T [ j [ [ [ [ j ..j [ [ X.P S D U.T.k.t.k.c.k.M n n n n n b n b V b n n b b b b A ~ I I H F F C C 2 v S ~.A Y ^.Y.M.k.z.j.z.m.C.C.C.C.A.C.Y.Y.U.D v , 3 > < 2 a 5 1 a a j -.q.zXzXq.q.`.o.o.o.k.D k.t.t.t.M t.e.t.e.t.r.t.t.t.e.e.n n n b n n n e.M M n N c c 2 1 * - q y 0 f q r q y 0 r q r 0 0 0 q u u 9 9 = * - * & ; = # e # = = # # # , , v D D M M t.M M n n n b n e.B t.B t.M M D S x # t t S o.h.M n M t.e.t.t.r.t.t.t.t.t.t.t.n n M S 3 S ..w w ( w ( ( ) ) ) ) ) ) ) ) ) ) ( ..( ( ) ( w w ( ( ' w ( w ' ) ..) ) ' .._ ` ) ` ) ..) ........S O.k.M t.t.t.t.t.e.r.y.y.y.y.y.j.j.y.M m S S S t f f i ' ' ' ' ` ` { ' { { ....O.O.O.O.O.O.O.O.O.O.o.O.o.o.O.k.U.k.t.M t.t.t.t.e.t.t.t.t.V e.e.t.M m m S x t a a f a r - - r a r t g P t P g P t F P P F P Y o.D D M t.M t.M M M t.M g.t.t.t.g.t.t.t.u.M m m B D v l z v z z N c V c c v v x 3 3 > > > > 3 3 3 # 3 t t t t 3 t t S 3 t 3 t t x t S S S S D S O.S D S O.S O.S S O.D S D O.O.D D Y m b b b z b m m n b b b b b b b b b b b b b b B N.N.N.Y A N m z z z z z b b m D t.D D D O.O.D D P S P P O.O.S O.O.S D O.D O.T.T.m M M M M n n b n n n b M M m N Y X.O.X...{  .{ { [ i @ ..FXPXPXnX{ @ 8 8 9 gXIXPXIXq.@ @ { [ +.#.] ' ] ] { { { { { { { { } }  ...{ {  .{  .{  .{ `  ... . .{ { { { { +.+.+.*.+.+.+.$.*.[ h k j u O . O O O $ $ $ $ $ O     ",
"T W W 3.3.3.-.3.3.+.T k k j d k 4 4 : : : : : : * : $ * : * : : * : : * : : * : : : $ : : : : : $ * * + : O     : $ $ $ $ * - - 4 a 4 - 5 1 2 3 S Y k.k.h.t.D k.h.m.h.n.n.n.n.h.m.h.h.D Y Z 2 > . . . ; a j j h g j [ g g j [ [ X.X.X.S U.U.T.k.h.j.M.g.e.n n n n b b b b n b M V m z z N U o.Q H 5 X X o 2 < > C |.o.N.|.Y.C.C.c.m.m.z.B.C.Z.B.C.C.Y.^.^.N.G H H d 6 d k 5 5 a k j $.9.:X9.=.<.X.o.|.U.D t.k.k.t.t.e.e.t.e.e.t.e.t.e.t.t.n n n n n b n n M M n b N c v 2 o * = 9 9 q 0 q q 9 u 0 y y 0 0 0 0 y u - u 4 ; u - 4 4 * : ; +   # # # X X > , l D k.t.M M M t.M M M M M M t.M t.M B M m S t # # 3 S D k.t.M t.t.t.t.y.r.t.t.t.t.t.t.t.M M D O.S ..t e ( ( ' ( ( ( ) ) ' ) ) ..) _ ) ( ( ( ( ( ) ) ' ( w ( ( ( i ( ( ) ) ' ) ) ) ` ` ) ` ` ..) ........D D k.M t.t.t.e.e.t.y.y.l.a.g.l.M.k.m m S S t t ..' ' ' ` ' ` ` { | ..` { ..{ aXO.O.O.O.U.o.O.o.O.o.o.O.o.o.D M.D t.M e.t.e.t.t.M e.t.e.M t.M M B N c S x r a r a u 0 # + # 0 1 r r t t t t f t f t t t t S D D D t.M t.M t.M t.t.t.t.t.y.g.t.g.t.t.D D M m m N c v z l z z z m z z v v x v 3 3 < > > # > 3 # t t t t t t t t 3 t t 3 S t t t S S S S O.S S S O.S D O.S O.S O.S O.S O.D D D T.D m z m m z b m b b b b b b b b b b b b b b b z z z z z z b z l z z z z b b b b M M D D D D O.D D O.D P O.D S O.O.S O.O.O.O.O.T.T.M M M b n M n b M n n m M M m D G o.X...X.{ { { { [ @...% ] nXPXPXFX[ 8 f kXPXPXHX7.@ e { [ { ] ] #.] { { ] } { } } { { { { { { { {  . .{ { { ..` { { { { ` { { { ] #.+.+.+.+.+.$.T +.+.j k k k = . . O . O : O : O .   . O ",
"T R +.3.-.&.+.3.-.T k k k k a 4 ; : : . : . : : : : : : : : * $ : $ * : $ : : $ * :   :   : $ $ * : $ : $ : O : O :   : : : * u 0 4 u - - 1 2 3 v D n.D t.h.h.t.h.k.h.n.h.u.h.m.m.h.h.Y Y c , . X . . . * a a f f f h g f h j j [ g P P D U.U.h.t.M.k.u.M n n n n n n b b b n b m m m N o.!./.0.=.&.&.R R d s s ;.}.}.^.^.T.c.C.j.j.z.j.B.B.C.C.C.T.Y.^.|.!.2.1.<.&.E T 5 4 4 4 4 u y k $.+.j d > O.2.U.T.D t.g.t.M e.M n M e.e.t.M t.t.e.n n n n b n n b n n M V z Z x < # ; u 9 q q q f y y y a y 0 y a 0 y a u u - - 9 & 4 9 4 & & $ # + + O @   X > , l m n.h.M M M M M n n n n M M t.M M t.D m S t t e t t D U.D t.t.t.r.t.t.t.t.t.t.t.k.t.g.M k.D D S S ..( ( ( ( ( ( ( ) ( ( ( ) ) ) ) ) ' ( ' ( ) i ( ( ) ' ) ) ( ( ( ) ( ( ( w ) ) ) ) ) ) ) ..) ......S O.O.D k.t.t.t.t.e.y.y.a.a.a.y.j.k.k.D S S S t f i ..' ' ' ` ' ` ` ` ` ..{ O...O.8.|.O.O.O.o.o.o.o.o.O.o.o.o.o.o.k.k.M M t.n n t.t.t.e.e.e.e.M M M N S x t 1 1 0 0 u - $ + = = q 0 = ; q 1 r r r t r r 1 3 S S D M D t.t.M M M M k.t.t.t.g.t.t.t.t.M g.h.m b z z v z l l l z l l z l z l l 3 2 3 # X X > t # t 3 t t t t t t t t t S t t t S x t S ..S S S O.S S O.S O.O.S O.D D D O.S D o.T.O.m z z m m b b b m b b b b b b b b b b b b b b b z b b z l z z z z b z z b b m M M D k.D O.D D O.P P O.P P O.O.O.S O.D O.D D D T.k.M M M M M b M n m b M M M m N G o.O.P [ { { `  .{ { [ *...e f nXPXPXHXfXbXPXPXnX] O ..{ [ { +.{ { { ] #.] { { { ] { { } { ` { { ` { { { { { |  .{ ` { {  .{  .{ ] ] +.+.+.+.[ +.+.T T +.T k h a & . .   O + : $     O :   . ",
"T R -.$.T 3.3.3.+.T k 5 a u 9 : :   . . . .   : : : : : $ * $ : * $ $ : $ : * $ : + $ : $ : $ $ $ * $ $ $ $ : O .       O   $ & = - 9 ; ; 1 2 3 l D h.h.t.k.t.h.u.h.h.h.n.h.h.h.h.h.n.D A G 2 < . . . . * u f g g f f f f g g h g g P P S o.T.k.k.M.M.t.M n n M n b n b n m M m m m c Y U 1.`.0.:XzXzXzX3.K g P 8.}.}.|.Y.U.M.c.B.j.z.B.c.Z.Z.v.C.M.T.~.~.`.].[.0.4.&.d 4 : : $ 4 & $ ; k k u ; X G !.~.k.M k.t.t.e.e.t.t.e.e.t.t.n e.t.e.n n n n n b n n n M b m v x 3 < o ; u y q r q r i y y 0 i y 0 0 0 0 q 0 0 9 4 9 4 9 4 & 4 * & +   + + O   X X > l m o.M M M M M M n M e.M M M M t.t.B D m S t # e t t S O.k.D t.e.e.r.t.y.t.t.t.M g.M t.g.D D O.S S e w w e w w w w ' ( w ) i ) ( ( ( ( ) ( ) ) ) ) ) ) ( ( ( ( ( ) ' ' i i ( ) ) ) ' ..` ..) ..( ..i ..O.D k.t.t.t.t.e.t.y.y.a.a.a.y.j.j.k.D S S S ..a ..] ' ' ` ` ` ` ` ..| ..{ ..{ O.O.O.O.O.U.2.O.O.U.O.o.o.o.D Y k.U.k.M t.e.t.t.t.t.t.t.t.e.t.M B D c S F 1 r u 0 u 9 = $ + % - r q = ; = - r r q r r = # 3 3 S D M M M M M t.t.M t.t.t.t.t.t.t.g.M t.h.h.M m z z l l l l z l z z z v l x l 3 3 3 # # > # # 3 t t t t t S t t t t t t t t S ..S ..S S O.S ..S O.O.O.S O.O.D O.O.O.D D D o.U.o.D m b z b b b b b b n b m n b b n z b m m b b z z z m B D V z z z z b z m b m M M M t.k.D k.D O.D O.S D O.S S S O.D O.D O.O.D O.T.T.m M M M M n M n n M m M M M m Y L X.X...{ { ` } { { { .. .{ e ) fXIXPXIXPXPXnXi O i *. .[ *.{ { ] { ] ] { { { { { { { { { { {  .{  ..... . .{ .. . ... ...{  .{ ] ] @.7.+.+.[ T j +.T R h y a - * +   . . + + +   .     O O ",
"T T T T +.-.+.+.+.T k u u 4 4 $ . . . . : . O : O   + $ : : $ : : $ + : $ $ $ * $ $   O   + : $ $ * * $ $ $ + :     O   O . O : $ * $ $ & ; < > l S k.D h.h.h.M h.u.n.n.n.h.n.h.h.h.D N G U L E $.$.$.T [ j j j f f f f k f f g [ g P S P U.U.k.k.M.j.n e.M b n n b b n b n m m m m S S U o.2.=.=.3.w.3.-.-.<.1.8.|.jX|.Y.Y.C.M.j.B.m.c.B.C.C.Y.Y.^.|.|.~.`.`.0.:X4.=.j 4 : . : : : : = u 4 ; 1 > U |.U.D h.g.M e.t.e.n t.n e.e.t.t.t.t.e.n n n n n n n n b b b N c v > o o & = q 0 q r 0 q u u q q 0 q 9 0 9 0 0 9 0 9 = - = - 4 & ; :   + + +   #   > > , m k.D t.M M t.M M n n n t.M M M M t.D m S t e t t t S T.D t.u.M t.t.t.t.t.t.k.M t.k.t.D D m S S ....' w w ' i ' ( w ( ' ( ) ( w ( ( ( ) ) ( ( ) ( ) ) ' ) ( ' ) ) ( ) w ( ( i ) i ) ) ) ) ..) ......t S O.D k.t.t.t.t.y.y.y.a.a.y.y.g.M.k.D S P S f f ' ' ' ' ' _ ` ` ..` ` ` { ..{ O.O.8.8.O.O.o.O.O.O.o.O.X.O.O.D D U.k.M t.M M M t.t.t.t.t.t.e.B B N c c t 2 1 0 0 9 9 % + $ % = q = - q r 9 0 9 r r r r ; # t v S D D t.k.M M M t.t.M k.t.g.t.t.g.g.M h.B M m z z l , l l l l z l l l v , 3 3 < 3 # # # # t t e t t ..S t t t S t t S t S ..S S S S S S O.S O.S O.S O.S S O.O.S O.S D o.T.U.D z z b b b b b n b b b b n m b b b b b z b z m b z m N D D D m z m b z b m n b M M D k.D D k.O.D D O.O.O.O.O.O.O.D O.O.O.D O.D k.O.T.M M M M M n n n n M M M m M D Y o.O.g ..O. .{ {  .{ {  .{ { { e 8 fXIXPXIXfXe @ { 7.[ [ { { { [ #.` { { { { { { #.} { { } {  ...` {  .`  ...{  .{ {  ... .{ ` { ] +.*.*.+.[ [ [ +.+.+.+.h u u & $ + O O O + + + O O . O O . ",
"T T h T T +.+.+.T h p 4 4 4 4 : . . . . O : O . : : O : : O : & $ O   O O O O O & O   O O : O : $ $ $ $ $ : O O . O . O     O O   O : :   : X > , v n.M.B M h.t.u.B h.D u.u.u.u.h.B V N G L Q 4.4.q.9.9.=.$.+.j h f f f g h g h h g g P S D o.N.M.M.h.n n M M n V n b n b n M m m c S G K K T T h +.-.=.3.9.8.0.!.!.|.|.T.T.C.c.j.z.z.B.c.v.C.A.Y.^.^.~.`./.1.<.q.4.3.d 4 :     .       ; ; * o X C ~.|.U.M g.t.e.e.t.e.t.e.t.t.t.t.t.t.t.n n n n n n n n b M B c v 3 > : : : : & & u 4 - = = & 9 9 9 9 9 9 9 = & 9 = 9 & u = 4 & & & $ $ + + + :     X X , v Y D M M M M M M e.M e.t.n M M t.M D m S t e ..e t S O.k.M M t.e.y.r.t.t.t.t.t.t.k.t.D D D S ..t e w w w ( w w ) ' w ( ' ( ' w ( ) ) ) ) ( ( ( ( ) ) ) ) ) ) ) ` ) ' ) ) ( ' ' ' ) ) ..) ..( ........t O.k.t.k.M t.t.t.y.y.a.a.y.a.k.k.U.D S P ........' ' ' ' ' ' ` ..) ` ` ..{ { O.7.O.O.2.O.O.2.O.2.O.O.O.P S S D T.T.D k.M t.t.t.t.t.t.t.h.t.B D D c 2 2 5 - 4 - u = $ : & 4 & ; q 0 - - ; = = - 0 0 ; ; 1 3 3 v h.M t.t.t.t.t.t.M t.t.k.g.t.t.k.M t.t.M M n z z l l l l l l z z l v v 3 2 1 1 1 1 # # # t t t t S S ..t t t S S ....S t ..S S O.S S S O.S S O.S O.S O.O.S O.D D D O.|.T.D v m b b b b n b n b b n n b b b b V b m m z v m m m m D D D D m z v z z b b b n n M M B k.D D D O.O.D O.D O.O.D O.O.O.S O.D O.D T.T.n.M M M M n M n M M M M M M B N o.O.X..... .{ { { {  .{ { {  .O.{ e e w.nX7.@ w { { { { { { { [ { +.{ { { { { { { {  .{ {  . .{  ... ... . ... ... .{ {  ... ...{ ] { +.*.*.+.[ [ [ +.*.+.y 9 8 e # @ @ @ @ + + O O O O O O O ",
"+.h h [ +.T T +.T T u u p 4 9 & . . . . : : O : O O & : : . O : : + O : : : : : O :   :   : O O $ $ $ $ & & $ & O :   O   O O :     : . : : X > , v N n.h.t.M M M M M B B B M M M M m c c x 7 6 5 a a f f u 0 y a p f h g f h f g g g F S G U.N.U.T.t.t.n n M b b n n n n M M m m N G L X.R &.W $.&.-.3.=.=.%.;.2.~.|.^.U.T.C.c.z.B.c.z.V.Z.C.C.Y.~.~.:.;.X.E -.T $.T 4 :     *     . .   o # o X , U ~.M.M t.t.t.t.e.t.t.t.e.t.t.t.t.t.t.n n n n n n n M n M m A x , < 4 : : 4 : 4 = - 4 & 4 & - 0 0 0 u u u 9 u 4 u 4 4 & 9 9 & 4 ; : $ : $ O & O   X > > x Y D t.M t.n n t.n n M M e.M t.t.M M S S e e e e t S D o.D M t.t.y.r.t.t.t.k.t.k.M k.M D D S S e ..( ) ( ( ) ) ) ( ' ( ( ( ( ) ( ( ) ) ) ) ) ( _ ) ( ( ( ( ) ) ) ) ( w ..( ( ( ) ( ' ) ) ( ' ' ( ) t S O.k.D g.t.t.t.y.y.a.a.a.l.g.k.k.U.U.P P g f i ' i ( ( ' ' ' ` ` ` ..' ....[ O.O.O.2.O.O.O.O.O.O.O.O.X.P P S D U.k.M M t.t.k.t.t.t.g.t.t.t.M m N v 3 1 1 1 4 u u = $ & = : & - # = - 9 - q 1 ; - - ; # 1 3 , m D D M t.n e.n t.t.t.t.t.t.k.t.g.M t.D M m m b z l l l l l z l l z l x 3 3 < 1 ; # # # # e t t ....t t t S t t S t S t t S S t S ....O.S O.O.S O.O.S O.O.O.D O.D O.U.T.T.m m m b b n b b n b n n b b b b b b b z m z m m v S m S D k.o.D m m m b b b b b b n n M M k.D o.D D O.O.S O.O.O.D O.S D O.O.O.k.O.O.T.k.D M M M n t.n n n n n M m M D U O.X...X.{ {  .{  .{  .{ { { { { { e e ..i e [ @.[ X.@.[  .{  .{ {  .{ {  . .{  .{ { { { { {  .{  ... .` {  ... .` { | .. .{ ` { ] [ [ 7.{ +.{ [ *.*.+.h y 9 8 @ @ @ @ @ @ @ @ @ O O O O O O ",
"T T T h T +.T +.T p 4 u p 4 k p & : : . . : : : . : :   : : : : . :     . : : . . .   . . : : . . : O . :   & : & : : O : & : : . . . : . . X X , l m n.h.t.M n n n M b b n b b b b m N c 3 < o : : : . O + + % u k h h h j h j j k d F F L Y n.Y.Y.n n n n n n n b n b n m M m c S G P H K T T R R R R R K K F U o.|.^.Y.T.C.j.z.B.c.V.c.V.A.C.M.J.U J H 6 k d T k 4 : . . : : . . .     : o 4 o > U ~.Y.B t.e.t.t.t.t.t.r.t.t.y.t.t.t.e.e.e.n e.n n n M b M B c x < o : : : : : : : 4 4 4 4 4 4 9 - u u 4 u 4 & - = 9 4 4 & 4 4 4 & 4 * $ : O : : : . X > , D k.M n M n M M M t.t.M M M M M k.D D S t # e # t t D k.D M k.t.t.t.t.t.t.t.t.t.M M M D D S t e ..i ) ( ( ) ) ..( ) ) ( ( ( ( ) ( ( ( ) ( ( ( ( ( ) ) ' ( ' ' ..' ' ' ( _ ' ' ) ' ) ' ) ' ) ..' ..t t S U.M t.t.e.t.t.y.y.y.r.y.r.g.M D D S P g p i ..' ..' ' ' w ' ' ..{ ......[ 7.O.8.O.-.O.O.O.2.O.8.O.X.P F S S U.D D t.k.t.t.t.t.t.y.t.y.t.D D A S 2 7 o 4 4 4 - * : : ; 4 4 ; ; ; 4 1 ; ; ; 4 4 4 4 1 1 3 3 v D M M M t.e.t.t.t.t.t.t.k.t.t.t.t.t.B D M b z z l l l l l l z z v v x 2 2 1 # ; # * : t r t t t S t t ..S t t t t ..t S ....S S S ..P O.O.S O.S S O.S D S D D D U.U.D b m M m b b b n n b n b b n b b m b z z m m m S N D S Y D D D D D D m m b b b b b n n n M M D D D Y D P P P D O.P O.D O.S O.D O.D D o.U.T.M m M M n e.n n n M n M M B N o.o.K ..X. ... .{ { { { { { {  .{ *.{ ] e i { [ [ { X.{ { { { { { { { { { { { { ..{ { { {  .{ {  . .{ { {  .{  .{ { { {  .{  .{ ' ..[ @.*.+.+.[ +.*.+.+.h u 8 q = e e # @ @ 8 @ @ @ @ O e @ @ ",
"h h k k T T +.T T k 4 4 4 k T T T u 4 : : . . . . . . : : : : : : . : : . : : : : : : : : : : : . . . . . : : : : . :   . . : : . : : : : . . X > , m D B n n M n V b n b n b n n b B A c 6 d 7 4 : : : : : & * p k k T j j T +.T R K K P L I Y ^.^.b t.M n M n b m n n M n m m N N J H d d T T T d T d j K F P S U.|.^.Y.Y.c.c.z.z.c.V.x.B.B.M.N.U.U U H H d T W T T k 4 o : . . : : X . . : : X > L ~.~.h.t.r.r.r.t.r.t.t.r.y.t.t.y.y.t.e.n e.n n e.n n M M B Z , X o : : : : : : o ; 4 : : : : : 4 * : 4 4 : 4 4 : 4 & 4 : : & : : : : : : : : . . : X , l D n.u.M M t.n e.n n n e.M t.t.M D N c S r e e t t t S U.D M g.g.t.y.t.t.y.M t.k.t.t.M D G S ..e q w ) ( ..i ) w ( ( ( ( p i ( ..w ) e w w i w w w ..' ..' ' ( ..( ' ( ' ' ' w ..( ..( ..w ' ) ' i ..3 v U.k.t.t.n e.t.y.g.a.y.y.y.g.t.D S x s a p i p i p ' p p p i i ] p i f ] [ O.7.O.O.o.X.%.X.X.%.O.X.X.F F S D U.k.k.M k.t.t.t.t.t.g.g.t.t.B N c v < 7 o : 4 4 ; : : : * : : # ; ; o ; ; ; ; o 4 : : o o < , S D M M M e.t.t.t.M t.k.t.t.t.t.M g.M M M D m b l l l l l z l l l v v x 2 1 o : : $ $ : # # e t ..t t t t t t t t t t S t t t S t S S S S S ..S ..O.S D O.S D o.T.T.D D b m n n n b n b b n b n b b b z N z z v v v l v S S D D D O.S D D D z z b b b b b n n n M t.D D Y D P P P D O.S o.S O.P O.S O.D O.D D M.k.M M M M n n n n n n M M n M D L X.X.t X.X...{ { { { { { { { { { { X.{ { { { [ [ {  .X.X.{ { X.{ { { { { [ { { { { { { { { { { ..{ { { ..{ { ..{ ` { { ..{ ..{ ] ] [ +.{ { [ [ +.+.*.+.h q 9 8 q q e q q q e i e = @ @ @ @ @ ",
"k p k k k k T k k 4 4 4 4 k T T T k 4 4 4 : : : . . : : . : : : . : : : : : : . . : : : : : : : : . : : : : : : . . . : : . : . . : . : : : : : > > z B B M n M n n b b V n V n M V n.A C < 7 7 4 : : : : : : : 4 4 4 k T T T T +.R R R E J Y Y ^.^.b M e.t.M b b V n M n M M m c G G 6 k 7 4 4 k k k T d j E L o.~.|.^.Y.A.c.b.z.z.V.v.v.B.C.M.N.! Z H W W d T T T T T T 4 : : . . . . : : . : . < U ! U.u.u.t.t.y.t.t.r.r.r.t.g.t.t.y.t.e.e.n e.n e.M n M M N l X . . . . : : . . : : . . : : : . : : : : : : . . : : : : : : . : : . . . . . : : : . X X > v n.B M t.n n e.M e.n M t.M M t.M D N 2 # O & # # , v Y k.u.t.y.t.g.t.k.t.k.M k.M t.B D c 2 4 & & 8 8 w 8 e w e w 8 w p w w 8 8 p q 9 8 8 & p 8 p u 8 8 p 9 8 8 8 & 8 8 8 8 8 w 8 8 8 e e 8 w w 9 t 3 v XXU.t.t.e.t.t.g.l.T.W.T.E.Y.Y.Y.D 3 1 4 9 p u p 9 p 9 p p i y p p u u k +.*.X.%.O.%.X.$.%.$.X.$.R K H F G S k.M.D e.t.t.t.t.t.g.y.t.t.M B N c 2 < < < 4 4 4 4 : : 4 4 : 4 4 4 4 4 ; o 4 ; 4 4 : 4 o o < 3 c Y h.t.M n t.t.t.M M t.t.k.t.t.t.D t.M h.B m b l l l l z l z z l v v x 2 5 ; 4 4 4 4 4 * * ; 4 t r 1 1 1 1 2 1 2 t s 2 S t t S S t S S F S P P S O.S S O.S D U.U.D m b m b b n n b b n n b b b b b z z v v v v v v x Z G G G P P O.D Y D N m b z b b b n n n n M M B D Y G G L P Y P U P U P P S P P Y Y Y Y U.D M M M n n e.n n n n n n b n N U X.P g ....] ] ] ] f ..f { ] { [ f ..] f ] ] ] [ +.+.+.{ ] ] ] ] { ] ] ] { ] { { [ { { { ] { { { { { ] { { { { ] { ] { ] { ] { p ] ] +.+.[ [ [ +.+.+.+.p 9 8 9 q r i i f f ..f f q 8 @ @ @ @ ",
"k 7 4 7 4 k k k k 4 : : 4 4 4 k k k k T k 7 4 : : : : : . : : : : . : : . . : : . . : : . . : : . . : : . . : : . : : : . : . : . . . : : : : : > > l m B B V n b n V M M V M M M B D N l > o o : : : : . . . . : : : : 4 7 T T d R T R E J G Y |.M.n t.n M b M m M n n M n M m z S Z 6 4 4 k 4 7 7 T T W W &.,.!.|.}.^.Y.Z.c.v.c.c.V.c.x.B.m.N.N.I C C d H H d 7 T T / T T &.3.k 7 T 3.:X-X6.T d W :.Q.~.h.u.t.r.t.r.t.t.y.y.t.g.g.g.y.t.e.e.e.e.e.n M n M M B Z 3 o : o : : : : : o 4 4 4 7 4 4 4 4 4 : : 4 4 4 : 4 : : : : : : : : : o : : : : : : : X > , v n.B M M e.n n e.n e.e.n t.M M t.N N x 1 : % # < , v Y n.h.u.t.g.t.t.t.t.t.t.t.t.M B N x < 4 & & & & & & % % & 9 p & & & 4 8 & & * & 9 & & p & 4 & p & 4 - u u 9 p 4 u u 9 p 4 & 9 u 9 9 4 u u u r t m |.Y.n e.t.g.T.v.R.W.W.jX XoXoXXX~.2 < 4 4 4 & 4 8 u & & p 4 9 u & 4 4 u T R X.L K L X.X.K L R W T d 5 7 3 > D k.u.M t.e.t.t.t.t.t.y.u.t.B A c , > o o : 4 : : : : : : : : : : : : : : : : : : : : : X < > , D D M t.M M e.t.t.k.t.t.t.t.M t.t.M M n.h.m z z l l l l l l z z v x 2 5 5 k k 7 p p 4 u 5 a k q 1 # 1 ; 7 5 1 5 6 1 6 t 3 2 t C 2 s F s F F s S t S P 3 x U.U.D m z n M n n b b n n b b b b b m v z v v v v Z C x Z Z J G L G S D G G D N z z b b b b b n n n n M B N D G G J L P L G G P G J P U P U P Y Y N.B M n n e.n n e.e.n n n n n V N G L g g g ] f f h f f f f f p f ..] f h p h h h ] ] [ h [ ] f h p ] ] f f p ] h { { ] ] ] h f i f ] p ] ..{ f ] ' ] f ] ] ..p ] ] h h +.[ h h h T +.T h u 9 9 u f i f f h h h h f f 0 8 @ O O ",
"T T T T T T T T T k k k k p T p W T $.+.+X+.T +.k k 7 4 7 7 7 4 4 4 4 k 7 4 4 4 4 4 4 4 4 4 7 4 4 4 4 4 4 4 4 4 4 4 4 4 4 4 4 4 7 u 7 k k k k 7 C Z N A B V n b b V M V V M V e.V M V N Z 6 4 4 7 4 4 4 4 & : 4 : 4 4 4 4 7 k T T -.&.&.3.Q :.~.XXh.M t.n t.n n m b n n n M M m z I ;.>.3.3.3.3.3.W 3.6.3.4.5.'.].|.}.Y.Y.Y.v.Z.v.x.v.v.V.C.C.N.J.! W W Q 3.^ 3.3.3.3.3.#X;XrXUX:X:XvXAXJXLXJXbX;X6.0X{.^.n.u.y.y.r.t.y.y.y.t.r.t.y.g.t.t.e.e.e.e.e.M e.t.M M N Q.>.>.&.&.3.3.3.3.3.3.3.^ 3.3.3.^ 3.3.3.^ 3.+X3.^ 3.3.3.^ 3.3.3.3.W 3.3.3.3.^ 3.3.3.3.W Q ~ ! ~.N.B M n M n n e.e.e.n t.t.M t.M V A Q R T +.T R I J.J.u.u.u.t.t.t.t.t.t.t.M t.M V V N Y %.R #.+.T T k T k T T k p p T p T T p T T p T T p p T T T T +.T +.+.+.3.+.3.W +.T 3.T 3.$.T R T $.$.R $.X.o.~.}.Y.M e.g.Y.W.Y.E.W.E.jXE. XoXjX~.I W d T T T T ] T h T p T T T T T T T T R L K K R K K K R W d 7 7 7 < > , b n.u.t.y.e.e.t.t.t.y.t.t.t.B c c 3 X : . : : : : : : : : : : : : : : : : : : 4 : : : : o o > x Y D M M t.M t.t.t.t.t.t.t.t.t.M t.m M M.n.m b l l l l l z z v z v v 2 5 4 4 4 p 7 4 7 k 4 k 4 4 4 o < 4 o o o o < o o < o < < < < < < 3 2 3 2 s > L P 3 Y o.D m m m M b n b n n b n b V b V z z v v l l v x C x Z C Z F C C C F F c c G N z z b b n n n n n n M M B D G G J F F G C Z G F G H G Z J Z c Z A A h.n n M n n e.n e.n n n n n B n.x 2 5 K $.[ $.*.+.$.$.+.[ +.+.+.+.+.[ { [ [ T +.[ [ +.h +.T [ [ +.T [ [ ] h [ +.[ [ [ ] ] ] h h ] ] h [ ] h ] ] h h h ] h ] ] h h ] h h h k h p h h T p u u p k h h ..h h h [ h ] ] h y 8 @ O ",
";X3.;X3.#X+X;X3.3.^ 3.^ +X+X+X+X+X;X;X;X;X:X-X-X#X3.+X3.3.3.+X3.6.+X+X3.3.+X+X3.6.^ +X3.^ 3.+X3.#X6.;X3.#X3.#X3.3.+X3.+X+X3.#X3.3.;X3.+X3.;X;X6./.)._.(.n.V n B n n V M B p.B M M V m A ~ 6.6.3.+X+X:X;X;X+X3.^ 3.3.+X3.3.+X3.3.3.;X3.6././.{.yX^.M u.t.n M n m b m n M e.n n V l ~ /.0X-X:X:X-X-X=X:X:X6X0X0X).}.}.^.^.Y.R.v.D.Z.Z.v.V.B.C.A.K.Q.).).6.:X6.;X-X;X:X-X-X:X;XkXrX:X-X-XUXUXrXUXrX0X0X0X}.XXN.t.r.y.y.y.y.r.y.y.y.y.g.y.y.r.t.r.e.e.e.e.M M M t.N eXqX0X7X-X:X-X:X-X:X6X0X6X0X-X:X-X-X-X:X-X:X:X-X-X-X-X:X-X:X-X-X-X-X:X9X-X:X:X-X:X:XrX7X0X0X].yXJ.f.n n e.M e.n e.n t.e.n t.t.D b I '.0X:X:X:X/.].}._.u.M g.t.y.t.y.k.t.t.t.t.t.u.b N !.zX0X:X:X:X;Xw.;X;X3.+X;X;X;X;X;X;X;X;X3.;X;X3.;X;X:X;X:X;X:X;X:X-X;X:X;X:X;X-X:X;X=X:X;X-X:X;X-X;X;X:X:X'.cXXXXX^.i.j.B.T.T.T.E.E.E.E. X XR.^.|.)./.6.9.3.9.3.;X3.;X3.;X3.3.3.+X3.3.^ 3.5.6.6.6.6.6.6.6.6.>.&.W W W J C I N.J.u.n t.e.t.M h.t.t.t.t.t.m N Z 6 7 7 7 4 7 k 4 k 7 k k 7 k k 7 k 7 k 7 T k T 7 T T T T W J Q ~.n.n M M t.M M t.t.M k.t.t.t.t.M M B N.N.B b l l l l l z z z v v C F 7 7 k k 7 k T T k k 7 k 5 7 5 5 7 7 7 7 4 7 4 7 < < 7 5 7 < < 7 7 < 7 5 2 t C X o.}.S v m m b n b b b n b b V b b b z V v v l l , 7 C C C C 7 H C 6 6 H F C x C G N c b b b b b b n n n n M A A A G C 7 6 7 7 2 6 7 7 C 6 6 7 C x l v c B m n t.n e.n e.n e.e.n n B n.Y , X 6 4.9.3.9.9.4.3.=.3.=.4.3.=.w.=.=.9.w.3.-.3.-.3.3.-.$.$.$.*.+.-.$.+.R +.$.+.$.+.$.$.R +.+.+.R +.+.R +.+.R +.+.T +.h +.T T +.T j k h T T T k k k k 4 4 4 k h h j j j +.h T j h j T h y = % ",
":X6X:X7X:X-X:X7X;X;X:X;X:X;X:X;X:X0X:X7X-X0X:X0X0X6X:X7X6X:X;X0X7X:X:X6X-X0X6X;X7X:X6X7X-X0X-X0X0X6X:X7X6X0X6X0X6X0X6X0X9X0X6X0X-XrX:X9X0X6X0X9X0X0XeXwXY b u.V b B M V M u.M t.M M m A (.0X7X0X:XrX:X:X:X:X:XrX:X:XrX:X:X-X:X:X-X:X0X6X'.8X{.yX_.b t.u.n M B n m b n n e.M M V l ! 7X0X-X:X-X:X-X-X:X:X-X0X:X'.xXmX~.^.Y.E.D.v.R.v.Y.v.B.A.A.^.).).0X3X;X-X6X:X-X:X-X-X-X:X;X;X;X;X#X3.^ ^ 3.#X;X:X7X_.eXm.p.u.a.r.r.a.a.r.r.r.y.l.y.t.r.e.t.e.r.r.t.M e.n b n.wXrX0X0X:XrX:X-X-X0X6X7X6X-X-X-X-X-X;X-X-X-X-X-X-X;X-X-X%X-X;X-X-X-X-X-X;X-X-X-X-X-X;X;X7X).7XeX_.V b n n e.e.e.n n e.e.n e.n m , ! qX7X:X:X-X0X8XeX^.B u.t.y.t.t.t.M t.t.t.t.t.M m z 8XvX0X0X0X:XrX:X0X:XrX:XrX:XrX:X:X6X0X:X:X9X:X6X:X0X-XrX:X-X6X:X0X-X:X-X:X-X-X:X6X-X:X9X-X9X0X:X9X:X6X0X:X0XwXwX.X^.C.j.B.C.M.C.Y.E.E.E.E. X X^._.(.].7X:X-X:X0X;X:X6X:X;X-X;X;X-X;X6X;X6X6X0X7X6X6X6X6X7X7X7X6X7X0X7X0X].8XyXN.V n u.p.t.n t.t.y.y.r.M V z Z 5.6.6.;X:X6.=X:X-X:X:X;X:X:X;X;X;X:X;X:X;X:X;X;X:X:X;Xq.7X0X{.}.u.e.t.t.e.t.t.t.t.t.k.k.t.t.n V N Y }.J.N D v l l l z z z z v x C 5.6.6.3.6.3.3.3.3.+X3.3.+X3.+X3.3.;X6.+X+X3.3.6.3.+X;X3.3.3.6.^ 3.^ W 3.6.5.<.W 1.GXVXP , N m m m b b n b M b b M b b V v , < 7 J 3.6.~ W 3.3.W ^ W &.^ +.W >.Q 6.J.A z z b b b b V n e.V V u.V ! I W W W W W W W W W W W W W W W W ~ I J.A n n t.e.e.e.e.e.t.r.e.u.V B ~.E H W 6.6.6.4.9.;X4.3.:X3.w.;X3.9.4.;X:X3.;X;X3.:X3.;X3.3.3.;X3.3.3.3.3.3.3.3.3.3.3.3.3.3.3.3.3.3.3.3.3.+.3.3.3.+.3.+.3.T +.3.3.T 3.W T T 3.T k T p 4 4 4 T T T T T T T T T T T T T T T T T T ",
";X;X;X;X6X;X;X;X;X;X;X;X;X;X;X7X-X;X;X6X;X-X-X6X;X6X:X6X:X6X-X;X;X6X;X2X;X;X;X7X;X;X;X;X-X;X-X7X-X;X-X;X;X;X;X6X-X;X-X6X:X6X;X6X-X:X-X-X6X3X-X6X6X7X7XeXJ.b V e.M t.M n u.h.t.M M u.m N ].8X7X6X-X:X:X-X-X-X:X-X-X:X-X:X:XrX:XrXrX-X6X;X7X7XeXyX^.b V u.n M B b M b M n e.M B N v ^ 0X7X:X-X-X-X-X-X-X-X-XrX0X0XSXCXN.N.C.^.R.Y.Y.R. XY.A.^.~.J.8X7X0X;X-X%X-X-X-X-X-X-X-X-X-X-X=X-X-X=X*X;X=X-X-X7X7X7X_.J.M e.r.r.d.r.r.r.r.r.y.i.l.y.t.t.r.r.e.e.t.e.u.M B J.eX7X7X7X-X-X9X-X-X;X6X;X;X-X;X*X=X*X*X*X-X*X*X*X*X=X=X%X#X#X#X#X-X=X=X=X=X#X%X=X#X=X%X%X;X2X7XeX_.B n p.e.e.n n n n t.e.e.e.n V c ! 0X7X0X-X;X6X{.yX^.V u.t.g.t.t.t.t.M e.t.t.n B z Z 0XrX7X7X6X0X6X-X-X-X:X-X:X-X-XrX-X6X-X-X-X-X-X-X-X-X-X-X-X;X-X-X-X-X-X;X;X-X;X%X-X%X=X-X-X-X-X-X-X-X6X;X6X7XqX}.^. XA.C.C.C.Y.Z.Y.Y. X X X X X^._._.0X7X6X-X-X-X-X6X-X-X-X-X-X-X-X-X-X-X-X-X-X;X7X;X-X7X2X;X7X6X7X6X7X7X8X8XyX^.u.n e.e.e.t.e.t.y.y.t.e.M V ~ 0X7X0X:X9X6X-X-X:X-X9X0X-X:X0X9X0X6X-XrX0X-X-X-X-X9X7X6X0X0XeX}.n.n t.t.n t.r.t.M t.t.t.k.t.M N A yXmXJ.N N v l l z z m m v v l ,.0X7X7XrX-XrX-X-X9X-X-X-X:X-X-X:X-X-X:X:X-X-X-X-X:X-X:X:X9XrX0X:X9X9XrXrX7X0X6.0XKXLXCXxXS , l m m m b b B b B m M M m z l x ~ 8X7X7X;X6X7X=X-X-X:X-X;X=X-X-X7X7XeX{.I z b b b n n n n e.n p.p.A Q.).'.7X;X;X;X;X6.;X;X;X;X6X6.7X7X).).{.}.n.V n e.e.t.e.t.t.e.e.e.t.u.Y ).7X6.6.:Xq.;X;X:X;X;X;X3.;X+X;X;X;X6.;X3.;X3.3.;X;X3.;X;X9.;X;X3.;X;Xw.+X#X3.3.+X6.3.3.+X+X3.+X3.3.;X+X3.;X3.+X3.+X+X3.3.+X+X+X+X3.3.+X3.3.+X3.+.T / T / T +.+XW 3.+X3.3.+X3.3.+XW 3.+X3.3.3.+.",
";X6X;X2X;X%X%X6.6.%X%X%X%X-X;X3X*X;X;X;X-X;X;X2X;X;X2X;X6X;X7X-X*X;X-X;X;X*X%X;X-X;X%X%X;X;X%X%X;X%X%X%X%X;X;X%X;X-X%X;X=X;X%X;X-X-X-X;X3X$X&X4X2X7X7X8X).V b p.V M n V m.M.i.e.M M b Z ).rX0X;X-X;X:X-X:X-X-X-X;X;X-X;X-X:X-X-X-X;X;X7X7X'.8XyXJ.V p.u.M M e.M M n M n e.n M V c ).eX:X;X-X;X-X:X-X-X;X;X:X7XqXKXKXwX^.n.M M n D n.Y.Y.A.^.J.Q.eX0X6X6X;X%X-X6X-X-X-X-X-X-X-X-X%X%X=X-X3X6X*X%X3X7X7X_.yXK.B p.r.r.r.r.r.r.e.r.a.s.i.y.r.e.e.e.e.e.t.t.u.B B J.(.2X7X2X;X6X-X-X-X-X3X6X6X;X%X;X=X*X*X*X*X*X*X*X*X*X-X%X=X#X#X#X=X;X=X;X%X#X#X#X#X#X;X%X*X).2X8XeXA V p.e.n e.e.n n n t.e.M n m ).eXrX'.;X;X;X7X].8X^.B u.t.t.t.t.t.t.n e.t.t.e.M V Z eX0X;X;X0X;X-X7X-X-X:X-X-X:X;X-X-X-X;X-X;X-X-X-X-X-X-X-X-X%X-X-X%X-X%X;X%X;X%X;X%X%X;X%X=X-X-X;X-X3X;X;X7X2XeX.X^.Y.R.A.A.T.A.Y.Y.E.E.E.E. X X^.K._.7X7X7X;X-X;X%X;X;X;X=X-X=X*X%X;X-X*X%X*X-X3X3X7X;X*X%X;X-X%X3X3X7X7X7X8XwX.XA n p.e.t.M e.t.r.y.t.e.V v ~ 0X7X-X;X7X-X-X-X-X-X6X-X5X=X-X-X;X-X-X-X-X-X-X-X-X2X7X7X7X7X8XyXf.V t.e.n e.t.t.t.t.M t.t.M B b I yXxX~.l v v z z z z z m z v , 5.eX;X:X:X-X-X-X-X;X-X-X-X-X-X-X-X-X;X-X;X%X-X=X-X-X-X-X9X:X6X;X6X6X;X;X7X:X:X0XAXJXvXbXCXhXS v z m m M n b b m b z B z z l Q.0XvXrX;X;X:X;X-X-X-X-X-X-X;X:X6X0X0XeXwXI z b n n n n n e.V e.u.B n._.8X7X:X;X;X;X7X;X7X-X6X;X6X7X7X7X8X0XeXyXN.V V t.n e.e.e.e.e.e.n B A J._.qX0X0X-X:X;X;X;X;X;X;X;X9.;X;X;X;X;X;X;X:X;X;X:X;X;X:X;X;X;X;X;X;X:X:X:X;X;X-X:X;X:X:X;X;X;X;X:X;X;X:X;X;X;X;X:X:X;X;X:X:X;X:X;X:X;X;X6.+X;X;X;X+Xw.+X+X3.=X;X;X+X+X:Xw.=Xw.=X=X:X;X6.;X+X;X+X",
"%X;X%X;X%X%X%X#X#X%X6.%X%X%X%X%X*X*X2X3X;X3X-X%X*X*X;X3X;X6X3X3X*X*X%X%X%X%X%X*X*X*X;X*X*X*X*X3X-X*X%X%X%X*X3X3X;X*X*X%X%X%X*X#X;X=X-X-X3X4XOXOX2X2X).8X_.V b e.n n n n h.M.h.n M B V V ).eX;X;X-X-X=X-X=X=X-X=X%X-X;X-X-X-X-X-X-X;X;X6X7X).8XyXN.b t.t.e.e.B n M n e.e.e.n M B V ).0X6X:X-X;X;X-X=X;X:X;X;X0XcXLXPXSXCXmX}.~.U.Y D N c N V Y ).(.7X9X;X%X;X6X6X-X=X-X-X-X=X=X=X%X#X#X=X%X*X*X%X%X;X2X7XyXJ.p.e.r.r.r.r.r.r.r.r.s.i.a.y.t.e.r.e.e.r.e.e.t.V B J.7X).6.%X;X;X;X;X;X;X;X%X*X*X*X=X%X*X=X%X*X=X=X*X*X*X=X=X#X#X#X=X=X-X=X=X*X*X=X=X=X=X=X%X*X%X).8XeXA V u.p.n n n t.M e.e.e.e.V V }.wX0X2X;X;X;X7X8X8X_.p.u.t.y.t.e.t.e.t.M t.e.e.V b I 7X0X;X7X6X-X-X:X;X-X-X-X-X-X-X-X-X;X-X;X;X-X-X-X-X;X=X;X;X;X=X;X;X-X-X-X-X-X;X-X%X-X%X-X*X=X-X=X-X2X;X;X;X).eXXX^. XR.Y.Y.A.Z.T.R.E.E.E. X XE. X^._.].7X2X;X-X-X*X;X*X-X*X-X-X*X*X*X*X*X*X*X*X*X*X-X*X%X*X*X%X*X*X;X-X;X7X].8X8XB b V e.e.e.M t.t.r.e.M V l ~ 0X;X;X%X6.;X;X=X-X-X*X=X=X=X=X;X;X=X;X#X;X#X%X%X%X2X6X2X;X'.8X}.A b e.e.e.M e.e.M t.k.t.k.t.M b J.eX{.mXv z N z l l z z z c v , /.0X;X;X-X;X;X#X%X#X=X=X;X+X-X;X=X=X#X;X%X#X=X+X=X=X;X;X;X=X;X%X6X=X7X:X;X;X;XUXLXbXcXvXxXGXcXY , l N m b n V b b V N l Z J.tX0X7X#X;X=X=X;X;X;X;X:X-X-X;X;X;X;X6.8XeXY l V b n V n t.e.e.e.p.B n.{.8X7X;X#X;X;X;X%X;X%X%X;X;X;X2X7X).)._.8XI V n M e.e.M e.e.n e.M p.u.I _.7X;X;X;X6.6X;X;X;X;X;X;X=X;X;X;X;X;X;X;X=X;X;X;X;X;X;X;X;X;X;X;X;X;X=X;X;X:X-X-X-X;X;X;X;X:X;X;X;X;X;X;X;X;X;X;X;X;X;X;X+X;X;X;X;X;X;X;X=X=X;X+X=X=X=X=X;X:X;X;X=X=X;X;X;X;X;X=X-X-X:X;X=X;X;X",
"%X$X*X%X$X%X#XOX#X#X%X%X%X$X*X*X*X*X%X$X*X$X$X*X*X$X*X$X*X*X*X*X%X*X%X#X&X&X&X*X*X*X*X$X=X3X3X3X*X*X$X$X&X&X&X*X$X$X$X#X$X#X$X#X=X=X=X#X&X&X&X&X4X2XL.7XyXA b p.p.n n n u.u.n n e.V V Z ).9X2X;X;X=X;X=X=X=X=X=X=X*X*X*X%X#X&X&X#X;X*X6X).7XwX}.A V u.t.u.t.u.M M M t.t.e.t.M V A ).eX;X6.-X-X-X;X=X-X:X6.;X0XUXLXLXAXKXLXLXKXSXZXmX}.}.{.Q.Q.).7X7X6X5X6X;X2X7X3X-X-X=X#X#X#X+X#X#X%X%X#X&X&X*X%X;X).7XeX_.p.p.r.r.r.r.r.r.r.p.i.s.i.y.r.e.r.e.r.e.r.e.M V V J.).).%X%X%X;X%X%X*X%X%X$X=X&X*X&X%X=X$X*X&X=X*X&X*X*X*X=X#X#X#X#X#X;X#X=X%X=X=X%X=X=X*X*X2X).2X7XyXJ.V p.p.e.e.n n t.e.t.t.e.M V ).eX7X:X0X-X-X6X7XyX^.V u.u.t.r.e.t.t.e.t.e.e.t.V z I qX0X7X7X6X6X;X;X;X-X;X-X;X=X-X-X*X;X-X;X*X*X-X-X=X;X=X;X#X;X*X;X*X-X-X-X-X;X-X;X*X*X%X*X*X=X*X;X*X;X;X2X7X7XeX.XK.A. X^.A.C.C.C.R.R.R.E. XW.W. X X_._.7X7X;X-X%X-X=X=X*X*X=X*X*X*X*X*X%X*X*X%X*X$X&X&X&X#X%X#X%X=X=X=X%X%X2X).yXA b p.e.p.M M t.r.e.e.t.V Z J.eX2X7X;X7X3X=X=XOX=XOX=X=X&X3X*X4X4X*X*X3X*X=X&X2X3X3X7X6X7X7X{.A n p.e.n e.e.e.t.M M t.t.t.n z ).{._.KXQ., A z z z c N N A , C 7X7X;X;X;X-X*X=X=X=X%X=X=X#X=X;X=X=X*X=X%X=XOXOX=X&X=X=X=X%XOX*X3X6.-X:X3.+XUXPXUXnXUXvXvXVXGXcXU v l b V V V z B V l v Q.0XeX;X+X;X;X#X#X;X;X;X;X=X=X;X;X;X;X;X%X'.wXN.z V V n n n M p.e.e.p.V J._.0X7X6.;X%X#X#X;X#X#X*X#X=X%X%X7X7X_.8X8Xf.b V p.V e.e.e.n e.e.n p.A A ).7X%X7X;X;X;X%X;X;X-X%X-X;X;X;X=X%X;X*X;X%X;X*X;X+X+X=X#X=X;X=X;X=X;X;X;X-X-X;X-X-X-X;X;X-X-X-X;X;X;X;X;X;X=X=X;X;X;X=X;X;X;X;X=X-X;X%X#X#X#X%X%X=X=X=X;X+X;X+X;X;X#X+X;X=X;X;X;X-X;X-X-X-X-X=X",
"$X*X$X$X*X$X%X#X%X$X$X$X$X%X$X$X%X*X*X$X$X$X$X#X%X%X*X$X$X$X%X$X$X$X$X$X&X&X$X&X%X$X$X$X$XOXOX$X$X#X#XOXOX&X#XOX$X$X$X#XOX$X#X&X#X#X#X#X&XOX&X&XOX2X2X8X8XP.b n n e.V n n n n n n M V V ).eX6X;X=X=X+X=X=X=X=X=X&X=X#X#X=X&X&XOX#X-X%X2X6.8XuX8Xu.u.j.t.g.t.y.t.t.t.t.t.e.e.t.B N (.qX6.:X6X:X-X;X=X:X;X6.:XvXJXLXKXAXAXCXKXSXKXLXLXLXLXLXKXVXqX6.6.;X:X6X6X2X-X*X-X*X%X#X#X#X#X#X%X$X$X$X$X$X$X%X2X7X).8X_.p.e.y.r.r.r.r.r.r.r.a.s.s.y.r.t.e.r.e.e.t.t.u.V B ^.8X2X6.%X*X;X%X#X;X%X*X$X&X&X&X=X=X=X&X=X=X*X=X*X=X*X*X&X=X=X=X#X=X=X-X#X*X*X*X=X#X*X%X%X3X7X7X).eXJ.V V u.n e.n M e.e.t.t.t.V z (.eX0.7X-X-X-X7X8X8XK.A p.t.y.t.r.t.t.n t.t.t.n n z ~ 0X7X6X7X;X;X;X-X*X;X=X;X-X;X-X;X=X=X%X-X*X%X*X%X%X#X#X%X=X%X*X*X*X%X*X*X%X*X;X-X*X;X=X=X=X%X*X2X*X3X3X;X2X).eX_.^.^.R.Z.M.C.M.Z.Y.W.Y.R.E.E.oX X X_.7X].7X*X%X;X=X=X=X=X&X%X=X=X%X*X&X=X$X$X*X$X*X&X4X$X$X$X&X#X=X#X#X%X;X7X).eXJ.b p.p.e.e.p.p.e.y.t.e.V V ^ eX6.2X3X;X%X=X#X+X+XOX=X&X&X=X&X&X&X#X$X$X$X&XOX&X2X2X2X;X2X8X8XA n e.p.e.e.M t.M t.t.t.t.t.n z ~._.7XLXZXv l l v z z c l , > ~ xX0X6.6X;X-X%X=X%X%X%X#X#X=X=X=X=X=X=X=X&X&X=X=X#X=X;X#X=X#X&X=X2X-X:X+X+XUXPXUXvXbXvXbXVXvXbXVXvX1.v l z z N V c l v /.tX7X6.;X;X=X+X;X;X=X=X;X-X;X;X;X=X;X-X;X;X7XeXJ.V V n n n M e.e.t.e.u.B f._.8X;X%X-X#X#X#X#X#X#X#X#X#X#X%X2X2X).8X8XA V n e.e.e.e.V t.n e.e.B p.J.8X7X%X2X%X%X*X%X%X#X%X%X%X=X#X=X-X;X*X*X*X-X%X=X%X;X;X=X+X;X=X;X=X#X#X;X;X;X-X;X-X%X%X;X=X%X;X%X;X;X=X=X;X;X;X;X;X=X-X;X;X;X;X=X;X;X=X#X%X#X6.#X+X;X+X;X+X;X+X=X;X+X;X+X;X+X=X=X+X*X*X*X-X-X-X-X",
"$X*X$X*X$X*X$X$X$X%X$X$X$X*X%X*X&X$X$X$X$X$X$X$X&X$X#X&X$X&X$X*X&XOXOX&XOXOXOX&XOX&X$XOXOX$XOX#XOXOXOX&XOXOXOXOX&XOX$XOX$XOX$X#X=X=X=X=XOXOX=XOXOX4X2X8XeXK.V V n V n n M e.M u.e.M V z L.8X;X-X=X=X=X=X=X=X=X=X&XOX&XOX&X$XOX4X=X5X%X7X7XeXuX^.V f.h.t.k.k.h.t.M t.t.t.t.t.M B A (.{.7X7X:X-X-X;X;X:X3.;XUXAXLXPXAXbXAXAXAXAXAXJXJXSXSXKXPXLXrX6.0X9X-X;X3X2X3X*X*X%X=X%X%X#X&X#X=X*X=X=X2X&X=X2X7X7X8XyX.Xf.p.r.r.r.d.r.r.r.r.a.s.a.y.r.r.y.t.r.e.r.p.e.V u.L.8X2X2X2X*X%X%X*X*X$X%X$X&X&X4X=X*X%X=X*X*X=X=X=X#X#X=X=X=X*X&X&X=X=X-X-X*X*X=X=X#X=X*X%X2X7X2X).eX_.V V u.e.e.e.e.e.t.t.t.t.M V ].tX7X;X;X=X-X6X).8X_.B u.e.t.t.t.r.t.t.e.e.t.t.n z ~ tX7X7X;X7X-X-X-X;X*X-X*X%X=X;X=X;X;X*X*X*X-X*X*X*X%X%X%X#X*X*X*X*X*X*X*X*X-X-X3X*X-X*X*X-X*X=X*X*X2X%X2X2X8X{.^.K.A.F.A.A.A.N.C.A.T.R.R.R. XE.^._.^._.0X7X=X;X#X=XOXOXOX4X*X&X*X&X*X#X*X#X*X&X#X$X=XOX&X=X*X=X=X=X=X=X#X2X7X7XyXP.V V r.r.r.e.r.r.r.p.p.B V Q.tX6.2X7X2X3X=XOXOXOX=X&X&X&X=X3X&XOXOXOX&X&X&X&X3X2X2X*X*X2X0XeXf.V e.p.e.e.e.e.t.M t.t.t.t.V N (.8XxXPXKX{.x , , l l l , l Q wXUXrX;X-X-X-X*X*X#X=X=X#X=X#X=X=X-X*X=X3X=X=X=X=X=X=X=X&X=X&X&X+X#X-X=X3.vXLXJXkXUXUXbXVXbXbXbXbXAXVX{.I l l Z l l v L.eXrX;X6X-X-X=X=X=X=X;X-X-X-X-X-X-X-X-X-X;X;X7X8X).A b n V n n e.e.p.e.p.V A _.7X6.;X=X=X#X#X=X=X=X&X&X$X*X2X2X2X7X8XeXA n p.p.e.u.M M e.M p.M B A J.eX7X%X;X%X%X%X%X%X=X#X=X%X%X*X-X=X-X*X*X*X*X=X%X=X=X=X+X+X=X=X;X#X#X#X#X#X=X=X=X;X;X%X;X%X;X=X%X=X=X=X;X=X=X=X;X=X-X-X=X=X;X=X;X=X-X*X-X=X;X#X;X%X=X=X;X;X=X=X=X=X#X#X=X+X=X=X=X=X=X4X9X=X-X=X-X",
"*X$X$X%X*X*X*X$X*X*X*X3X*X*X*X2X*X&X*X&X*X&X*X&X*X&X*X*X3X=X*X*X&X$X&X&X$X&X&X$X&X&X&X&X&X&X3X*X4X4X3X3X4X=X4X&X&X&X&X&X*X&X&X&X=X=X=X=X=XOX&X&XOX4X2X7X8XL.V b n p.n n e.B n e.n V A z J.rX7X-X=X=X=X=X=X+X=X=X&X&X&X&X&X&X3XOX%X7X2X)._.yXyXN.V j.j.e.h.t.g.M t.t.t.t.t.t.e.B Y _._.7X;X;X-X-X-X:X;X;XrXJXLXAXKXAXvXbXVXbXVXAXJXKXKXJXKXLXLX7X6.UXUXrX^ 2X6X%X*X-X*X-X=X%X*X*X=X#X%X#X*X3X*X&X2X2X2X7X8X.Xf.p.r.d.r.r.d.r.r.r.a.s.a.y.r.y.r.r.r.r.y.u.t.V f.^.eX4X).%X-X%X#X#X%X$X*X$X4X=XOX=X=X&X=X*X*X=X=X=X^ +X+X+X&X=X&X&X=X-X=X=X*X*X*X%X=X=X*X$X2X2X7X7XeX_.V b p.e.n e.M e.e.t.t.u.V m Q.eX;X-X;X-X-X7X8X8X_.p.p.u.i.y.r.t.t.e.M t.e.e.V z ~ qX7X;X;X6X-X-X*X*X-X*X;X*X=X=X-X=X*X*X-X=X*X*X-X*X*X=X=X=X*X*X*X*X3X-X4X=X-X-X-X-X*X*X-X4X=X=X-X*X3X3X2X7X7X_.^.A.^.K.M.A.N.A.M.A.Z.Y.Y. X XXX X^._.].7X6X-X=X=X=X4XOX4X2X3X=X*X&X&X*X&X&X&X*X&X#X=XOX4X4X=X&X=X=X=X=X&X3X2X7XeX_.V e.u.r.r.t.r.y.r.t.u.V V (.tX7X6X4X2X3X=XOXOXOX=X&X&X&X&X&XOXOX&XOX#X$X&X&X2X%X*X*X;X7X7XeXA n e.u.t.r.e.e.t.M t.t.k.M b c (.).AXLXVXSX{.U x l v v Q ].vXAXvXvX;X-X6X-X-X*X*X=X*X*X*X=X=X=X-X=X=X3X4X4X*X=X=X-X*X&X&X&X=X#X=X-X:XrXIXLXvXUXUXFXVXbXbXHXbXbXbXbXVXNX~.l l , 3 ~ rX7X;X-X-X=X=X-X=X;X-X-X-X-X=X;X=X-X=X-X-X-X7X7X8X).A V V M n V B e.M e.u.f.A ).7X;X;X-X=X=X=X=X*X=X=X#X=X*X*X2X2X7X7XeXJ.V M u.e.t.B B B M t.f.n.f.J.eXeX#X2X7X2X3X%X;X%X%X%X%X*X*X*X*X*X*X*X=X*X%X%X%X+X^ 3.+X+X=X=X;X#X;X=X;X%X;X-X=X*X-X=X=X-X%X-X%X=X;X=X;X;X=X=X-X-X=X-X-X-X-X;X=X-X-X-X=X;X#X%X*X;X+X=X=X-X-X-X;X=X=X=X=X;X=X-X=X=X=X=X=X5X=X=X",
"*X*X%X*X%X*X*X*X-X*X*X*X-X*X*X*X*X*X*X*X*X*X*X3X=X*X4X*X*X*X*X*X&X3X*X*X*X#X*X*X#X%X#X*X*X*X*X*X*X*X*X*X*X*X*X*X*X*X*X3X*X&X*X#X=X-X*X-X4X4X=X=XOX4XOX7X8X_.V n p.n n n p.M e.M e.b A v ~ 0X7X7X;X=X-X=X*X*X*X=X3X*X&X&X&X4X&X4X7X>X_.8X_.uXyXf.p.j.i.u.t.t.h.M M u.t.t.t.t.M B N J.{.7X7X7X%X6X:X:X+X:XLXLXLXJXAXVXvXvXVXVXAXJXKXLXJXLXLXLXPX0X6XJXvX;X%X-X-X3X3X3X3X3X3X%X%X3X3X&X3X&X&X3X3X3X3X4X8X7X_..Xm.p.s.y.d.d.r.r.r.a.s.s.i.y.y.r.t.r.g.t.r.t.B n f._.8X7X2X2X3X%X*X6X*X*X*X&X4X&X=X=X*X*X*X=X5X=X5X4XOXOX=X=X=X=X&X=X=X*X=X4X4X4X=X&X#X=X*X-X3X2X7X7X8XeXn.b p.p.n e.e.t.t.e.t.e.B z ~ eX7X5X=X-X9X%X8XeX_.p.p.m.p.t.y.r.t.e.M e.t.e.V v ).tX7X-X6X;X-X*X-X*X*X*X*X*X4X-X*X4X*X3X3X3X*X3X=X3X4X=X4X5X*X4X*X=X=X3X=X3X*X-X5X=X4X=X=X4X3X&X&X3X3X2X6X7X0X_._.K.^.^.^.^.~.N.M.M.C.^.Y.|.^.U.N.I J.6.6.7X9X=X=X-X=X=X2X4X&X&X$X*X&X&X*X$X&X&X=X=X4X&X=X4X4X&X4X&X4X&X&X4X2X8X8X8XV V i.r.e.r.r.y.r.t.t.B V ).7X7X7X6X5X&X&X&X=X=X=X=X=X4X&X&X#X%X#X#X*X*X=X=X-X*X*X;X;X6XrXyXA M t.t.t.t.t.e.t.t.t.k.M M m A {.].AXLXUXAXZXhX!.,.!.[.cXVXVXvXvXUX%X:X9X-X-X-X9X-X-X*X*X*X*X=X-X*X=X4X=X=X=X=X*X*X3X*X*X3X$X$XrXrX:XJXPXUXFXbXFXAXHXVXVXFXbXJXAXUXVXJXVX}.I Z ).qX0X*X:X=X-X=X*X=X=X=X-X-X-X=X-X=X-X-X;X=X=X-X:X6X0X_.A V B B e.V B B e.V B A V L.eX2X-X-X=X=X=X=X-X=X=X=X=X=X-X-X2X7X8XeXA b B n b m m m m m m B B D I wX7X3X3X;X7X3X*X-X-X=X=X;X*X*X-X*X*X*X-X*X*X*X%X#X+X^ ^ ^ ^ #X=X#X#X#X#X=X-X-X;X;X-X-X-X-X-X-X-X-X-X-X-X-X-X-X;X-X-X-X-X-X-X-X-X-X-X-X-X5X-X*X;X*X;X#X#X;X-X6X6X6X;X=X-X-X=X-X-X-X-X-X=X-X-X=X-X",
"*X*X*X*X*X%X*X*X*X*X*X*X*X*X*X-X*X*X*X-X*X3X-X3X*X4X*X*X*X*X*X*X*X*X*X#X*X*X%X*X*X=X*X*X*X*X3X*X*X4X3X-X3X5X*X*X=X*X-X=X*X*X*X*X-X-X=X=X=X=X=X=X&X4X).7XeX_.A V V e.e.n n e.M e.e.V p.V ~ 8X7X2X=X=X-X=X-X*X*X*X*X*X3X&X*X&X4X2X8X8X8X8XyX.X Xp.p.u.t.u.u.M M t.u.u.M M u.t.V n b J._._.0X7X6X7X-X:X:XUXLXLXJXJXLXUXbXVXAXAXAXJXAXAXVXAXLXPXLXvXUXAXrX%X9XrX6X2X3X3X*X3X6X6X*X*X&X3X&X3X4X3X&X=X4X2X2X7X8XuXA.p.e.r.r.r.r.d.a.y.y.z.l.u.y.t.t.g.n t.y.u.V b V _.eX9X2X2X3X*X*X-X=X*X4X*X4X=X4X=X=X*X*X*X=X5X5X=X=X=X=X=X=X&X=X=X=X=X*X=X&XOX4X4X-X-X*X#X2X7X7X7XtXyXJ.b u.e.n e.M e.r.t.e.u.B V A 7X0X6X%X%X-X6X7XyX_.f.u.B.y.r.t.t.e.M e.u.e.p.V v ).eX7X;X7X3X3X-X*X*X*X*X*X*X*X*X*X*X*X3X=X=X=X*X=X3X&X3X4X4X4X*X3X3X3X&X3X3X*X*X*X=X=X=X4X=X&X3X2X3X3X3X4X7X8XwX}.^.~.K.N.N.Y n.N.U.Y.Y.M.n.N U.~.{.wXeXtX6.3.rX=X=X*X=X2XOX&X&X&X&X&X&X*X&X&X=X&X=X4X=X4X=X&X4XOX4X&X4X4X4X4X8XeXeXA n p.e.y.y.a.a.y.g.t.V c _.tX7X7X6X&X4X&X&X=X=X&X=X4X5X=X3X*X%X*X*X*X*X=X-X-X=X;X3X;X7XeXyXA b h.t.t.M e.M M M t.M t.h.c Y qX7XAXLXSXSXAXvXcX}.cXNXZXmXvXNXAXtX;X6X:X-X6X-X-X-X-X-X-X=X*X9X*X*X*X=X=X=X=X5X5X-X-X3X*X$X^ 6XUXvXUXPXUXHXJXHXAXVXVXFXJXVXJXUXFXVXVXAXSXVX0X7XrXtX6X=X=X=X-X=X=X=X-X-X-X-X-X-X-X=X-X=X-X=X-X-X=X;X7XeXI v A A A A B B B V N V Z ~ eXrX-X=X-X=X-X=X-X=X=X-X-X-X-X;X7X0X7XeXZ l l l l v l l v z l z l , G rX7X;X7X2X;X%X-X-X-X-X-X=X-X*X-X-X-X*X-X-X-X%X*X*X+X;X=X=X=X=X;X;X3.+X#X;X-X-X-X=X-X-X-X*X-X-X-X-X-X-X-X-X-X*X-X-X;X-X=X;X-X;X-X=X;X=X-X-X-X-X6X%X=X;X=X=X-X-X-X-X=X-X-X-X-X-X-X-X-X-X-X-X=X-X-X",
"%X;X*X;X*X=X;X*X*X-X*X-X-X-X%X*X*X-X-X3X3X-X3X6X=X4X=X=X-X*X*X*X*X%X*X;X%X*X*X*X;X*X-X*X-X-X-X-X-X*X-X*X3X*X-X*X=X*X4X=X*X*X-X-X-X=X*X*X=X=X=X=X=X=X2X7XeX_.f.V e.e.V e.p.M e.M n V f.z A 8XrX7X-X=X;X=X;X3X*X*X*X*X*X*X&X*X3X6X7X8XyX8X.X.XA.f.j.i.u.u.t.D M M n n n M M n e.h.^.XX8X8X7X7X7X4X6X;XUXLXLXLXKXKXAXVXvXVXVXVXVXvXvXcXqXzXvXAXJXvXrX6X6.*X;X^ #X9X6X6X3X*X3X3X2X2X3X=X3X&X&X4X=X3X&X2X4X7X8XyXN.f.j.s.g.a.y.r.t.t.j.B.k.j.k.t.t.t.t.t.h.h.n.A V ).tX7X2X2X5X*X*X*X-X4X4X5X4X4X4X4X*X4X=X*X5X5X=X5X4X4X4X=X4X=X4X=X=X=X=X*X=X4X4X=X=X&X=X=X-X2X7X7X8XyXJ.V p.e.n e.e.e.e.r.t.e.V V Z ).7X9X6X;X4X9X8XeXK.f.u.f.p.e.e.t.M t.t.B t.B V Z 8XrX7X6X;X6X*X*X*X*X-X*X*X*X*X*X&X&X=X3X*X&X3X=X3X3X3X3X=X3X&X4X=X3X3X&X=X*X*X*X=X5X=X5X4X=X4X*X3X3X3X7X7X7XeX7XJ.N.J.^.(.|._.U.D N.Y N Y N.(.CXCXKXLXSXPXUX^ ;X;X=X=X&X5X4X3X&X&X&X&X&X&X&X&X&X=X=X&X=X4X=X&X4X4X4X=XOX4X4X4X7X8XeXf.V u.i.r.y.y.t.e.t.B V v ).eX7X6X5X$X6X=X=X=X4X4X=X4X=X3X3X-X*X*X-X*X;X=X=X*X-X3X;X-X6X7X].A m D k.h.M u.M B B M B h.Y b I 8X0XvXSXSXNXVXVXCXGXCXGXCXCXSXSXAXUX0X-X-XrX9X-X-X-X-X-X=X-X-X*X-X*X*X*X=X=X*X*X-X*X%X3X3X6.+XUXDXrXAXJXbXAXJXJXVXFXFXGXFXGXVXGXFXVXVXAXVXvXqX8XrX7X%X#X=X=X=X=X-X4X-X-X-X-X=X-X=X-X-X=X=X=X-X-X;X6X0X8X~ l z z v z l z z z l l l / 2X7X6X-X-X-X=X-X-X=X-X-X-X-X-X-X7X7X0XqXQ F I ~.|.hXhXcXcXhX}.hX/.Q W 6.0X3X;X6X6X;X;X-X-X-X%X-X-X*X-X*X-X-X=X-X-X-X-X-X-X-X-X-X-X-X=X#X3.+X+X;X-X-X-X-X-X-X-X-X=X-X-X-X-X%X;X=X;X*X-X-X;X;X=X=X=X;X;X=X=X;X;X-X-X-X;X-X;X%X%X;X;X;X;X=X-X=X-X-X;X=X=X;X-X-X-X-X-X-X-X",
"-X*X*X*X;X%X-X*X-X*X-X*X-X*X-X*X3X3X3X*X-X*X-X*X4X=X&X&X*X*X*X%X*X*X*X*X-X*X;X*X=X*X*X*X*X*X*X*X*X*X-X*X-X*X-X-X5X*X*X4X-X-X3X-X-X-X5X=X4X4X=X=X=X&X7X7X8X_.f.V e.p.e.M e.t.t.e.e.p.V V Z 8XeX2X;X;X-X-X3X%X*X*X*X3X$X*X2X3X2X2X8X8XyX.X.X.XS.e.i.p.t.M t.M M M M n M M M n t.n..X_._._._.).2X8X'.;XUXLXAXLXKXAXVXvXqXcXxXvXxXvXxXvXvXqXvXVXvXvXvX;X6.0X9X*X6.^ %X3X6X3X%X$X3X3X&X3X*X&X&X&X*X&X&X2X7X8X8X8XN.f.u.h.i.u.y.h.h.k.M B B m m D m D D z b v N N v _.eX7X2X4X6X-X-X=X4X*X4X4X4X=X=X=X4X-X4X4X=X=X4X4X4X4X=X4X&X=X&X=X=X-X&X=X&X&X=X=X=X=X&X*X3X7X2X2X8X8XJ.V V p.n e.t.t.t.e.e.B m V v ).7X7X6X3X3X7X2XeXP.f.p.i.t.t.t.t.t.e.B e.M p.V A 8XrX6.6X6X3X3X-X3X*X*X2X*X*X*X*X2X3X=X&X&X*X&X&X&X&X=X&X3X&X4X3X3X=X3X=X3X&X9X=X=X5X=X=X=X4X&X4X3X3X3X9X6X7X'.7X].wXZXCXCXKXKX}.v l G ~.hXCXKXPXLXSXSXDXLXLXrX3.-X9X#X*X2X4X&X&X&X3X=X&X*X*X&X4X=X=X=X=X=X4X=X4X&X4X4X>X2X2X6X7X7XeXL.V n u.t.u.h.u.u.n.D D N ).tX7X2X5X&X=X&X=X=X=X4X=X=X4X*X*X*X*X%X%X=X%X-X%X-X3X3X7X-X7XrX).N l l z z v z z z z z v N N v Q qX0XeXSXKXSXSXCXZXZXjXjXZXCXKXwXwXAX0X:XrX-X-X-X5X-X-X*X-X=X-X*X=X*X*X*X=X=X*X*X*X%X%X6X4X^ 4XAXrX:XAXUXJXHXJXbXHXVXFXAXJXGXVXJXKXVXVXKXSXwX).7X7X2X;X%X=X-X-X=X-X-X-X-X-X-X-X=X-X=X=X-X-X-X=X-X-X6X7XeX8X(.Z N Z c c A I I ).{.eX8X6.%X;X-X-X=X-X-X-X-X-X=X-X-X-X;X7X7X7X0XxXvXVXJXKXKXKXIXKXPXPXLXLXSX0X;X6X7X;X7X6X-X-X-X-X-X-X-X-X-X-X-X-X-X;X-X;X*X-X-X-X-X-X-X-X-X-X=X#X=X;X;X-X-X-X-X;X;X%X;X;X;X%X-X%X;X%X;X%X;X%X;X=X;X;X;X;X;X#X;X;X%X%X%X-X-X*X-X;X-X-X%X%X%X=X%X-X-X-X-X=X;X=X=X=X-X-X=X-X-X-X",
"3X=X=X&X*X=X*X*X=X4X*X*X*X4X=X4X4X=X4X4X*X3X3X=X&X=X=X&X=X=X=XOX&X*X*X&X*X*X*X*X*X*X*X*X*X=X*X*X-X4X-X4X6X5X5X5X4X4X4X=X4X=X=X=X-X=X-X=X&X&X=X=X&X2X2X7XeX8XJ.b e.t.p.t.e.t.t.t.e.u.V V Z L.tX2X*X*X*X;X*X*X*X*X%X2XOX4X4X4X4X>X8X8XuXK.^..XB.n p.B.M.u.M b b b n M V u.m.A.i.u.B.K.^._._.8X8X2X,.eXSXDXNXKXKXVXcXcXcXcXcXxXmXNXVXVXAXVXAXAXrXrXLXAXDXUXUXAXUXtXOXOX3X7X%X2X3X2X$X%X$X$X&X*X&X*X&X2X2X7X8X8XY A B B B D m b v m v N m v v v v v m z c l v , 7 ).rX7X7X2X5X-X*X=X=X4X4X=X4X4X=X=X=X4X4X4X4X=X4X=X=X=X&X=X&X=X=X=X=X=X=X*X=X&X&X=X=X=X=X=X2X3X2X7X8X8XJ.b n p.e.e.e.n e.r.e.M M V Z L.9X2X7X3X4X7X8X8XJ.f.u.p.i.t.e.M M n V M n V z A 8XrX%X-X2X3X*X*X*X*X*X*X*X*X=X=X&X&X#X&X&X&X&X$X$X$X&X#X$X&X&X=X&X*X=X&X*X*X=X=X=X=X=X=X4X=X*X3X*X2X2X6X7X6X0XAXJXLXLXLXLXPXPXKX|.o.mXKXLXLXKXJXbXNXKXVXSXPXDX3.#X-X%X3XOX2X&X*X*X*X=X*X=X=X=X=X=X=X=X=X=X=X=X=XOX4X3X4X2X4X2X7X7XwX_.A B u.M D h.D D D N c , Z 0X7X6.6X5X=X&X=X&X=X4X=X4X=X=X=X*X=X%X%X%X=X*X=X-X2X2X6X-X-X7X].(.:.U Y Y U G N G P G S v l , J qX7X0XKXSXCXCXXXN.m b B Y.}.^.Z ~ NXrX7X0X-X-X-X5X-X4X=X=X=X=X5X=X=X=X4X=X=X2X*X2XOX5X6X$X^ UXDX6XvXJXAXJXJXVXHXVXHXbXAXGXVXKXCXCXKXKXSXNX8X).7X7X4X5X=X*X*X=X=X-X-X-X-X-X=X-X-X-X-X-X-X=X-X-X-X-X:X;X7XuXSXNXNXNXNXNXVXCXSXSXLXLXLX7X6.;X-X-X=X-X=X-X=X=X-X=X-X-X-X:X6X0X9XAXLXIXKXJXJXJXJXJXJXLXLXLXPXvX^ :X2X;X7X6X;X6X-X-X-X-X-X-X-X*X-X-X*X*X-X*X-X-X-X-X-X-X-X-X9X-X9X=X-X-X-X-X-X-X=X=X;X=X-X=X;X-X%X;X*X;X%X*X;X%X*X-X-X;X-X;X=X;X=X;X*X%X-X;X*X*X-X=X%X=X;X*X;X%X;X-X-X-X=X=X=X=X;X=X-X=X-X-X=X=X",
"*X*X&X=X%X*X#X*X&X&X*X&X&X&X&X=X=X4XOXOX&X=X=X&X&X&X&X&XOXOX&X&X*X*X*X&X*X*X*X*X=X4X*X4X4X4X=X=X*X*X*X&X-X3X*X*X=X=X=X4X&X=X&X&X=X=X=X*X&X&X&X=X&X2X2X7X8XeXK.V p.u.t.t.t.t.t.t.t.u.M B V ~ eX7X*X%X%X*X*X*X*X*X&X&X4XOX4XOX4X4X8XL.8X8X.XoX Xf.e.m.A.u.b b M u.u.m.M.A.^.A.B.y.f. XMXuXP.8X_.8X).AXLXmXxXVXKXSXNXvXvXvXNXVXVXAXVXVXVXAXAXLXbXAXAXSXLXUXrXrXtXDXtX5X*X3X2X%X*X#X$X*X*X$X#X$X#X*X*X$X2X7X8X].v l l l l z v S S U |.}.hX|.|.`.`.|.hX}.jXcXqX/.E ~ 7X7X2X3X*X-X-X=X4X=X*X*X=X=X=X=X=X=XOX=X=X=X4XOX&X=X&XOXOX&XOX=X=X=X=X=X&X&X&XOX=X=X=X=X6X2X;X7X7X8XL.V n p.V e.e.e.e.t.e.u.B A z ~ eX7X2X-X5X7X8X8XP.V f.e.p.e.t.t.e.B M B V M v A {.7X%X-X3X3X*X*X*X*X*X*X*X*X&X&X&X&X&X=X&X&X&X$X=X#X#X&X=X#X&X&X*X&X&X*X&X&X=X=X=X=XOX=X=X=X*X-X3X-X2X7X7X:XrXLXLXLXKXKXKXAXJXLXGXNXGXLXGXGXJXKXVXGXLXqXNXPXLXUX;X#X6X&X&X4X*X*X*X$X3X*X*X3X=X=X=X=X=X=X=X=X=X=X4X4X2X2X2X2X%X%X7XtX_.Z z b N N z z l l v v 2 Z 7X0X2X6X9X3X=X=X=X4X=X4X=X=X*X*X*X-X-X*X-X-X*X*X=X3X*X3X-X5X7XrXSXSXSXSXGXVXCXVXVXVXZXVXmXxXW ~ qX6.qXSXwXY  XN.n t.g.r.t.h.B z I eXrX7X6X6X4X-X*X-X*X=X4X&X=X=X=X4X=X=X=X>X$X3X3X4X6X2X^ +XDXUX6XDXLXJXUXAXAXVXbXAXAXVXGXGXKXjXXXBXBXXX~.J.8X8X7X7X6X&X#X=X-X=X5X=X-X-X:X=X=X=X=X=X=X-X-X-X-X-X-X-X6X6.tXSXSXSXVXSXKXKXKXSXSXAXLXDXtX;X6X-X-X=X-X-X-X-X-X=X-X-X-X;X6X7X7X0XAXJXVXAXAXVXHXbXJXAXAXJXLXLXvX3.6X6X-X;X3X-X-X6X-X=X-X-X*X*X-X*X*X*X*X=X=X*X=X9X-X-X-X-X*X9X-X-X-X-X-X-X=X-X-X=X-X-X-X-X-X*X=X-X*X;X;X*X;X-X-X-X6X-X6X-X=X-X;X-X-X*X-X%X%X*X;X*X-X-X-X*X-X;X-X*X-X-X-X;X=X;X;X=X-X=X-X-X-X=X=X",
"$X$XOX=X&X=X=X#X=X4X=X&X&X=X4XOX&X&X=X4X&X&X&X$X&X&X&X&X4XOX&X&X=X=X&X=X=X&X=X#X=X=X=X=X&X=X=XOXOX=X=X=X&X=X&X=X=X=X&X=X&X&X&X=X=X=X=XOXOX&X4X=X=XOX2X2X8X8XJ.V p.t.u.t.u.e.t.t.t.u.p.V A A 8X7X;X*X%X*X*X*X*X&X&XOX3X2XOXOX=X2X7X8X8XuXuXoXoX Xe.n M u.u.n.n.M.M.^.^.K.B.i.r.S.z.K.uXoX.X_..X8XyXCXSXmXwXxXNXVXVXVXbXNXbXVXVXAXSXAXAXAXJXLXLXLXLXUXUXvXtX9X-XrXUXrX%X3X%X#X%X#X%X*X%X$X#X=X=X=X$X%X2X7X7X_.I A G Y o.~.[.cXVXVXKXPXPXPXLXIXPXPXPXPXPXPXPXLXUX;X).7X6X2X-X=X=X-X4X&X4XOX=X=X=XOX&X&XOX=X=XOXOX=X=X&XOX&X=X&X&X&X=X=X=X*X&X&X=X=X=X=X=X+X+X6.2X7X8X8X_.V n p.n e.t.e.r.t.t.t.B A Z A 7X7X6X;X7X7X8XyXJ.f.f.u.i.t.e.M V M V M p.A V / ].7X%X2X%X3X*X*X*X*X*X=X*X#X&X*X&X&X&X&X&X&X&X&X#X#X&X#X&X*X$X&X*X*X*X*X&X&X&X&X=X=X=X=X=X*X*X*X2X%X;X7X7X6.0XLXLXKXKXJXJXAXVXJXJXVXVXVXbXKXLXJX0X`.,.3 W /.AXLXrX%X6X=X#X=X*X*X*X*X*X*X*X*X=X=X=X=X=X=X=X=X=X=X=X4X3XOXOX2X3X2X2X0X).Z l l l v D U ~.}.xXmXwXeX7XrX9X7X6X*X=X=X&X=X=X=X=X=X=X-X*X*X4X-X*X*X3X3X3X3X2X*X-X*X;XrXKXAXVXAXJXJXLXLXIXLXPXPXLXPXAX0X).5.wXLX}.b B.B.F.oXoXW.V.B.m.f.J._.7X7X6X6X*X-X=X4X*X=X&X=X&X&XOX4X=X=X&X&XOX4X2XOX7X+X%XUXLXUXrXUXAXDXUXAXAXAXAXAXAXVXCXKXMXk.n A.K.J.P._.8XL.8X7X7X3X4X4X3X=X5X*X=X=X-X-X-X=X-X-X2X3X-X*X=X=X-X6XrX6.0XAXVXNXUXvXNXAXVXvXVXNXUXLXVX-X7X;X=X=X=X=X-X-X=X-X=X-X-X-X;X7X7X0XLXJXbXAXAXJXAXJXJXJXKXLXLXLXvX#X9X7X3X6X5X*X*X-X=X-X*X*X*X*X*X3X-X=X*X=X-X=X*X=X9X=X-X=X-X=X=X=X-X-X-X=X-X-X-X-X-X-X5X-X-X-X-X-X-X-X*X-X-X6X6X3X-X6X-X3X-X-X-X-X-X*X;X*X*X*X*X-X6X*X*X*X*X*X;X*X=X=X=X=X=X;X=X=X=X-X=X=X=X-X=X",
"&XOX=XOXOXOXOX$XOX&XOXOX=XOX=X=XOXOX=XOXOXOXOXOXOX&XOX&X&X&XOX4X&XOX=XOX&XOX&X#XOXOXOXOX&XOXOXOXOXOXOXOXOXOX&XOXOX&XOXOX=XOXOX=XOXOXOX=X&XOX&X=XOXOX4X).8X8XK.V u.y.t.u.t.t.t.y.t.u.p.B V Z ).8X2X*X*X*X*X*X%X$X&X&XOX4X2X>X3X2X8XyX_.uXuXuX.XXX XS.p.B.^.^.M.C.m.m.i.i.i.r.x.oX Xs.I. X.XuX.X8XuXBXmXSXNXwX[.cXcXcXcXcXxXNXVXVXAXAXSXJXJXLXLXLXPXDXcX;XxXUXtXUXtXOX6.2X%X#X*X$X%X#X$X$X#X&X&X=X$X2X3X7X7XtXeXAXVXKXKXLXPXPXPXPXPXPXPXKXKXGXGXGXAXLXKXAXLXLXLXvX).7X7X7X3X*X=X-X=X=X=X4X=X=X=X=X=X&X=X=X=X=XOX=XOX&X=X&X&X=X=X=X=X=X=X=X=X=XOX=X+X+X/ / 7 / ^ 2X7X8X_.A V p.e.t.e.e.e.e.M n V V v C L.2X6X;X2X2X8X8XP.B f.u.u.M V M b b b V V V v A 7X7X6X;X%X3X*X*X#X*X$X*X&X&X#X#X&X$X#X&X#X&X*X$X*X*X=X$X*X$X#X$X#X&X&X$X*X#X&XOX4X=X&X=X=X&X$X*X*X%X;X6X;X;XUXLXLXLXJXbXAXJXIXJXJXbXVXJXIXLXVX2.F 3 x C , , E 7X0X;X;X-X=X#X*X$X=X*X%X*X&X&X=X=X=X=X=X=X=X=X=X=XOXOX3X&X#X>X$X2X2XrXeX~ ! ~.hXxXZXGXPXLXPXLXPXAX'.6.0X6X2X3X=X@X&X&X&X4X=X=X=X=X=X*X*X*X-X*X4X3X3X2X3X*X&X-X6.6XDXAXvXUXAXUXUXbXUXAXAXAXJXVXLXvX7X7XAXLXMXB. XE.R.H.H.x.b.s.S.A n.8X].7X9X%X4X=X4X=X=X4X&X&X&X&X&X&X@X&X&X&X2X4X2X2X2X6.rXLXDXUXUXUXUXUXAXUXAXbXAXbXbXVXZXMXU.t.y.i.y.f.A..X_.8X).2X2X2X&X$X*X*X*X-X:X=X;X;X-X=X-X3X;X2X-X-X-X-X;X-X0X6.rXDXAXVXNXVXvXvXNXVXNXAXDXLXSX2X%X6X-X-X9X=X-X=X-X=X=X-X-X6X;X;X6X6XAXLXAXVXGXbXAXUXAXKXKXLXLXLXvX6.0X7X6X2X-X=X=X-X=X=X=X4X-X*X-X*X-X4X*X4X=X-X=X=X=X-X-X-X=X=X9X9X-X-X-X9X9X-X=X9X5X*X-X-X*X-X*X*X*X*X-X*X-X3X-X3X-X-X*X-X*X%X*X=X*X-X*X*X*X-X-X3X-X-X*X;X*X*X*X*X=X=X=X=X=X=X=X-X-X-X-X=X-X=X-X",
"OXOXOXOXOXOX&XOXOX=X>XOXOXOXOX=X+XOXOXOX&X&XOX&XOXOXOX&XOXOXOXOX&X&X&X#X$X&X#X&XOXOXOXOXOXOX#X#XOXOX&XOX&X&XOX&XOXOXOXOXOXOXOXOXOXOX&X&XOX&XOXOX=XOX4XL.8X8XK.B p.i.i.u.u.u.y.i.t.y.u.p.f.Z P.9X2X&X2X6.%X*X#X=X&XOXOXOX2X2X2X>X8XtXiXyXyXuXuXoXXXoX.XoXoXY. XC.Z.Z.Z.S.V.G.W.oXoXI.H.H.H.I.oXoXuXXXMXSXSXNX]./.zXqX[.cXqX0XqXvXAXKXKXAXJXLXJXJXLXLXLXrX/ ;XtXrX6.^ *X5X$X2X4X%X4X&X&X4XOXOX=XOX2X2X2X7X=X;XLXLXPXLXLXKXJXPXGXcX1.hXKXPXKXJXbXVXbXbXJXKXJXPXAX0X8XeX7X2X2X&XOX5X=X=X=XOX=X=X=X=X=X=X=X=X=XOX=XOX=X=XOXOXOX=X=X=X*X=X=X=XOX&X&XOX#X+X/ / / W ^ +X7X_.8XA V p.p.p.p.e.M B b V D z v 7 / 7X6X%X).7X7X_.J.K.V f.f.B z z N z l z v v Z Z 7X8X3X%X6.2X&X&X&X&X&X&X&X=X&X=XOXOX&XOX&X=X=X=X=X#X#X&X#X=XOX=X=X=X&X&X&X&X=X=X=X&X#X=X$X&X=X&X&X4XOX4X-X6.JXLXLXPXUXAXIXLXKXzXzXJXbXJXbX'.F P F 2 U U C G C 7 ^ 7X7X#X#X=X&X*X*X*X#X*X4X=XOX=XOX=X=X&X&X=X=X=X+X=XOX&X&XOX4XOX7X7X7XvXSXKXPXLXPXPXKXKXKXJXPXLXUX6.6X6X#X*X4X=X+X=X=X=X=X=X=X=X=X=X=X+X=X&X=X=X4X&X=X=X&X*X3.rXAXUXvXUXVXUXUXUXUXAXJXLXJXIXLXvX0X7XCXSX_.M.B.r.d.d.d.d.d.a.y.V XXyX2X;X7X$X=X=X-X=X=X=X&X&X4X&X=X&X&X&X=X=X$X*X-X=X=X9XUXDXUXDXUXtXNXAXUXVXUXvXvXNXxX}.}.N.n p.A.K.s.s.r.K..X_.L.L.2X4X4X4X=X*X%X2X-X;X=X-X;X-X=X-X*X*X*X*X=X-X7X6X:X6.vXDXAXCXBXNXeXeXwXmXVXSXNXNXSX9X#X%X=X4X=X9X-X-X=X-X=X=X=X-X-X9X;X0XJXLXUXAXbXAXAXJXKXVXLXLXLXLXBX^ ).2X7X4X*X-X-X=X*X*X-X-X3X*X-X=X=X=X&X3X&X4X&X=X=X4X4X4X*X=X=X=X=X4X4X=X=X4X=X4X4X*X*X*X*X*X-X*X=X*X*X3X-X4X5X5X4X5X5X-X*X*X*X*X*X*X*X3X3X6X3X3X3X-X3X3X*X*X*X%X#X#X#X&X*X*X*X4X5X*X3X3X3X=X*X",
"OXOX4XOXOX2XOX>X&XOXOXOXOXOXOXOX>XOXOXOX&XOX&X&XOX&X&X@XOX>X=X=XOX&X$X&X&X$X&X$X#XOXOXOX+XOXOXOXOX=XOX&X&XOX&X&XOX&XOX&X&XOX&XOXOX=XOX&XOX=X+X=XOXOX3X2X8X8XP.A i.i.i.y.u.t.y.u.t.i.e.V A z A L.7X2X2X2X%X&X=X#XOXOX4X2X2XL.2X8XtXuXDXBXBXuXyXXX.XXXXXoX X X X X XW.R. XoXoXoXoXW.W.H.H.d.G.oXoXoX.X.XBXSXSXxX].{.cXxXcXxXcXvXcXvXAXJXSXAXLXLXJXAXLXLXJX6XW ^ L.%X&X2X2X6X$XOX2X4XOX4XOX4X=XOX>X2X2X2X4X3.+XLXLXJXAXGXKXGXGX1.> , > `.KXPXVXcXnXnXJXJXKXPXLXQ.! eX~ / ~ ).6XOXOX=X&X=XOX=XOX=XOX#X=X=X=X=X=X=XOX=X=X4X=X=X=X=XOX=X=X=X=X=X=X&X&X*X&X=XOX+X=X2X4X2X8X8XP.V V V p.V u.u.B V Y (.~.^ ).0X0X;X;X6X7X).8XBXuXN.B A V I J.~.(.(.Q.~ Z Z / ].rX2X;X&X&X$X&X&X&X&X&XOX&X&XOX=XOX#XOXOX#X#X#X#X=X#X#X#X#X=X&XOXOX#X&X&X&XOX4X*X*X*X=X=X&XOX4X&XOX6X*X6.=XUXPXLXPXIXAXUXzX&.o R LXJXvX%.X t ;.F > , Z Z x C , Q 0X7X;X=X#X=X=X&X=X*X&XOX=XOX=XOX4X=X&XOX=X=X=XOX=X&X&X&X&X4X4X6X2X7XAXLXLXAXIXIXJXJXJXIXPXLXUXvXvX-X3.%X%X@X&X>X4X=X=X=X=XOXOX=X+X=X+XOX&X>X=X=X=XOX=X*X=X#XrXDXvXrXUXbXUXUXbXJXLXLXLXLXLXbX:Xq.'.mXBX^.V i.r.x.H.d.b.H.x.u.f.yXtX7X2X$X3X=X-X=X=X=X5X&X&X&X&X&X=X=X=X=X=X4X%X%X-X=XUXAXUXvXUXvXvXtX0X0XtXvXvXvXNXxX].}.XX_.B u.B.R.d.p.H.I.P.L.L.7X4XOXOX=X=X*X%X*X*X;X=X=X-X-X=X=X=X*X-X-X=X%X;X;X6.UXSXSXmXeX_._.}.MXBXBXyX7X8XDXtX^ 3X=X=X=X=X=X=X*X=X=X=X=X=X-XrX;X0XLXJXNXAXVXAXVXVXVXSXLXKXSXSXNXyX_.8X8X6X3X=X=X=X-X*X2X2X*X-X-X=X*X4X3X3X2X&X3X3X4X=X*X=X9X=X=X=X4X=X4X4X4X4X4X=X*X*X*X4X-X*X4X*X3X3X-X3X*X5X-X-X4X=X*X5X4X*X*X*X*X*X3X3X-X*X3X*X-X2X6X3X6X3X*X*X&X=X=X&X*X*X5X-X*X*X3X=X3X3X=X",
"4XOXOX4XOXOXOX2XOXOX&X4XOXOX&XOX4XOX4XOX&XOXOXOX&X&X&X&X4XOXOX4XOX&X$XOX&X&XOX&XOXOX+X+XOXOXOX=XOXOXOX&XOXOX&XOXOX&XOXOX&XOXOXOXOXOXOXOXOXOX=XOXOXOX2X2X_.8XK.p.p.y.y.t.u.y.t.t.e.i.e.f.A Z Z / 7X3X%X#X$X2X=X#XOX=X&XOX2X>X).2X8XuXuXBXBXuXuXXXA.K.XX X X X X X X XW.oXoXoXoXoXoXH.H.I.G.I.I.oXoXoX^.^.MXSXSXwX{.xXmXvXNXNXNXcXxXVXAXAXAXJXAXAXAXLXPXLXJX9X^ 6.3X6X2X#X4X&XOX4X2XOXOXOXOXOX4XOX$X2X2X2X^ #XLXLXAXJXLXPXKXcXG , , > x O.2.cXbXcXbXLXvXqXSXxXC /.).~ L.L.^ 2X&X&X&X=XOX&XOX=X=XOX&X&X&X&XOXOX=X=XOX=X=X=X+X=X=X=X&XOX=X=X&X=X&X&X&X&X3X4X=X=X=X4X7X8X8Xf.V V u.u.B B b z v A (.wX(.7X9X7X;X7X6X7XL.yXuX}.I A A A (.}.mXxXyXNXwX].~ Q 6.7X;X6X*X#X=X&X*X*X&XOX&X&XOX=XOXOXOX#XOX#X#X#X#X#X#X#X#X#XOX&X&X&X=XOX&X&X4X&X=X*X=X&X#XOXOXOX&X#X%X-X:X6.;XbX0XvX0X&.k : . . =.LXcXs . > o.L x > 3 C G G Q F W 7X;X*X=X+X&X&X4X=X$X&X&X=X&X&X=X=X=X=X=X=XOX=X=X=X=X&X=XOXOXOX4XOX#XUXLXJXJXAXJXIXIXPXPXcXR o 4 -X;X#X;X%X9X4X&XOX&X&X=XOXOX&XOX2X=X=X&X&X=X=X=X=X%X#X*X%X#XrXAXvXvXbXbXvXbXUXAXbX:X-.R R : T 0XcXeXBXMX.XZ.b.H.H.d.H.H.a.p.N.uXNX).$X#X2X=X=X=X=X=X*X*X4X&X&X&X=X=X=X=X=X*X#X-X=X-XUXDXUXSXAXDXAXUXeX).'.tXNXNXNXNXNXSXSXBX_.N.e.A.S.d.p.K.P.~ L.4X4XOX=X=X#X*X%X*X-X-X;X-X=X-X=X=X9X=X=X-X-X%X;X6X).VXDXwXeX}._.J.XXuXuXP.J.8XBXLXtX^ 2X4X=X=X4X=X9X=X=X=X=X=X=X2XrX;X0XLXAXbXVXbXVXCXAXCXKXKXCXyXN.^.mXeX8X7X7X-X=X=X=X*X*X2X3X3X*X*X=X*X3X&X3X4X*X&X&X=X4X=X4X=X9X=X9X=X4X4X4X&X=X&X&X*X*X*X&X&X=X*X*X*X*X*X4X*X*X*X*X=X=X3X*X-X*X*X*X%X2X*X3X3X-X*X*X*X3X3X5X6X3X3X*X*X*X&X*X*X*X*X4X=X3X*X*X*X*X*X",
"OX4XOXOXOX4XOXOX&XOXOXOXOXOXOX&XOXOXOXOXOX>XOX=X@XOXOX&XOX4XOXOX&X&XOX&XOX#X&X#X&X&X&XOXOXOX=XOXOXOXOXOXOX&XOX&XOXOXOX&XOXOX&X=X=XOX&XOXOXOX=X=X4X2X7X2X7X8X^.f.i.i.y.i.g.u.t.t.y.p.n p.f.A A ^ 2X%X#X%X$X#X#X#X=XOXOX$XOXL.>XL.8XyX.X8XBXBXBXoXf.f. X.X X.X X XW.oXoXoXoXW.I.W.oXI.H.oXoXoXoXoX XoX.Xf.f._.mXBX{.{.cXZXNXNXVXVXvXVXSXAXSXAXKXAXSXKXLXLXLXLXtX).^ 7X6X3X2X2X2X3XOX2X3X2X4XOXOX2XOX$X2X4X+X-XLXSXJXLXvXhX|.!.!.}.~.~.|.S S |.ZXzXVXKX1.< Z J , ~ )._.eX8X2X^ &X#X&X&X=X&X=X=X=X=X&X&X*X&XOX=X=X=X=X=X4X4X=X=X=X=X#X=X=XOX&X=X&X=X$X$X$X$X=X=X=X2X8X_._.A A f.A B V z z c I ! `.mX0X).'.;X6.;X;X).L.8X^.A A A c J.{.qXqXqX0XqXwXxXeX2X7XrXrX6X-X#X%X#X%X*X=X&X&X#X&XOX4X=X&X#X#X$X&X#X#X#X&X=X&X#X&XOX=X&X&X&X&X&XOX4X&X&X#X&X=X&X4XOX3X*X6.9X0X&.q.4.4 5 : . . : - 1 -.zXj . X %.%.2 X , x 3 x G ! Q Q 7X7X%X=X=X4X=XOXOX&X&XOXOXOX&X4XOX=X=X=X=X=XOX=XOXOX&X&X&XOXOX2XOX6.UXJXAXJXJXJXPXPXIXq.# . . . ;XvX0X;X;X=X4X4XOX4X4X&X&X2X4X4X2X=X=X4X&X=X=X=X=X*X*X-X;X=XrXAXUXvXbXVXvXvXJXzXs . . . . : : '.vXVXKXCXY.r.a.H.W.d.d.d.G.B.B NXBX).6.%X*X=X=X=X=X=X*X=X=X&X&X&X&X=X=X=X*X*X*X-X=XrXDXJXJXDXAXAXAXAXAXtX0XmXVXNXNXNXCXSXBXMXSXBXK.V S.S.F.K.J.L.8X9X4X4X=X#X*X$X*X%X=X=X=X=X-X=X-X=X9X-X=X*X-X-X6X7X7XUXSX8XyX}.J.n.m.^.^.n A yXBXDXyX/ 9X4X=X4X4X-X9X-X9X-X-X=X=X7X7X2X0XLXAXNXVXNXNXCXCXCXCXMXXXJ.z m.uXuX8X7X7X-X=X=X;X-X*X-X2X3X3X-X*X=X3X3X=X&X&X4X*X4X4X=X=X=X=X=X=X&X&X=X&XOX4X&X&X*X*X*X*X*X4X*X*X*X*X*X*X4X*X5X5X*X4X*X4X4X4X*X*X*X*X*X-X3X3X3X3X*X-X3X5X5X5X3X-X*X*X-X*X5X4X5X*X*X=X*X*X*X*X=X",
"OXOXOXOX=XOXOX4X4XOX2XOX4XOXOX>XOXOX&X&X2XOXOXOXOXOXOXOX4XOXOX&XOX&XOX&X&XOXOX&XOX&XOX&X=XOX&X=XOXOXOXOX&XOXOXOXOXOXOXOX&XOXOXOX&XOXOXOX=X=X=X=XOX4X4X)._.8XK.V i.l.z.l.g.g.y.t.y.r.n V A f.~ L.7X2X2X2X=XOX=X=XOXOX=XOX2XL.2X2X8X8X8X.X.XuXBXBX.XK..X.X.XuXoXoXoXoXoXoXoXI.oXI.oXI.I.W.I.oXoXW. X XoXK.V b A J.~.^.eXmXmXwXNXVXVXVXVXCXAXAXCXVXJXKXKXSXDXLXDXtX^ ^ 7XrX6X;X2X%X2X&X2X$X4XOXOX4X2XOX4X3X^ 7XLXDXKXKXU > > , o.XXjXjXZXjX|.}.jXcXZXLX:.> , , l v J._._.7X).2X$XOXOX&XOXOX=X&X&X&X&X&X4X&X#XOXOX&X&X=X=X=X=X=X=X+X@X=XOX=XOX=XOX=X*X&X*X*X*X2X=X2X7XeX8Xf.A A V b z c A Q.].].'.vXvXqX0X6X;X;X7X7X].tX).J.A I Z Q.].'.'.'.6.'.0X0XUX0X-XvXrX;X;X;X%X=X*X%X#X;X#X%X&X&X%X$X#X*X$X#X#X*X%X#X#X*X$X=X&X*X&X*X*X4X=X3X&X&X=X4X*X*X=X&X=XOXOX3X-X;X^ 3.'.k . X : ; 5 d a X X 1 . # s P s 3 3 x F S x x x Q Q ^ 0X;X2X6XOX4X=X&XOX&X=XOX&X=X&X&X=X=X=X=X=XOX=X&X=X=X=X=X=X=X-X-X;XvXJXAXAXJXPXPXbXj . . . * . R vXrX-X;X6.;X6X9X4XOX2X4X2X>X3X4X6X4X3X3X3X3X3X*X*X-X6X-X:X;XvXAXvXvXzXbXJXvXj . # s 5 a : . o W xXCXCX^.e.a.H.H.W.H.d.D.A.B NXDX^ 6.*X*X=X=X=X=X=X=X*X=X*X=X=X=X=X=X*X*X*X;X6X;XtXLXJXDXUXUXUXtXqXvXvXvXeXmXNXxXeXeXwXeXNXSXLXuXm.f.i.A.K._.8X8X8X4X3X3X*X*X&X&X=X-X=X=X-X=X-X-X-X=X=X-X*X-X-X7X7X7XNXAXBXmXJ.V b n y.x.R.K.K..XyXtX).2X4X4X5X4X*X9X-X=X-X-X3X4X6X7X).0XLXSXmXVXZXNXZXBXMXXX XC.m.A.oXMXyXeX8X6X:X-X-X-X=X-X*X2X3X4X&X4X=X4X=X4X*X=X4X=X=X4X=X4X4X=X=X4X4XOX=X&XOX&XOX&X*X*X&X*X&X4X*X*X=X3X=X3X4X4X4X5X4X4X=X4X-X=X4X*X*X3X3X3X3X3X3X-X*X3X3X6X6X3X3X3X*X5X4X-X4X3X*X*X*X*X*X&X*X*X4X",
"OXOXOXOXOX&XOX2XOX4XOXOXOX4XOXOXOXOXOXOXOXOX4X2X4X=XOX4XOX2XOXOX&X#X&XOX#X&X&XOX#X#X&XOXOX=XOXOX&XOX&XOXOXOX&XOX@X&XOXOX&XOXOXOX&X&XOX4X&X@X=X=XOXOX2X2X8X8XJ.f.i.i.y.y.y.i.y.y.b.W.Y. XK.P.J.).7X2X2X$X=XOX#X=X=X=X4X4X>X2X2X8X8X.X.X.X^._.oXuXuXoXoXK.K.oXuXoXI.oXoXI.W.oXoXoXoXoXoXW.I.W.oXI.E.I. X Xm.p.V V A N.^.{._.{.eXwXNXvXNXNXVXCXCXGXCXVXKXKXLXLXPXLXtX6.^ 6X7X3X7X2X&X2X$X&X2X4X4XOX&X&XOX2X^ rXLXSXKXGXG l S m N N U.U.jX}.|.hXZXZXGXKXY v Y Y N.~.K.L.L.).).2X2X2X&X&X4X4X&X&X&X&X&X=X&X&X#X#XOX#XOXOX+X+X=X=X=X=X=X=XOXOXOX=X=XOX$X$X=X4X3X3X4X7X7X8X8XZ V Z Z A ! /.{.0X0X'.3.6.0XrXvXrX;X;X0X6.xXNXwX_.v Z ~ 0X0X6.6.'.7X0X7X:X0X;X;XrXrX;X;X#X;X-X;X*X*X%X*X*X*X*X*X$X%X%X#X%X*X#X#X*X%X*X*X%X=X4X*X4X*X*X4X=X4X&X4X=X=X*X&X&X=X=X=X-X;X0XrX:Xd X ; a a s 5 - r o o 1 X < r t 2 t H o.X.G S t x F 2 C 0X7X2X#X4XOX&X&X&X4XOXOX&X&X&X=X&X&X=X=X=X=X=X=X=X=X=X=X&X=X-X=X;XrXAXUXJXPXPXnXj . $ = : 4 : o &.4.vXzX0X:X;X;X4X3X2X2X2X4X6X4X6X6X3X*X3X*X*X-X-X*X;X6X6X3.3.AXUXnXvXJXnXj . # s a 1 $ 4 : . X 2 G }.jXC.D.x.G.oXW.d.r.B.A.CXBX2X6X%X=X-X=X=X=X-X=X*X=X=X&X*X&X=X&X=X=X*X6X7X6XrXAXDXJXJXAXvXvX0X7XeXNXxXNXwXtXmXNXNXeXBXSXKXSXyXyX^.f.K._.8X8X7X2X3X3X*X=X*X*X=X=X=X=X-X=X=X-X=X9X=X9X*X3X6X7X7X'.NXDXSXyXN.p.m.V.s.H.oXoX X.X8XyX8X2X4X=X=X4X-X-X-X-X*X4X3X4X7XrX).eXLXCXwXBXBXMXXXXXoX XE.oXR.R.oXoXuXeX8X8X6X-X-X-X*X*X*X*X2X4X=X=X4X=X4X=X*X=X4X=X=X4X=X=X=X=X4X=X4X4X&X4X4X=X4X4X*X&X=X&X*X&X&X*X=X&X&X3X4X4X5X4X4X4X5X*X4X&X&X&X*X3X3X6X5X5X3X5X3X-X*X3X6X3X3X-X5X*X-X4X6X4X*X*X*X&X*X*X*X*X*X",
"OXOXOX#X4XOX3X4X4X4XOX4X&XOXOXOXOX>X2XOX4XOXOXOXOXOX4XOXOX>XOX=X&X$X&X$X&X&X#X&X&XOX#X&X&X&X&X&X&XOXOX&X&X&X$X&X=X=X&X=XOXOX&X&XOX&XOXOX&XOX=X=X2X4X2X).8X_.J.f.B.s.y.i.b.v.R.R.oXjXMXoXXXK.P.L.2X^ ^ 2X=XOXOX=XOXOXOX2X2X2X2X8X8X8X.X8X.XP.^.uXuXoXoX.XK..XMXoXG.oXoXI.I.I.oXoXoXI.oXI.oXoXW.oXI.G.S.i.S.K.^.K.A f.J.J.).(.).).{.eXxXxXcXmXNXZXZXVXVXSXKXSXSXLXLXtX%X6.7X7X7X-X2X&XOX4XOXOXOX4XOXOXOX2X^ tXKXSXKXZXD D |.^.Y n.m M U.k.n.}.MXMXjXjXG Y K.Y.|.XXN.J.MXNX8X7X2X2X4XOX4XOX&X&X&X&X=X=X=X=X=X=X*X=XOX+X+X/ +X=X=X=X=X=X=X&X&X=X&X&X#X%X2X3X2X*X3X2X7X8XL.l Z A ! Q.qXqXcX0X6.6.E W 3.6.0X0X7X0X7X7XNXNXqX).7 C '.0X7X4.6.6.'.0X7X:X;XW 3.-XrX-X:X#X:X6X6X;X;X;X-X-X5X-X-X*X#X%X$X$X%X%X*X%X*X*X*X*X=X=X*X4X*X4X*X*XOX4X4X*X5X=X=X*X-X=XrX-X;XvXUX3.: o a 5 1 a a 5 j j j g s t 1 # t t P X.U t l S P F 2 < 6.0X7X#XOX4X&X&X&X&X&XOX&X&X=X=X=X=X=X4X=X=X4X=X4X*X=X=X=X4X-X-X-XzXUXUXUXPXzX: . $ u - & u a : . . R :XrX:X:X;X7X7X6X2X2X7X4X4X4X6X5X-X*X*X*X3X6X-X6X7XrXW T bXJXbXbXcXK . . d a   . . . . o X X , hXZXm.z.z.x.W.W.H.a.p.N.CXNX%X-X=X-X-X-X-X=X-X=X=X=X=X=X*X*X4X-X=X-X-X-X;X:XtXUXUXAXUXUXUXNXxXvXvXvXNXNXxXmXmXNXNXmX_.wXCXSXBXSXSXyX).J.).).7X7X2X4X*X3X*X*X*X=X=X=X=X=X-X-X-X9X=X=X3X6X6X7X0X7XNXBXBXXX^.K. X XW.oXG.oXoX.X_.8X8X7X4X=X=X4X-X-X-X-X*X5X3X7X7X7X7XeXKXSXNXMXmXXXoX XoXE.oXoXoXD.d.Z..X_.8X8X8X7X-X-X3X*X*X4X&X4X4X&X=X4X=X4X=X5X=X*X=X=X=X=X=X4X*X4X4X4X4X4X4X=X4X&X4X=X4X*X*X*X=X*X3X=X3X3X=X3X3X4X*X=X4X4X4X=X*X&X*X*X3X3X3X6X3X3X*X*X2X*X*X*X*X2X4X5X4X*X3X=X*X*X*X*X*X*X*X*X3X",
"2X2X4X>X4X3X3XOXOX2X3X3X3X=X=XOXOX4XOX4XOX4X3X&XOX4XOX4X2XOXOXOX#X&X#X&X&X$X&X$X&X&X&X#X&X&XOX&X&X&X&X&X&XOX$X$X=X=X&XOX=X&X&XOX&X&X&X4X&X&X&XOX2X7X2X2X8X_.f.f. XA.z.c.R.oXoXoXoXoXG.R.oXuXoX^.P.~ / ^ =XOX=X=X=XOX4X4X2X2X4X7X8X8XuX8X_.P.K._.uXXXoXuX.XoXMXuXI. XI.oXW.oX XI.oXoXoXoXoXoXI.oXoXS.p.d.p.f.S.m.u.f.A I Q.)./.).).qXxXmX}.}.}.cX}.mXyXwXSXSXBXVXLXLXvX7X7X7X;X2X2XOX2X4XOX4X4XOX=X4XOX4XL.wXSXBXmXXX|.U.N.n.k.XXjX^.^.U.M m U.^.Y.k.Y.XX^.^.M.N.n n.BXBX8XeX2X2X4X4X4X4XOX&XOX&X=X=X=X-X*X-X=X*XOXOX+X+X=X=X=X=X=X=X=X=X&X&X&X&X*X*X3X3X3X3X3X7X7X7X^ C ~ ).).].qX].0X0X0XzX:X:X:X;X;X:X:X:X:X7XvXNX0X).,.>.qX0Xq.;Xq.;X:X:X0X0X:X;X=X:XvX:XrX-X6X6X:X6X;X6X6X6X6X6X6X;X*X*X*X-X*X*X-X*X3X-X3X4X=X*X*X*X3X*X3X*X4X4X4X5X5X5X4X*X=X-X-X-X-XzX3.: X a s f K j j j g K K K d t g P P F F S x 3 3 S S L %.E W 0X7X7X4X&X&X&X&X&X#X=X&X=X&X=X=X=X=X4X=X4X4X4X*X*X9X=X=X5X-X=X-XrXUXUXLXnX4 . $ ; u 4 - 4 - k 4 : . o :XnXbXrX0X7X7X2X2X2X7X7X6X3X-X*X3X3X3X3X-X-X;X0X9XT : $.zXbXnX$.. # r a ; * - 4 a - 5 1 3 C ZXZX^.u.t.y.b.H.W.a.u.B CXDX3.;X-X-X-X-X=X-X-X*X-X=X*X*X=X*X=X4X5X4X-X9X6.9XUXvXtXtXNXUXAXNXxXxXtXeX/.9XxXNX(.J.{.NX).x Q BXLXLXSXmXyX_.).8XeX7X2X3X4X4X4X4X*X*X=X=X=X=X=X=X=X=X=X=X3X3X7X7X7X8XtXNXyXyX.X XG.W.W.oXoXW.W.K.K.8X8X8X4X&X=X=X=X=X-X=X*X=X3X4X8X7X_.yXSXCXBXMX.X X XoX XoXoXW.oXI.H.D. X X.X_._.7X6X4X3X3X=X&X&X&X&XOX&X4X4X=X4X=X=X*X=X4X=X=X&X=X4X*X4X4X&X&X4XOX&X4X&X&X&X4X&X2X3X&X&X&X&X&X*X&X&X&X&X4X*X*X4X*X&X4X*X-X3X3X3X-X3X-X*X*X*X*X*X*X*X*X4X=X*X*X*X*X*X&X3X3X=X*X*X3X*X",
"$X*X2X%X&X2X2X%X4X3X2X*X&X2X%XOX#X2X&X&X3XOX2X&X&X&X&X$X$X&X$X*X&X$X&X&X&X&X&X&X&X&X$X$X&X$X&X&X&X$X&X$X&X$X&X$X&X2X&X&X3X&X&X&X&X=X4X4X4X4X4X4X2X9X2X8X8X_.f.A. Xj.C.oXoXW.oXoXW.W.d.d.I.oXoXuX_.L.>X3X#X=X*X#X=X*X3X2X2X2X>X8X8X_.tXuXuX_.P.J.^.uX.XoXuX.X.XuX.XI. X XI. XI.oXI.oXoXoXoXoXoXoXoXoXI.oXoXI.f.S.f.V A A / J.L.(.)._.wXNXmXwX}.XX}.ZXZXNXCXCXVXSXSXLXLXDX7X6.7X6X6X&X$X3X2XOXOX=X4X4X4X8X8XyXeX^.XXZXXXXX^.k.g.Y.MXXXXXXXY.M.^.^.Y.R. XXXjXoXE.oXK.N.^.Y J.eXeX8X8X2X7X7X2X4X9X2X4X=X5X=X9X-X5X5X*X=X5X6X5X5X3X3X=X9X=X=X*X*X*X=X*X$X3X3X3X6X7X6X;XrXVX).7X].0XqX0X0X:XzXvXzXzXrX0XrX:X:XzX0X;X:XUXNXUXVXrXqX0X:Xq.;X;X0.:X0X:X;X3.;X0XrXzXvX-XrX:X-X-X-X6X0X6X:X6X:X6X6X6X6X3X-X-X-X-X-X3X3X3X6X*X*X3X*X*X3X2X*X4X4X4X=X*X*X=X-X*X-X5X6X:X3.T k 3.%.[ K $.%.$.$.[ $.K g K g F j g g F t t S S S S X.hXVXzX6.6.6X%X3X6X7X%X%X%X%X#X*X5X-X=X=X-X9X-X-X-X-X-X=X=X=XOX=X=X=X-X:XvXUXJXp : 4 : & : u ; a 4 a 5 1 1 . : d 0XvXtXeXeX8X7X8X2X8X2X4X6X3X&X2X3X3X-X6X7X6XzXW . . < a ; . X * 1 - 1 a - - : - 1 1 F > x }.CXjXA.Y. XR. Xj.p.z 8XKXrX%X6X6X-X-X-X-X-X=X=X*X-X=X*X*X*X-X3X*X-X-X6X;XzXUXrXtX0X0XNXvXxXtX0X0X^ Q E ).xX,.Z Q.BX`.7 C cXLXLXVXBXyXI ).tXeX6.6X6X4X4X4X3X=X*X=X=X=X*X&X&X4X2X3X3X#X7X7X7XeX~ ).MXCXoXA.G.G.I.W.oXoXoX X.XyX8X).4X=X=X-X-X-X=X-X=X*X2X2XL.8XyX_.BXMX.X X XXXoXoXoXW.oXW.oXW.W.oXoXuXoX.X_.8X8X2X7X2X2X4X&X&X4X4X&X4X4X4X=X=X4X=X=X=XOX=X&X#X$X$X&X&X&X&X&X&X&X&X*X*X&X&X&X=X*X*X3X&X&X=X#X=X&X=X*X&X&X&X*X&X&X&X*X2X*X3X3X-X*X2X-X2X*X*X*X*X*X*X5X*X*X4X*X*X*X*X3X=X3X3X*X5X3X",
"2X$X$X*X*X*X$X*XOX2X3X3X3X$X$X$X%X2X3X3X3X2X3X3X2X&X2X2X&X2X3X*X&X&X&X&X*X&X&X&X&X&X*X&X&X&X&X2X&X$X&X&X&X&X$X$X*X&X3X*X&X&X3X*X=X4X4X4X2X4X4X4X7X7X2X8X8X_.J.K.A.K.oXjXjXoXW.oXjXW.W.W.H.oXG..XuX8X8X8X2X2X*X*X&X&X3X3X2X4X4X7X6X7X7X8XtXNXyXL.A K._.uX_.f.N.XXoXK.K.I. XI. XI.I.oXI.oXI.W.I.oXoXoXoXoXMXoXF.K.p.A A A Z A / ~ ).eXmXxXXXmXCXmXmXCXCXmXyXmXyXNXDXSXSXDXSXtX7X).).2X6X$XOX4X4X4X2X2X9X8X8X8X_.}.MXMXjXXXjX Xk.t.A.^.^.oXY.k.oXXXT. XjXoXoXoXoXjXoX X XK.N._.yX8X8X8X8X2X7X2X2X4X2X4X*X5X=X-X4X4X*X*X5X3X3X3X3X3X=X=X9X=X4X*X4X=X$X*X2X3X3X3X3X2X6.tXLXtXtXNXVXvXcX0X0X0X0XzXrX0XrXzXrX:XrX0Xq.rXAXUXtX0X0X0X:X6.6.4.;X;X;X6Xq.:X:X0XzXrXrXrXrXrXrX0X-X:X-X-X6X0X6X6X-X-X6X7X6X6X3X-X6X3X3X;X-X-X-X2X-X3X*X*X*X*XOX4X4X4X*X*X*X*X*X-X-X:X:X;X6.:X9.9.=.-.-.&.%.$.K K j K hX8.s P P P S x S S P O.`.[.cXVXSXVXzX7X7X6X6X6X6X;X%X;X-X-X#X;X-X-X-X=X=X=X=X-X-X-X=X=X=X9X-X=X;X;XrXUXrX: 4 k 4 4 u : ; u ; 1 a d j 1 . . < C I ~ L.).).L.L.4X8X7X9X2X4X3X3X3X7X6X6X0XrX<.7 : . . X ; s 5 a 5 -   : - : : . . s 2 X , |.mX.X^.A.B.C.A.n.z Z NXUX9X-X-X-X-X-X-X-X-X-X-X=X=X-X*X*X*X*X*X:X-X6X;XrXUXUXvXrXvXvXrX0X0X).5.].0XW , ~ eX].C ,.AXNXC < 0XLXLXLXmX~ L.).7X9X2X2X2X4X4X4X4X&X&X*X=X*X*X&X&X&X$X2X2X2X7X0X8XL._.BXBXXXA.H.G.W.W.W.W.I..X.XuX8X8X7X=X=X-X-X-X-X=X=X4X2X2X7X8XNXuXjXoX XXXoXoXoXoXoXoXoXoXoXoXoXI.oXoXoXXX.X8X8X7X7X7X4X7X4X2X3X3X4X4X&X&X4X4X=XOX=X=XOX=X&X&X&X&X&X&X&X4X&X&X&X&X*X*X*X&X&X3X*X*X3X3X=X&XOXOX#X#X*X&X*X*X*X&X*X*X*X*X*X*X*X3X3X*X3X3X3X-X*X3X*X3X-X*X4X=X*X*X&X*X=X=X3X3X*X*X=X",
"*X2X3X*X*X2X*X%X4X&X2X3X2X$X2X&X$X$X*X2X3X2X4X4X3X3X3X3X3X3X3X2X3X&X&X3X&X=X&X2X&X&X&X&X&X&X&X&X*X3X*X*X3X*X*X*X*X4X*X*X3X*X3X*X=X&X4X2X2X2X4X2X4X3X2X8XyXyX.XXXoXoXMXoXoXoXW.oXW.W.oXW.W.oXH.x._.8X8X8X7X3X*X=X&X3X2X4X2X4X7X7X3X7XtX9X).8XyXeXJ.A A _.yX_.J.XXyXK.K.K.K.G.I.G.W.I.I.W.W.oXI.oXoXoXoXuXuXoXS.p.V V V l Z Z Z Z Z ~ eXNXNXCXZXyXZXCXCXZXCXCXBXmX{.{.yXBXBXDXyX8XL.2X7X2X2X2X4X2X9X2X2XL.8XuXmXMXZXZXMXXXjXoX^.z.u.^. X.X^.m.C.oX XC.C. X XjXMXjXMXjXMXMXuXXX_._._.8X).L.L.8X2X8X4X4X6X2X=X4X4X4X=X3X2X3X*X3X3X3X=X4X=X=X3X*X*X*X$X$X*X2X2X-X3X;X+XUXLXtXvXUXAXUXUXvX0X:X0XrXzX0X0X:XrXrXrX7X0XvXAXUXrXzX0X:X:X6.;X3.6.:X0X:X:X;XrX0XrXrX:XrXvXrXrXrX9X-X:X;X-X;X6X6X0X6X6X7X6X;X6X6X-X;X;X-X3X6X3X-X2X-X*X*X-X*XOX=XOX4X*X=X=X-X*X-X-X6XrX:X:X:Xq.<.=.-.-.$.$.R $.g g 1.VX0.< t 2 t F t 2 S O.hXhXhXhXhXVXAXcX7X7X;X;X-X7X;X6X7X6X;X-X-X-X-X-X-X-X-X-X-X-X-X=X=X=X=X*X-X;X+X:XJX:X: k k k T T h a a - a 1 < 5 F 6 c , , v J.^.K._.P._.8X8X2X7X2X2X3X3X2X;X2X7X9XrX6.W 5 7 k d $.$.d s 1 : %.zXzXnX0.d ; a 2 X X , G A n.N.Y.^.m.V I ! eX6.7 6X6X-X-X6X;X-X-X*X-X%X-X%X=X*X*X*X-X5X-X6X6X7XrXrX^ ^ rXcXrXeX0X7X6.].).8X~ > I qX0X7 T vXJXQ X >.VXLXNXtXNX7X7X7XL.2X6X6X7X3X4X4X4X*X-X*X3X4X&X3X*X*X3X2X7XrX_.].NXCXBXXX XF.E.I.oXW.I. X X_.yXeX7X6X4X*X*X-X-X=X=X=X4X2X2X_.NXSXuXMXuXoXjXuXoXoXoXoXoXI.oXoXoXoXoXoXoXoXuXuX.X.X8X8X8X8X2X6X2X4X4X2XOXOX4X4XOXOXOX=X=X=X=X&X&X&X&X&X4X&X=X4X=X&X&X3X*X*X*X*X*X$X*X*X4X-X*X*X4X*X4X*X*X=X&X*X*X*X*X*X*X*X-X*X*X*X*X5X3X6X3X3X3X-X3X*X*X&X4X*X*X*X&X*X4X*X5X*X*X=X",
"*X3X*X2X3X*X3X*X3X3X&X3X3X*X*X*X*X$X*X$XOX4X3X3X3X3X2X3X3X3X3X3X2X3X&X3X3X3X3X3X&X*X3X&X2X3X3X=X*X*X2X*X*X3X3X*X3X=X*X2X*X3X3X=X4X4XOX2X4X2X2X4X7XL.2X8XuXMXBXuXXXMXCXoXoXoXI.G.H.H.I.W.I.oXH.d.S.8X.X2X8X4X4X=X3X4X2X2X4X2X4X4X6X6XUXUX/ 7 / ).L.Z Z A }.yX}._._.^.K.K.K.K.K.I.W.W.I.W.oXI.oXoXoXoXI.oXoXoXS.p.p.f.L.P.~ ~ / A Z v Z J.yXCXBX{.mXBXMXBXCXSXCXCXMX.XyXDXBXyXtXDXtX8X7X7X4X4X2X7X2X2X2X8XBXSXuXmXCXMXjX|.jXXXXXoXC.h.^.^.XX Xn  XMX^.c.v.W.D.A.Z.Z.D.oXoXMXuXXXuXuXuXyX_.8X8X2XL.7X7X2X2X4X4X2X4X2X3X3X3X*X2X3X=X4X4X=X4X*X3X*X$X%X*X%X3X3X3X2X7X3XvXAXtXvXUXUXUXvXnXzX0X0XzXrX0X:XrX0XzXzX0XrXUXUXzXrXrXzXrX0X;X;X;X:X6X:X0X:X0XrX0X:X:XrXrX-X:XrXrXvXvXrXrX;X6X7X6X6X6X6X:X;X6X6X;X-X6X-X7X3X-X*X-X-X-X-X2X*X*XOX=XOXOX%X=X%X*X-X=X-X:X:X:X9.3.=.=.$.R K d j d K K a [.JXL 1 s X 1 s X.2.[.hXhXhXhXhX8.zXzX0X0X:X7X0X0X0X;X:X;X;X;X6X-X-X-X-X-X-X=X=X+X=X=X+X=X=X*X=X*X=X=X-XUX:X: 7 4 k 4 4 u 5 4 5 5 6 s 6 6 c U U A ^.XXuXXX.X.X8XP.L.L.7X9X2X$X*X2X2X;X7X0X0X6.W W E &.W W K d ; . T bXPXPXPXPXcXd X . . < > , , z A ^.^.B c yXSXVXW 7 7X;X7X7X6X6X5X-X-X=X-X=X*X-X*X*X;X%X-X-X-X-X6.%X*XW 7 6.2X0XrX7X0X).6.6./.qX6.< 7 ;XrXW o 7XAX].< , eXNXDXSXNX7X2X9X7X9X5X2X&X2X3X2X*X*X3X3X3X3X3X6X*X7X2X7X8X8XNXSXCXBXoXoXR.R.E.W.W.oX.XK.K._.8X8X4X2X4X-X-X-X-X*X&X&X2X2X8XBXSXuXuXMXMXuXoXoXoXoXoXI.oXoXoXW.oXoXoXoXoXoXoXXX.X.X_.8XL.2X>X8X7X8X2X4X2X2X4XOX&XOXOX=XOX4X&X3X3X3X4X=X4X&X=X4X&X4X*X*X*X*X*X*X*X*X#X*X*X*X5X5X-X5X*X*X=X*X$X*X*X*X3X-X3X3X2X*X-X3X6X3X3X-X3X3X6X3X4X*X*X=X*X*X*X*X-X*X4X*X5X*X3X",
"*X3X2X*X-X3X3X7X6X3X2X;X2X2X*X*X*X*X$X2X$X*X&X2X3X2X3X3X*X3X3X2X&X&X=X3X3X&X&X&X3X&X&X3X&X*X4X&X*X=X3X3X3X*X=X2X3X*X3X*X*X3X*X3X&X*X*X2X3X2X2X2X4X2X8X7XuXBXBXoXuXMXBXoXMXoXW.H.W.W.W.W.I.W.W.I.K.uXuXL.7X2X7X2X2X3X2X4X2X3X3X*X6X;X;X/ 7 J / ~ ~ ).~ l ! wXwXwXyXyXJ.f.f.S.I.G.I.W.I.oXI.oXoXoXoXI.oXoXoXoXoXI..XuXyX_._.eX_.(.L.~ / I Q.yXyX^.^.~.I f.J.J.^.uXuXuXMXBXuXXXuXSXBXtX7XL.7X2X2X2X^ 2X8X8XuXyXyXyXmXmX}.^.XXjXjXjX Xz u.m.K.oXi.i.oXoXoX XR.s.u.z.p.n n V f.m.^..X.X.XXXuXuXmXyX_._.L.8X>X8X2X7X7X7X2X2X4X4X3X*X*X=X4X4X=X4XOX*X*X2X*X*X3X3X2X7X3X7XtXtXvXVXUXAXAXvXkXrX:XzXrX0XrX0XrXrX0XrX0XrXrXzX-XzXrXrX0X0X6X:X;X:X7X:X0X:X6XzXrXrX:X:XrX-X:X6.6XrXvXUXvXrXrX;X;X;X;X;X;X-X7X6X-X6X6X6X;X6X6X-X*X2X3X*X*X;X=X4X&X#X%X#X=X=X%X%X=X:X-X6.3.&.3.=.&.R K d k k d d d s 5.cX%.8.`.%.8.[.cXcXcXhXhX8.hXhX[.'.0.5.'.rX0XzXvXvXzXzXrXrX0X-X;X-X:X-X;X=X+X/ T T / / +X=X5X*X%X;X;X:XrXT : k 4 T 4 . : k k d 5 < 6 H C Z J.J.^.uXMXXX.X.XXXuX_.L.8X7X7X3X2X2X*X2X7X7X7X).;X6.>.Q W H 7 5 < : d bXLXJXUXUXIX'.X : T :XzXzX`.G l v N A N.}.KXLXKXNXtXtX7X7X6X7X6X6X6X6X;X-X-X-X-X*X-X*X*X;X6X*X%X#X%X6X;X6.-X;X;X2X%X6XrX8X7X~ 6.tX7X7 < 6.vX3.: W NXeX7 Z 8XDXLXDXtX6.).2X7X9X7X4X6X7X4X3X6X3X3X2X6X6X6X4X7X9X7X).eXSXSXCXuXoXoXF.D.G.H.G.I.K.^.eXyXyXL.2X2X6X2X-X-X-X-X4X4X7X2X7XBXDX_.K.^.uXMX.X.X.X.XoXoXI.oXoX XoXW.oXI.oXoXoXoXoXuXuX_._._.8X7X8X2X8X9X>X2X2X3X4X4X=X4X=X4X4X4X4X4X5X*X*X5X4X4X=X4X*X3X-X*X;X=X=X=X3X5X-X-X9X9X-X-X*X;X*X%X*X*X;X*X6X5X3X3X*X3X-X3X*X3X*X*X-X*X3X3X-X4X-X4X*X4X-X4X5X*X4X5X3X*X*X",
"%X%X%X*X*X2X3X6X-X3X3X6X-X*X-X3X2X*X$X%X%X*X$X%X$X3X*X3X2X3X*X*X&X&X&X&X=X&X&X&X&X&X3X&X*X&X&X&X*X2X3X*X*X*X3X*X*X&X*X*X*X*X*X$X*X=X*X2X2X2X2X2X2X2X7X8XyXMXBXXXMXMXMXoXMXoXW.H.W.I.I.W.oXI.I.oXI.uX.XP.2X7X4X4X3X2X2X2X6X2X*X*X;XrXW : / 7X7XeXtXVXwXQ Z J Q ,.{.8X_.J.n.m.K.K.W.I.W.I.oXI.oXI.oXoXoXoXoXoXuXuXBXBXuX_._.8XeX8XeXeXwXeXQ.Q._.}.yXJ.N V V b b e.m.Z..X.X.XyXBXSXDXBXtX8X2XL.2X2X2X8X2XL._._.eXwX|.mXCX}.Y.^.oXoXoXZ.A.A.B.F.A.l.H.oXoXMXMXoXK.^.^.^.K.A.f.e.n n u.S.F..XoXuXuXuX8X_.8X_._.8X8X>X7X7X7X4X4X4X-X*X=X=X=X&X&X4X*X&X%X$X2X*X7X3X2X2X7XeXtXvXDXVXAXUXUXrXkX:XkXrX0X0X0X0X0XrXrXzXzX0XrX:X-XzX0X:X7X'.;X6.:X6.6.;X;X:X:XrX:XrXrX:X-XrX;X;X6XrXrXtXUXvX0XrX0X6X-X;X;X%X;X-X7X6X6X6X;X7X*X;X;X3X3X;X=X=X9X9X5X*X-X-X-X-X-X-X9X-X6.3.3.3.&.%.T d k s s d H K E &.5.zXVXVXVXVXVXvX[.8.`.`.!.2.8.8.;.%.0.0XcX6.6.0XrX0XrXvXbXvXrX0X-X0X6X-X-X=X+X+X+X6.=X=X3X9X5X-X-X-X;X9.: 4 k 7 3.zX:X:X&.7 5 7 < < C ~ Q.^.XXyXMX XK. XoXyXyX8X8XtX7XOX5X*X%X2X6X7X7X7X6.).Q.^ W H Z 7 7 : W zXAXUXbXzXUXvXk . 3.UXJXJXcX5.W l l l b A _.yXNXSXLXLXNX8X2X3X7X6X6X7X6X6X5X6X6X6X-X-X*X*X#X3X-X*X=X-X9XrXrXtX9X7X6.&.^ ^ 0X0X7X).6.qXeX^ 7 6.vX2X^ vXLXvX/.vXLXLXLXVXtX^ 2X2X3X2X7X6X9X9X6X7X7X3X2X3X6X6X6X9X7X0X6.tXSXCXMXuXjXoX.XoXoXoXoXoX.XuXuXBXNX2X2X2X6X6X6X6X-X-X4X4X2X4X8XuXBX.X^.K.uXMX.XK. XK. XoXoXoXoXI.I.oXoXoXI.oXoXoXjXuXuXuXuXyX_.8X8X).L.4X4X4X2X6X4X4X4X=X=X4X4X=X4X4X*X4X*X*X4X&X4X=X-X*X*X*X=X-X-X-X5X-X#X#X6X6X-X5X*X*X*X*X*X*X-X*X3X3X3X3X*X3X3X3X-X3X3X3X3X3X3X3X5X4X5X5X5X5X5X*X3X=X*X*X*X*X*X",
"%X*X%X2X;X*X3X3X3X7X3X3X-X3X2X*X2X*X*X$X2X3X*X%X%X2X*X2X2X*X*X2X&X$X&X&X&X&X&X&X&X3X3X&X3X&X*X&X*X*X*X*X$X*X*X*X&X$X$X$X&X$X=X=X&X=X*X2X2X3X2X2X2X7X7XtXuXuXMXuXBXMXoXoXMXoXW.I.I.I.W.oXoXI.oXI.G..X.X_.8X>X2X2X3X2X3X2X2X2X&X*X%XrX=X+XrXeX7XeXSXNXqX0XH . . > 2 I J.J._.K.A.G.H.I.I.oXW.oXoXoXoXoXoXoXoXI.oXoXoXuXDXBXuXeXXX8XeXeX8XeX).~ J._.BXmXXXXXXXXX XK.S.S.S.I. X.X.XuXBXDXDXBX8X7X7X9X9X2X8XtXtX_.(.(.NXKXKXZX~.n.M. XoXMXMXoXoX XoXoXoXoXoXMXMXMX^.f.^..XXX.XXX XR.G.Z.R. XoX X.XXXuXuXuX8X.X8X8X8X8X8X7X2X2X5X-X=X=X=X=X&X&X=X&X&X#X$X2X*X2X*X3X2X2XeXtXeXvXNXVXSXAXUXkX-X:XrX:X:X0XrX0XrX0X0XrXrX0XzXrXvXrX0X;X0X:X;X6.;X6.;X;X;X:X-X:X:X-X:X:XrXrXrX-X;X;X9XrXrXrXUXvXrXvXvXrX0X;X6X6X:X5X6X6X-X3X3X7X;X-X;X2X=X;X9X9X9X-X-X-X-X5X6X-X6X:X;X3.3.3.$.T d k k 5 k a j H E E 1.vXAXVXGXvX[.9.0.`.!.8.hXO.X.X.X.%.5.0X0.W d H T T W W q.9XrX0X9X-XrXrXrX-X-XrXrX9X9XrX5X5X9X6X;X7X-X:X4 4 k 4 vXJXPXJX3.: o ,.6.~ ,.(.{.eXyXMXMX.X^.oXuX.XJ.A L.7X5X9X3X*X$X*X2X2X7X'.6.Q.^ W / W Z 7 < 7 0XbXzX:X:XUXUXq.5 3.AXPXJX0Xd < < C v c c l m Y (.wXeXNXuX7X2X).2X2X;X2X-X-X;X;X-X*X;X%X*X*X$X$X3X3X3X6X2X6X9X6X-X^ / W 7 7 / +X2X2X^ Q.).7X).7XvXVXAXAXSXLXLXSXSXNXtXDXLXDXtX4X2X2X2X2X2X2X6X2X6X2X2X3X7X9X9X9X6X7X).DXLXBXXXoXoXjXoXMXuXuXMXBXBXBXDXCXNXtX7X9X7X6X2X-X5X6X9X9X7X8XeXuXMX8XXXuXuX.X_.K.K.K.K..X.XI.oXoXI.oXoXI.oXW.oXoXoXuXuXuXuXuX8X.X8X8X2X2X8X8X9X4X2X4X4X4X=X4X4X4X&X&X*X*X*X*X=X-X=X4X-X*X-X;X-X=X-X=X=X+X/ ^ #X-X%X*X;X*X*X-X;X*X*X*X*X%X$X*X*X*X2X-X3X3X*X-X3X3X4X5X4X5X5X5X5X4X-X=X*X*X*X*X*X*X$X",
"3X2X*X*X2X3X3X3X4X-X3X3X2X2X%X*X%X$X$X*X2X3X2X$X*X*X*X3X3X3X$X$X*X3X&X&X&X&X2X&X&X&X&X&X&X&X&X3X$X$X$X&X$X$X$X&X$X$X%X$X#X&X#X#X&X&X$X$X2X2X3X2X2X8X8XNXNXuXyXBXMXuXBXMXoXI.W.oXoXW.I.I.I.W.I.W.I..XuXuXyX8XL.2X2X2X2X2X2X2X*X*X;X*X6XrXrX6X).rXwX^ 6.VXxX[.0XE 7 , , v J.^.S.V.G.G.G.W.I.I.I.I.I.oXI.oXoXoXoXoX.XoXuXBXBXBXuXXX).8X_.)._.~ ~ )._.yXMXMXMXMXMXMXoXoX X X.X.XK.K..XyXCXDXtXL.2X8X8X).tXuXyXyX_.yXKXKXBXmX}.}.XXMXMXoXoXoXoXoXoXuXoXoXoXoXXXMXuXB l V V u.C.oXuXMXoXuXoXoXoX.X XoXoXuXuXuXuX8X8X8X8X2X8X2X4X-X=X=X=X&X=X=X&X&X#X#X%X%X%X2X%X2X;X2XtXNXeXeXvXUXLXLXUXUXUXrXvXrXrXrXrXrX0X0XrX6X:X-X-X:XrXzX6X6.7X6.;X%X%X6.3.#X;X-X:X-X:X;X#X+X;X:X0X9X9XrX6X=X;X#X=X-X-X9XrXrXrX6X7X;X6X7X6X6X6X;X3X-X2X2X*X-X=X#X5X4X=X%X*X-X-X-X;X-X6X6.T T W W d k 5 5 5 7 5 7 1 d d E 4.cXvXcXcXq.<.`.hX[.8.8.8.8.8.2.%.K K =.d R d 7 4 < o o : k W 3.:X-X:X-X=X=X=X=X-X-X-X-X#X+X3X6X;X;XrXrXW : 7 T UX:XUXAX7 7 0XAXNX0X].0XeXyXyXXXXXXXyXyX_.N.Z 7 / / +X5X&X2X2X2X2X7X7X7X7X7X6.~ W ~ H 7 < &.0XrX:XW 4 vXvX0X6.UXJXAX0Xo X 7 C G I I A I c A I A ~ ! L.).L.OX).6.2X6.%X%X%X#X#X%X#X%X%X%X3X+X2X%X%X3X2X*X-X-X-X+X/ / W / 7 4 7 ^ ^ ^ ^ ~ / 2XrXtXUXDXUXtXtX7XrX).8XtXDXLXDXvXtX9X9X7X^ ^ 2X-X7X6X6X2X6X6X6X7X2X7X8XLXLXBXBXMXMXuXuXoXoX.X.XuXBXSXBXDXBXyX7X7X9X6X2X6X4X4X4X9X9X8X8X8XyX8XyXuX^.J.J.P.J.P.P.K.K..X.XoXoXoXW.oXI.oXI.oXI.oXoXoXuXuXuXuXuXuXuX9X^ 2X7X7X4X2X4X=X4X=X=X&X&X&X*X=X*X*X4X=X*X*X-X-X=X=X-X-X-X=X-X+X^ W #X;X%X*X-X*X*X-X*X;X*X*X#X#X%X%X%X*X-X3X*X*X3X*X3X=X-X*X4X-X5X4X6X4X=X4X%X&X#X$X#X$X*X",
"%X$X2X$X$X2X3X3X*X&X*X&X$X2X3X2XOX&X$X$XOX4XOXOX4XOXOX4X3X4X4X2X3XOX3X2XOXOXOX4X3X4X4XOXOX4X3XOX4XOXOX4XOX#X#XOXOXOX4XOX4XOXOX#X4XOXOX$X&X2X2X2X2X2XtXBXBX_.uXuXBXBXCXMX.XoXoXoXoXoXI.I.I.I.I.oXoXoXuXuX.XpX_.2X8X2X2X4XOX4X4X3XOXOX4X2X%X%X).7XNXvX7XNXAXLXLXLXSXxXQ.C l A n.J.K.K. XI.oXoXoXoXoXoXoXoXoXoXoXoXoX.XoXoXuXBXMXuX8X_.8XeXyX)./ Z , v Q.J.J._.^..X.X.X.X.X XoX.X.X^.K.yXDXDXtX2X2X^ ).tXuXtX8XyXNXSXSXKXSXBXBXBXyX X.X X.X.XoX X X.X X XK. XoXMXuX Xm.f.f.K.uXuXoX XoXoX.XoXuXI.K.K.I..X.X.X.XpX8X8X8X7X2X2X4X=X#X+X&X%X#X*X*X;X%X%X*X%X#X%X%X%X2X0XtXeX2X2XvXAXLXUXAXUXrXrXvXvXrX0X9X6X:X6.:X6.^ 3.^ -XrXrX%X3.^ / T / / +X/ T / +X+X=X+XT T =X-XrXrXrXrX6X:X9X6X:X;X6X;X=X#X%X;X=X=X+X+X=X=X=X=X+X+X+X=X+X;X+X+X+X+X+X+X+X+X+X+X+X+X+X3.T 7 7 7 4 7 4 o 7 7 o . : : o 7 3.0.5.^ 4.&.W W W W 6 o : o X o < : o 5 . 7 R d d W T d 7 4 : : ^ -X;X3.+X+X+X+X;X#X#X#X^ +X^ +X+X+X#X;X3.7 T ^ ;X:XUX:X: zXLXAXrXrX0XNXyXeXeXeXXX_.L.L.A ~ / ~ ^ ^ =X=XOX#XOX+X2X2X7X7X2X7X7X).^ ).~ 7 W ^ 6.W 7 : : ^ ;XzXvXvXvX3.o : 7 7 H J W I ~ ~ ,.,.! Q.).)._.eXuXrX7XL.2X2X%X%X6.OX#X#X#X6.OX#X%X#X$X%X#X%X%X$X$X%X2X2X$X2X7X6X&X^ 7 7 7 ^ / / 7 7 6.tXUXtXrXtX7XrXtXtXNXUXDXNXDXUXDXDXLXDXUXtX^ %X=X&X$X2X3X$XOX7X^ 2XNXLXLXSXBXyXyX.X.XK._.K.P.P._.8XuXDXSXNX7X2X4X2X2XOX=X=X=X-X6X7X7X8X8X_._._.K.A / J.P.A A f.P.K._..X.X.X.XI.I..X.XI..XI..XI.K.I.K.P..XuXDXDX8X^ 2X9X;X-X=X=X=X=X=X=X=X=X*X*X*X-X-X-X*X#X+X;X#X;X#X;X-X=X-X-X-X9X=X=X=X=X-X-X;X=X=X;X;X=X%X#X%X*X6X6X6X3X;X%X;X3X6X6X%X#X%X%X3X3X3X-X%X%X6.OX$X#X$X$X2X",
"OXOXOXOXOX$X$XOX=X#X$X$X$X&XOX2X&X&X&X2X2X2X4X4XOX2X4XOXOXOXOXOX2XOXOXOX4XOX2XOXOXOXOX2XOX2X2XOX4XOX2XOX>XOXOX=XOXOX4XOX2X4X>X4X3X2X3X&X&X&X*X$X2X7X8XDXDXBXyXyXBXBXuX.X XoXuXoXoXoXoXI.oXoXoXoXoXoXI.oXoX.X.XL.2X7X2X2XOXOXOX2X3XOX&XOXOXOX%X2XUXDXVXUXxXSXLXKXKXLXSXNXqXJ.V z f.K. X.XI. XI.I.I.oXoXI.I.oXoXI.I.oXI..XI.oXuXuXuX8X8XL.L.L.~ I Z ~ ).Z , l l A J.K._.K.K..XuX.X8X_.P.uXSXDX7X2X2XtXNXeX).7X8X_.8XyXDXBXBXMXXXK.f.K.K. X.X.X.X.X.X.XuXXX_..XuXBXuX_.P.XXuXXXP.f._..XuX.X.X.XuXoX.XK..X.X8X.X8X_.8X8X8X4X2X2X+X+X+X6.#X%X%X%X^ #X%X%X%X#X%X%X%X%X^ ^ ^ W ^ ^ $X7X3X7X;X6.:XrXvXrX:X7X7X;X9XrX9X;X-X0XvXUXrX%X/ 7 7 7 4 7 T / 7 / T T / T / +XrXrX=X3.;X%X%X-XrX9XrXrXtXUXvXrX9X0X-X;X+X+X+X3.^ ^ ^ 3.+X+X+X+X+X+X+X+X+X+X+X#X+X+X+X+X+X3./ / T T / T W T 3.W T 5 7 7 7 d W 6.3.3.d 7 o o 4 4 < o o 7 < : . . W :Xd W W d 7 5 7 7 7 7 : 7 T +X3.+X+X+X+X;X#X+X#X#XW / T +X3.+X+X+X+XT W 3.;X;XrX:X#XUXDX:X6.qXtXeXtX8X_._.).L.~ A / L.L.2X2X+X+X^ ^ / ^ ^ ^ OX).2X^ L.).6.^ 6.^ ^ W ^ ^ W 7 7 4 k W 6.6.3.W 4 : < 7 7 W / ^ 6.).).).).].8X8XeXyXtXtX8X7X2X).$X%X#XOXOX#X^ #X+XOX+X%X^ 6.#X$X#X2X6.%X%X6.OX#X#X#X%X*X9X4X^ +X^ W / / / ^ 6XtXDXUXAXDXSXDXLXDXDXtXtXrXrXrXvXDXLXDXDXtX#X^ +XOX+X^ ^ 6.2XL.#XtXtX8X8X8X.X.X8XyX8X8X8XuX8X8XtXyXuXBXtXL.2X2X2XOX+X+X+X#X#X2X7X8XeX8X8X8X8XL.L.P.J.P./ A V / P.L.P.P..X.X.X.X.X.X.X.X.X.X.X8X.X.X.XP._.yXDXDX2X^ 2X3X#X=X;X=X=X=X=X#X=X-X*X=X=X*X*X%X%X=X;X=X=X=X=X-X=X-X=X-X-X=X=X=X-X=X=X;X;X=X=X=X#X3X*X;X2X6X7X6X-X6X3X3X7X3X7X%X%X^ #X%X2X3X3X2X%X#X$X$X$X%X2X$X",
"+XOX^ OXOXOXOX$XOX>X2XOXOX#X$X$XOXOXOX&X2XOXOX2XOXOXOXOX3XOXOXOXOXOXOXOXOXOXOXOXOXOXOXOXOX4X3XOXOXOX4X4XOX2X&X3XOX4X4XOX4X4X2X4XOX2XOX&X&X&X$X2X2XL.L.tXDXBXuXyXSXBXuX^..X.XoXuXoXoXuXoXuXoXuXoXoXoXI.uXuX.X8X8XL.2X2X2X2X2X2XOXOXOXOXOXOX#X+X+X2XtXvXxX6.wXxXeXvXSXAXxXNXVX8XA V P.K.K.K.I.I.I..XI..XoXoXoXoXI.I..X.X.X.XI._..XuXuXyX8XL.L.).L.2X8X8XZ , l , , A L.yXyX_._.yXyXuX_.J.L.tXtX/ ^ L.6X2X/ ~ ^ ^ I I ~ ~ L.J.L.~.J.N.P._.K.^.K.J.K.K._..X.X_._.XXyX_.L.J.L.J.z Z P.8XP.P._.L._..XL._..XL._.P._._._.L.2X7XOX^ ^ ^ +X^ =X*X%X#X6.^ #X6.+X#X6.6.OXOX^ ^ / / ^ ^ ^ >.^ ^ ^ 3.^ #X;X;X;X;X6X6X7XrXrXrX0XrXrXtXrXrX;X^ W +XT / +X^ W 3.^ +X+X+XW / 3.=X-X=X^ W ^ ^ #X-X-X;X-XrXrXrX-X%X^ #X+X^ ^ 3.+X^ W ^ +X+X6.3.^ ^ +X^ ^ +X^ 3.+X+X+X+X+X+X;X=X=X#X3.+X:X:X:X-X:X;X6.;X6.6.6.6.;X6.6.6.&.^ 3.6.:X7X:Xq.0X0X6.^ 3.0XzX6.'.;X6.3.^ ^ 3.^ 3.^ 3.6.3.#X=X3.+X+X+X3.+X+X+X+X+X+X=X+X^ ^ ^ ^ 3.#X;X;X+X;X3.-XvX0X^ ;X7X7XeX].).L.).8X).).^ 2X2X^ 2X2X^ +X/ ^ ^ ^ ^ ^ L.L.OX^ ).OX^ ^ 6.2X6.-X#X6.6.6.6.^ ^ 3.6.^ 3.^ W 3.:X&.6.6.2X'.).6.).2X2X7X8X7X_.).7X).2X2XL.+XOXOXOX+X+X+X^ +X+XOX6.^ #X^ #X^ #XOXOX%X^ OX6.%X%X^ ^ ^ #X%X%X#X#X%X6.&X^ W ^ $X2X2X6X7X7X2X^ +X^ ~ ^ / / / / / ^ ^ ).6.^ / +X$X+X#X4X%X2XL.^ 7X^ ^ L._.8XeXyXyXuX8XtXyXuXtXuXtX8X7XL.OXOXOX^ ^ ^ +X^ ^ ^ 6.^ 2X8X8XL.L.).7XL.L.^ ^ L.^ / ~ L._.L.L._.L.K.P._.8XP._._.8X8X8X8X8X8X>X_.8XtXtX7X).OX+X+X#X#X#X#X#X#X#X#X%X#X#XOX#X#X#X#X+X+X+X#X#X+X#X#X#X#X#X#X+X+X+X+X+X+X+X+X#X#X#X#X%X%X%X%X%X%X%X#X$X$X*X*X%X%X%X+X#X#X%X%X3X*X*X%X$X%X$X$X%X$X*X",
"#XOX$XOXOX$XOX$XOXOXOXOXOX$XOX$XOXOXOXOXOX+XOXOXOX4XOX2XOXOX2X4X3XOX4XOXOX3X3XOX4XOX2X4XOX3XOX2X2XOXOXOXOXOXOXOX4X4XOXOXOX4XOXOXOXOX&XOX$X&X*X$X2X2X^ 7XNXuXBXDXDXBXyXuXBXuXyXuXoXuXoXuXoXoXI.oXI.uXuX.X.X.XpX8X2XL.^ $X2XOXOX2XOXOXOX2XOX+X+X+X^ / W / Z ^ 6.6.6.eX7X^ Q.eXeX_.J.A J.K._..X.XuXuX.XuX.XuXuXuXuXuX.XuXuXuX8X8X8X8XeXBXtX8XL.^ 7XL.6.^ H Z / Z < , ~ eX8XP.~ / P.P.~ / / ~ / / ^ ^ / 7 / ^ L.~ / ^ ~ ^ ~ ~ ^ L.).L.L.L.L.L.P.L.L.L.P.).L.L.L.).L.L.~ L.~ ~ / ~ 8XL.L./ J.~ P./ P.P./ P./ P.L./ P.L.L.L.L.^ ^ ^ ^ ^ 9XrX%X^ +X#X^ ^ ^ +X^ +X^ +X^ 6.^ ^ 6.2X;X2X;X^ 6.#X6.#X6.+X3.#X6.%X;X;X-X#X6.;X%X;X6.6.%X;X%X=X+X+X+X^ #X+X%X+X=X+X+X+X+X#X=X;X^ +X^ ^ 6.#X6.^ ^ +X6.+XW ^ ^ ^ ^ 3.+X+X+X+X+X+X+X#X^ +X+X+X3.^ ^ ^ +X+X+X^ +X+X+X+X+X=X=X#X6.+X#X;X%X;X=X6.;X;X6X6X7X6.;X).%X%X;X7X0X0X6X0X6X;X-X0X9X0X6X7X6.;X;X6.%X6.7X;X7X=X;X#X;X=X#X#X#X+X^ +X6.+X+X3.+X+X=X=X=X;X+X^ ^ +X+X=X#X3.3.+X+X^ 3./ 6.7X2X^ ).).^ ).L.2X2X2XL.L.L.^ ^ +X^ +X+X+X+X#XOXOXOX^ 2X2X6.).2X^ 6.6.#X*X6.$X3X#X-X9X-X9X7X;X;X#X;X-X6X3X7X;X7X2X;X2X%X6.L.).^ L.^ ^ L.^ ^ ^ ^ ^ ^ ^ ^ ^ +X^ +X^ +X+X^ ^ +X#X^ #X#X^ +XOXOX+X#X$X%X%X#X6.^ +X^ 6.%X%X#X*X#X^ ^ ^ ^ / ^ ^ ^ / ^ / ^ ^ ^ ).^ ^ ^ ^ ^ / ^ / +X+XOX#XOX%X*X$X2X#X2X).L.L.7X^ L.).7X).>XL.L.L.2X8X2X^ ^ ^ ^ L.2X^ ^ +X+X+X+XOXOX2X^ L.7X2X^ L.>X2XL.^ ).^ %X2X#XL.2X).L.2XL.L.L.L.L._.2XL.2XL.L.L./ >XL.L.L.).^ / 2X2X^ ^ =X+X+X^ #X+X#X+X+X+X+X6.+X#X#X^ #X+X+X+X+X#X6.+X+X#X+X+X^ / +XT / +X+X+X+X+X+X+X6.OX+X^ ^ ^ +X^ +X+X6.#X#X%X#X#X%X^ %X%X*X3X3X2X%X%X%X$X$X%X%X%X",
"2XOX2XOXOXOXOXOXOX2XOXOX+X2XOXOXOXOXOXOXOX+XOXOXOXOX@X2XOX3XOX2X&XOX$XOXOXOXOXOX4XOX+X+X+X@XOXOXOXOXOXOXOXOXOXOXOXOXOX+X+X+XOXOX2XOX2XOX&X#X=X$X$X7X^ L.8X8XeXBXuXNXBXDXDXBXyXuXuXuXuXuXuXuX.XuX.XuXuX.XuXuX8XuXtX8X+X+X>X+X^ +X+X@X+X+X+X/ / / / / / 7 / ^ W ~ ^ ^ W W 7 C ~ L.L.A A P.L.P.P._.P._.L.P.I.8X8X.XL.P.8X_.8XL.8XyXuXyXtXtX2X/ / OX^ ^ 6.^ 6.).%X6.7 ^ ).2X/ Z / Z Z / / / ^ ^ ^ OX^ ^ ^ / L.2XL.OX^ 2X2X2XL.L.L.L.L.L.^ L.L.2X8X8X7XL.^ L.7X).2XL.^ ^ ^ ^ ^ OX2X/ / ^ 2XL.L.^ ^ ^ L.^ L.L.2XL.2XL.L.OXL.^ 2X2X2XOX^ 6XrX#X^ #X#X+X+X+X+X6.^ #X#X6.$X6.^ 2X%X2X2X2X#X6.#X%X%X6.#X6.+X6.OX^ ^ ^ ^ ^ ^ +X^ ^ ^ #X%X%X+X+X6.+X^ +X^ ^ +X6.#X^ +X#X;X+X%X6.OX#X#XOX#X+X#X#X+X^ #X^ #X%X+X+X+X+X+X+X+X+X+X+X+X#X6.#X#X+X+X+X+X+X+X+X+X+X+X+X3.+X+XOX+X#X;X;X=X+X%X;X#X#X6.6.#X6.6.^ #X6.%X#X%X^ ^ ^ ^ 3.^ 6.^ 6.6.%X7X;X^ 6.+X#X6.OX^ %X6.^ +X+X+X#X#X^ ^ +X#X^ 6.^ #X#X+X3.#X#X6.+X+X+X#X#X#X^ +X=X#X+X^ ^ ^ #X6X^ ^ ^ OX^ ).OX).^ ^ ^ OXOX^ 2X#X#X=X+X+X+X+X+XOX#X$X6.OX^ OX2X+X+X6.+X^ ^ #X#X^ +X%X%XOX^ ^ ^ 6.%X%X^ +X^ 6.+X^ +X+X^ +X^ +X+X^ ^ L.2X^ 2X2X2XOXOX+X+X+X+X^ +X+X+X+XOX+X^ OX^ #XOX^ #X+X+XOXOXOXOX4XOX*X*X%X#X^ #X%X6.^ 6.$X3X%X%X2X2X^ 6.2X2X7X2X2X4X2X2X7X7X7X2X2X$X^ 2X$XOX^ %X#X+X#X%X%X2X6.2X).2X2X).).^ 2XL.2XL.2X@X^ +X^ ^ 2X2XOXOXOX+X+XOXOX#X$X2X2X2X2X2XL.^ 2XOX#X#XOXOX+X#X#X#X#X#X^ 2X2XOX2XL.2X2X2XL.2XL.OX>X^ OX2X>X^ ^ +X^ ^ 2X+X+X#X;X+X+X+X^ +X+X+X+X+X+X#X+X6.+X#X#X+X#X#X#X+XOX+XOX=X%X=X#X#X^ ^ ^ +X+X+X+X+X+X+X+X#X^ #X^ OXOXOXOXOX#X#X%X$X$X%X2X+X#X%X%X;X%X%X%X$X%X#XOX6.%X#X",
"+X+X+X+XOX+XOX^ OXOXOXOXOX+X+X+XOXOX+X+X^ OX+X+XOXOXOX+XOXOX+X+X+X+X+X^ +X^ +X+XOXOX+X^ ^ +X+X+X^ +X+XOX+X+XOXOX+X+X+X^ @X^ +X+XOXOXOXOXOXOXOX#XOX#X^ ^ ^ / L.7X8XyXBXBXBXuXuXuXuXuXuXuXuXuXuXuXuXuXuXuXuX8XtXuXNX7XL.@X^ ^ / / +X^ ^ @X/ @X+X/ / ^ ^ ^ 6.OX^ / / T W ^ ^ ^ ^ ~ / ^ ^ ~ / ~ / P.P./ L.P./ P.P./ P./ P.L.P.L.L.>X8X>XL.L.L.^ ^ ).^ ^ ^ ^ ^ ^ #X2X4XOX^ 2X^ ^ ^ 2X+X^ 2X2XL.^ OX^ +X4X4X2X2X2XL.OX2X3X2XL.OXOX2X2X2X2X).OXOXL.^ 2X2X2X).#X2X2XOXOX2XOX2X#X^ ^ ^ ^ ^ 2X4X4X2XOXOX^ +X>XOX2X2X2X2XL.L.^ OX2X2XOX2X2X%X=XOX6.#X%X6.#X#X#X+XOX%X%X#X%X$X$X2X^ ^ %X%X%X;X#X^ 6.+X6.#X%X#X#X%X6.%X6.#X#X6.2X-X-X;X&X6.^ +X+X#X#X#X+X+X^ #X#X+X+X+X+X6.+X%X^ OX#X^ OX6.$X#X#X6.#X%X#X%X*X;X+X+X#X+X+X^ +X+X6.+X#X+X#X^ #X+X+X=X+X+X#X#X+X+X+X+X+XOXOX=X#X+X;X#X;X#X#X6.+X#X#XOXOX#X%X%X%X#X6.#X+X+X^ ^ +X+X%X6.+X+X+X6.^ #XOX2XOX^ OX+XOX+X#X#XOX+X#X#X#X#X#X#X#X+X#X#X*X+X+X#X#X+X+X%X%X%X%X#X#X+X=X+X^ #X4X-X=XOX^ ^ OXOXOXOX&X#XOX$X2XOXOX#X#X=X=X=X=X=X+X=X=X#X%X2X$XOX^ ^ OXOXOX&X+X*XOXOX$X+X#X2X$X+X+X^ #XOX#X%XOX+X#X#X#X#X+X+X+X^ ^ +XOXOXOXOXOXOX&X2XOXOXOX=XOX#X+X#X#X#X#X#X#X%X#X$X$X%X2X$X*X%X$X$X%XOXOXOXOX=X*X2X*X-X%X%X#X%X#X%X%X%X%X%X6.2X2X$XOX$X2X6X7X%X#X^ +X^ ^ ^ +XOXOX+XOX$X$X*X$X^ #X%X6.2X2X2X2X$X2X%X#X$XOX4XOX2X2X2X4X2X6.+X+X4XOX2XOXOXOX+XOX2XOX2X2X2X2X2X2XOX6.#X#XOXOX+X+X+X+X#X^ ^ +XOXOXOX^ OXOX2X2X@X#X2XOXOX2XOX4XOX^ 2X2X2X2X#X#X+X+X#X+X+X+X+X+X+X=X=X#X#X+X+X+X#X#X=X=X#X#X=XOX=X=X%X=X-X=X-X=X=X=X+X+X#X#X#X#X+X+X#X#X#X#X#XOX&X4X#X%X#X#X^ $X$X%X6.OX6.%X%X%X6.%X$X6.%X6.OX#X%X",
"+X+X+X+X^ +X+X+XOXOXOXOX2X+X+X+X+X^ OX+XOXOX+X+XOXOX+X+X+X+X+X+X^ ^ @X+X^ +X+X+X+X+X^ +X^ +X+X+X@XOXOX+X+X+X@XOX@X^ ^ ^ ^ +X+X^ +X@XOXOX+X+X+X#X$X+X^ ^ ^ ^ L.2X2X8XtX8X8X8X8X8X>X8X8XuX8X8XuX8X8X8X>X8X8X_.8X8X8X>X@X^ ^ ^ ^ +X^ +X/ +X+X+X+X+XOX9X2X^ 6.#X#X6.6.+X*X7X6X7X6.^ ^ 7X7XL.L.^ L.L.+XL.L.2X>XL.>X^ L.L.^ 2X2XL.2X^ 2XL.L.^ 2X2X3X&X-X=X+X+X+X+X#X%X-X+X^ ^ ^ OX4X4XOXOXOX2X+X+X@X2XOX^ +X2X2X^ ^ ^ ^ +X+X+XOXOXOX2XOXOXOX$X2XOX^ ^ +X$X=X#X#X^ ^ OXOX+X^ +X2XOX+X+X2XOXOX+X+XOX@X^ +X+XOXOXOX2XOX@X^ @XL.OX^ ^ ^ 2X3X%X+X#X3X%X#X*X%X%X=X*X*X%X%X$X^ 2XOXOX^ 2X*X%X*X;X#X#X#X#X+X6.^ #X#X#X6.#X#X;X%X#X%X#X%X%X%X^ +X+X=X=X#X#X#X#X+X+X6.+X#X#X=X#X%X#X#X+X#X^ OXOX6.+X#X#X#X#X#X$X+X+X+X+X+X+X+X+X#X+X+X#X+X+X^ +X+X=X+X+X+X#X#X#X=X+X+X+XOXOX&XOX#X=X=X+X*X*X#X$X#XOX+X+XOX%X$X$X^ 2X&X3X4X*X=X=X$X2X$X3X5X*X*XOX$XOX3XOX2XOX3X4XOX=X=X=X=X+X+X=X*X%X#X#X#X=X$X$X=X=X=X*X+X#X#X%X$XOX=X&X#X-X+X+X=X&X&X4X2X^ +X&X=X=X&X&XOX+X+X+X#XOXOXOX#X#X=X=X=X=X=X=X2X&X3X&X2X#X2X&XOX=X&X=X#X$XOXOX2X&X$X=X4X4X9X4X&XOX&X&X#X#X=X=X-X-X=X=XOXOX&X&XOX4X2XOXOXOXOXOXOX&XOX=X=X=X#X#X#X#X#XOX#X$X$X%X2X$X$X2X2X2X3X$X&X$XOX4X*X#X%X%X*X%X+X^ #X%X#XOX%X$X*XOX2X6.$X$X$XOX6.#XOX^ +X^ ^ OX#X#XOXOXOX2X$X+X+X#X#XOX#X2XOX2X3X$X%X*X$X=X&X&XOXOXOXOXOX=XOX=X&X&X4XOXOXOXOXOXOX@X+X2XOX2XOX2XOXOXOXOX+X+X+X#X#X#X#X+X&X#XOXOXOXOXOXOXOX2XOXOXOXOXOXOX2X2X2X2X4XOX4X2X2X2X=X+X+X+X=X+X+X=X=X+XOX+X+X+X#X+X+X+X+X+X=X+XOXOX+X+XOX+X+X^ +X#X#X#X#X#X;X+X#X#X#X+X#X+X^ OXOX$X#XOXOXOX$X2XOXOX#XOXOXOX+XOX^ #X+X#XOX$X#X$X#X%X$X$X#X",
"OXOXOXOXOX2XOXOXOXOXOX2X2XOXOX+XOXOXOXOXOXOX2XOXOXOX+XOXOXOX+X+X+X+X#XOXOXOXOXOX+XOXOX+X+XOX+XOXOXOXOXOX+X+X^ +X+X+X+X+X+X+XOXOXOXOX2XOX#XOX=X&X#X+XOX2X2X2X2X2X7X2X2X2XL.>XL.^ J.L.L.L.>XL.L./ L.P.P.^ P.L.L.>X^ L.OX+X+X+XOX+X+X+XOXOX+X=X=X+X=XOX+X2X4X2X9X5X6X5X%X;X6X6X3XrX7X7X3X2X2X2X2X4X4X4X4X2X2X2X4X2X2X2X>X2X3X>X2XOX^ L.2X2XOX2X$X=X+X#X#X=X$X#X*X*XOXOXOX=X3X3X4XOX+XOX+X^ OXOX^ OXOX+XOX2X^ OXOX+XOX&XOXOX4X4X4XOXOXOX&X&X&X&X&X*X$X2X-X=X=X+X+X#X3X2XOX2X2X2XOX2XOX2XOX2XOXOX$X$X+X+XOXOX4X&X2X2X2X2XOX2X2X2XOXOX2X3X*X#X2X%X#X2X%X%X*X3X3X3X2X#X2XOXOXOX#X%X$X$X%X=X=X;X5X5X=X#X%X#X$X$X&X#X%X%X%X2X%X%X*X$X2X%X=X=X=X=X=X#X6.=X#X#X#X#X^ #X%X=X$X%X#X#X%X#XOXOX#X+X#X#X#X#X6.#X;X+X+X+X+X+X+X+X#X+X#X+X+X+X#X#X#X;X+X+X#X=X=X=X+X+X=X=X&X&XOXOX=X=X=X+XOXOX#X$XOXOX+X#X&X&X$XOXOXOX&X&XOXOXOXOX#X$X#X&X%X+X%X=XOX2X2XOXOX3XOXOXOX=X+XOX*X#X#X-X*X#X+X#X+X#X%X%X=X=X=X=X#X#X#X#X3X^ =X=X+X=X+X=XOX&X&X&XOX4X=XOX=XOX#X=X=X#X#X#X#X#X*X*X#X#X+XOX=X=X=X=X3X3X3X2XOX$X3X=X&X&X=XOXOX&X&XOX&XOX+XOX+XOXOXOX&XOXOX&X#X=X#X=X=X=X=X=X&XOX&XOX&XOXOXOXOXOXOXOXOX=X=XOX#X=X;X#X#X#X6.OX#X$X$X$X#X$X#X%X$X$X$X$X$X&XOXOX#X#X#X#X#X+X+X#X^ OX$X%X%X&X&X&XOX#X#X#XOXOXOX#X+X+X#X*X%X#X#X#X2XOX+X+XOX#X#X+X$XOXOX$XOXOX4XOX#X#X=X#XOX+X+XOXOXOX+X+X+X+XOXOXOXOXOXOX2XOXOXOXOX2X2XOXOXOXOX+XOXOX#X+X^ +X+X+X#XOXOX2XOX+XOXOX2XOX^ OX2XOXOXOX4X2X2XOX^ OXOX2XOX2XOX+X+X+X+X=X+X+X=X+X=XOX+X+X+X#X+X+X+X+X+X+X+X+X+XOX+X+X+X+X#X+X#X+X+X+X+X#X+X#X#X=X#X#X#X#X+X^ OX^ $XOXOXOX%XOX^ OX^ OX^ +XOXOX#XOX%X%X$X2X%X$X%X#X%X2X$X",
"2X2XOXOXOX2XOX+XOX2XOX4XOX3XOXOXOX4XOX2XOX4XOX4X2X$X3XOX3X3XOXOXOXOXOX4XOX4XOX4XOX2XOX4XOX2XOXOX3X2XOXOXOXOX&XOX2X2X4X4X4X>XOXOX2X2X3X3XOXOX&X&X4XOX4X4X4X3X2X2X2X2X2X2X2X2X2XL.L.>X^ 2XL.>X2X2X>X2X>XL.>XL.2X>X2X2X2X2X4XOX4X4X4X3X*X5X4X&X4X4X4X4X2X3X9XrX7X9X=X=X=X-X4X*X2X3X*X-X*X4X4X=X4X=X4X4X&X>X4X>X=X4X4X>XOX=X4X4X4X>X>X2X4X4X4X2X2X4XOX4X&XOX2XOX2X>X5X4X2X$X2X&X&X&XOX4X4X4X4X4X4X4X4X4X2X4X2X>X3X2X&X&X=X=X&X&X&X&XOX4X4X4X4X4X4X4X$X3X3X4X4X4X=X#XOX2X2X2X2XOXOX2X2XOXOX2XOX4X2X&X2XOX=XOX2X>X$X3X2X2X2X2X$X2X$X$X-X3X3X*X$X2X%X$X*X$X%X*X3X3X*X%X$X&X&X&X&X$X2X&XOX3X&X&X4X3X$X#X#X6.2XOX$X$X$X2X#X$X%X2X$X$X$X$X$XOXOX#X&X&XOXOX#X%X4X&XOX+X#X*X3XOXOXOXOX2X2XOX&XOX3XOXOXOXOXOX+X#X#X#X#XOXOXOX#X#XOX#X#X#X#XOX#X#X#X#X#X&X&X&X$XOXOXOX+X+XOXOX#X#X#X#X#X+X#X=X+XOX#XOX+X+X+XOXOXOXOXOX&XOX&XOX=XOX=XOX&X#X#X#XOXOXOXOXOXOXOXOX=XOXOX#XOX+X#X*X*X#X+X#XOX+X+X+X+X+XOXOX+XOX#X$X2XOX$X$XOXOXOXOX+XOX=X#X&XOXOXOX+X+X=X+X=X+X+X=X&X4X4X3X&XOXOXOX+X#XOXOX$X3X2XOX2XOXOXOX4XOX=XOXOX#X&XOX#X+XOX=X^ +X+X+X$XOXOX&X#X#X%X*X#X#X#X$XOXOXOXOXOX=X=X=XOXOX+X+XOXOX&XOX#X+X+X>X2XOXOXOXOX#X$X$X=XOXOXOX=X4XOX=XOXOX&X&X%X#XOX#X#X#X+X^ OX=XOXOX=XOXOXOXOXOX&X+XOX+X+X#XOX&X&X=X#X=X#X#X^ OXOXOXOXOXOXOXOXOX=XOXOXOXOXOX&X=X=X&XOXOX+X+X+X+X+XOX+X+X+X+XOX+X+XOXOX&X2XOXOX2X$X&X=X+XOXOXOX^ OXOXOXOXOXOX=XOX4XOXOX&X@XOX^ OXOXOXOXOX2X+XOX2X2XOXOX2XL.OXOX2X&X&X#XOX+X+X+XOXOX=X+X=X=X=X+X#X#X#XOXOX=XOX+XOX=X+X+X+XOXOXOXOXOXOX+X+XOXOX+X#XOX=XOXOXOX=XOX4X4X4XOXOXOX2XOX2X4XOX4XOXOXOX%X$X$X$XOX2X&X3X#X$X3X*XOX4X3X",
"OXOXOX4X4XOXOX4X4XOX4XOXOX4X3X4X4XOX4X4X4XOX2X4X2XOXOX$X2XOX2XOXOXOX2XOX2XOX2XOXOXOX4XOX3X3X3X3XOXOX2XOX&X5X9X9X4X4X2X4XOX2X=X=X3X&X2X4X4X4X=X&X=X=XOX=X&X&XOX3X2X2X2X4X2X2X>XOX2X2X2X2X2X2X2X>X4X2X2X2X8X7X2X2X7X4X4X4X4X4X4X4X5X3X-X5X4X4X4X4X4X5X5X6X9X#X/ / / +X+X=X4X=X%X#X-X5X5X=X5X9X4X9X4X&X=X=X&X&X=X&X4X4X4X4XOX4X4X4X4X3X4X4X4X9X4X4X&X4X4X4X2X4X2X4X6X4X6X3X2X&X4X*X4X4X4X4X4X4X4X4X4X4X7X4X4X4X6X2X4X&X=X4X4X=X4X4X4X4XOX4X2X3X2XOX*X2X2X3X6X5X5X3X4X7X2X2X2X2X2X2X4X2X4XOX2X3X2X&X>XOX=X4X4X2X2X4X2X4X4XOX2X$X2X&X6X3X6X2X%X%X$X3X3X*X3X2X2X%X2X$X&X2X2X3X3XOX&X&X4XOX3X3X5X4X*X$X#X$X$XOX$XOX$X$XOX#X$X#X&X&X$X$X+X+X+X#X#X&X&X=X4X5X9X4X#XOXOX#X3X2X3XOX4XOXOX3X3XOX2XOXOX2XOXOX;X#X=X=X&X$X%X#X#X#X#X#X$X&X#X#X=X=X$X#X#X&X$X$X#XOX$XOX+X+XOXOX=X#X#X#X#X+X#X+X#X#X=XOX#XOX#X#XOXOXOX&XOXOXOX=XOX&X&XOX#X#X#X&XOXOXOX$X&XOX&XOX=XOX#X$X#XOX#X*X&XOX+XOX#X#XOXOX#X#X%X#X#X#X%X$X$X$X$X$X#X&X#X#X#X=X#X=X#X#X#X#X=X+X+X+X+X=XOX=XOX&X&X&X*X*X3X2X4X*X2X2X2X2X2X2XOX2X4XOXOX4X&XOX#X#X#X&X#X$X*X*X=X&XOXOX&X&X&XOX#X#X*X*X=X#X#X#XOX&X&X=X=X=X=XOX=XOX=X+X=XOXOXOX=X=X=X4XOXOXOXOX2XOX$X&X&XOX=X&X4XOXOX4X&X&X&X&X*X*X$X$X*X=X&X=X=X=X=X=X4X=X=XOX=X4X*X&X&X#X#X#X=XOXOX#X#X#X&X&XOX2X2X3X=X=X=X=X=X=X&X=X=XOXOXOXOX=XOXOX=XOX&X&X&X&X4X&X>X=XOX=X&X&X&X&X=X>X4XOXOXOX&X&X=X=X=X=X2X2X2X2X>X&X=X=X=X4XOX4X&XOX=XOXOX2X4XOX2X+X^ >X2X2X2X2X2XOXOX2XOX4X4X=X=X=X#X#XOXOXOX+X+X+XOXOX=X#X#X#XOX&XOX=XOXOX=XOX=X+X=X+XOXOX&X=XOX=X&X=X#X#XOX=XOXOXOX=XOX4XOXOXOXOXOXOXOXOX3X3XOX4X4X4X2X&X*X3X3X3X3X&X3X2X2X$X4XOX3X",
"2XOXOX4X4XOXOX4X4XOXOX4X2XOX4XOX3X3X4X4X4X4XOXOXOX#XOX$XOX3X4XOXOX4X2XOXOXOX4XOX4X4XOX4XOX3X&XOXOXOXOX+XOX>X9X4X4X4XOXOXOX4XOX4X2XOX4XOX3X&X4X&X4XOXOX4X3X&X&X3X4X4X2X4X3X2XOXOXOXOXOXOX+X2XOX4XOX+XOX2X2X2X4X4X4X4X4X4X4X=X4X4X-X*X*X*X4X5X4X=X3X4X6X5X=X+XT 7 / / ^ OX*X$X%X%X4X5X5X9X9X=X9X=X4X4X=X=X&X4X4X=X4X4X4X&X4X4X4X4X5X4X&X4X9X9X4X4X*X4X2X4X4X2X2X2X2X4X7X>X4X2X3X$X4XOXOX4X4XOX2XOX4X4X4X4X2X4X2X3X4X4X4X=X&X4X4X4X4X2X2X2X4X2X2X2X2X2X2X6X7X9X9X6X5X4X6X4X3X4X4X3X4XOX4X4X4XOX=X2X4X2X4X4X2X4X6X2X2X4X4X2X3X2X*X2X6X6X5X3X$X$X2X*X*X2X2X$X#XOX%X*X4X4X&X&X*X&X&X3XOX3X4X4X*X*X=X&XOXOX3XOXOXOX&XOX&XOX$X2X2X&X&X2XOXOX&X*X&XOXOXOX*X4X5X4X&X$X$XOX4X3X2X2X3X2XOX3X3XOX3X2X4X&X4X3X#X=X=X=X&X&X$X&X$X$X%X$X&X&X&X&X=X=X#X#X%X*X$X$X*X*X3X&XOXOXOXOX=X=X=X#X#X#X#X=X#X#X*X&X=X&X=X*X=X&X=XOXOX&X=XOX&X&X=X=X#X*X=X*X&X&X&X=X*X&X&X&X*X*X*X=X*X*X*X*X4X&XOX&X*X&X$X#X#X$X&X&X$X$X$X$X$X%X$X2X&X&X&X=X*X&X=X&X#X#X&X=X+X=X=X=X=X@X=XOX&X&XOX3X3X4X4X4X3X4X4X4X4X2XOX4XOX4X3X&X4X=X&XOX*X*X*X*X-X*X9X9X4X*X=X&X=X=X*X*X*X-X-X*X*X*X3X$X=X=X&X*X*X&X&X&XOX=XOX&XOX&XOX&XOXOXOXOXOXOXOX4X3XOX&XOX=X=X&X&XOX4X4X4X4X4X4X4X3X$X$X$X&X4X4X3X=X+XOXOX&X=X&X4X&X&X&X=X&X=X*X=X=X4X=X=X&X&X&X&X4XOXOX4X>X=X4X4X4X=X4X4X=X&XOX&X=X&X&X&XOX=X&X4X4X=X9X4X4X*X4X&X&X=X=X4X=X4X4X&X2XOXOX&X=X=X=XOX=XOXOX3X4X=X=X=X&X&X=XOX&X&X&X&X2XOX4X4X&X&X2X3X5X5X9X9X4X4X4X4X3X4XOXOX&X&X#X=X4X4X4X=X=X=X=X9X*X=X#X=X=X4X=X=X4X=X&X&X=X=X&X&X=X=X=X4X=X4X4X9X-X=X9X4X4X=X4X4X4X4X4XOXOX+XOXOX4XOXOX4X4X4X4X4X4X4X4X3X4X4X=X=X4X4X$X3X4X4X4X",
"OXOX4XOXOX4XOXOX4XOX2XOXOX4X3X2X2X4XOX4X2XOX4XOXOX$X2X&X4X4X4X4X3X3X4X3X4X3X4X4X4X4X3X3X2XOX&XOXOX2X4X+X+XOXOXOXOXOX4XOXOXOX2X4X&X3X3X2XOX3X4X4X4X4X4XOX4X&X3X3X4XOX4XOX&X&X$X$X3X2X4X&X2XOX4X4X+X@X^ +X$X>X4X4X4X&X&XOX&X3X3X4X%X%X*X&X-X-X4X=X4X4X3X=X=X9X=X=XOX2XOX2X3X3X3X*X*X-X=X9X=X9X=X9X9X=X=X=X=X&X=X4X4X&X4X4X4X4X5X4X&XOXOX=X4X4X4X4X*X>X2X2X>X2X4X2X2X2X2X2X2XOX2X2X4X4X2X2X4X4X4X4X2X2X2X2X2X2X2X2X=X4X=X4X4X4X2X4X&X>X4X2X4X4X4X2X3X2X&X3X9X6X6X2X3X=X4X4X3XOX4X4X4XOXOX4XOX4X*X4X4X4X4X4X4X4X7X4X4X2X4X4X*X2X*X%X2X3X4X3X%X%X$X*X2X$X#X$X#X%X2X3X3X3X=X3X&X$X&X&X4X4X3X2X4X4X4X3X3X3X3X2X2X&X$X&X2X&X&X2X4X4X4X4X5X5X4X4X&X#XOX&XOX#X&X$X&X3X=X&XOXOX4X2XOX3X4XOX2X3X3X4XOX3XOX2X&X=X=X;X&X&XOX&X&X&X$X&X&X&X&X&X=X=X=X#X$X&X*X$X3X3X3X4X4X4X4XOX#X=X;X=X=X#X=X#X#X=X&X*X=X-X3X4X4X4X=X4X&X&X=X&X&X*X&X&X#X*X*X*X=X4X*X4X4X4X3X&X4X4X5X6X3X3X*X5X5X4X=X4X3X*X&X&X$X$X$X&X$X&X&X&X$X2X$X$X&X&X&X=X&X*X&X=X=X&X=X=X=X=XOX=X=X&X&X&X2X4X4X2X3X2X2X2X&X$X2X5X4X3XOX2X2X2X4X2X4X>X2X&X*X*X5X-X3X4X5X6X*X=X#X&X$X$X*X3X*X3X6X3X2X3X6X4X4X4X&X&X*X3X=X&X&XOX&X&X=X=X=X=XOX&X4XOXOX4X4X2X4X3XOX3X=X=X>X&X4X&X&X&X&X&X4X4X*X#X#X$X&X3X3X=XOX+X+X=X4X=X=X&X5X4X5X5X4X5X5X5X4X4X=X4X*X*X=X&X4X4X4X4X4X4X4X4X4X4X=X4X4X&X4X4X4X=X4X&X&X&X4X&X4X>X=X4X4X>X4XOX&X&X4X4X4X4X4X4X4X4X&X&X&X=X=X=XOXOXOX4X4X4X=X=XOX=X=X=X&X=X&X=XOX4X4XOX4X&X4X4X5X5X4X4X4X4X4X4X4X4X4XOX&X=X&X=X4X=X4X=X=X=X=X=X4X=X=X=X4X4X4X=X4X&X=X&X>X=X&X&X=X&X4X4X4X4X=X9X-X9X=X=X4X4X9X9X4X9X4X=X>X&X4X4X4X4X&X4X=X>X4X=X4X4X4X4X4XOX4X>X2X3X$X&X4X4X=X",
"4X4X4X4X4XOXOX2X4XOX4XOX4X4X4X4XOX4XOX3X2XOX4XOXOX2X3XOX3X4X3X3X4X4X3X4X2X4X3X4X4X4X4X2X2X2X&X2X4X4X4X4XOXOXOX2X4X4X4X4X4X2X4X2X4X4X4XOX4X3X4X3X4XOX4X4X4XOX3X&X*X*X3X3X3X4X*X4X5X9X5X5X5X4X5X5XOX=X4X2X4X4X4X4X4X&X=X=X9X=X4X2X-X5X5X-X=X4X=X4X4X4XOXOX4X9X9XtX9X9X5X9X9X9X6X=X*X-X*X5X5X*X4X=X=X4X=X&X=X4X4X4X=X4X4X4X=X4X4X4X&XOX4XOX4X4X4X4X3X3X2X2X2X4X4X4X3X4X4X4X2X2X2X4X4X2X2X4X3X&X*X*X4XOX4X4X3X2X2X4X4X4X=X=X9X=X4X4X4X4X4X4X4X9X4X4X2X2X3X6X7X4X2X^ OX=X*X*X*X*X*X*X4X=X&X=X-X*X*X5X2X4X4X4X4X4X2X4X4X2X3X3X2X*X*X*X#X2X4X4X2X3X2X3X2X3X3X4X6X6X4X6X4X4X4X2X$X2X3X3X4X4X4X4X4X4X4X4X3XOX4X&X&X&X&X3X&X4X&X4X4X4X4X5X9X4X&X4X*X*X*X*X&X&X&X&X&X3X4X4X2X4X4X4X2X3X&X3XOXOX3XOXOX4X2X3X&X=X4X&X&X&X&X&X&X&X&X&X&X&X4X4X&X&X&X&X*X*X3X3X*X*X%X3X4X4X2X&X#X$X&X*X=X=X=X#X&X=X&X&X=X4X=X=X=X4X4X4X=X4X4X&X*X*X*X*X#X*X*X*X3X3X3X2X4X3X4X3X7X4X4X4X3X3X3X3X&X4X4X4X4X&X&XOX&X$X$X&X&X&X&X&X2X*X&X&X3X&XOX=X&X&X4XOXOX&XOX&X$X$X$X$X=X&X&XOXOX4X4X4X3X3X4XOXOXOX=X4XOXOXOX4X3X4X4X3X2X3X4X3X*X*X6X2X&X$X*X3X*X*X-X*X=X=X#X#X*X2X*X%XOXOX2X4X3X2X4X2X3X3X2X*X&X&X4X4X4X4X4X=X=X4X4X4XOX4X4XOXOX4X&X&X&X&X4X&X&X&X&X&X&X&X=X=X3X&X3X&X3X4X3XOX>X=X+X=X9X=X&X&X4X4X4XOX=X&X&X&X=XOX=XOX&X*X4X4X4X4X4X4X4X&X4X9X4XOX+XOXOX=X4X4X4X4X4X4X=X=X&X=X&X&X&X&X4X4X2X2X&X&X&X&X&X*X4X5X4X3X&X3X4X-X=X=X=X=X=X4X4X4X=X=XOX=X=X=X=X=X&X&X&X&X&X&X=X&X4X=X4X*X=X=X=X*X-X*X4X9X5X3X4X4X=X3X&X=XOX&X=X4X=X=X=X&X&X&X&X4X=X9X4X&X&X&X=X&X&X&X>X=X=X=X=X>X=X=X=X=X=X=X&X=X&X&X4X4X4X=X4X4X4X=X>X&XOX4X4X&XOX=X2X2X>XOX=X=XOXOXOX4X4X4XOX>X=X",
"4XOXOXOX4X2X4X4X4X2XOX4XOX2X4X4X4XOXOX4X2X4X2X4X4X4X4X3X2XOXOX2XOX2X4XOXOX3XOX4X4X2XOX4X4X4X4X5X>X2X4X5X4XOX2X4X>X4X4X4X9X4X4X4XOX3X4X2X4X3X3X2X2X4X4X2X4X2X3X&X3X4X-X3X4X5X9X6X5X4X4X4X4X3X3X4XOX4X4X4X4X4XOX4X9X4X9X=X=X9X7X4X9X9X9X9X4X&X4X4XOX4X4X2X4X4X=X=X4X3X4X4X9XrX5X*X*X*X-X5X-X4X=X4X4X=X4X&X&X4X4X4X4X4X4X5X4X4X3X3X&XOX4X4X4X4X4X4X2X3X3X3X4X4X4X=XOX&X=X=XOX3X2X4X2X2X4X2X2X*X2X*X4X4X4X4X4X3X3X3X4X=X9X-X5X5X4X5X3X4X4X6X5X9X5X4X*X4X4X6X4X4X2X#X=X*X=X=X=X=X*X$XOXOX=X4X*X*X*X6X8X4X2X4X4X7X6X3X3X4X3X2X*X3X3X2X3X3X6X7X6X5X6X4X4X3X3X5X9X9X4X6X4X4X4X4X3X3X4X4X4X4X4X2X4X7X4X6X4X4X4X4X4X4X*X&X4X&X4X*X*X*X=X4X5X4X&X*X4X*X4X4X4X4X=X&X&X4X5X5X9X9X9X4X3X$X3X&X4X3X4X3X3X4X4X4X4X4X4X5X4X&X&XOX&X3X4X4X&X&X4X4X3XOX3X3X3X3X3X3X*X*X*X*X4X5X*X$XOXOX$X&X=X=X=X#X=XOX&X&X&X&X&XOX4XOX=X4X4X4X4X=X&X*X*X&X#X#X*X*X4X3X3X*XOX2X3X2X4X4X4X4X3X3X&X2X&X4X4X4X&X&X4X4X&X3X&X&X&X4X3X3X2X*X2X3X4XOXOX>XOXOX4XOX&XOX=XOX$X#X$X$X=X=XOX4XOX&X4X3X2XOX4X4X4X=XOXOXOXOXOX4X&X*X3X*X$X*X3X=X$X*X4X4X3X$X$X3X*X5X-X-X5X5X*X#X3X4X2XOX+XOX&X3XOX3X2X6X3X3X%X#X&XOXOX&X&XOX=XOX&X4X4X3XOX2X4XOX4XOX&X&X&X&X&X&X4X&X&X&X=X&X4X=X3X2X4X5X4X3X4X3X4XOX+X=X&XOX&X4X=X&XOX4X=XOX&X*X4X&XOXOXOX&XOX&XOXOX4X&X&XOX4X4XOXOX@XOXOXOXOX4X&X&X&X&X=X=X&XOX&X&X&X&XOX4X4X4X4X=X&X&X&X&X*X5X3X&X&X&X*X4X&X&X=X=X=X&X=X=X&XOXOXOXOX=XOX+XOX&X&X&XOXOXOX=X&X=X*X&X=X*X*X=X=X&X5X5X5X=X4X*X&X&X&X&X&X&X=X=X4X=X=XOXOX&X&X&X=X=X4X&X=X=X&X&X=X=X=X=XOX=XOX&X=X=X&X=XOX+X+XOXOX=X&XOX&X>X4X&X&X>XOXOXOXOX&X&X>XOX4X4X4X4X4X4X4X4XOX4X4X4XOX+XOX",
"4XOX4X2XOXOXOX4X4X2XOX4X4X4X4X4X2X4X4X4X4X4X4X5X4X4X4X3XOX2X4X4X2X3X4X4X4X3X2X4X3X3X4X4X4X4X4X4X=X&X&X3X2XOX4X4X*X3X4X4X4X4X4X2X4X3X3X4X2X4X2X2X4X4X4X2X4X4X3X3X=X*X*X*X*X=X*X*X4X*X3X4X4X3X3X6X4X4X4X4X4X4X4X4X=X9X=X9X4X4X5X4X9X9X5X*X&X4X=X=X4X4X4X4X9X4X2X&X$X#XOXOX=X6X-X*X%X*X=X5X4X*X&X=X4X4X=X&X=X=X4X4X4X4X4X5X4X4X3X&X&X=X4X4X2X4X4X2X$X3X4X4X4X&X9X=X=X=X=X=X&XOXOX4X5X9X9X6X6X6X5X5XOX=X4X4X2X2X3X&X4X5X=X=X=X5X5X5X*X*X4X3X9X=X*X5X-X4X-X*X*X*X3X4X*X-X*X*X*X*X%X*X*X$X4X4X2X-X4X5X4X4X4X3X5X4X6X3X2X3X2X%X3X6X7X6X6X6X4X4X6X6X4X3X4X7X7X6X7X6X4X2X4X4X7X9X4X6X4X5X7X4X4X4X4X4X4X6X3X4X4X5X4X4X4X4X4X4X*X&X&X*X4X4X4X-X4X5X4X*X=X4X5X-X*X*X*X5X9X5X4X6X6X4X3X3X2X2X3X4X2XOX6X7X5X4X6X4X5X4X4X&X3X&X3X3X4XOX3XOX4X4X3X4X3X4X3X*X-X3X*X*X5X5X4X4X4X4X&X&XOX&X&X&X=X&X4X4X&X&X4X4X&XOX=X4X=X&X=X&X4X=X=X=X=X&X#X&X*X*X4X4X3X2XOX4X2X4X2X4X4X4X3X2X2X&X4X4X4X4X4X5X4X4X4X4X4X4X4X4X3X*X$X*X2X&X4XOX4XOX&XOX4XOXOXOX4X4X2X3X2X3X3X4X4X=X&X&X4XOXOX4X4X4X4X=X=XOXOX=X4X4X=X5X3X*X*X*X*X*X3X4X5X4X3X3X3X4X6X3X+X#X*X5X6X3X5X5X4XOXOX4X4X4X2X&X4X4X5X4X3X2XOX4X4XOXOX4X4X>X2X4X4X2X4X4X4X4X4X4XOX&X&X&X&X&X4X4X&X&X4X>X=X=X2X4X2X>X4X4X4X2X&X&XOXOXOX&X=X4X4X4X4X9X9X9X9X9X4X4XOXOXOX=XOXOXOXOX4X&XOXOX&X4X&XOX4XOXOXOX4X&X=X=X&X&X=X=X=X=X&X=X=X&X4XOX2X4X4X4X4X*X&X=X=X*X=X*X*X$X=X&X=X=X&X&XOXOX&X=XOX&XOX&XOXOX=X&X&XOX&XOXOX2XOX4XOXOX#X$X=X*X*X&X#X+X4X4X4X2X&X&X&X*X&XOXOXOX&X&X=X=X4XOX4X&X&XOX=X>X4X>X=X=X>X=X9X=X&X&X=X&X&X&X=X=X&X>X=X=X&X4X&X&X>XOXOX4XOX>X&XOX&XOXOX4X=XOX&XOX2X>XOX4X4X>X=X4X4XOX4X4XOX>XOX",
"2X4X4X4XOX+X+X2X4X4XOXOXOX4X4X2X4X4X4X9X9X9X9X4XOX2X3X4X4X4X4X4X4X4X4X4X4X3X3X4X2X4X4X4X3X3X3X3X&X&XOX+XOX4X4X4X3X3X3X4X4X4X2X4X4XOX3X4XOX3XOXOX2X2XOX2XOXOX2X#X%X*X#X$X#X#X#X=X#X%X%X3X&X2X%X3X9X4X4X2X2XOX2X4X=X=X=X=X=X4X4X4X&X&X=XOX&X4X4XOX>X4XOXOXOXOXOX&X$X&X=X&XOX$X#X+X#X&X*X4X4X&X&X&X=X=X=X&X&XOX=X4X=X4X4X4X4X&X&XOXOX&XOX4XOX4X4X4X$X*X=X5X=X*X-X9X=X5X9X5X4X4XOX4X3X4X7X5X4X4X3X*X5X4X=X5X4X4X3X3X=X=X=X9X5X5X5X4X*X*X3X*X*X-X*X=X-X*X*X%X#X=X5X6X3X4X=X*X*X%X*X3X3X*X3X4X6X*X3X5X4X4X3X3X4X4X2X*X&X3X*X*X2X6X6XrX9X5X6X3X3X3X3X2X4X4X4X4X4X4X6X4X6X4X4X6X9X6X4X9X4X4X9X9X7X9X9X9X4X4X4X4X5X5X5X4X5X5X4X4X4X&X&X&X&X*X9X9X9X6X6X9X5X9X9X5X5X5X5X4X6X4X4X4X5X4X6X4X4X4X4X4X4X5X5X4X4X4X4X4X4X4X4X4X3X4X4X3X&X&X4X4X4X4X4X4X3X*X*X3X&X*X6X6X*X&X=X4X4X&X&X&X&X3X4X4XOX4X=X4X9X9X9X4X4X4X4X4X4X4X4X4X4X4X6X3X*X*X*X6X5X5X4X5X3X4X4X2X4X4X4X4X4X4X4X4XOXOXOXOX4X9X4X4X5X5X9X5X9X4X3X$X&X*X4X3X4X2X2XOX4X4X4XOX4X4X9X9X6X6X5X4X3X4X=X4X9X4X4X4XOX4X4X4X=X4X5X=X=X5X5X=X5X5X5X*X*X*X4X4X4X4X5X4X3X2X4X5X6XOX/ / ^ *X5X2X4X4X&X&X4X5X9X4X5X4X5X4X4X5X9X6X4X4X4X4X4X9X9X4X9X4X4X4X4XOX3X5X4X4X&X&X&X4X&X&X4X&X&X4X4X9X9X=X4XOX4X4X9X4X4X4X4X9X4X4X4X4X4XOX4X4X9X4X9X4X4X4X4XOX4X4X9X5X4XOX4X&X4X4X4X&X4X4X4X4X4X4X4XOXOX4X9X9X4X4X9X=X=X=X9X9X4X&X&X4XOX4X5X9X5X5X*X&X*X*X=X*X5X*X5X=X9X9X4XOX&X&X&X>X=X&X+XOX&X>X&X4X4X4X=X>XOX4X4X4XOX4X$X&X*X*X4X5X4X3X4X5X4X&X3X&X2X4X4X4X=X=X4X4X4X=XOX4X4X9X&X&XOX&X4X=X=X=X=X9X9X9X9X4X4X&X4X=X=X=X9X=X9X>X&X4X4X4X9X4X4X=X=XOX&X&X4XOX>XOXOX>X&X&XOXOXOX&X4XOX=X4XOX>XOXOXOX4XOX",
"2X4X4X3XOX+XOXOX4XOX2XOX&X&X2X&X4X4X5X4X3X6X4X$X#X2X2X2X&X$X3X$X3X3X*X%X#X#X$X$X*X4X3X$X$X*X3X*X#X+X^ ^ ^ #X=X6X3X3X3X3X3X3X3X3XOX3X&X&X*X2X*X#XOX#XOX#X#X#XOX#X3X*X#X#X%X%X%X*X-X;XOX#X%X3X-X*X*X-X-X-X=X=X;X-X#X-X5X-X%X%X#X%XOX=X&XOXOXOXOX&X+XOX&XOX+XOX&X&XOX3X2X4XOXOXOXOXOX&X&X#X#X&X=X&X&X&X#X&X3X=X3X$X5X=X&X&X&X$X$X&XOX=X&X&X#X&X*X*X#X+X#X5X3X*X5X*X=X-X9X5X-X5X5X6X5X*X*X#X%X#X#X+XOX#X#X&X*X&X&X#X#X#X=X#X#XOX$X=X=X4X4X4X4X=X3X3X&X&X&X*X*X&X*X4X*X*X*X*X#X=X*X*X*X*X3X-X&X*X*X6X6X6X6X3X#X+X#X%X%X#X#X#X#X#X2X3X2X$X$X3X3X*X$X*X*X3X3X3X6X6X5X3X2X3X3X5X-X3X3X3X=X3X3X3X$X3X3X4X4X3X4X4X4XOX#X&X3X3X3X2X4X5X9X5X4X&X4X5X4X2XOX3X3X3X4X4X3X3X&X&X&X&X*X3X4X6X6X4X4X&X#X&X3X4X=X$X4X=X=X4X4X4X4X*X4X=X4X4X=X4X4X4X4X9X4X4X=X4X=X=X4XOX=XOXOX&X&X4X4X4X5X4X=X4X4X4X4X9X4X&X&X4X4X4X3X4X3X&X4X5X6X3X=X-X-X5X-X*X*X-X3X3X3X5X9X-X*X=X5X9X6X-X=X3X6X6X4X=X*X&X$XOX*X5X6X4X3X4X3X$X$X3X3X*X3X3X5X=X$X3X=X3X3X*X6X6X6X3X5X3X3X3X6X5X6X3X4X4X&X&X4X4XOX&X&X&X4X4X4X5X5X5X*X9X4X4X5XOX&X9X5X4X3X=X4X3X3X$X6X5X*X3XrX6X3X3X5X&XOX4X5X5X4X4X5X5X4X3X6X6X4X5X*X5X9X9X4X=X&X&X3X=X9X9X5X=X4X4X*X5X#X%X3X&X#X5X3X4X4X3X5X9X3X#XOXOXOX4X$X=X4X5X9X9X5X4X4X4X5X5X4X4X4X=X4X4X3X&X3X4X5X5X9X9X6X5X6X9X5X4X3X2X3X4X4X4X5X5X9X*X+X/ OXOX=X=X-XrX9X-XrX-X9X-X9X9X9XrX-X9X-X9X-X9X9X9X=X=X9X=X9X-X9X=X=X9X9X4X4X4X5X4X4XOX&X4X4X9X4X5X=X4X9X9X5X4X4X5X4X4X=X4X9X9X4X4X9X9X9X9X9X9X9X9X9X9X9X=X9X9X9X9X=X=X>X9X4X4X&X=X4X4X4X=XOX4X4X4X4X9X>X9X9X4X=X=X=X>X9X>X=X=X-X=X4X9X4X=X&X4X4X=X4X4X4X>X4X>X=X&X4X2X2X4X=X>X2X4X4XOXOXOX2X4X4X",
"4X4XOX3X4X4X4X3X4X4XOXOX3X4X4X2XOX2X2X2X%X3X2XOX$X*X%X#XOX%X*X2X&XOX+X+X+X#X%X*X#X$X*X*X&X2X$X%X+X+X+X+XOX#X$X*X3X3X3X3X*X*X3X3X4X4X*X*X3X3X*X%X%X%X*X$X%X%X2X3X6X*X%X*X3X*X%X#X*X6X-X*X%X#X%X;X;X-X-X-X;X;X=X=X-X-X9X-X=X#X#X+X=XOX&X&X&X&X&X4X4X5X4XOXOX4X4X4X3X2XOXOX&X&X&X*X=X*X*X&X&X*X&X#X+X+XOXOX&X4X4X3X5X&X&X&X&X&X&X3X4X&X*X&X*X*X*X*X#X^ OX=X*X*X*X=X*X*X=X*X5X5X*X#X*X#X#X#X*X5X5X=X#XOXOXOXOXOXOX+X#XOX+X#X#XOX#X#X*X=X*X4X*X&X=X3X4X=X3X=X$X$X#X*X=X#X*X%X#X%X#X*X5X*X*X*X=X#X%X#X*X*X6X*X%X#X#X#X$X%X#X#X6.#X#X#XOXOX#X$X*X$X$X*X3X3X3X3X3X3X*X*X3X3X3X3X3X*X*X&X4X3X6X3X3X3X3X*X3X3X2X4X4X3X2X2X5X4X3X3X4X4X4X3X9X4X3X3X4X2X4X4X4X3X3X4X3X3X3X3X*X3X3X3X&X4X4X4X9X4X=X&X=X3X3X3X&X4X4X4X5X4X5X5X4X4X4X4X9X4X4X=X4X4X4X4X4X=X4X4X4X=XOXOX=X&X4X=X4X4X4X4X4X=X&X4X=X4X=X&X=X&X&X&X&X=X=X&X=X=X4X=X5X-X9X9X4X#X=X=X*X*X-X3X-X-X*X5X4X3X*X*X*X3X*X&X*X-X5X5X3X*X#X$X$XOX#X$X$X%X$X*X3X$X*X4X5X3X3X6X5X3X3X*X4X6X5X*X4X3X3X5X5X5X4X3X4X5X4X5X5X4X4X4X&X&X&X&X&X*X4X4X*X5X&X&X&X&X4X4X3X4X3X#X#X$X%X+X&X6X9X9X9X5X3X6X5X4X&X4X6X5X6X5X4X=X3X6X6X9X6X3X*X=X4X5X5X4X3X6X4X*X4X9X9X*X3X6X*X*X*X5X6X6X*X5X6X9X4X&X4X6X3X*X4X4X4X4X5X4X6X6X5X6X5X6X4X6X9X5X=X4X5X5X5X5X5X9X5X9XrX9X5X6X6X9X6X4X6X6X4X3X4X5X9X6X6X6X9X-X+X^ +X+X=X6X9X-X-XrX-X-X9X=X-X-X-X=X=X=X-X9X-X-X-X-X-X9X9X=X=X=X=X=X&X9X9X5X=X4X4X4X4X&X=X4X4X=X4X4X9X=X=X9X9X4X5X9X9X9X9X9X9X4X9X4X5X5X9X9X9X9X9X9X9X9X9XrX9X9X9X9X9X9X=X4X9X4X=X4X4X4X4X4X4X=X4X4X4X9X9X=X4X4X4X=X=X=X=X=X@X+X9XrX4X4X>X=X4X4X=XOX4X4X9X=X4X4X9X4X4X4X4X4X4X4X4X4X4X4X4X>X4X4X4X",
"OXOXOX2X4X4X2X3X2XOX&X3X4X4X4X3X$X&X&X$X2X3X2X$X$X2X$XOXOX#X*X3X*X$X+X+XOX%X*X3X$X$X*X%X#X#X#XOX#X#X*X*X#X%X%X$X-X*X*X*X*X%X*X*X*X3X*X*X3X3X%X#X$X3X3X-X$X%X*X3X3X%X#X*X3X3X*X%X*X&X%X-X-X3X;X*X%X-X-X-X=X-X=X;X-X-X-X-X;X#X#X#X&X&X&X3X&X=X=X3X9X5X4X&X&X4X4X4X4X5X5X4X&X&X&X4X*X4X4X4X4X4X=X&XOXOXOX&X&X2X*X&X3X$XOXOX$X$X&X&X6X=X#X#X$X*X*X*X#X+XOX*X*X$X*X&X5X4X4X*X5X5X*X+X#X*X6X6X3X*X3X3X=X#X#X#X#X#X#X#X#X+XOX#X=X*X#X#X$X&X=X*X*X*X*X=X4X*X*X*X*X*X&X#X*X*X#X=X#X#X*X5X*X*X*X$X*X*X*X*X%X$X*X3X3X6X3X*X$X*X$X*X&X&X%X%X*X*X3X3X3X$X%X*X5X3X5X3X3X-X3X3X*X*X3X4X3X3X4X6X6X5X5X5X6X5X3X$X$X$X2X4X5X5X6X6X5X5X3X3X6X2X3X2X6X6X2X&X6X6X6X3X2X3X2X*X3X3X2X4X3X3X6X3X=X*X4X9X6X5X4X3X3X5X6X6X4X4X4X4X=X4X4X5X4X=X=X4X4X9X9X4X=X4X=X4X=X4X5X5X4X4XOXOX&X=X&X&X5X4X5X4X4X=X4X=X=X=X4X&X&X*X=X*X3X3X4X6X6X3X5X5X4X*X-X6X5X*X=X-X*X*X-X3X-X6X9X6X6X6X-X=X-X5X*X#X^ %X6X5X5X3X*X#XOX#X%X$X*X%X%X*X#X#X%X*X3X*X*X5X6X5X3X*X4X5X*X*X*X3X6X6X6X4X4X6X5X9X9X5X9X9X4X4X4X4X&X&X&X&X&X&X4X4X*X&XOX&X4XOX#X*X*XOXOX*X4X*X3X3X&X$X3X$X#X3X*X*X4X5X4X3X3X4X3X$X3X3X5X9X9X3X*X9X5X9X5X=X6X9X3X*X3X6X6X5X5X=X3X3X9X6X*X5X6X-XrXrX9X3X5X5X3X*X6X9X9X9X9X5X5X-X5X5X9X5X6X6X4X4X=XOXOX=XOX&X&X*X3X5X9X5X*X%X*X3X4X4X3X6X6X3X6X6X7X4X3X6X5X3X%XOX#X=X%X-X=X=X-XrXrX=X=X=X=X=X#X#X=X=X9X9X9X=X=X-X9X9XrXrXrXrXrXrX4X9X9X4X4X9X9X4X4X&X=X4X4X5X5X9X4X9X9X9X9X9X9X9X9X9X9X9X9X9X9X9X*X9X9X9X9X9XrXrX9X9X9X9XtXrXrX9XrX9X4X9X9X9X9X4X4X4X4X4X4X=X=X4X=X9X9X=X4X9X9X4X=X=X9X4X+X+X=X9X=X=X&X4X4X4X&XOX&X4X9X4X4X9X9X=X4X4X9X4X4X5X9X9X4X4X4X4X4X4X9X",
"4X2X4X2XOXOX#X2X3XOXOX2X3X3X4X2X$X&X2X&X$X3X3X$X$X$X$X*X$X2X3X3X6X3X%X$X*X3X3X$X6X3X3X%X%X#X#X#X*X-X3X*X#X#X*X-X*X*X$X%X*X%X$X$X*X$X$X%X$X$X%X#X%X$X3X3X*X%X+X#X#X+X+X#X*X%X%X%X%X6.#X%X-X6X6X-X-X-X-X-X-X-X;X=X=X=X%X=X-X=X*X*XOXOX&XOX&X&X2X*X4X&X&XOX#X4X4X&XOX2X9X4X4X&XOXOX&X&X*X*X*X4X&X=X4X&X&X&X&X&X&X&X3X&X#X&X$X&X$X&X4X*X#X#X#X*X&X$X=X=X=X*X*X$X=X*X-X5X9X-X&X=X=X#X#X=X6X5X=X%X$X=X#X=X#X#X#X=X*X#X#X#X#X$X*X&X&X#X*X$X*X*X&X*X*X*X=X$X&X*X5X*X*X*X5X*X*X*X*X*X*X*X*X*X*X*X*X5X-X*X#X*X*X3X3X6X3X*X#X#X$X*X3X=X3X3X4X6X5X6X3X$X$X*X*X3X3X6X3X3X3X3X3X*X3X4X6X6X6X5X4X6X3X6X6X3X3X*X2X$X2X4X9X6X3X4X7X4X4X4X4X2X$X*X$X2X&X&X4X5X6X%XOX$X&X2X3X3X3X3X3X3X3X*X2X&X6X9X6X6X3X3X3X4X5X9X5X4X=X4XOX=X&X*X=X&XOX=X4X9X5X*X4X4X4X4X9X4X4X5X9X4X4X4X4X4X=X&X5X5X5X9X9X4X9X4X4X4X4X4X*X4X5X5X6X*X=X4X6X=X*X3X5X4X6X6X6X5X9X-X*X*X-X5X6X6X9X9X6X6X*X*X-X6X6X3X*X*X3X6X5X6X6X6X5X5X6X6X6X3X*X*X#X#X*X3X3X$X*X5X6X5X3X6X5X6X6X6X3X5X5X6X6X5X6X5X4X6X6X5X9X5X4X4X5X4X4X4X&X4X4X5X4XOX4X9X4X4X4X4X6X9X9X6X6X6X9X6X9X5X6X3X5X4X4X5X3X3X3X5X6X4X6X3X*X$X*X*X$X3X6X$XOXOXOX=X&X=X$X$X+X$X3X%X*X5X5X=X3X-X9X6X%X*X9X#X9X9X9X5X9X9X3X3X3X4X5X9X5X*X-X-X&X&X*X*X3X$X%X#X9X4X=X=X5X=X&X#X#X$X4X6X*X%X%X*X6X2X2X6X9X6X5X-X5X2X3X6X4X*X*X9XrXrXrXrXrXrXrXtXUXrXrXUXUXUXtXUXDXUXDXUXrXrX9XrX9X9XrXrXtXrXtXtXrX9X4X4X9X9XrX9X5X5X5X9X9X9X9X9X9X4X9X4X4X4X=X5X9X9X=X4X4X4X9X9X5X*X9X9X9X-X9X=X9X9X=X9X9X9XrXrXrX9X4X4X9X4X4X&X4X9X4X4X4X4X4X&X=X=X9X=X4X4X4X=X9X9X9X9X=X=X=X=X=X=X>X9XtX4X&X>X4X9X4X4X4X4X4X>X4X4X4X4X4X4X9X9X4X4X9X4X4X4X5X",
"4X4X3X2X$XOX#X*XOXOX2XOX%X$X2X$X#X$X$X#X$X2X$X$X$X$X#X%X%X2X$X$X6X3X2X3X3X=X$XOX&X*X$X*X$X%X#X#X#X%X%X#X+X+X#X=X*X*X*X%X%X#X#X#X%X#X#X#X#X#X#X#X#X%X%X*X*X%XOX^ #X#X#XOX#X#X%X*X#X%X=X;X#X#X%X;X%X;X;X=X%X%X;X;X=X%X;X=X-X-X5X-X#XOXOX#XOXOXOXOXOX#X#X+XOX&X&X&X+XOX2X4X&XOXOXOX&XOX#XOX=X&X&X#X=X&X&X3X3X4X4X4X3X4X4X5X4X3X4X9X5X4X4X*X*X=X*X*X5X*X3X=X*X*X#X&X#X3X*X#X+X+X=X=X5X#X^ ^ #X=X=X*X*X*X*X=X$X#XOX+X+X+X#X#X#X#X#X&X#X*X*X*X3X=X=X#X#X#X#X3X5X5X4X*X-X5X=X*X*X#X=X*X*X*X*X#X*X*X*X&X#X*X2X*X%X%X*X%X%X%X$X*X*X*X%X#X$X*X3X*X$X$X*X3X#X$X3X4X3X3X3X3X6X5X5X5X3X3X3X=X3X3X=X3X3X*X*X$X$X$X*X5X3X*X%X$X3X&X3X6X4X*X#X*X$X$X#X#X%X*X*X+X#X*X*X3X3X3X3X*X*X*X*X*X%X*X3X5X4X6X6X6X6X6X5X5X4X*X*X*X*X*X5X4X4X4X=X4X9X=X5X=X4X=X4X5X5X5X5X5X=X*X=X4X4X4X5X4X5X5X5X5X5X5X4X=X4X4X5X*X*X5X5X4X6X5X*X*X5X5X-X-X9X-X5X9XrX9X-X-X%X;X-X-X6X6X6X-X-X-X-X-X*X%X-X6XrX6X5X9X9X5X6X9X9X9X9X9X9X6X3X%X3X6X6X6X5X-X*X6X6X3X3X5X6X6X6X6X3X6X5X3X-X3X6X3X3X5X6X5X4X4X&X=X&X4X&X=X4X9XrXrX*XOX&X9X9X4X9XrXtX9X6X5X4X&XOX$X*X3X9XrX9X9X4X4X6X5X5X6X6X6X6X4X&X=X4X4X+X#X3X#X+X+X+X=X9X9X-X=X%X3X-X-X9X=X-X9X-X%X9XrX%X6XrX#X4X4X*X3X6X6X6X5X6X9X6X9XrXrXrXrXrXrXrXrXrXrXtXrXtXUXrXUXUXtXrX6X#X#X6X6X9X9X6X6X6X6X6X6XrX9X6X6X9X6X9XrX6X6X6XrXtXvXrXrXrXrXrXrXUXrX:XrXtXUXUXiXUXUXUXtXrX9X6X9X9X=X=XOX=X=X4X5X9X4X4X4X4X5X9X5X9X9X4X9X5X5X4X&X=X4X4X4XOXOXOXOX4X4X4X=X=X4X4X4X*X4X-X4X*X*X#X#X=X=X4X5X5X5X9X9X9X4X4X9X9X=X4X4X9X4X=X4X4X*X4X4X4X9X4X=X4X9X9X=X4X=X9X9X9X9X9X=X9X=X4XtXtX9X4X9X9X4X4X4X4X9X4X9X4X4X4X4X4X4X4X9X4X4X4X4X4X4X4X",
"4XOX+X+X$X$X$X2XOXOXOXOX#X%X%X#X#X$X#X#X#X#X%X#X$X$XOXOX#XOX#X#X#X#X#X#X*X%XOX+X+XOX#X*X3X$X#X#X+X+X#X#XOX+X#X^ 2X-X*X$X#X%X%X#X%X#X#X%X%X#X^ #X$X#XOX#X*X*X*X=X%X*X$X%X#X%X*X5X#X;X%X;X#X%X%X*X#X#X#X#X#X#X#X#X-X=X#X=X*X=X=X*X&X&X$X$X#X&XOX+XOX$X#XOX#X&X&XOXOX%X&X$X#XOX#X%X#X#XOXOXOX#X#X+X$X#XOX$X$X$X=X3XOX3X4X5X3X$X4X9X*X*X5X5X=X*X*X=X*X5X3X*X=X$X#X#X*X*X*X#X#X=X5X9X5X*X#X=X-X-X6X3X5X*X*X4X=X*X=X#X*X=X#X&X$X#X*X6X*X*X3X=X5X3X*X*X+XOX#X=X*X*X*X5X9X5X5X*X*X*X*X*X*X*X*X=X*X5X-X*X3X6X6X5X*X*X3X3X3X3X3X3X3X3X*X*X*X3X6X3X*X3X4X6X3X3X6X4X5X5X6X5X9X9X5X4X3X*X*X*X6X3X3X4X3X$X3X=X3X3X6X5X3X*X%X*X3X3X3X4X*X&X#X#X*X$X#X#X*X2X3X-X*X3X5X6X5X4X*X2X3X*X*X%X*X*X-X*X4X6X6X6X6X5X5X5X*X*X*X4X*X*X*X*X4X=X=X&X*X9X9X=X=X4X-X4X4X-X*X*X4X*X*X=X=X4X4X=X&X=X*X4X*X5X*X*X4X4X5X4X=X4X4X*X4X*X*X*X*X-X=X=X#X#X%X-X-XrX-X-X%X*X%X-X-X-X=X;X=X-X-X-X%X#X#X-X9X-X=X-X6X*X;X*X*X-X6X3X-X-X-X;X%X3X6X-X*X%X%X*X6X3X-X3X*X%X*X3X6X6X5X;X%X*X*X*X3X5X6X3X5X4X&X3X4X4X&X4X9X9X9X9X4X&X4X9X9X4X4X9X9X%X+X#XOXOX+X#XOX^ #X4X5X6X4X*X5X9X5X3X6X9X9X4X&X4XrXrX*X6XrX5X-XrXrXrXrXrXrXtXtXrXrXrXrX=X;XrX6X6X6X9X-XrXrX9X3X6X*X$X3X3X5X9XrX9X9X9XrXrXtXrXrXrXtXrXtXUXUXtXtXrXrXrXrXtXrXrX%X-X6X9X9X9X6X-X4X6X3X6X6XrXrX6X9X9X9X9X6X*X6XrX9X-X-X-X-X9X-X=X=X-X-X+X=X=X=X=X=X%X&XOX#X#X;X-X9X=XOXOXOXOX+X+XOX=X4X4X&X=XOX=XOX=X&X&X&X&X=XOX&X=X=X=X4X=X=XOX=X4XOXOX=X=X=X=X*X*X-X4X*X$X#X+XOX=X-X5X5X=X=XOX=X=X4X4X4X4X4X9X=X=X&X=X4X4X5X5X9X4X9X4X=X4X=X9X4X4X4X9X9X=X4X9X9X=X4X9X9X4X4X4X9X4X4X4X4X9X9X4X9X4X4X4X4X4X4X4X4X4X4X4X4X5X9X",
"%X#X^ +XOX&X%X%X#X#X%X$X%X2X*X%X2X*X$X$X2X$X$X$X2X$XOX2X2X$X%X2X+XOX+XOX#X#X#X#X#X#X$X*X*X$X%X$X#X#X*X*X%X%X%X%X3X3X3X*X$X*X$X$X$X$X$X*X$X#X#X#X*X%X#X#X%X*X*X*X%X#X=X#X#X%X-X3X*X%X#X#X;X;X-X-X=X#X%X;X=X%X%X%X-X%X%X=X%X%X#X#X3X3X*X*X=X*X$XOX$X*X$X#X#X$X#X#X2X*X$X#XOX#X#X#X#X=X=X#X#X#X#X#X#X#X#XOX#X#X#X$X$X&X4X4X*X#X*X6X*X*X5X*X=X&X$X*X#X4X*X=X*X*X+X#X3X*X=X=X5X9X9X9X*X5X9X9X9X-X=X=X4X*X5X5X5X5X5X4X*X*X*X*X*X*X=X5X=X*X$X*X*X3X4X4X&X%X=X3X=X*X*X5X9X9X5X5X*X-X*X*X%X=X4X*X*X5X6X5X6X9X9X6X3X6X5X5X6X5X6X6X3X5X6X6X6X6X9X6X5X6X9X5X6X5X6X6X5X9X9X6X5X6X3X3X*X3X4X4X5X3X6X6X3X$X*X4X5X5X5X6X6X-X-X3X*X*X*X5X5X=XOX=X*X*X*X*X6X6X6X9X6X6X6X6X6X3X6X3X5X5X6X6X6X3X5X6X5X5X6X3X5X6X5X5X*X5X*X*X*X*X=X=X&X&X&X=X=X9X9X9X4X4X=X4X-X*X5X5X5X5X5X*X-X=X*X4X5X*X=X*X*X5X5X*X=X=X5X=X=X*X*X*X#X*X*X#X#X#X=X=X=X=X-X6X-X-X-X9X6X-X-X-X-X-X-X-X6X9X-X-X;X%X#X;X6X-X-X;X-X6X-X%X%X*X;X-X-X3X6X6X6X3X6X-X6X6X*X;X6X6X6X6X-X-X-X9X6X9X9X-X*X6X6X6X6X6X3X3X5X6X4X6X9X4X5X4X4X4X4X4X5X4X*X&X4X4X&X5X5X*X*X3X5X5X9XrXrX3X*X6X9XrXrX6X5X9X5X3X&X6X9X5X4X&X9XrX9XtXtXrXrXtXUXUXtXrXrXtXUXrX9X9XrX#X^ -XrX6X6X;X%X9XrX9X9X6X5X-X3X-X%X*X3X*X%X*X6X6X9X9X9X-X-X6X9X=X=X=X6X5X=X#X=X=X6X9X3X3X6X6X6X-X;X%X%X*X6X3X6X6X6X6X6X3X6X6X-X%X*X-X-X-X-X=X=X=X%X;X=X=X=X+X=X=X=X+X%X#X%X-X-X*X*X=X=X=X=X=X5X=XOX+X+X&X4X4XOXOXOX=XOXOXOXOX&X&X&X&XOX4X4X4X4X4X=X4X4X=X=X4X4X4X=XOX4X5X4X-X*X*X*X=X=X=X4X5X5X5X=X=X=X=X=X4X=X4X4X9X=X=X=X>X4X3X3X4X>X=X=X=X=X4X>X9X4X9X9X=X9X=X=X=X&X@X&X&X4X&X&X&X>X=X=XOX4X4X4X4X4X4X4X4X5X5X4X4X4X4X4X2X3X4X6X",
"$X%X$X&X2X6.$X%X#X%X%X3X6X3X3X-X3X2X2X*X*X2X2X*X$X2X6X9X9X9X3X3X%X%X#X#X#X$X3X6X6X6X3X$X$X$X$X3X3X*X#X%X$X#X*X3X6X3X3X*X*X%X*X%X*X%X*X*X*X#X#X%X%X#X$X%X#X#X#X%X*X*X#X+X+X6.#X#X^ %X%X%X#X#X;X-X;X;X#X;X-X-X-X%X#X%X=X%X%X*X=X*X3X*X3X3X3X*X$X#X$X*X*X#XOX#X*X$XOX#X^ #XOXOX+X#XOX=X&X*X=X&X=X#X#X#X$X$X$X$X*X3X4X5X5X6X3X*X$X3X*X*X5X5X3X3X*X5X=X6X5X*X9X5X*X*X*X=X6X5X-X9X5X5X*X=X%X=X=X#X&X=X*X*X=X*X*X*X*X*X*X$X#X=X*X*X=X*X3X*X#X*X=X6X6X5X5X5X5X6X3X=X&X*X6X5X*X3X*X*X*X=X-X9X6X*X#X*X5X*X3X3X5X*X*X*X3X3X3X3X3X*X*X$X*X*X3X4X4X3X6X9X9X9X6X6X*X3X6X5X9X9XrX9X6X4X3X*X*X&X$X*X3X6X*X%X$X6X5X3X-X5X6X3X%X%X%X*X-X5X5X=X=X9X3X-X*X6X6X*X-X6X3X*X*X*X-X-X-X3X-X6X6X9X6X6X6X6X3X6X*X-X-X5X5X3X5X*X*X5X*X5X3X5X9X9X5X9X-X9X-X9X5X5X5X5X5X5X5X5X*X9X5X9X5X5X9X9XrX9X5X5X=X=X*X4X9X5X9X=X=X4X*X&X-XrXrX6X-X-X9X-X9XrXvXrXrX9XrXrXrXrX9X-X6X9XrX9X-X-XrXrXrXrX9X9XrXtXrX9X6XrXrX6X6XrX6X6X6XrX9X9XrXrXrXrXrXrXrXrX9XrXrXrXrX6XrXrX;X9XrXrX6X9XrXrX6X9X5X3X9X9X5X9X9X9X4X4X4X4X&X&X*X9X&X+XOX9X9X9X9X9X6X6X5X9X9X9XrX9X9X9X5X4X9X3X3X5X5X$X$X3X9X6X5X$X&X=X=XrXrX=X5X=X=X-X-X-X;X*X5X=X^ ^ =X+X^ +X-X;X;X6X-X6X6X6.6X6X5X5X6X%X#X#X%X%X;X%X*X-X6X6X-X=X=X-X=X=X=XOX%X;X-X5X-X-X*X-X%X-X;X3X;X6X6X6X-X6X;X6X6X6X6X3X;X;X6X3X-X6X3X*X=X=X=X-X-X=X=X%X-X=X=X-X-X-X-X-X;X%X=X6X5X5X5X6X9X9X=X=X=X=X4X=X&X=X=X=X&X&X=XOX4X=X4X=X&X4X5X=X=X=X4X4X4X4X4X=X=X4X=X4X4X4X4X4X*X*X*X4X5X5X5X4X5X4X*X4X9X5X9X5X=X=X=X4X4XOX=X4X=X=X=X=X4X=X&X&X=X=X=X=X&X&X=X=X>X9X=X=X=X=X>X&X&X&XOX&X&X4X&XOXOXOX=X4X&X&X4X4X4X4XOX4X4X5X4X&X4X4X4X3X&X4X5X",
"7X*X%X2X-X%X*X-X6X-X%X6X6X6X6X6X4X6X6X2X2X3X4X3X3X2X4X6X6X5X4X3X#X#XOXOX+X*X6X5X6X3X3X*X$X$X$X*X%X*X*X%X$X*X3X*X%X*X$X%X*X3X-X%X*X$X%X3X3X3X*X%X#X$X*X%X%X#X$X*X%X#X*X3X3X-X5X6X-X-X6X6X6X-X;X6X-X=X-X-X-X-X*X*X*X*X*X*X5X5X*X=X3X3X3X4X4X6X3X*X$X*X3X3X3X3X6X5X*X2X3X3X6X6X3X3X5X5X5X5X*X*X=X=X4X*X5X9X3X*X6X9X2X9X9X$X4X9X6X6X*X*X#XOX*X*X*X*X*X&X=X4X5X*X-X5X5X*X#X+X=X*X=X=X=X&X=X=X+X+X=X*X*X*X#X#X=X=X#X#X%X=X#X#X#X#X#X=X#X=X*X=X=X*X*X=X#X=X=X4X=X=X=X=X=X=X#X#X#X#X#XOX*X*X&X#X#X*X5X-X*X*X*X3X5X5X6X3X#X*X5X6X6X=X3X6X4X6X3X*X#X*X9X9X9X6X9X9X5X9X9X9XrXtXrX9X9X9X4XOX=X4X*X=X9X=X9XtX*X6X=X*X=X*X*X*X=X9X9XrX9X9X4X9X=X9X=X9X9X9X=X=X*X*X5X5X5X-X4X*X=X&X=X9X6X4X3X6X4X4X5X9X9X9X9X4X9X9X5X*X9X9XrXrXrXrXrX9X5X9X9X9X5X5X5X9X9X9X9X5X5X*X=X9X9X9X5X9XrXrX9X9X=X9X5X=X5X9X5X9X9X9X9X9XrXtXUXtXrXrXrXtXrXtXUXrXrX9X9XrXrXrX6X6X9X9X6X6X9X9XrXrX9XrXrXrXrXrXtXrX9X9X9X6X9X9X9X6X9XrXrX9X6X6X9X9XrXrXrX9X6X9XrX9X6X6X6X9X-X6X9X6X4X5X4X9X9X6X3X5X9X9X4X6X4X9X4X&X&X9X*X+X9X=X/ / 4X9X4X9X5X5X6X4X*X*X#XOX$X3X3X3X3X3X*X*X3X6X3X*X*X3X3X*X5X3X*X3X4X3X*X*X#X6X-X^ 6.=X6X-X#X#X;X2X*X;X-X-X-X6X6X-X6X-X*X%X%X;X3X6X6X9X6X5X6X6X6X6X6X6X6X5X9X*X%X*X*X-X3X3X-X3X-X*X*X6X6X6X*X%X%X-X-X3X3X*X%X6X6X5X-X6X-X#X*X4X6X5X*X-X5X-X=X-X*X%X-X6X3X-X=X9X9X=X*X-X5X6X-X-X=X*X*X;X-X*X5X*X#X&X=X&X*X5X9X&XOX=X4X4X4X=X&X5X4X&XOXOXOX=X&XOX&X=X5X=X*X*X4X4X4X-X4X4X4X*X4X*X=X=X=X&X*X=X*X4X4X5X5X5X5X5X&X>X9X4X=X=XOX4X=X4X6X6X5X4X=X3X4X4X4X&X4X=X=X=X4X=X=X=X=X&X=X=X&X4X&X&X=X4X4X&X4X=X4X4X&X&X4X&X+XOX&X&XOXOX=X&X=X3X4X3X&X$X3X",
"6X*X;X3X7X6X6X6X2X%X%X2X;X6X%X%X%X$X$X$X$X3X2X4X3X*X$X2X2X3X2X#X#X#X#X^ +X%X3X3X3X3X3X$X#X%X$X$X%X*X*X$X$X*X2X*X*X$X*X%X3X3X3X*X%X#X%X%X3X*X*X*X*X*X*X%X$X*X3X3X*X*X6X9X6X6X4X&X6XrXrX9X6X6X6X6X-X-X-X-X-X5X5X-X6X9X5X-X4X-X5X5X5X3X3X5X5X9X5X4X3X3X3X*X*X4X5X6X3X2X3X3X3X3X4X=X=X5X*X*X4X-X=XOX3X%XOX&X$X*X3X3X4X4X$XOX*X6X3X3X4X=X#X#X*X*X&X*X*X*X*X5X5X4X*X*X=X=X#X9XrX9X5X=X5X5X-X*X*X=X*X5X*X*X*X-X-X9X6X6X9X5X5X9X9X5X*X=X9X9X9X5X5X9X6X9XrX9XrXrXrX9X9X4X5X5X3X*X*X*X-X*X5X*X#X#X#X&X5X6XrX9X9XrXrX9X9X5X3X3X6X9X6X3X3X6X6X9X6X3X#X&X3X5X9X5X5X5X4X4X4X5X5X6X9X9XrX9X9X4X6X9X9X5X9X9X9X9X9X6X9X5X3X-X*X*X=X9X9X9X9X9X9X9X9X4X4X9X9X9X9X9X6X6X5X6X9X6X5X9X9X4X6X9X9X6X3X5X6X9X9X9XrX9X9X9X*X5X9X9X9X9X9X=X9X5X9X4X*X*X9X9X9X5X5X5X5X9X5X5X5X5X5X5X9X-X*X=X9X9X9X9X9X5X5X5X=X-X*X4X*X5X5X*X=X9XrX9X=X9XrXrX-X-X9X-X-X-X-X9XrX6X-X-X-X6X-X6X-X-X-X6X-X-X9X-X*X6X9X6X=X-X6X3X-X6X6X3X5X6X4X*X*X6X6X6X*X#X*X6X6X6X5X3X-X6X3X5X*X5X6X3X=X=X4X9X9X5X4X6X5X6X*X*X=X4X4X&X&X4X&XOX=X-X=XOX9X9XOX9X$X*X3X4X3X3X5X6X5X9X5X6X3X3X3X3X-X3X3X3X3X3X3X$X4X3X*X3X3X3X*X*X#X5X6X-X-X9X6X*X;X3X-X;X3X3X3X-X6X-X;X6X;X*X;X3X*X*X3X6X6X-X*X*X6X6X5X*X-X-X5X5X*X=X*X-X6X3X*X;X*X5X3X5X3X6X3X*X%X#X#X#X*X3X*X*X*X6X6X3X5X6X-X=X=X-X5X-X*X5X5X-X-X#X^ =X6X6X5X9X9X-X*X-X9X9X9X-X-X6X-X-X*X*X*X%X*X*X*X=X&X-X*X5X4X=X=X4X4X=X4X5X4X5X5X=XOXOXOXOX&X&X4X5X5X4X&X&X4X=X4X4X&X=X&X&X5X=X4X5X6X3X*X*X*X*X=X4X5X5X5X5X=X=X4X4X4X4X=X4X&X*X4X=X4X&X*X*X4X&X&X=X=X=X=X>X4X4X4X4X=X&X>X=X=X4X4X4XOX&X4X=XOX&X4X&XOXOX&X=XOXOX&XOXOX=X&X&X*X4X4X=X&X&X=X",
"3X%X%X%X%X%X%X%X%X%X*X2X%X#X^ ^ OXOX^ $X#X$XOXOX$X%X#X$X$X$X$X$X$X*X#XOX+X#X$X$X$X*X*X*X#X#X#X$X$X*X*X%X%X*X*X-X#X%X$X$X*X3X3X*X3X*X*X*X*X-X6X6X4X3X*X%X$X%X*X*X#X*X6X6X3X6X-X6.%X6X6X;X-X6X;X;X9X-X6X-X*X*X-X6X6X6X5X4X=X*X*X*X*X3X*X=X6X6X6X6X3X3X=X3X5X6X4X*X#XOX+X#X$X3X3X3X=X=X*X5X5X-X=X+X6X3X&X$X+X%X3X3XrX5X4X5X=X3X4X3X-X4X=X*X5X5X4X*X5X5X5X5X9X4X4X*X9X=X-XtXUXtX9X9X9X9X9X9X5X5X5X9X9X9X9X9XrXrXrXrX5X*X-X9XrXrX9X9X9X9X9X9X9XrXrX9XrXtXrXrXrXrX5X4X5X*X4X-X5X6X9X9X6X*X=X#X%X=X*X9XrXrX9X9X9X9X9X6X6X6X5X9X5X4X3X*X6X9X6X4X3X4X4X6X5X9X9X9X3X4X4X3X9X9X9X6X9XrX9X9X5X9X9X5X*X9X4X5X9X9X9X5X9X5X5X5X9X4X=X9X=X9X4X9X9X=X4X9X=X9X9X9X5X5X5X6X5X5X5X-X9X5X5X9X6X3X&X&X6X5X5X5X4X9X4X9X*X-X9X9X9X=X=XOX&X&X=X=X9X*X9X9X5X*X=X4X5X9X5X=X*X5X5X5X5X5X5X4X=X=X4X4X=X=X4X=X*X4X=X&X=X=X*X5X-X-X-X*X-X=X=X=X%X#X#X%X=X-X-X-X-X-X-X*X;X-X*X-X-X=X;X*X-X-X-X6X5X5X6X=X%X#X*X*X-X*X*X3X*X*X&X&X6X6X6X5X6X3X3X6X6X3X=X3X*X-X3X3X*X3X5X*X4X4X4X9X5X6X4X4X3X&X&X$X4XOX=X4X4X&XOX4X9X9X9X5X4X4X4X9X3X6X6X6X3X3X5X5X9X9X9X6X3X3X6X3X*X3X3X3X3X5X3X*X&X%X#X*X*X2X*X3X9X6X6X5X-X9X-X*X6X5X3X3X6X6X6X*X6X6X-X%X*X-X3X3X-X*X*X*X*X%X%X%X*X-X3X*X*X=X*X5X5X6X4X*X5X6X3X$X&X*X5X5X6X*X*X%X*X#X+X#X*X3X4X=X-X5X5X*X*X5X3X*X5X4X4X=X*X*X*X*X=X%X#X%X-X%X#X6X-X5X-X5X6X5X-X*X6X6X5X3X*X-X3X-X*X*X-X4X4X4X4X*X4X4X9X9X4X=XOX9X=X5X5X-X=X=XOX&X4X*X4X4X5X4X=X2X&X4X&X4X*X&X&X&X4X-X5X5X9X6X5X5X*X*X=X4X=X4X*X*X=X=X=X4X5X9X5X4X$X*X*X*X*X=X=X3X=X4X=X4X4X=X&X&X9X4X4X=X4X4X=X=X=X9X9X4X&XOX=X4XOXOX=X4XOX=X&X&X4X4X4X=X#X=X*X&X6X4X=X*X*X=X3X",
"6X6X2X*X$X%X%X%X*X*X2X2X2X*X%X#X#X$X$X#X$X$X2X2X2X*X$X$X$X*X2X3X3X3X%X#XOX#X%X#XOX%X$X*X$X#X#X%X%X&X3X*X#X$X*X*X#X*X#X$X*X3X3X*X3X3X3X3X*X3X3X3X3X3X3X*X3X*X*X%X$X#X5X5X*X3X*X#X%X-X6X*X*X;X6X6X-X6X6X-X-X*X*X5X*X*X5X4X*X&X#X+X$X%X$X$X3X4X6X3X6X6X6X9X9X9X6X4X3X2X6X6X9XrX9X9X9X9X9X9X9X9X9X9X6X9XrX5X$X*X9X9X9X9XrXrX6X*X4X*X*X5X4X4X9X5X=X5X9X5X5X9X9X9X5X*X9X*X=XrXrX9X=X=X5X5X-X5X5X9X9X9X6X9X9X9XrX9X9X5X*X#X+X=X=X6X5X5X-X-X5X5X5X9X9X6X5X5X-X-X4X=X=X=X*X*X=X=X*X-X*X5X5X*X*X5X-X#X=X*X5X5X4X3X3X3X*X$X#X&X6X6X6X6X*X*X4X4X4X5X5X6X6X6X3X5X6X6X6X3X6X6XrX9X6X6X9X9X9X4X3X9X9X*X5X9X4X4X9X5X5X9X5X9X5X4X=X4X=X=X=X=X=X&X9X4X=X=X=X=X4X4X3X*X*X=X5X5X4X=X4X4X4X5X4X5X4X3X4X*X&X&X&X4X4X4X*X9X5X=X=X=X5X*X4X=X4X4X5X9X*X*X9X*X=X=X5X*X4X4X*X5X9X-X-X5X9X9X9X9X9X9X9X9X9X9X4X5X5X-X*X4X4X9X9X-X*X9X9X9X-X-X6X-X=X*X-X-X9X-X;X=X-X6X-X-X-X-X-X;X*X-X9X-X9X6X9X5X4X4X-X*X*X3X6X3X*X*X#X%X&X4X-X*X3X6X9X9X6X*X3X4X3X=X3X6X5X5X5X3X5X*X*X9X4X4X3X6X5X&X&X&X3X&X4XOXOX4X4X&X&X5X9X=X4X4X4X4X9X9X5X9X9X4X*X$X*X3X9X9X9X3X*X3X*X*X#X*X*X*X3X3X$X#X+X+XOX%X$X#X%X*XrXrX6X-X5X*X4X-X6X3X*X-X*X-X6X3X6X;X6X-X-X2X-X-X2X3X%X*X*X*X*X*X6X6X3X3X3X3X4X4X9X5X3X#X#X6X6X3X*X4X5X4X*X%X*X*X3X%X%X*X3X6X5X-X*X3X*X*X*X*X-X*X4X4X=X4X-X4X*X*X9XrXrX9X=X#X$X-X=X=X-X5X-X=X%X*X-X-X6X-X3X6X6X6X5X5X*X*X*X*X4X&X4X9X9X4X=XOXOX4X4X4X4X4X=XOX4X4X5X*X&X=X4X4X3X3X4X&X4X=X=X*X4X*X*X*X5X9X5X4X*X4X9X5X-X5X4X5X*X*X=X=X=X=X&X=X4X=X$X=X*X&X&X*X4X4X4X4X4X4X4X4X=X=X=X=X=X4X=X=X=X=XOX4X=X4X&X&X&X4XOX=X&X=XOX4X5X&X4X4X=X4X&X&X*X&X4X=X*X*X*X5X6X",
"#X#XOXOX$X$X3X6X4X2X4X6X5X5X5X4X6.OX3X3X4X2X6X4X6X6X3X2X$X%X2X$X&X&X$X#X#X3X&X$XOX$X*X*X&X#X$X*X*X*X3X3X*X3X*X%X*X=X3X3X-X3X3X*X3X5X6X6X6X3X3X*X3X3X6X4X3X6X9XrX3X%X*X6X6X-X5X6X6X6X9X6X-X*X;X9X-X6X6X6X3X*X*X-X4X5X6X6X5X5X3X*X3X3X3X3X6X5X9X9X9X9XrXrXrXrX9X9XrX9XrXtXrX9X9X9X9X9X9X9X9X9X9XrX4X9XrXrX6X3X9X9X*X3XrX9X3X*X3X%X*X5X5X5X5X4X*X5X9X5X*X5X*X5X5X9X5X*X=X*X5X*X#X*X-X*X4X5X5X9X5X5X6X9X9X6X9X9X5X*X6X6X-X-X*X5X-X-X=X-X5X*X%X=X;X*X=X=X-X-X=X*X5X9X5X5X5X-X5X*X=X=X*X%X*X6X5X=X=X*X*X*X$X*X*X3X3X6X$X$X3X5X6X9X5X5X3X6X6X5X5X6X3X%X%X3X4X4X6X4X6X6X3X3X*X*X4X5X6X3X3X9X5X4X4X9X9X4X4X&X=X4X4X4X4X&X=X=X4X4X4X=X=X=X=X4X4X=X=X=X=X=X4X4X4X=X5X4X4XOX=X=X5X4X4X9X9X4X4X&X4X&X4X4X&X&X=X4X4X4X=X=X9X5X4X4X=X4X=X4X4X=X=X4X&X*X4X=X4X4X4X9X9X=X=X4X4X=X&X4X=X4X=X9X9X9X-X5X5X4X4X4X4X5X&X&X=X4X9X9X=X9X5X-X=X*X6X5X*X*X=X-X5X5X5X-X6X3X5X-X-X*X-X=X-X*X4XOX&X&X3X4X4X4X5X3X&X&X4XOXOX9X4X&XOX4X6X5X4X&X*X4X4X*X3X3X4X4X3X3X*X$X4X4X&XOXOX4X=XOX&X4X4X4X4X=XOX4X4X4X4X4X=XOX4X4X&X3X5X5X*X$X*X$X$X*X*X3X3X4X3X*X*X3X$X%XOX%X*X*X*X*X$XOX+XOX$X&X*X$X#X$X#X#X#X*X3X*X$X%X*X*X*X*X*X*X2X3X*X-X3X-X3X-X*X*X*X*X3X*X*X4X5X5X6X5X5X4X4X=X4X4X5X4XOX+X+X&X6X=X4X5X4X4X4XOXOX4X6X9X5X9X9X4X4X4X4X=X=XOX&X*X=X3X4X=X=XOX=X4X4X=X9XUXUX9X*X=X*X*X=X*X*X5X5X*X=X*X*X5X6X-X*X-X-X-X*X=X%X%X=X-X4X=X5X*X4X=XOXOX=X4X*X4X&X*X=X&X&X5X4X4X&X*X4X4X=X&X3X=X3X=X4X*X*X4X*X5X5X5X5X*X&X*X-X4X*X5X5X4X*X*X*X=X*X&XOX#X=X&X*X=X&X*X=X=X4X4X4X=X&X&X=XOX=X=XOX&X&X&X=X&X&X&XOX=XOXOXOX=X=X=X4XOX=X&X&X&X-X&X*X&X*X*X=X*X#X$X&X#X#X#X&X5X9X",
"2X4X3X2X%X2X6X6X6X6X6X4X4X3X3X2X4X2X2X4X4X6X6X6X4X4X3X2X$X%X$X$X2X3X=X3X4X6X5X4X*X3X5X3X5X5X3X5X*X6X5X5X3X6X3X*X4X5X6X6X6X5X3X3X5X6X9X9X9X9X6X3X9X9X9X6X6X9XrXrX6X#X*X6X6X3X-X3X6X6X6X6X*X;X-X6X6X-X6X9X6X6X-X3XrX9X6X6X6X9X6X5X5X6X6X6X6X6X9X9X9X9X5X6X4X6X6X9X3X3X9X4X3X%X*X*X5X4X=X#X&X=X9X9X#X$X4X6X*X3X5X3X#X$X*X*X=X6X6X=X&X*X4X=X*X*X&X-X4X*X=X*X=X*X*X5X5X9X9X*X*X*X*X9X5X5X5X5X5X5X-X-X6X6X6X5X5X*X-X-X5X6X9X6X5X-X*X%X%X-X-X*X%X=X*X5X9XrXrX9X9X4X9X9X9X5X9X9X6X4X*X*X*X=X=X5X9X-X4X5X5X5X6X6X6X6X9X6X9X9X9X6X5X6X9X9X6X5X5X9X6X3X#XOX*X3X5X5X6X4X3X3X$X*X*X$X*X4X3X*X3X6X5X=X4X4X=X4X4X4X&X=X-X=X&XOX=X=X4X4X=X=X=X9X4X4X9X4X=X=X4X9X=X4X=X9X5X4X=X=X=X=X4X4X4X4XOXOX4X4X5X4X4X4X4X4X=X=X5X=X4X4X4X4X4X=X4XOX4X=X*X4X=X4X4X=X=X=X4X4X5X4X4XOXOX=X4X&X=X&XOX&XOXOXOXOX&X4X4X&X=X4X4X=X&X&X=X&X=X=X=X9X5X4X5X5X-X3X-X*X*X-X6X5X3X5X-X-X*X*X*X*X-X-X*X-X&X4X&X&XOX4X4X4X5X6X4X6X4X4X4X4X5X4X5X4X&X&X=X4X&X4X4X4X&X&X&X&X*X*X$X#XOX4XOXOXOXOX=X=XOX4X4X4X4X&XOX&X4X9X4X=XOX=X9X9X5X&XOXOX%X#X$X&X3X6X5X5X6X5X6X6X4X6X3X3X*X4X3X6X6X5X6X3X3X3X3X6X3X*X$X%X+X^ #X%X3X*X#X*X*X*X3X3X*X*X*X-X*X*X6X6X6X3X3X%X3X*X*X*X*X4X4X4X5X5X4X4X4X4X&X4X4X4X4XOX+X&X3X$X&X4X4X5X4XOX3X4X5X6X9X9X4X4X4X4X4X4X4X4X*X=X3X3X4X=X4X4X5X9X4X=X-X9X9X4X*X*X%X#X*X#X%X*X-X*X#X%X;X*X-X-X*X-X6X6X#X+X#X=X5X4X-X4X=XOXOXOXOX=X4X5X*X&X&X&XOX&X4X9X=X4X5X5X5X4X&X#X#X$X&X&X&X4X4X5X5X5X5X5X*X&X#X*X=X&X*X=X*X5X*X*X*X*X*X*X=XOX=X&X&X&X#X*XOX&X=X&X=XOX=X@X+X=XOXOXOXOXOXOX&X&X=X@X4XOXOXOXOXOXOXOX=X4X4X&XOXOX&X&X#X=X*X*X*X$X#X#X#X#X#X#X&X=X4X",
"rXtXtX5X7X6X6X6X9X6X4X2X2X#X2XOX9X9X9X5X6X4X4X4X3X6X4X4X4X4X6X4X4X5X6X6X9X9X9X5X5X6X5X3X6X5X6X3X*X*X3X3X6X6X6X3X6X6X5X5X6X6X6X4X9X5X6X6X6X6X5X3X9X9X9X9X4X6X9X9X3X*X*X6X6X3X-X*X6X3X;X6X6X6X6XrX6X-X6X6X6X6X3X3X6X9X6X5X5X5X5X6X-X3X*X*X2X*X3X3X4X4X*X%X$X$X3X&X$X2X*X*X$X*X*X3X3X*X=X#X&X5X9XrX#X+X#X$X%X$X*X*X*X*X$X*X6X6X5X5X*X*X*X*X*X*X=X*X5X*X*X*X=X&X*X5X*X5X5X*X*X=X*X*X4X5X5X-X4X5X5X5X=X;X*X=X%X=X=X=X#X%X*X#X#X#X#X#X%X*X*X*X-X6X6X6X6X9X9X9X5X*X*X-X5X5X5X5X5X5X5X-X*X*X*X5X5X5X6X6X6X6X6X9X6X5X6X9XrXrX9X9X6X5X6X9X3X3X5X6X5X3X$X3X6X9X9X9X9X5X4X*X3X6X5X3X3X3X*X*X4X6X3X$X4X4X&X4X9X=X4X4X4X4X=X4X=X4X>X=X4X4X>X=X4X4X9X4X4X9X>X9X4X&X4X=X4X4X4X&X>XOXOX4XOX+X+X+XOXOX4X&XOX&XOX4X4X4X4X4X4X4X&XOX4X4X4X4X4X4X4X4X4X4X4X=X4X4X4X4X4X=X&X4X4X4X4X4X4X4X4X4X=X&XOX4X&X=X=X4X4X4X4X=X4X*X4X4X=X=X=X9X4X-X-X5X6X6X-X*X*X*X-X*X*X3X*X*X=X*X*X5X*X5X6X9X4X4X4X4X4X4X4X9X9X9X9X9X9X9X9X4X4X4X4X4X&XOX$X3X4X&X3X&X3X3X&X3X5X4X&X&X4X4XOXOX=XOXOX>X4XOX4X4X4X&XOXOX4X4X4XOXOX4X9X9X9X4X&XOX3X3X5X4X4X6X6X9X9X9X6X3X3X6X5X3X5X6X6X9X5X5X9X6X6X5X6X5X5X4X=X3X5X3X3X3X3X3X5X9X3X-X3X3X3X*X*X3X*X2X3X6X3X6X3X3X*X*X3X4X3X3X&X4X4X4X4X4X4XOXOX4XOX4X4XOX3X4X4X&X4X4X4X4X4X4X4XOX4X4X5X5X4X4X4X&X&X=X=X4X=X4X&X4X4X=X=X=X9X9X4X4X=X=X4X4X9X6X=X-X3X-X=X#X*X5X=X%X#X;X*X-X-X5X6X9X%XOX#X*X9X4X4X5X=X=XOXOX=X4X4X4X*X&X&X&X&X&X&X5X&X4X9X5X4X=X&X&X#X$X&X&X&X4X5X5X5X3X3X5X*X#X#X*X*X#X#X&X*X5X*X$X&X*X4X3X=X*X&X*X&X&X&X=X&X&X&X&X=X&X=X=X=X=X&X&X&XOX&X&X&X&X=X=X=X=X=XOXOX=X=XOXOX=X=X4X#X=X=XOX#X#X=X4X*X#X=X*X=X=X&X=X*X*X=X",
"rXrX9X9X4X4X9X6X5X6X6X3X3X3X4X7X9X6X9X9X9X9X7X9X6X6X9X9X7X6X6X6X5X5X9X6X9X9X6X3X6X3X*X*X2X3X3X*X*X*X$X&X6X9X5X3X6X5X9X6X4X4X6X6X9X6X*X3X*X*X*X%X*X3X6X6X3X$X&X3X5X3X5X9X6X6X6X6X-X3X-X;X-XrX6X6X6X3X6X6X9X6X*X6X3X4X5X4X4X3X*X*X3X3X3X*X*X*X*X*X*X3X3X=X6X6X3X$X*X$X%X2X*X3X3X5X5X*X=X#X5X9XrXrX4X*X6X5X$X%X6X9X4X5X6X5X5X$X+X9X5X4X*X&X5X9X4X*X9X5X5X9X4X&X*X5X*X5X*X*X-X4X*X*X=X-X4X*X*X4X-X*X5X-X5X-X*X4X5X5X*X-X*X#X;X*X-X*X#X%X*X3X9X9X6X=X%X*X-X5X6X5X-X*X9X9X5X5X-X*X*X*X*X5X6X5X5X5X9X5X3X4X4X6X6X3X-X3X3X6X9X6X6X5X6X6X3X3X4X4X3X3X4X5X9X9X9XrX9X9X6X*X3X6X6X5X3X3X3X$X6X6X3X4X9X4X=X4X4X4X=X4X9X4X4X9X9X9X9X4X=X9X9X4X=X=X9X9X4X9X9X4X4X4X4X4X4X4X4X4X4XOX4X4X&XOXOXOX4X4X4X&XOXOXOX4X4X=X4X4X=X4X5X4X=X=X9X4X5X4X4X4X9X4X5X4X=X9X9X4X4X4X=X4X9X9X4X&X4X&X4X=X4X4X=X4X4X4X4X5X4X9X5X4X&X*X4X=XOX=X5X=X*X*X*X*X5X9X*X%X*X*X*X*X*X-X*X*X*X*X5X5X*X*X5XrX4X4X9X4X4X9X4X4X9X9X5X4X4X9X9X4X4X4X4X9X5X4X3XOX4XOXOXOX&X4X4X4X5X9X4X4X4X4X4XOX4X4X4X4X4X4XOX4X4X4X=X4X4XOX=X&X9X9X4X4X9X5X4X3X3X6X5X6X3X3X6X6X6X5X3X$X*X3X3X*X4X3X5X4X3X4X4X6X9X6X3X6X5X4X6X6X3X3X*X$X%X*X4X5X6X2X*X%X*X3X3X3X-X*X*X6X3X3X6X3X3X5X4X5X4X4X4X&X4X4X4X5X4X4X4X4X&X4X4X4X4X4X3X3X4X4X4X4X4X4X4X4X4X4X4X4X4X4X4X4X&X4X=X4X4X&X&X&X4X=X4X9X9X4X5X4X4X9X4X=X5X5X4X*X5X9X9X*X#X*X3X*X*X-X5X5X-X6X9X9X9X-X=X5X9X5X=X5X4X9X5X5X4X4X4X=X*X*X&X&X&X&X&X&X&X=X5X&X#X=X*X*X4X4X4X=X&X&X&X=X*X3X=X=X*X#X*X5X*X&X#X*X*X*X$X#X#X*X=X6X6X5X*X&X*X*X&X4X=X&X=X=X4X=X4X4X=X>X&X&X=X=X=X4X=X&X=X=XOX=X=X=XOX=X=X9XOXOX4X5X*X&X&X#X=X=X*X5X*X#X=X*X4X4X=X5X=X*X=X",
"+XOX3X4X9X4X9X6X4X9X3X3X4X5X5X9X3X4X6X3X5X9X9X9X4X4X7X4X4X9X4X9X4X2X4XOX4X4X4X4X4XOX4X4X4X4X&X4XOX&XOX4X4X=X4X9X4X4X&X4XOX&X4X4X4X4X4X4X4X&X=X&X&X=X=X9X4X4X4X4X9X4X5X9X5X5X5X5X*X*X*X*X-X3X6X3X3X3X6X3X4X4X3X5X4X3X4X4X4X4X4X4X4X4X4X4X4X4X9X4X4X4X4X9X4X9X9X4X9X4X4X&X4X4X4X4X4X4X&X&XOXOX&X&X&XOX&X&X&X&X4X=X=X=X4X&X4X4X4X4X4X4X4X9X9X9X9X9X4X4X4X4X4X4X=X4X4X9X4X4X9X4X4X4X4X&X&X&X4X9X4X4X9X9X9X9X9X9X9X9X5X5X5X*X*X5X5X4X5X5X4X5X5X9X9X=X=X=X4X5X9X5X9X9X9X9X5X5X=X*X=X*X=X*X=X4X5X9X5X5X5X5X5X5X4X6X6X4X3X9XrX9X9X3X&X3X3X*X*X*X3X*X-X3X6X6X4X5X9X4X=X*X6X6X4X*X&X3X3X6X3X*X*X5X6X6X3X3X4X4X9X9X9X5X9X9X9X4X9XOX4X4X4X4X4X4X4X4X5X5X4X&X4X4X5X9X9X9X4X5X&X3X4X4X4X9X9X9X6X6X6X3XOXOX#X&X&X=X3X*X&X&X4X5X-X4X=X5X9X&X&X4X4X*X&X*X5X5X*X4X5X4X*X*X=X&X=XOX&X&X=X4X=X4X&X4X&X4X-X5X9X5X4X&X4X=X=X&X=X=X=X4X&X*X*X*X*X3X3X-X-X%X-X3X6X3X-X3X5X3X5X5X5X6X5X5X4X4X5X5X5X5X=X=XrX5X4X*X4X*X=X5X4X4X4X4X4X9X=X=X=X4X4X*X*X*X4X9X9X5X5X5X5X5X5X5X5X5X4X4X4X=X4X=X4X4X4X4X4X=X4XOX=X&X4X4X9X9X5X5X9X5X4X4X4X4X3X6X6X3X3X3X3X6X-X*X5X5X*X-X*X*X%X*X3X6X6X9X6X6X3X3X%X%X3X3X*X3X6X3X3X3X-X=X*X=X=X6X%X3X3X2X3X4X4X4X6X3X2X3X7X3X4X6X4X2XOX&X&XOX&X&X4X4X=X3X3X&X4X4X4X4X4XOX=X=X&X4X4X4X4X4X&X&X4X&X=X4X4X4X4X&X4X=X&X=X=X5X=X9X=X=X9X=X-X5X9X5X-X9X9X6X6X-X*X5X6X9X9X9X9X9X6X9X6X-X6X6X6X6X-X-X5X*X6X9X-X-X*X*X=X&X4X5X5X6X6X4X4X3X&X=X-X*X*X=X5X5X9X9X5X5X-X4X*X=X5X=X=X*X=X5X5X5X=X=X4X5X5X5X4X5X*X*X=X=X=X5X4X5X5X-X=X4X5X5X*XOX5X4X5X4X4X4X*X5X4X4X4X4X=X4X4X&X4X=XOX4X4X9X9X9X@X+X=X4X=X4X=X9X4X4X4X4X=X=X=X4X=X4X4X=X4X4X=X",
"OXOX4X4X9X4X2X4X4X7X2X3X4X6X7X6X4X3X2X3X7X6X7X9X9X6X6X9X4X7X9X4X4X4X2X4X4X4X4X4X4X4XOX4X4X4X4X4X4X4X&X4X4X&XOX4X4XOX4X9X4X4X4X&X&X4X4X4X9X9X4X=X&X>X9X=X4X4X4X4X4X9X9X5X5X5X4X5X5X3X3X*X*X*X*X3X6X3X5X5X4X4X5X6X6X4X4X4X4X4X4X4X4X4X4X4X4X4X4X4X4X9X4X4X4X4X4X&X4X4X&XOX&X4X4X&X4X4X4X4X4X4X4X&X&X&X4X4X&X&X>X=X=X4X&X4X4X4X9X4X4X4X4X9X4X9X4X4X4X4X4X4X4X4X4X4X4X4X4X4X4X4X9X9X4X4X&X4X4X4X4X4X&X&X=X4X4X*X-X5X5X5X5X5X5X=X5X*X*X5X*X*X*X9X9X5X5X9X9X9X9X9X5X5X-X9X9X5X5X5X4X5X5X=X9X5X5X5X5X5X4X5X5X5X3X6X4X=X9XrXrXrX9X4X*X2X*X3X3X3X3X3X6X3X3X3X6X5X6X6X4X3X6X5X5X5X4X3X5X5X3X*X*X3X6X3X%X#X#X&X&X&X3X4X5X5X4X4X5X&X&X4X4X=X6X4X&X4X4X5X4X4X&X*X4X5X5X4X4X&X5X9X9X6X4X3X3X3X3X3X9X6X4X&X$X*X*X*X3X*X=X*X5X5X9X5X5X9X9X4X*X9X9X=X&X&X5X5X=X5X*X*X5X4X5X5X*X4X=X*X4X4X5X4X4X=X4X5X=X4X5X4X&X=X9X5X4X5X9X5X9X5X5X9X6X5X5X6X6X6X-X6X6X6X6X6X6X5X5X6X6X3X6X6X5X6X5X9X9X9X9X9X5X4X9X5X=X4X5X5X5X9X5X5X5X5X9X9X9X4X4X&X=X=X*X*X*X5X9X5X-X5X4X=X5X-X5X*X5X5X9X=X4X4X4X4X4X9X4X4X4X4X4X4X5X5X4XOX=X4X9X4X4X4X9X5X5X9X9X5X6X5X6X9X9X6X6X6X5X3X3X3X*X*X3X6X3X3X*X3X5X3X3X3X5X5X3X3X5X-X*X-X-X-X9X=X$X&X*X3X6X3X2X6X4X7X2X3X3X3X4X4X4X6X4X3X&X3X3X&X&X3X4X4X3X=X3X3X&X4X3X&X4X4X=XOX&X&X&X4X=X=X&X&XOX4X4XOX=X4X=X&X=X=X*X*X4X=X-X-X=X9X*X-X-X5XrX5X=X-X9X6X6X-X*X-X5X6X-X-X-X;X5X6X-X-X6X6X6X6X-X-X5X-X-X6X9X-X*X*X*X*X*X*X*X5X6X=X&X=X4X6X6X5X5X9X6X9X5X5X-X5X-X9X9X5X5X5X4X4X5X5X5X4X*X4X=X5X5X5X5X5X9X9X5X5X5X5X5X5X9X5X5X5X5X9X5X-X4X5X4X5X*X4X4X5X=X4X4X-X4X4X4X=X5X4X=X4X4X4X4X4X+XOX4X=X=X4X&X9X9X9X4X=X&XOXOX=X&X4X4X=X4X4X=X",
"4X2X4X5X7X4X4X4X4X4X2X2X6X6X4X3X7X3X3X2X3X5X4X4X9X4X9X9X4X9X9X9X9X9X4X9X4X4X4X9X9X4X4X4X4X4X4X4X9X4X4X4X4X=X=X>X4X&X4X9X4X4X4X4X&X4X4X9XtXtX9X9X4X9X9X9X4X&X=X4X4X9X9X9X5X4X5X5X5X5X5X5X6X6X5X3X5X6X5X6X5X5X5X9X9X5X4X5X4X4X4X4XOX4X4X4X5X5X5X4X4X4X4X4X4X4X4X&X4X4X&X&X4X4X4X4X4X4X4X9X4X4X&X4X&X&X4X4X&X&X4X4X4X4X=X4X4X4X4X4X4X4X4X4X4X4X4X4X=X=X4X&X4X&X4X4X4X4X4X4X4X4X4X4X&X&X&X&X4X4X&X&X=X=X=X4X4X=X&X4X5X5X5X*X4X*X*X5X*X=X*X*X5X9X9X9X9X5X5X5X9X5X4X*X5X5X*X5X5X5X9X5X5X9X5X5X9X9X4X=X*X3X4X4X3X6X3X*X*X*X3X4X4X4X&X=X3X3X3X4X3X3X3X3X*X3X4X5X6X3X3X6X6X6X6X5X6X5X6X6X5X3X3X6X5X3X*X%X*X&X&X&X&X4X3X3X4X&X4XOX&X4X&X&X4X=X&X&X4X5X4X4X4X&X=X4X=X&XOX&X4X5X6X5X4X6X6X3X3X4X9X9X9X3X3X4X5X5X6X4X-X4X4X9X5X5X5X5X5X-X*X9X9X5X&X*X9X5X=X4X=X4X5X5X5X5X5X5X5X5X9X5X5X4X4X&X*X4X=X=X4X4X4X5X9X5X5X5X9X5X5X5X9X9X9X5X6X6X3X6X6X;X6X9X9X6X-X5X3X3X-X3X6X6X6X5X5X9X9X5X-X4X4X5X9X=X&X5X5X5X5X5X4X4X4X5X5X9X9X5X5X5X4X4X5X=X5X9X5X*X*X*X=X4X5X5X4X4X=X4X5X5X4X5X4X5X9X5X9X4X4X4X4X9X9X4XOXOXOX4X9X4X=X5X9X6X9X5X5X9X9X5X6X5X6X9X9X6X5X3X3X3X3X*X*X*X*X#X%X*X6X3X6X5X6X6X3X3X3X*X^ +X#X=X6X3X*X%X2X3X3X3X4X6X5X4X6X3X3X3X4X4X4X6X4X4X4X4X4X4X&X4X4X4X4X4X3X4X&X4X4X4X4XOXOX>XOX4X&X&X>X=XOX=X4X>X=X4X=X4X4X=X4X=X*X*X*X*X9X=X-X=X*X*X-X9X9X9X-X*X5X-X-X*X*X-X-X3X;X=X-X-X-X-X-X=X-X-X5X-X-X6X5X-X6X9X6X3X=X5X5X-X*X&X=X4X*X*X#X*X*X5X5X*X*X6X5X5X*X5X5X*X5X9X5X5X5X5X5X4X5X9X9X5X4X*X-X-X5X5X5X5X9X*X5X5X5X5X4X&X*X-X5X4X5X5X5X-X4X4X4X4X=X4X*X4X5X4X4X4X=X*X&X&X4X4X4X4X4X=X4X4X=X=X9X9X=X=X&X>X9X4X4X=X&X+X+XOXOX4X&XOX4X4X4X",
"4X4X4X4X9X6X4X5X6X6X4X4X6X6X3X4X6X4X4X4X4X5X6X6X4X9X7X9X9X7X9X9X4X4X9X4X4X4X4X9X4X4X4X4X4X4X&X4X9X9X4X4X9X=X=X4X4XOX4X4X4X4X4X4X9X4X4X9X9X9X4X=X4X4X9X9X4X4X4X=X9X4X4X=X5X-X4X4X9X6X9X9X6X9X9X6X6X5X5X5X5X5X5X9X9X4X4X4X4X4X4X4X4X4X4X4X4X4X4X4X4X=X4X4X4X4X4X4X4X4X4X&X&X4X4X4X9X4X4X4X4X4X4X4X4X4X4X4X&X&X4X4X4X&X4XOX&X4X4XOX4X4X4X4X4X4X4X4X4X=X>X&X&X4X=X=X4X4X4X4X4X4X4X4X4X4X&X&X4X4X4X&X=X4X4X4X4X=X=X4X5X5X4X5X5X5X5X=X5X9X5X*X*X9X*X=X&X*X=X=X5X*X*X&X-X5X5X*X5X*X9X9X9X9X5X5X*X=X=X=X$X*X4X4X6X3X3X*XOXOX%X*X4X5X6X6X*X*X5X6X6X3X3X3X3X4X6X5X*X$X*X3X6X5X5X6X5X9X5X6X5X6X6X6X5X5X3X3X5X4X&X*X4X4X3X*X4X&X5X4X&X4X&X&X4X&X&X&X4X5X5X4X4X4X4X4X&X&X&X&X&X3X5X4X6X5X9X9X=X3X4X6X4X5X6X9X5X5X5X5X4X-X5X9X5X5X=X=X5X*X&X5X9X9X*X=X5X-X&X4X5X5X-X5X5X5X5X5X5X4X4X4X4X4X*X&X&X&XOXOX=X4X5X9X5X4X=X5X9X9X4X*X4X6X6X5X2X3X-X2X6X-X6X6X9X6X6X;X3X3X*X3X5X5X5X6X&X5X4X*X=X=X*X4X6X4X*X5X9X5X5X5X=X4X=X=X4X5X5X5X5X5X5X5X4X-X-X5X4X-X5X4X4X5X5X9X*X=X4X5X5X5X4X9X=X4X4X4X4X5X4X5X4X4X9X4XOXOX=X9X9X4X4X5X9X5X4X4X6X5X5X6X*X%X*X6X9X6X6X6X3X-X*X*X#X%X*X%X*X3X6X3X9X5X9X6X-X3X3X*X^ / ^ +X3X5X*X$X3X3X3X6X4X6X9X6X6X6X4X6X7X4X6X6X9X4X5X9X5X5X&X3X&X4X*X4X4X&X4X&XOX4XOX4X4XOX4XOXOX4XOXOX&X=XOX=X4X4XOX=X&X4X4X5X*X5X=X=X=X=X-X9X*X-X5X9XrX9X*X-X*X5X-X*X*X-X*X*X%X%X%X-X-X6X-X*X-X-X6X-X*X-X-X5X6X9X6X-X*X5X5X5X*X&X=X*X*X#X&X&X*X*X*X*X&X=X=X*X*X5X5X5X5X9X9X-X4X5X-X5X5X5X5X-X9X4X5X4X4X*X=X5X4X*X*X*X4X=X=XOX&X*X4X=X&X*X&X&X=X=X=X&X&X&X=X=X=X4X4X4X5X4X4X*XOXOX4X=X4X=X4X9X=X9X9X9X=X=X=X=X9X4X=X4X&XOXOXOX=X4X=XOXOX4X=X"
};
