/* XPM */
static char *dembele_west[] = {
/* columns rows colors chars-per-pixel */
"441 385 256 2 ",
"   c #15160C",
".  c #191915",
"X  c #10130F",
"o  c #231B1A",
"O  c #2E1A04",
"+  c #1D2317",
"@  c #1A240B",
"#  c #242719",
"$  c #322C0C",
"%  c #171C24",
"&  c #1B2628",
"*  c #1B2A38",
"=  c #1A3339",
"-  c #282728",
";  c #293329",
":  c #272B35",
">  c #283439",
",  c #373739",
"<  c #342E2E",
"1  c #241E23",
"2  c #493409",
"3  c #443436",
"4  c #4E211B",
"5  c #615725",
"6  c #1B3547",
"7  c #1A2F4B",
"8  c #273848",
"9  c #383B44",
"0  c #273651",
"q  c #22345F",
"w  c #463C45",
"e  c #713B51",
"r  c #2C434D",
"t  c #36434B",
"y  c #2A4554",
"u  c #2D4A55",
"i  c #2E4B59",
"p  c #274455",
"a  c #324E5B",
"s  c #374956",
"d  c #35525D",
"f  c #3B525C",
"g  c #3B555B",
"h  c #2D5059",
"j  c #2E5268",
"k  c #345464",
"l  c #3B5563",
"z  c #3D5965",
"x  c #34546A",
"c  c #3B5B6B",
"v  c #385769",
"b  c #3C5C71",
"n  c #354E65",
"m  c #3D6374",
"M  c #1D424E",
"N  c #464448",
"B  c #454D58",
"V  c #43535D",
"C  c #49595C",
"Z  c #56595B",
"A  c #564F50",
"S  c #6C515A",
"D  c #676758",
"F  c #74765A",
"G  c #6B704E",
"H  c #435563",
"J  c #435B64",
"K  c #4B5C64",
"L  c #435D6B",
"P  c #4A5D6B",
"I  c #4A5564",
"U  c #565B67",
"Y  c #445E72",
"T  c #505266",
"R  c #665967",
"E  c #755668",
"W  c #45626D",
"Q  c #4B636C",
"!  c #4D696D",
"~  c #496265",
"^  c #52646C",
"/  c #536B6D",
"(  c #586569",
")  c #446372",
"_  c #4B6573",
"`  c #4C6A74",
"'  c #4A657A",
"]  c #4D6A7A",
"[  c #45667A",
"{  c #526673",
"}  c #536C74",
"|  c #5A6C74",
" . c #536D7A",
".. c #596B79",
"X. c #557175",
"o. c #5B7375",
"O. c #55727B",
"+. c #5B747C",
"@. c #5D797D",
"#. c #5D7876",
"$. c #557171",
"%. c #67676A",
"&. c #766A6A",
"*. c #777768",
"=. c #676B73",
"-. c #766B73",
";. c #637C7D",
":. c #66767A",
">. c #787676",
",. c #6B7368",
"<. c #5B6455",
"1. c #344334",
"2. c #8D7325",
"3. c #8B485B",
"4. c #975769",
"5. c #8C546A",
"6. c #B85C75",
"7. c #AE576D",
"8. c #867978",
"9. c #8E6E72",
"0. c #A86577",
"q. c #B86577",
"w. c #AD6D71",
"e. c #996152",
"r. c #C75C76",
"t. c #CC5872",
"y. c #C86478",
"u. c #CC6B7A",
"i. c #E1627D",
"p. c #983C58",
"a. c #68827E",
"s. c #7A8377",
"d. c #7D8251",
"f. c #7E833A",
"g. c #A48F2E",
"h. c #8B8776",
"j. c #A6965A",
"k. c #D3B262",
"l. c #EACA53",
"z. c #D7C86F",
"x. c #EACF6C",
"c. c #DCC955",
"v. c #E0BC34",
"b. c #3E6883",
"n. c #446A84",
"m. c #4B6B84",
"M. c #456D8A",
"N. c #4A6D8B",
"B. c #466683",
"V. c #536D83",
"C. c #546D88",
"Z. c #4B728D",
"A. c #46718A",
"S. c #557283",
"D. c #5B7582",
"F. c #5D7A83",
"G. c #53728B",
"H. c #5D7B8B",
"J. c #59768B",
"K. c #467291",
"L. c #4B7594",
"P. c #4D7A95",
"I. c #4B769A",
"U. c #4D7A9B",
"Y. c #44779A",
"T. c #527593",
"R. c #537B95",
"E. c #537C9C",
"W. c #5A7C96",
"Q. c #4A6F91",
"!. c #637C83",
"~. c #637D8A",
"^. c #687A84",
"/. c #777C83",
"(. c #627D93",
"). c #537DA2",
"_. c #587DA4",
"`. c #4E7CA2",
"'. c #5A769C",
"]. c #8F7A83",
"[. c #B47483",
"{. c #C77786",
"}. c #CE7086",
"|. c #DB5E81",
" X c #58839A",
".X c #558194",
"XX c #658184",
"oX c #6B8383",
"OX c #64828C",
"+X c #6B848B",
"@X c #6D898A",
"#X c #738585",
"$X c #728A86",
"%X c #73868A",
"&X c #748B8B",
"*X c #7A8989",
"=X c #77918D",
"-X c #688794",
";X c #738C92",
":X c #758D96",
">X c #759294",
",X c #7A9393",
"<X c #75939C",
"1X c #7C9A9C",
"2X c #7A979A",
"3X c #69929D",
"4X c #5582A4",
"5X c #5A84A4",
"6X c #5B85AB",
"7X c #5987AA",
"8X c #5D89B2",
"9X c #5086A5",
"0X c #638AAA",
"qX c #6894AA",
"wX c #7D9BA3",
"eX c #7899A6",
"rX c #638CB3",
"tX c #658CB5",
"yX c #6994B7",
"uX c #749BBA",
"iX c #7AA3B9",
"pX c #7DA1AB",
"aX c #739DC2",
"sX c #7AA4C4",
"dX c #6FA0C1",
"fX c #888887",
"gX c #968986",
"hX c #859A9A",
"jX c #919491",
"kX c #AD9290",
"lX c #8EA29D",
"zX c #ACA898",
"xX c #819EA4",
"cX c #949CA5",
"vX c #85A3A7",
"bX c #86A8B6",
"nX c #99AEB2",
"mX c #A7B5B9",
"MX c #AEB0AD",
"NX c #AB9CA2",
"BX c #D1A798",
"VX c #DCCF9E",
"CX c #86AAC5",
"ZX c #99B6C8",
"AX c #92B3CB",
"SX c #A5BAC7",
"DX c #AEBCCA",
"FX c #869EC0",
"GX c #B1CAD0",
"HX c #B7D6DF",
"JX c #CCD0D0",
"KX c #D0EAEE",
"LX c #F9FCFC",
"PX c #EDF1F0",
"IX c #DAE0DF",
"UX c #BBC0BE",
/* pixels */
"8.8.9.d.h.e.d.F *.F F *.F F &.F F F F *.F *.F 9.F F *.h.*.*.F F F d.d.d.,.d.,.d.,.d.,.d.s.F F G G G G G G G G G G G G F G G G F G G G G F d.F d.,.F F G G G G <.<.G <.<.G <.G <.<.<.G <.<.f.<./ G <.<.G <.G <.d.<.<.<.<.f.<.f.~ <.<.G G G G <.G G G 5 <.<.5 <.<.G <.f.<.f.<.f.~ G G 5 G f.<.G G G f.h f.G 5 f.<.G f.f.<.f.<.f.<.G G G G G G G 5 f.f.<.d.j.d.d.j.d.d.d.h.j.h.zXz.zXzXz.VXVXMXVXVXVXJXVXIXIXVXPXPXPXVXPXPXPXPXVXPXPXPXPXPXPXPXPXPXPXPXPXLXLXPXPXPXPXPXPXPXPXPXPXPXPXPXPXPXPXPXLXPXPXPXPXPXPXLXPXPXPXPXLXLXPXPXLXLXPXPXPXPXVXPXIXIXVXIXIXVXVXJXUXMXBXNXgXgXfX%.w < o . o . o . . . . . . . . . . . . . . . . . .   . .     . . . .   X . X . . o . o . O . o o o o o o o o o 1 1 1 o o 1 1 o 1 o o - o 1 . 1 . 1 . . o % o . . % . . . . . X . X . X . . % o 1 1 1 1 1 1 - - < 1 : < : 1 - < - - - < ; < - < ; < - < - - - - - 1 1 . . 1 . . . . . . . X . . . . . . o . . o o o o . X . . . . . . . ",
"h.F F h.F h.s.s.*.8.*.*.*.*.*.*.s.d.*.F F *.F F F *.*.F *.*.*.F F *.,.d.d.,.,.,.d.F F F d.F F F F G F ,.F F *.*.G ,.F F F F d.F ,.F d.,.G ,.F F G G G ,.F G D F d.G G G d.$.d.d.F ,.d.a.d.<.d.G G d.<.d.G G d.<.f.G f.<.<.d.~ f.d.<.G G G G f.! <.G f.<.5 <.<.5 <.5 g f.~ f.G f.G G G G <.f.G f.G G g f.G G f.<.G <.G G 5 f.G <.G G G 5 G 5 G 5 <.5 <.5 5 G G G G f.f.G d.d.d.d.j.j.d.h.d.j.j.s.lXz.VXz.VXVXVXVXVXVXVXIXVXPXVXPXPXPXPXPXPXPXPXPXPXLXLXPXLXLXLXLXPXPXPXPXPXPXPXPXPXLXPXLXLXPXPXLXPXPXPXLXPXPXPXLXPXPXPXPXLXPXLXPXLXLXPXPXPXPXPXPXPXPXPXIXIXIXIXJXJXmXMXzXgX,.w < o o . . . o o o . . . . O   X . . X   o X . . .   . . . O   . . O X   . X o . O O . o . o . O o o O o o o o 1 1 1 o 1 1 - o 1 1 1 o 1 o 1 . 1 . o % o . % . . . o X . . . . . X X X X % . % 1 1 X o % 1 1 % o 1 1 o o 1 . o 1 o 1 . o 1 1 . . 1 % o 1 1 1 1 . 1 % . . 1 1 . 1 . o . . X o o o % % o o o o o 1 o o . . O . . O . X ",
"h.h.h.s.h.s.s.h.h.s.s.s.*.s.>.*.d.s.d.a.*.*.s.s.s.s.*.h.s.d.*.*.,.d.,.s.d.s.d.,.s.F F F ,.,.d.*.G G F ,.*.*.*.&.,.,.F *.F F ,.s.d.*.*.d.,.s.F F ,.F ,.d.F F *.F ,.a.F s.a.,.a.<.d.,.,.F a.G d.G ,.G d.a.G F d.d.a.a.<.a.<.d.d.d.d.d.d.d.G $.f.d.d.d.! f.d.~ d.! f.G G ! f.g <.G <.<.G <.<.G 5 G G f.f.f.G G G G f.G G G G G G G G 5 G 5 G G G f.5 <.5 G 5 G 5 G 5 G 5 5 G G d.d.G G G G d.d.f.f.d.d.d.d.d.s.s.d.z.lXzXMXMXVXVXIXIXIXVXIXVXIXIXPXPXPXPXPXPXPXPXLXPXPXPXPXPXPXPXPXPXPXPXPXPXPXPXPXPXLXPXPXLXPXLXLXLXLXLXLXLXLXLXLXLXLXPXPXPXLXPXPXIXPXIXJXIXIXIXJXIXUXMXzXgX&.N < . . X X . o . . O     O X X X X .       X X   X .   .   X . . X O     . O X . o X o O . O o o o o o o o 1 o 4 o 1 1 1 1 o 1 - o o 1 1 1 1 . o o o . o . o . . . o . . . X . . X X X X . . . . X X X X . . . . . X X X . . . X . X X . X X . . . . . . . . % . 1 1 . % 1 - 1 1 # 1 1 1 1 1 1 1 1 1 1 1 1 o o 1 o o o o . . . O   o ",
"jXjXjXh.jXjXjXjXh.fXh.fXfXjXfXfX1Xh.1Xj.gXfXjXfXh.h.jXfXfXjXfXfXh.fXfXh.s.fXh.fXfXh.s.h.s.s.s.s.s.s.s.s.*.>.>.-.,.*.*.>.s.s.s.s.s.s.s.s.s.h.s.s.s.s.s.s.s.s.s.*.a.d.d.,.F d.a.d.F ,.F F G a.,.a.s.d.$.d.s.F a.d.d.d.d.d.d.a.d.a.a.d.a.d.a.f.a.d.$.$.f.$.d.! d.d.! G $.f.g f.<.<.d.<.f.G f.<.G G <.~ f.~ G G G G <.G G G G G G G G G G G G 5 G 5 f.f.5 G G 5 G G f.G f.G 5 5 g d.G G 5 G f.f.<.<.<.<.f.d.<.d.f.f.d.d.d.d.d.d.h.k.j.zXzXzXVXVXVXVXVXIXVXVXJXVXIXIXVXIXVXIXVXUXVXVXVXMXVXUXVXUXVXJXVXUXVXVXJXJXVXJXIXVXIXIXIXVXIXJXVXJXUXUXVXJXUXMXUXUXUXBXMXMXMXzXkXkXh.h.F A , $ X O   X X X X X X . . X O     X         X X X O X .   . . X . X X         X X X o X . o . o . o o o o o 1 1 1 1 1 1 1 1 - - o 1 - . 1 # 1 1 o % o o . % . o o . . . . . . . . . . X . X X X . . % X . X X X . X X X X X X X X . . . . . . . . . . % . . . o o 1 1 1 - 1 - - - - 1 - 1 1 1 < 1 1 4 1 1 1 1 1 o o o o o o o . . . X ",
"MXnXMXnXMXnXMXnXzXnXnXnXnXnXnXMXnXnXnXnXnXmXnXnXMXnXMXMXcXnXNXNXnXzXcXzXnXzXzXnXzXNXlXlXlXzXzXlXlXjXjXjXcXjX].jXjXjXjXjXjXjXjXjXjXjXlXlXlXlXlXlXjXjXjXjXjXfXh.jXs.h.h.s.s.s.s.h.s.s.h.h.s.h.>.].s.s.h.h.h.h.h.h.s.h.h.s.a.s.h.s.d.s.s.s.s.s.s.s.d.a.d.a.d.a.d.d.a.d.d.a.f.f.a.f.<.G G <.<.G G <.<.G <.G <.G <.G <.G <.D <.G <.G G G 5 G G 5 G G f.<.G G 5 G G 2.f.G G G f.<.G G G G G G G G G 2.G 5 5 G G G G G G <.G G d.f.<.d.d.F F s.h.d.h.h.zXzXzXjXzXzXzXzXzXVXzXzXzXzXzXzXzXjXh.h.h.*.*.s.h.h.h.h.h.h.h.h.h.h.h.h.h.8.h.>.8.s.*.>.*.*.&.&.G D G A A A A A A N N w 3 < $ .   O X O O   X O X .     O X   O X O   X O X X O   . X   X X O   X . .     O   O . . . . o o . o o o o o 1 1 1 < 1 1 - 1 1 < 1 1 1 1 1 1 1 o . - 1 o o o o o o o . . . . . . . . X X X . . . . . . . . . . X . . . . . . . . . . - . - . 1 . - . 1 . - . o - - ; - - - ; < < < < < < 1 < < < < < 1 4 : < 3 1 1 1 1 o o o o o o . . ",
"GXmXSXmXSXmXDXmXmXmXmXmXmXmXmXmXSXmXmXmXmXmXmXGXDXmXmXmXmXmXDXSXMXmXmXmXmXmXMXmXDXMXmXMXMXnXmXmXMXmXMXMXMXDXDXNXZXNXSXNXMXmXmXMXmXMXMXzXzXlXzXlXlXMXzXnXzXnXnXnXmXzXnXlXlXlXjXlXzXlXlXlXlXlXcXNXjXlXjXlXlXlXlXjXzXh.lXh.jXh.zXh.zXlXlXzXlXjXjXjX=Xa.1Xj.s.s.s.s.a.s.a.d.#.#.d.! / d.<.d.G G <.G <.<.~ f.<.<.<.<.<.D <.D <.G <.<.<.G G D G G G G G <.G G G G G G G e.F 2.d.d.f.G G G 2.F 2.F d.G G G G g 5 G G G d.d.G <.d.<.<.<.G G G G G G G F d.d.d.*.d.h.h.h.h.h.h.h.j.h.j.h.j.zXh.h.h.s.d.d.F G *.d.G G G 5 A A 5 A A 5 5 N N N N 5 N 3 1.1.3 3 1.< < $ < ; $ $ $ # # # O   X X     X   X   X O   X X O X X X     X X X X X     . X . X X   . X     X X . . . . O o . o o o o o 1 1 4 1 < 1 1 < 1 - 1 1 < 1 - 1 1 1 - 1 - 1 1 1 1 o o % . 1 o % o X . . . . . . . . . % % . % . o . % . % o o o . . . 1 1 1 . - o 1 - 1 # - - - - - - ; < < < < , , , , , , < : 3 : < < < < : 3 : 1 1 1 1 4 1 1 4 o o o o o O ",
"GXZXZXZXZXnXZXZXZXnXZXZXZXnXZXZXZXmXZXSXSXSXAXZXGXSXSXSXDXSXSXSXDXmXmXmXmXGXSXUXSXmXnXmXmXmXmXmXmXSXmXmXDXDXDXDXDXDXDXDXSXSXmXmXSXmXmXmXmXmXZXnXmXnXmXnXmXmXmXmXGXmXmXmXmXnXMXnXmXnXmXnXMXmXSXmXMXnXzXnXMXzXnXnXnXMXnXMXzXMXMXnXMXnXmXMXMXMXMXMXnXlXzXlXnXlXzXlXh.1Xs.s.a.d.! $.G <.<.G <.<.<.<.<.G <.~ <.<.C <.D <.<.<.<.<.<.<.<.G <.D D <.D G <.G G G G G G G G G G G G G G G F F e.F d.F F G d.d.a.d.d.a.G G d.<.G d.d./ d.<.<.G G G G G G F G F G F G F F G d.d.F F F d.s.s.h.h.j.jXh.j.j.h.h.h.h.jXh.h.s.h.G G G G G 5 A <.A 5 N 1.3 1.3 5 3 2 1.3 3 ; < 2 # # @ O @ . @ .   O   X X X       X X X X O X O X     O     X X X . .   X . X   X       .   O . o . . o o o o o o o 1 1 1 1 < 1 1 1 < 1 - 1 1 1 - 1 1 < - 1 1 - 1 1 1 1 % o 1 1 . o . o . . . . X % X % % . o . o . . o o % 1 1 o 1 % . 1 1 - - - - - - - < - : < < < < < , < , , , , , , , , , < 9 < < < < < : 3 1 1 < 3 1 < 1 1 1 1 1 o o o O . ",
"AXbXnXAXnXAXAXCXZXZXZXZXZXZXZXZXZXZXZXZXZXZXGXAXnXZXZXZXSXSXSXSXSXZXZXAXnXnXZXmXZXSXZXmXZXZXSXZXSXnXZXZXZXZXFXSXZXAXZXnXZXSXnXZXnXZXZXnXSXnXZXZXmXZXmXZXZXZXZXmXmXmXmXSXmXSXmXmXZXnXmXmXZXmXAXAXmXmXmXmXmXmXmXmXmXmXmXmXmXmXmXmXMXmXnXMXnXmXmXmXGXUXGXmXGXGXUXmXmXmXmXmXnXnXlXlXlXjXhXhXfX=Xs.s.a.a.a.d.a.G ,.,.%.D D ,.<.<.<.<.D Z D D D D D R G <.G D G F G F G G G F F F F G d.d.d.F F h.8.F d.d.d.d.d.d.f.a.G d.F ,.d.d.G d.d.,.G F F d.F G F F F F F G G G G <.G G G G d.d.F F h.s.d.h.h.h.h.j.h.j.h.j.h.h.h.h.h.h.h.9.F G *.F 5 5 N 5 N 1.1.3 3 1.$ < $ ; # $ o O   O     X X O O           O   O X   X X   X     X     X     X X   X X     .     . . . . . O O o o o o o o o o 1 1 1 1 1 < - 1 < < - < 1 - - - - - - - 1 1 1 1 1 1 % 1 1 % o . % . % . . X . . . . . o % % o % % o o 1 - 1 1 o 1 1 - - - - - < < < < , , , , , , , , , , , , , 3 3 9 3 t w < , 3 < 3 < < 1 < 3 1 3 1 : 1 4 1 1 1 o o o o o ",
"AXAXsXsXCXCXsXAXAXAXAXAXCXAXAXAXAXCXCXCXAXAXAXAXAXAXAXAXAXAXAXAXZXZXZXZXZXZXZXZXZXZXZXZXnXAXZXZXZXAXAXAXAXAXAXAXZXZXAXAXAXAXDXAXZXZXZXZXZXZXAXAXAXAXAXAXZXZXZXZXZXZXZXZXAXAXHXAXHXAXAXHXAXHXAXHXAXAXAXAXAXAXGXZXGXSXGXZXZXZXSXmXnXmXnXnXmXnXnXmXmXmXmXSXDXmXSXDXUXmXGXGXGXDXGXGXUXUXmXmXMXmXMXmXnXNXmXMXMXSXNXNXNXcXNXcX].cXcX].].fX]././.*X]./.8././.].>.&.-.-.F F 8.F *.F F d.*.F F G G F F F G h.h.*.F h.h.F ,.d.*.*.F s.F *.F F d.G F d.d.,.F D F F F G G G G G G G G F G G G G G F F F F F F j.h.h.j.h.h.h.h.j.h.h.h.h.j.h.h.h.d.G G G A 5 3 1.1.< 1.$ $ # # $ # . . # O @   O   o   O .   X O . X . . X . O X X   . X . X X O X X X   X   X X X   . X O X . . . o o o o o 1 o 1 - 1 < 1 1 : < : 1 < 1 < 1 1 < 1 < 1 1 : 1 : 1 1 1 1 < 1 1 o o % . . o o % . X . % X o % o % o % 1 1 1 < 1 - - - - ; < < < , , , , , , N , , 1.3 1.3 9 3 N 1.9 N , 3 1., , , , , 3 , < < < 3 < 1 < : < 1 1 1 1 4 1 o o o o X ",
"sXsXsXAXCXCXCXCXAXiXCXAXCXCXAXiXCXCXCXAXCXCXAXAXAXAXAXAXAXAXAXAXAXCXAXbXCXAXAXAXAXCXAXCXAXAXAXAXAXAXAXAXAXAXAXAXAXAXAXAXAXAXAXAXAXAXAXAXAXAXAXAXAXAXAXAXAXAXAXAXAXAXGXAXAXAXAXAXAXAXAXAXAXAXAXAXAXHXAXHXGXGXAXAXGXZXAXAXZXZXZXZXSXSXSXZXmXSXmXSXZXSXSXmXSXSXSXSXGXmXGXmXDXDXDXmXGXmXGXUXDXSXDXmXDXJXDXDXGXDXGXDXJXGXUXDXDXDXDXDXDXDXSXDXDXmXMXDXcXNXcXNXNXcXNXjXjXgXjXh.gXh.h.h.h.s.*.*.,.F &.F F s.F *.*.F *.,.,.,.*.*.*.*.8.s.,.d.,.a.d.,.F s.s.d.F *.F F ,.F G G F F F F F F F G G G G G G G G G G G G G G G F G F F h.e.d.s.h.h.h.h.h.F F 5 G 5 5 1.5 3 1.< 3 < < # o O . .           o . o X   X O . O . X . X . . . o o . X . X X     X X X O   X O . X   o . . o 1 . 1 o o o 1 1 < 1 < < < 1 < : 1 1 : 1 1 < 1 : < < 1 1 1 1 1 1 1 1 1 1 % % o % o % . 1 % . . . % o o % 1 1 1 1 1 : < : : < : < ; < , , , , , 9 1.3 9 3 N 3 w w w 1.w 1.3 3 , , 9 , w N 3 , 9 < 3 < 9 < < < < < 4 : : 4 1 1 o 1 o o o o . ",
"AXsXsXsXsXsXsXCXdXiXsXiXdXAXdXdXsXsXCXCXCXCXAXCXsXAXAXAXAXsXCXCXCXCXCXiXCXbXCXCXiXCXiXCXCXCXCXCXCXsXCXsXAXCXAXCXFXCXCXCXAXsXAXAXAXsXCXCXAXCXCXCXCXCXCXCXsXAXCXsXAXAXAXCXAXAXAXCXsXAXAXCXAXAXAXAXAXHXHXsXAXAXAXGXAXAXAXAXAXAXAXAXZXZXSXSXZXSXZXZXZXZXZXZXZXSXSXZXSXSXZXSXDXSXSXSXZXmXnXmXSXmXSXmXDXDXDXDXDXDXDXDXSXDXDXDXDXDXDXDXHXDXDXHXJXHXJXHXJXGXJXDXJXGXGXJXUXUXUXUXMXMXMXNXzXzXzXjXjXh.h.8.h.,.,.*.,.&.*.*.,.,.*.*.*.*.F *.,.,.F ,.,.G ,.G G ,.,.G D G F D F F *.F *.F F F F F F 9.F F F F G G G G G G F G G G G G G F d.d.D G G G G G G <.G <.<.5 5 N A 5 N 5 3 $ $ - $ # O .   . O .             X o O . . . X X X X X X     X X .   O X     X X X X . o . o o o o 1 1 o 1 1 1 - : 1 - < 1 < < < < : : < - : < < < < 3 1 < 1 1 : : 1 1 1 1 1 1 1 % o 1 1 % . % . % 1 1 1 - 1 1 : 1 < : < < < < , , , , , , 3 9 3 w , N w 1.w w w w w w w N N 3 N w , 3 , , 3 , 3 < , , , 3 < < < 4 : 4 1 4 1 o o o o o O O ",
"sXsXsXsXsXsXsXsXdXiXdXdXdXdXiXdXiXsXsXsXsXsXsXsXsXsXsXsXCXsXCXCXsXiXsXiXsXdXiXsXsXCXsXiXCXsXsXiXsXsXdXsXsXsXsXsXFXsXaXsXsXsXsXsXsXsXsXsXdXsXsXsXsXdXsXsXsXsXsXsXdXsXsXdXsXsXaXaXaXsXsXaXsXsXsXAXsXsXAXsXAXAXCXAXAXCXAXAXCXAXCXAXAXAXAXAXAXZXAXZXCXnXAXbXZXZXZXAXZXZXZXZXZXZXAXSXSXZXZXZXSXnXZXZXAXAXZXZXZXSXmXZXZXZXnXZXFXSXZXSXDXDXDXDXDXDXDXGXJXHXHXJXHXIXIXJXJXJXIXJXJXJXJXJXUXUXUXUXMXMXMXMXlXjXgXjXjXs.>.>.,.,.%.-.-.*.,.,.,.,.,.,./ ,.,.D D D D D D D D F D F F s.*.F *.*.G F G G F F s.d.F G F F F F F ,.F G G G G G G ,.5 G G <.5 G 5 <.G 5 5 <.<.5 5 A A A A A N 1.3 3 < < $ - - < # $ o O . X . O . o o X X X X X . X X X X X   X X X O   X O X o . O o o o o o o . o o 1 1 - - < < : : < : < < < < : < < : < : : < : 1 : 1 1 1 < : 1 1 1 1 1 1 1 1 1 % o % % 1 1 1 : < : - - : < 9 < , < < , , w N , 3 9 3 t 1.N w 1.w w 1.1.1.N 1.w w 9 1.N 3 1., 1., , , < 3 , < < < < < < : < : < 1 1 o o o O . o . ",
"AXsXsXsXsXsXsXsXdXdXdXdXdXCXdXdXsXuXsXsXsXsXsXsXsXCXsXsXsXsXsXsXiXsXiXsXCXiXsXbXsXbXiXCXsXiXiXiXiXyXiXuXiXiXdXdXdXiXdXiXdXsXsXdXsXsXsXCXsXsXsXsXdXiXdXsXaXaXaXaXdXdXaXaXaXaXaXaXaXaXaXaXsXsXsXsXsXdXsXsXiXsXiXiXuXuXuXuXiXiXuXbXbXbXbXbXbXbXCXbXbXbXbXbXbXCXCXFXbXCXCXCXCXZXAXCXZXZXZXZXnXFXnXFXAXAXAXZXZXnXFXZXSXFXnXZXZXAXFXSXAXnXCXAXZXFXZXAXAXZXmXDXDXGXDXDXUXDXDXJXDXJXJXJXJXJXJXJXJXJXUXUXUXMXmXmXMXjX/./.:.=.=.=.:.:.,.,.=.=.=.,.o.,.%.,.,.,.<.D D %.%.,.D D D D ,.D F G D F G ,.F F F *.F d.*.d.F d.,.d.d.,.s.d.F F d.,.F s.F d.F F F G D D G D D D <.<.A 5 5 D <.A <.A N N 5 N A A w 3 3 3 3 $ $ $ - $ o     X X X X X       . .   X   X     O o o o o o o 1 1 o o - o 1 o 1 - - < < < < 3 : < < < , < 3 : w : < < : < : 1 1 1 : : < 1 1 1 1 1 1 : 1 1 1 1 1 1 1 1 1 1 : < < : < 9 9 < : < , , , N N N t 3 , N N w N w N w N w w N w N 1.1.w w , 9 , 3 3 , < , 3 < 3 < < < 1 3 : < : 1 1 1 o o o . . . . ",
"sXsXsXsXsXdXsXsXsXdXdXdXiXdXdXCXaXaXuXaXaXaXaXsXsXsXAXsXCXsXCXsXCXsXsXCXCXsXiXsXsXsXCXiXsXiXiXuXiXiXuXiXuXuXuXiXuXuXuXpXdXaXuXiXaXaXaXaXdXdXsXdXdXdXiXiXaXaXuXuXdXdXyXaXaXdXuXaXaXaXaXaXaXaXaXaXdXdXdXdXyXuXuXyXqXeXyXeXiXuXuXuXuXbXuXbXbXuXbXuXuXuXbXuXuXbXbXbXiXiXCXbXbXbXCXCXiXbXFXbXbXbXbXbXcXFXFXFXAXFXAXFXFXbXFXFXFXcXFXFXbXbXbXxXcXbXxXcXcXbXcXcXbXnXnXnXnXMXFXNXnXNXNXSXmXUXmXGXGXUXmXDXMXMXmXmXmXcXfX:Xs./.^.-.:././.^.>.:.:.a.:.>.:.=.a.,.,./ D R <.<.D <.D <.D D <.<.D D ,.D F ,.,.F *.d.s.*.s.d.d.s.,.d.F d.d.*.s.d.*.d.h.h.*.*.*.F *.*.*.*.*.F F G <.G A G D G 5 <.5 S A D G G F D E D G S A A A A 3 3 < # o O . . . . O . o o o . X X . X o o o o 1 1 - 1 - - - - 1 - - - - < < < 3 : 3 3 , 9 9 3 w 3 9 < 3 : : < 3 1 : < : 4 : : 1 : 1 : 1 1 1 : 1 1 : 1 1 : : < < : : < : < < , < , , 9 , N , N 3 1.w 9 3 t 3 1.1.w 1.w 1.w 1.w w w 3 1.w , , , , , , , < , < , 3 : 3 1 : 4 4 1 4 1 o o o . . O . ",
"sXsXsXaXsXsXsXsXsXsXdXAXAXdXCXdXsXaXuXaXaXsXsXsXsXsXsXsXsXsXsXdXiXiXbXsXiXiXiXbXiXiXiXiXiXuXuXuXuXqXqXuXeXuXyXuXyXuXuXuXuXuXuXyXuXyXyXuXuXaXyXuXyXuXdXdXaXtXaXaXdXrXdXtXyXaXaXaXaXaXaXaXaXaXaXaXdXdXdXdXiXiXuXuXuXyXuXuXbXuXbXuXuXuXuXuXuXuXuXbXuXuXuXuXuXuXuXaXiXiXsXiXsXFXFXCXCXCXCXCXFXFXAXAXbXCXAXFXCXAXCXAXFXFXFXFXFXFXFXZXbXCXbXbXFXFXnXbXFXcXFXbXbXnXnXbXnXNXbXcXcXcXcXcXnXnXnXnXMXmXnXmXcXnXnXnXnXcXcXcXxXhX:XhX,XhX,X*X;X:X*XhXhXfXfXhX*X*X*Xs./.>.-./.s.*.s.*.*.*.,.,.<.<.<.D D ,.D G G G G G G F G ,.F d.s.d.d.d.d.s.s.h.s.8.>.s.h.s.s.h.*.s.h.s.s.s.F G F G G G <.S D A G D G G &.G F 9.G F &.F *.F F F G D A N 3 3 - - < # o o . X X o o o o o # ; 3 < < < < < < < < , , , , w , w w w 0 w w w w w w w w w 0 3 3 3 3 : 3 1 < : : 1 < : < : 1 : : 1 1 1 1 1 : 1 < : : : < < 3 9 : : , < , , t 3 , N N 9 N 3 w , N N w N w N w N w 1., N w 1.3 , , , < < 3 , , , < < < 3 1 3 1 4 1 1 4 1 o o . O . . . ",
"CXsXaXaXdXsXsXsXsXsXdXAXdXAXdXAXsXiXaXyXuXaXsXsXaXdXaXdXiXdXdXdXuXuXuXiXiXuXuXuXiXqXqXuXyXeXqXqXqXqXqXqX0XqX0X0XqXqXqXyXqXyXeXqXyXyXyXyXyXyXyXyXyX8XqXyXtXtXdXaXdXdXdXaXaXsXsXCXsXsXaXaXaXFXaXsXsXsXsXsXsXiXiXuXuXbXaXbXuXsXCXbXiXuXbXCXuXCXsXCXbXiXsXbXbXuXCXsXsXsXCXsXFXCXCXCXCXCXCXCXAXCXCXCXCXCXAXAXCXAXAXAXAXZXAXAXZXAXAXAXAXAXZXAXAXZXZXZXZXZXFXFXbXnXZXZXFXZXZXnXAXnXZXnXnXmXnXmXnXZXSXnXnXZXnXnXbXnXAXnXnXnXnXbXcXcXbXcXcXbXcXvXnXnXcXnXnXMXnXmXmXnXMXnXnXcXlXzXlXjXs.s.s.>.s.,.,.,.,.,.,.,.F ,.,.G s.d.s.s.s.s.h.s.h.s.h.s.h.s.h.s.s.s.>.*.*.>.*.s.s.s.h.s.h.h.9.G G G G G G D D D G S G G G D F F F F F 9.d.8.h.*.*.9.F D S A 3 3 4 o o o o O O o - ; < 3 < < 3 , , 3 , w 3 , w w w N w w w w N N A B w w w w 3 9 3 : : 3 : < : 3 < < 1 1 < < 3 1 : 3 1 : : 1 - : : < , < , : : < < w < , , , , 3 N 1.w N 1.w N N w t 1.w N 1.N 3 w 1.w 9 3 , , , , 3 , , , < < 3 < , < 1 < 1 < : : 1 1 1 o o o o . O . ",
"sXaXuXuXaXaXaXaXaXdXdXsXaXaXdXdXuXyXyXqX8X8XqXqXyXqXyXqXyXqXyX9XqXqXqXqXqXyXqXyXqXyXqXqXqXyXyXqXqXqXqXiXyXyXyXyXyXqXdXqXyXyXuXuXiXdXdXdXqXyXqXdXdXdXdXqXaXaXaXaXaXaXaXdXsXaXsXaXsXsXsXsXsXaXaXdXsXsXsXsXsXsXsXsXaXaXaXsXsXCXsXCXsXsXsXsXAXsXsXsXsXsXsXCXsXsXsXsXCXCXsXsXsXsXAXsXAXsXAXsXsXAXCXsXCXCXCXCXCXCXCXCXCXCXCXAXCXAXAXAXAXAXAXAXAXAXAXAXAXAXAXAXAXAXAXAXAXnXZXZXZXZXZXSXAXDXAXAXAXAXHXAXDXZXZXZXSXZXZXZXDXAXAXAXAXAXAXAXDXAXDXAXDXDXDXDXHXGXGXGXHXGXHXGXGXUXGXUXUXmXmXvXjXjXhX].]././.].a.s.d.$.d.d.a.s.d.a.s.s.s.s.h.s.s.s.s.s.s.s.s.s.a.s.s.s.s.s.s.s.s.s.h.h.h.h.h.h.d.s.F G G G D F S G G G G F G F D G ,.F *.&.>.*.8.s.s.h.*.*.Z N N 3 1.3 < 3 < 2 < ; 1.3 1.5 N A A A A N N N A A R Z Z Z Z Z Z <.Z A A N N w 1.3 , < < - < < : < < 1 < < < : 4 : : 1 1 1 1 : : : : < : 3 , : : , , < , , , 9 w w N N 9 1.N N N N , N N t 3 , N 9 3 9 9 9 , , , , , , 3 3 3 : 3 : < 1 < < 1 < - - 1 o o o . .   . X ",
"dXaXqXyXyXaXaXtXyXyXyXqXyXyXtXyXyXqXqXqXqXqXqXqXqXqX8XqXqXyXqXqXqXrXqXrXrXqXqXqXqXqXqXuXuXyXuXuXuXuXuXuXiXuXiXiXyXiXuXuXiXuXdXuXyXiXqXiXqXiXiXqXqXiXdXiXaXaXaXaXsXdXaXdXsXaXdXdXdXaXdXaXaXaXdXaXdXdXaXaXaXaXaXsXaXaXaXaXsXsXaXaXsXsXaXaXaXaXsXsXsXsXsXsXsXsXsXsXsXsXsXsXsXsXsXsXsXsXsXsXsXsXsXsXCXCXsXsXsXCXCXsXsXsXCXCXCXCXCXsXAXCXAXsXAXAXCXsXAXCXCXAXAXAXAXAXCXAXCXAXAXAXAXAXAXAXAXAXAXAXAXAXAXAXAXAXAXSXZXDXAXAXAXDXAXAXAXAXAXDXAXDXAXDXDXAXGXAXAXGXDXDXDXHXGXGXGXGXGXGXGXGXSXmXSXmXcXNXcXFXfX=X=X=X=Xs.s.=Xa.a.a.d.d.a.s.s.s.s.s.a.a.s.d.a.s.a.s.a.s.a.s.d.s.s.h.h.h.lXh.h.fXh.h.h.h.s.*.,.D F F F F G G D G G G *.*.*.*.*.*.*.F s.d.*.F F &.F G G G <.A A A 5 A N A A <.A A A A A A A A D Z A Z S D Z S Z S <.A A A N N N 9 , , : < : < : : : : : : < : : - - : - : < < < : : 3 : , 3 3 , < 9 , 9 9 3 9 9 , N N w w 1., N 3 t 3 t t w N , 9 w 3 9 , w 9 , : , : : : 3 : 3 < < < 1 - < 1 - 1 - 1 o o o O . . ",
"0X0X0X7XtXtX_.aX8X8X0X8X8XrXrX8X0X0X0X7XqX8X8XqXqXyXyXqXyXqXyXyX8XqXrXqXqXqXyXyXqXyXyXyXyXiXuXuXyXiXuXuXiXuXsXdXiXuXuXyXiXyXuXdXiXyXyXuXiXdXqXdXdXdXdXdXdXdXdXdXaXaXaXaXdXaXdXyXdXaXdXyXuXdXyXaXuXdXdXaXaXdXaXaXdXaXaXdXaXaXaXaXaXaXaXaXaXaXaXaXaXaXaXdXaXaXaXdXsXdXdXdXsXsXdXdXsXsXsXsXsXsXdXdXdXsXsXsXdXdXsXsXsXsXCXiXdXCXdXdXsXsXdXdXdXsXdXiXsXsXsXsXdXsXsXiXCXbXCXCXCXCXCXCXFXAXAXCXAXAXAXAXAXCXAXAXAXAXGXAXHXAXAXAXZXDXAXDXAXAXDXAXHXAXAXDXAXGXZXZXZXGXAXAXSXSXZXSXUXSXGXGXDXDXGXJXDXGXDXDXmXmXmXmXMXnXnXvXlXlXzXlXlXlXhXh.s.s.s.s.s.a.s.s.a.s.s.a.s.s.$Xs.s.h.s.jXh.h.jXjXlXzXzXjXjXh.h.h.h.h.h.h.d.F F D d.,.d.d.*.*.>.*.*.s.s.s.*.s.s.*.D D ,.F F *.&.&.G D D D D D S <.<.<.A <.A A A Z Z Z Z R Z <.Z <.R <.Z Z A N N w t , , , : < : < 1 < < : < : < : < : - : - < : < 3 : : 3 : 3 < , 9 9 , 3 t 3 w 1.N 9 , N w 9 N 9 N 3 N w 9 N , 9 9 , 9 3 t , , , 3 0 : 3 3 1 3 : 4 - < < 4 - 1 1 1 # - o o . o O   ",
"0X0X5X0XtXtXaX_.yXyXqXyXtXtXrXtXqX0XqXqXqXqXqXyXqXyXqXqXqXqXqXqXqXqXqXqXrXqXqXqXqXqXyXqXqXqXqXqXqXyXqXyXuXyXuXyXyXyXyXdXyXyXyXyXyXqXyXyXqXyXdXqXqXyXyXqXdXtXdXdXdXyXdXyXyXrXyXyXyXrXyXyXyXyXdXyXyXdXuXyXaXuXuXuXdXtXdXdXaXaXaXaXaXaXaXaXaXaXaXaXyXaXdXdXaXaXaXaXdXdXuXuXdXsXiXyXdXdXuXuXdXdXyXuXuXuXuXuXuXuXiXyXdXdXdXdXdXdXdXdXuXdXuXdXdXiXiXuXiXiXdXiXdXiXiXdXiXFXCXsXbXCXsXsXFXFXFXCXCXFXsXsXCXCXCXCXAXAXAXAXAXAXAXAXAXAXAXAXAXAXAXAXAXAXDXAXAXAXGXGXHXAXHXGXSXGXGXSXZXSXZXGXDXDXDXGXDXGXHXHXGXGXJXGXGXGXGXGXGXUXGXGXUXmXUXmXmXmXmXmXmXmXnXnXlXlXlXlXjXhX=Xs.lXs.h.s.hX=XfXjXjXjXzXjXjXlXzXcXNXjXjXh.jXh.h.h.h.h.fXh.h.gXh.gXh.h.h.h.h.*.&.F ,.,.D ,.&.*.*.*.*.F *.D F D &.D F G D D D <.Z A D Z Z D R D R Z <.Z S A A A N 3 , , 1., < : , : : : : 1 : 1 : < < - - < : < < < : 3 < < : 3 , , , , , 9 , 9 , w , , N t , N , N 9 t 9 9 , , t 3 w , 9 9 , , , , 3 < : 3 : 3 : 4 < 1 1 - - 1 < - - - o o o . . .   ",
"qX7X8X8XtX8XaX8XyXyXqXqXyXyXyXtXqXqXqXqXqXqX8XqX0XqXqXqXqXqXqXqX8XqXqX8X7XqXqXqX8XqX8XqXqXqX7X3XqX9X0XqXqX0XqXqX0XqX8XqXqXqXyXqXrXrXqXqXqXyXqXyXqXyXrXrXyXrXyXyXtXyXrXyXyXyXrXyXrXyXrXyXtXyXyXaXyXdXyXdXrXyXyX8XdX8XdXtXtXdXtXdXtXdXdX8XaXaXtXtXyXdXyXdXyXdXyXyXyXqXyXyXyXyXyXdXyXyXyXyXqXyXyXyXyXyXyXyXyXyXdXyXqXdXqXdXdXdXpXdXdXdXdXdXdXyXdXdXuXdXdX8XdXdXdXdXuXdXiXdXdXdXsXsXFXaXaXaXdXdXdXdXaXaXaXaXsXsXsXsXaXsXAXsXCXsXCXsXAXsXCXAXAXAXAXAXAXAXAXZXAXAXAXAXZXGXZXAXAXZXZXZXZXZXZXSXAXDXDXAXGXSXHXGXGXGXGXGXGXGXGXGXGXGXGXGXGXGXGXGXHXHXHXGXGXGXSXSXZXnXbXnXmXlXlXzXNXcXcXcXlXhXjXhXcXNXNXNXjXzXjXzXzXzXzXjXzXlXzXzXzXzXzXNXnXMXMXzXzXlXh.h.s.s.s.d.d.s.d.a.*.*.8.F *.F *.F *.&.F D D D &.D Z D <.%.D Z Z R R Z S Z A A N N 1.t , > > ; : : < : : : < : : 1 : 1 < - < : < < < < < < 3 < 3 < 3 9 , 9 w 3 t , , t 3 3 t 3 t 3 N , t 3 w , w , 9 , 9 , , , 9 , : , : 3 : 4 : : 1 < 1 1 1 1 - 1 o o o o . . . . O ",
"0X0XrXtX8XaXaX8XrXrX8X0XrX0XrXrX8X8XqX7X9XqX9XqXqXqXqX8XrXqX0X0X7XqXqXqX3X0X7XqXqXqXqX9XqX7X7X0X9XqX5X3X9XqX0XqX7X7XrXqX8X8X8XyXqXqXrXrXrXqXrXqXqX8XyXqXrX8XrXrXrXrXrX8XtXrXyXrXrXrXrX8XrXtXtXyXrXyX8XyXrXrXyX8X8X8X8X8X8XyX8XyXtX8X8XdXtXtXtXtXyXyXyXrXyXyXyXyX8XrX8XqXqXyXqXyXyX8X8XqXqX8X8XqXrXqXrXqXyXqXyXqX9XyXqXdXdXdXdXqXdXdX8XdXyXdXtXaXyXdXdXdXdX8X8XdXyXuXyXiXdXdXdXdXaXaXaXaXdXdXdXdXaXaXaXaXaXsXsXsXaXaXaXaXaXsXsXdXsXsXsXsXaXsXsXsXiXsXsXsXAXCXAXFXCXCXAXCXCXCXAXAXAXAXAXAXAXAXAXAXZXZXAXAXAXAXZXZXZXGXZXGXmXSXGXmXSXGXGXGXDXDXZXGXGXGXGXGXGXGXGXHXGXGXGXGXDXDXDXDXnXMXMXnXnXcXnXcXlXlXzXlXlXzXzXzXzXzXzXMXMXMXMXUXJXVXJXJXJXUXUXUXzXzXjXjXjXhXs.d.F F F F F G D F D D D D D G D F S D %.D %.D D Z S Z Z Z Z S A A N 1.N , , : < ; : < < : 1 : : : - - - < 1 : 1 < < : < , : < , , , , , , , t t 3 3 t 9 9 3 t 3 t 9 9 w 9 9 9 , 9 w , w , w 9 , , 9 < , : 3 : : 3 < 1 1 < - - 1 o o 1 o . o .     X ",
"0X3X8X8X8XtX8X8X0X0X0X0X6X0X0X0X7XqX7XqXqX9XqX9XqX7X3XqX0X0XqX0X7X7X9X7X3X7X XqX7XqX8XqX7X3X7X7X3X9X7X7X7X7XqX7X7X3X0X7X7X8X8XqX0X8X8X0XrX0XrX0X8X8XqX8X8XrX8XrXrXrXrX8XtXrXrXtXtXrX8X8X8XrXtXtX8X8XyX8XrXrX8X8X8X8XdX8X8X8X8X8X8X8X8X8X8X8X8XtXyXrX8XyX8XyXqX8X8XqX8X0XqX8X8XqXqX8XqX9X7XqX7X0X8XqX8X8XqXqX8X8XyX8XdX8XqXyXqXqXdX8X8XdX8XyXaX8XyXyXyXdX8X8XdX8XrXyXyXyXyXyXdXdX8XdXdXdXdXdXdXdXaXaXdXdXaXaXaXaXdXdXaXaXaXaXdXdXdXiXyXyXdXdXaXaXyXuXdXsXdXsXaXaXiXiXdXiXsXCXsXCXiXsXsXsXFXAXFXFXAXAXAXAXCXAXAXAXZXZXZXZXZXGXZXSXZXSXSXAXZXDXGXAXGXGXZXGXGXSXGXGXGXGXGXHXHXHXHXGXSXDXDXDXDXSXSXmXmXMXnXMXzXlXlXzXlXzXzXMXMXMXMXmXVXGXJXJXJXIXIXVXJXJXJXJXMXzXh.h.h.j.h.h.*.*.d.*.F F F &.d.s.d.s.,.*.*.*.-.*.>.&.,.D Z D R Z Z Z N N N , , , , < 3 3 : : 3 : < < - < : < : < < : , < < , 0 3 w : , , 3 9 9 3 3 t w , w 9 t N 9 w 3 t N , N , N 9 w 9 9 9 9 , 9 9 , , , : 3 : 3 1 < < < 1 - 1 - 1 - o o o o o     . ",
"3X5X_.8X8XtX8X_.rXqX0X0X0X0X0X0XqX7XqXqX7XqXqXqX7XqX7X7X7XqX5X0X7X3X7X5X7X5X7X7X9X9XqX9X0X7XqX3X7XqX3X9X3X7X7XqXqX7X7X9XqXqX7X9X0X7X7X0X7X0X0X0XqX7X9X8X8X8X8XrX8X8X8X8X8X8XrX8X8X8X8X8X8X8X8XtX8X8X8XrX8XrX8X8X8X8X8X8X8X8X8X8XtXtX8XdX8X8X8XtX8XrX8X8X8X8XrX8X8X7XqX7X9X7XqX8X7X7XqX7X7XqX7X0X7X8X7XqX8X8X9XqX9XqX9XyX8XyXqX8XyXyX8X8X8X8XtXaX8XyX8X8X8XdX9XdXrXyXyXyXdX8X8X8XdXdXtXtX8XdX8XdX8XdXdXdXdXaXdXaXtXdXtXdXaXaXdXdXdXdXdXdXdXdXdXsXuXyXdXdXdXdXaXaXdXdXdXdXiXsXdXiXsXiXsXiXaXaXFXFXCXCXsXsXdXCXsXCXCXCXCXCXbXCXbXAXAXAXAXAXAXAXAXAXZXZXZXZXZXGXZXGXSXGXSXGXDXDXDXDXGXDXDXDXDXDXDXDXDXmXmXmXmXMXMXnXzXnXcXcXzXzXNXmXzXUXUXUXVXUXUXUXVXMXUXVXUXUXUXzXMXMXzXzXzXzXzXkXh.gXh.h.jXh.jXh.gXjXjXjXfXh.h.*X8.>.&.&.%.D R A A N N N N 9 , , : < : 3 : < < : : : < : < < : < : < < 9 3 : 3 3 , 9 , t , 9 , N , 9 , , N , w N , N 9 w 9 9 w , 9 , w w 9 9 9 0 0 9 , 3 : 3 : 3 < < : 3 - 1 - 1 - - - o o . o o   ",
"qX3X7X7X6X6X6X6X6X6X7X7X5X0X_._.7X5X0X7X0X3X5X0X X0X0X3X5X5X0X0X0X5X9X5X5X X7X5X X7X5X7X3X9X0X7X7X0X9X3X9X X7X0X9X5X7X7X9X5X7X0X5X5X0X0X0X5X0X5X5X0X5X0X8XrX0X8X6X6X8X_.tX8X_.tX_.tX8X_.tXtX_.rX8X8X8X8X8X8X8X8X7X8X8X7X8X6X6X6X8X8X8X8XrX8X7X6XrX8X8X8X8X8X8XrX7XqX0X0X0X7X7XqX7X0X0X0X0X0XqX7XqX8XqX7X8XqX0X8XyX9XqX8XqXqX8X8X_.tXtX_.dX_.tXtXtXtX8XaXtXtXtXtXrXyXtXrXrXrXrXtXdX8XdXtXtXdXdX8XdXdX8X8XdX8X8X8XdX8XdX8XdX8XdXyXyXyXyXyXyXyXyXyXyXyXyXyXaXaXtXaXdXdXyXdXyXdXdXyXtXtXaXaXaXaXaXaXaXaXaXaXsXaXaXaXdXiXdXsXsXsXiXCXCXCXCXAXCXAXAXAXAXAXAXAXAXAXZXAXZXZXZXSXSXSXSXZXSXSXSXSXDXSXSXSXDXDXDXDXDXSXMXNXmXMXMXmXNXMXNXNXlXlXzXzXnXzXzXMXzXzXzXMXMXVXmXUXUXMXUXzXVXMXUXMXzXMXzXzXzXMXMXMXMXMXzXzXzXMXMXzXzXNXzXh.h.s.,.,.U A N N A A N 3 , , , 3 , < , , - : < : < < 3 : 1 < < : 3 3 3 : , , , 8 w 9 w w , , w 9 w 9 w , N N N N B w N 9 w w 9 N w w 9 w 3 w 9 9 3 , , < < , < < : < < < < - < - # . O o O ",
"7X7X7X7X6X8X6X6X6X6X0X0X0X0X0X0X7X3X5X3X5X6X5X0X0X X5X5X3X0X X0X9X3X3X7X5X7X X5X5X5X5X7X0X5X5X0X5X X0X5X5X3X5X5X7X5X3X7X5X0X5X9X0X5X6X5X0X5X0X0X5X5X5X6X_._._.6X8X_.6X8X_.tX_.tX0X6X_.tX8X_.rX8X9X8X7X7X8X7X7X7X7X7X6X9X8X6X6X6X8X8X8X8X7XrX7XrX5X7X5X7X7X7X5X7X7X9X7X7X7XqX7X7X8X7X0X9X7X7X7X0X7X7X8X0X7X7X0X0X9X8X7X0X8X8XqX7XtXtXtXtX8XaXtXtXtXtXtXtXtXtXtXtXrX8XtXtXtXtXrXrXtX8X_.tX8X8XtXtX8X8XdX8X8X8X8X8X9X8X8X9X8XqX8XyX8XyXyXyXyXtXyXyXyXyXyXyXtXtXaXtXdXqXyXdXdXyXaXdXtXtXtXtXaXtXaXaXaXaXaXaXaXaXaXaXsXdXdXiXsXsXsXsXaXaXsXsXsXsXCXCXAXCXAXCXAXAXAXAXAXAXAXAXAXAXZXAXZXZXZXZXZXAXSXZXSXDXSXSXDXDXSXSXSXSXDXSXmXDXDXDXMXMXzXnXNXzXcXzXlXzXzXlXzXzXzXzXzXzXzXMXMXzXzXzXMXzXzXMXMXzXzXzXzXMXzXzXzXzXMXMXMXmXMXzXMXzXlXzXzXfXh.-.%.Z A w w w w w w w w w , w 8 3 : : : : : : : w 3 0 : : < , , , , 9 , 9 , 9 9 w t w N t , 9 w , w w w N t N w N B w B w w w w w w 9 w w w 3 w 3 , w , w < < ; < < o o o . ",
"3X7XqX9X6X6X).6X5X5X X0X0X0X0X0X5X5X5X X5X3X X0X0X X X5X X5X X0X5X7X7X5X5X7X7X X7X5X7X5X5X5X0X5X3X X3X9X0X X X5X5X7X5X5X5X7X5X5X6X6X5X5X_.5X5X X5X5X0XW.6X6X5X6X_._._._._.8X8X_.6X6X6X_._.tX_.8X4X7X9X7X7X5X7X7X6X6X6X6X6X6X6X6X9X8X9X8X6X6X0X6X5X4X5X5X4X5X4X5X9X7X5X7X5X7X9X5X5X5X5X5X9X0X9X5X7X7X0X0X7X0X0X7X9X7X7X7X0X7X7X8XtX_._.rXtXtXtXtX8X8X_.aX_.tXtX_.8X0XrXrXtXtXtX8XtXtXtXtX8XtX8X8X8X8X8X8X8X8X8X9X8X8X8X8X8X8X8X8X8X8X8X8XrXrXrX8XtXrXtXtXtXtXtXtXqXdX8XdXaXtXtXdXtXtXtXtXtXtXtXtXtXaXdXtXaXdXaXtXdXdXdXdXdXdXdXiXdXaXaXaXsXaXaXaXaXaXFXsXCXsXFXCXCXCXbXbXCXCXCXFXCXCXAXCXAXAXAXAXAXZXZXZXDXZXSXSXSXSXSXSXDXDXDXDXGXmXmXmXmXMXNXnXnXzXcXjXlXzXlXzXzXlXlXlXzXlXzXlXzXcXcXzXzXlXzXzXlXzXzXlXzXMXzXMXMXMXMXUXVXUXUXMXUXVXUXzXzXgX-.D S Z A A A N w w 9 9 9 9 0 3 w 0 9 9 , 9 : 0 3 3 : : < 9 , w 9 9 t 3 9 N t N w w N t N N N B A T N B B B T w T T B T A A B w w w w B A w w w w w 3 1., 3 < - o o . ",
"9X5X7X9X).6X6X6X5X5X3X XW.0XW.0X5X3X5X5X X0X5X5X X0X X5X0X X5X X5X5X X7X5X X9X5X5X5X5X5X5X9X9X X7X9X7X X5X5X9X5X5X X5X5X X5X5X5X6X5X5X5X X5X X X X X5X X5X_._.5X)._._.6X_._.tX_._._._._.8X_.8X_.5X7X7X9X7X5X4X5X6X).6X9X4X6X4X6X6X6X6X6X6X5X6X5X).4X).4X_.4X_.). X5X X7X5X5X5X5X5X5X5X5X X5X5X5X0X7X5X7X5X7X5X6XqX9XqX9X0X0X7X0XtX_.tXrX_.tX_.tX_._.tX_.tX_._.rX6X0X_.0X0X_.tX_.tX_.tX_.tX8XtX8X8X8X8X8X9X8X9X8X9X9X9X9X7X7X7X8X8X8XyX9X6XrX8X6X0XrXrXtXtXtXtXtX9XqXqX8X_.aXtX8XtXtXtXtXtXtXtXtX8X8X8XtXtXtX8XdXdXdXyXdXdXyXdXyXaXtXdXdXaXaXaXaXaXaXaXaXaXaXaXaXsXuXsXuXuXuXbXFXFXbXbXFXCXCXCXbXbXCXAXAXAXAXAXZXFXZXnXSXSXZXSXDXDXDXmXDXmXmXDXDXMXnXMXMXMXlXzXlXlXzXzXlXnXzXlXlXlXcXcXjXlXlXlXhXlXh.jXjXlXlXlXjXzXlXzXMXMXMXMXMXMXMXUXUXUXMXNXcXgXfXfX>.&.R A A w w 9 8 : : 3 w 9 w 9 w w w 3 0 w < 9 , , 9 9 9 9 t 3 9 w N N B N N N N N A T T R U U R R T R R R T R T R S T S S R Z A A A A w N N , 3 3 < - # o ",
" X9X4X4X4X4X6X6X5XW. X X0X X0X_. X5X5X5X X5X5X X X X5X X5X X X5X5X5X X4X X4X X9X4X4X5X5X5X4X4XE. X9X5X5X5X5X5X5X5X4X5X4X5X7X5X5X6X5X5X5X). X.X.X X5X X X X4X X5XE._.I._._._._.5X_._.)._.5X5X_.5X X4X4X4X5X5X5X5X4X6X5X7X5X7X7X5X)._._.5X_. X_.5X_. X_.5X_._._.5XW._.W._. X7X5X5X0X_.5X5X5X6X5X5X X7X5X X5X5X5X5X X5X5X0X7X0X3X7X6X5X0X0X_.0X0X6XtX_.tX_.6X0X0X0X7X5X6X6X_.6X0X8X0X6X0XrXtX_.0X8X9X9X8X9X9X9X8X9X9X9X9X6X9X6X6X8XqX8X8X7X8X7X6X8X_.tX8X8X8X8X8X8X8X8XtX8XtXtXtX8X8X8X8X8X8X8X8X8X8X8X8XtX8X8XtXtXtX8X8X8X8XyX8XtX8XdXtXtX8XdXaXaXaXaXtXaXaXaXaXaXaXaXaXaXuXuXaXuXyXaXFXsXbXCXsXCXFXFXbXCXCXCXCXAXZXFXAXFXAXSXDXAXmXZXZXSXZXDXDXDXGXmXmXmXSXmXnXnXnXmXNXnXnXnXnXlXcXcXcXcXcXcXcXjXlXlXlXjXjXhXfXjXlXzXlXzXlXzXzXzXzXnXMXMXMXUXUXUXMXUXMXMXzXjXfX>.%.R Z N w 9 9 3 , , N w N N 3 , w 9 9 w 9 9 9 w N N w N B B B A A Z T Z Z %.^.^.-.=./././.^././.^.=.-.=.R =.&.R R %.R R R A A A N w 1.3 3 < - o o ",
" X X9X X4X4X_.4X4X5X X X-XW.W.0X X X X5X X X X5X X5X X5X X5X5X X4XE.4X4X5X XE.U.). X X). X). X9X X X X X X5X X9X X X X4X9X X4X X4XW. XW.W. X.X.XW. XW. XE.W.E.E.I.I._._.).).).).E._.E._.)._._._. XU.E.E.E. X4X4X4X`.).).4X)._._.).)._.).).W.E._.W.).W.E.W.E.E._.E.E._._.5X X5X5X'._.W._.W.W._._. X X5X XW.).W._._.5X X5X5X0X5X5X5X5X_._.0X5X6X6X_._._._.6X5X_.6X5X5X5X4X6X_.6X_.6X6X_.rX_.rX_.0X8X9X9X8X8X9X9X8X9X8X6X9X9X8X6X6X8X9X8X7X8X7X6X8X8X8X8X8X8X8X8X8X8X8X8X8X_.tX8X8X8X8X8X8X8X8X8X8X8X8X8XtX8X8X8X8X8X8X8X8X8XrX8X8X8XdX8XdXdXdXtXaXaXtXaXtX_.aXaXtXaX8XaXaXuXyXuXuXaXaXaXuXaXaXaXaXuXuXuXuXsXFXFXFXFXFXFXFXAXFXAXAXZXAXAXZXAXAXZXZXSXZXZXSXSXGXZXmXSXSXSXmXmXmXmXmXZXNXmXnXnXnXnXnXlXnXlXlXcXjXhXcXlXcXcXlXlXlXcXcXzXzXzXnXzXMXUXmXmXUXUXUXUXUXMXMXNXcXjX>./.E T w N , , , , , N N w w N w B w N w N B B Z Z R ( R =.=.-.^.>.].]././.].]._./.]._.].].]./.-.-.-.-.-.-.-.&.R Z A N A w 3 3 1.3 3 - # o ",
".X9X9X9X4X6X).4XW. XW.R.E.W.W.5X XE.W. XW.5XW.E.W. XW.W.W.W.5X4XE.E. X`.E.U.E.U.E.E.E.4X).E.E. X`..X X X.X X X XU. X X).`. X XU.E.E.W.R.W.E.R.R.R.R.W.E.R.R.T.I.E.E.E.E._.I.I.E._.I.I.E.I.E.E.E.P.L.I.P.U.R.E.W.U.E.R.E.E.I.E.I.E.W.T.T.E.W.E.E.E.I.T.E.E.T.E.T.E.E.E.E.E._.W.5X_.E.E._.E.E._.E.E.W.W.E.W.W.E.W.W.W.W._. XW. X X4X4X4X5X_.6X5X7X_.)._._. X).4X4X4X X X9X4X5X5X4X).5X_._._.6X_.6X9X9X9X9X`.`.8X`.9X9X8X9X).6X_.6X9X7X7X6X7X6X6X6X_.8X_.8X6X6X8X8X_.8X8X6X8X8X8X6X8X`.8X`.8X8X`.8X8X8X8X8X8X8X8X8X8X8X8X8X8X8X8X8X8X8X8XtX8X8XtXtXtXtXtXtX8XdXaXaX8XaXaX8X8XaXtXaXdXdXaXtXtXaXyXuXuXyXyXuXyXuXbXFXbXbXFXFXFXFXFXFXAXCXCXCXFXCXAXAXAXnXAXZXnXZXZXZXZXmXnXZXnXZXSXSXSXSXSXSXSXSXSXSXSXnXnXnXnXnXNXnXNXnXNXnXcXlXlXlXlXlXlXzXMXzXnXzXMXMXMXUXUXUXJXUXJXMXMXzXNXjXgX].>.%.A , , < ; 1.w N A A N w B A A A U %.=.^././././.].].fX].:X].hXhX].].].].].]./.].]././.-./.-.-.%.R S A A N N w 1., , < < < 1 O ",
"9X.X.X9X4X_.).4X4XE.W.E.E.E.W.E.W. XE.E.W.E.E.W.W._.5XE.W.4XE.W.E.E.E.U.E.E.E.U.U.U.E.E.E.U.`..XU..XP..XE.U.U.U.E.U.E.U.E.U.E.E.E.R.P.R.R.P..XG.R.R.R.R.T.T.T.T.'.E.E.I.T.E.I.T.T.I.T.I.T.I.I.T.L.K.Z.Z.L.L.L.I.L.I.L.L.L.L.I.T.E.R.E.T.T.R.T.W.T.T.T.T.T.I.T.T.T.T.E.T.T.W._.W.I.T.T.T.T.T.T.T.T.E.W.R.E.W.R.W.T.E.T.W.E.R.E.W.E.U.E.).E.).4X4X).).)._.U.U.E.U.9XU.E.9X XE.4X).E.E.E.).)._.E.4X9X9X`.`.`.9X`.`.9X9X9X9X)._.6X).9X9X9X9X4X4X4X6X_._.).8X`.6X`.`._._.6X6X_._.6X_.8X`.8X8X8X`.8X8X8X8X8X8X`.8X`.`.8X8X8X8X8X8X8X8X8X8X8X8XtX8XtXtXtXtX8X8XaX_._.8X8X8XtX8X8X8X8X8XtXtX8XtXtXtXrXyXyXyXyXtXtXyXtXaXuXtX_.FXFX_.FXFXaXFXaXaXFXFXsXFXCXCXiXsXCXbXbXAXFXZXZXZXZXmXZXZXZXZXZXSXSXZXSXZXSXSXmXnXnXSXSXDXDXGXmXmXnXnXnXMXnXlXlXlXnXlXzXnXcXcXMXMXmXMXmXmXJXMXMXMXMXUXmXMXMXzXjXh.&.D <.<.B B B N B A B Z A U R =.-.].].fXjXgXhXjXjXcXjXjXjX].].xX].'._.]././././.-.-.-.-.-.%.R T S B N N N 3 3 , 3 < 1 1 o ",
").E.I.E.)._._._.E.E.R.E..XP.G.R.R.E.E.R.E.E.R.E.E.E.E.E.T.E.E.T.R.U.T.E.I.I.I.T.I.I.'.I.E.I.W.E.I.I.T.R.T.L.L.L.N.L.L.L.T.L.T.L.P.A.P.P.G.G.Z.Z.Z.P.A.P.Z.Z.Z.Z.P.R.T.Q.T.T.T.Q.L.T.Q.T.L.Q.Q.L.N.Q.Q.Q.M.Q.M.Q.N.Q.Q.Q.Q.Q.Q.Q.Z.P.Z.Z.Z.Z.L.Z.Z.R.L.T.T.T.Q.Q.L.L.T.L.I.I.I.T.I.T.L.L.T.T.T.T.'.T.Q.T.I.T.T.R.I.R.T.L.Q.I.I.T.I.E.I.E.`.I.T.E.I.E.R.R.E.E.E.E.P.R.U.R.E.E. XE.E.E.E.E.R.W.E.E..XU.U.U..XU.`..X XE.9X). X`.E.4XI._.E._._._.E._._._._._._._._._._._._._.6X_._._._._._._._._.6X_.6X5X6X5X5X4X4X4X6X6X6X6X8X8X8X8X6X8X8X8X8X8X8X8X8X8X8XrX8XrX8XrX8XrXrX8X8XrX8XrXrXrX8XrXrXrXrXyXyXqXrXrXyXyXyXyXtXqXtXyXyXyXyXyXuXuXuXuXuXuXaXuXFXFXaXFXaXFXaXFXbXCXCXbXCXZXbXZXZXAXAXZXDXZXZXAXAXAXZXZXZXZXSXSXGXHXSXZXZXSXSXmXmXnXnXnXnXnXnXnXnXnXnXcXnXmXmXmXSXmXNXMXDXMXMXUXUXMXUXMXmXzXlXh.,.Z N 1., , 1.1.w A T R /./.].fX].].jXcXcXcXcXcXcXcX].xXFX].].].]./././.E ^.E /.=.R R U A A w w w 3 , < < 1 < < o ",
"E.T.I.E._._.I.`.I.I.U.R.G.P..XP.L.R.L.I.T.I.T.L.T.T.T.T.T.T.T.T.T.L.L.L.T.I.I.I.I.I.Q.Q.T.T.I.T.T.T.L.I.I.Q.Q.L.Q.N.L.L.L.L.L.N.G.A.G.A.P.A.Z.Z.Z.Z.A.S.Z.A.Z.A.Z.Z.L.G.Z.L.L.C.T.T.T.N.T.N.Z.Q.N.N.N.Q.M.M.Q.Q.M.N.M.N.Q.Q.Q.M.A.S.A.Z.Z.Z.Z.L.Z.Z.Z.Z.Q.Q.C.Q.T.Q.Z.L.Q.Q.T.T.Q.N.N.Q.L.Z.L.I.I.Q.I.T.T.T.T.T.T.L.T.R.'.I.T.T.T.T.P.T.I.I.I.T.R.T.I.R.P.R.R.R.P.R.R.P.P.R.E..XP.P.R.R.R.P.P.P.P.P..X.XU..XU.P.U.P.U..XU. XE.E.E._.'._._.W._._._.W._._._._._._._._._._._._._._.E._._._._.0X5X5X5X5X4X6X5X5X4X_.4X_.6X6X6X6X6X6X6X6X6X6X6X6X6X6X6X8X8X_.8X8X6X0X8X6XrX6X8X8X8X7X8X6X8X8XrXrX8XqX8XrXrXyX8X8XrXtX8XrXrXrXrXyXyXyXtXyXtXtXyXuXyXuXaX_.aXFXaXaXFXaXFXbXiXCXCXCXCXCXCXCXAXAXAXAXAXAXAXAXAXAXAXZXZXZXAXZXZXZXZXZXZXZXZXmXmXnXnXnXmXnXnXnXnXnXMXmXmXmXNXmXSXSXMXDXUXmXmXUXMXUXVXUXUXMXMXcXfXh.,.<.A g w 9 w w w T U R '././././.].fXfX].tX].].].].(.(.]./././.^.E =.R %.R U A T w N w 9 , < < < # o # o ",
"E.I.L.I.I.I.I.I.I.I.P.I.P.A.Z.P.Z.Z.Z.L.Z.Z.Z.Z.N.Q.N.N.Q.Q.N.N.Z.Z.N.Q.Q.Q.Q.Q.Q.Q.Q.Q.T.T.T.T.L.T.G.L.Q.C.N.Q.N.N.N.Q.N.Z.N.N.m.Z.Z.A.Z.m.Z.m.m.A.A.m.A.m.m.A.M.M.N.N.Q.C.N.Q.Q.N.N.N.N.N.N.N.Q.Q.Q.N.Q.Q.Q.Q.Q.M.Q.N.Q.Q.Q.Q.Z.A.m.Z.Z.Z.N.N.Z.Z.M.N.Q.N.Q.Q.Q.Q.N.T.Q.Q.Q.Q.Q.Q.Q.Q.Q.Q.Z.T.Q.Q.Q.Q.L.Q.T.Q.L.T.I.T.'.Q.I.Q.L.L.L.L.Q.Q.Q.Q.L.I.T.T.T.T.U.R.R.Z.P.G.P.R.G.R.P.G.L.Z.P.R.P.G.P.P.P.P.P.P.P.P.P.U.P.E.U.U.E.E.'.I._.E.E.'._.E._.'.I._.E.W.E._._._._.'.'.`._._.E._._.E._._._._.5X5X).5X4X4X).).).4X4X4X6X).6X)._.6X6X4X_._.6X6X6X6X6X6X6X6X6X6X6X7X6X7X7X7X7X7X7X7X7X7X7X7X7X8X8X7X8X7X8X8X6X8X7X8X8X8X8XrXrXrX0X0XrX0XtXtX0XtX_.aXaX_.tXaXaXaXuXuXuXuXuXuXuXiXbXbXbXFXFXAXAXAXCXAXCXAXAXAXAXAXZXAXAXAXAXnXAXZXZXSXSXZXSXSXSXSXmXnXmXnXZXMXSXSXmXmXSXDXDXDXmXUXUXUXUXUXUXJXJXJXUXmXMXUXMXzXlXh.>.%.T w w w w B T R =./.^././.fXcX].cX].xX].(.].(.]./././.V.R R R U T A A A w w 3 , < < 1 < $ - o ",
"I.Z.Q.T.I.I.Y.Q.Q.L.P.A.A.A.A.A.A.A.N.M.M.M.N.M.m.N.N.N.N.N.N.N.M.N.N.M.N.Q.Q.Q.Q.Q.Q.N.Q.Q.Q.N.M.N.N.N.N.Q.N.N.N.n.N.N.N.N.M.N.n.A.m.m.A.n.A.n.A.n.n.m.n.n.n.n.m.N.M.N.N.N.N.N.N.N.N.N.N.N.N.N.N.N.N.Q.M.N.Q.B.M.M.M.M.N.N.Q.Q.m.m.A.m.n.m.N.M.M.m.N.n.N.N.Q.Q.Q.N.Q.N.Q.Q.Q.Q.N.N.N.N.N.N.Q.N.Q.Q.Q.Q.N.Q.N.Q.Q.T.Q.Z.Q.Q.Q.Q.N.N.L.N.Q.Q.Q.Q.L.N.L.L.L.L.L.L.L.Z.Z.Z.Z.Z.Z.A.Z.P.G.Z.A.Z.Z.Z.Z.K.A.K.P.P.L.P.P.P.P.P.U.U.I.I.'.E.E.I.'._.E.E._.I.I.'.T._.E._._._.'.`.`._._.`._.E.E._.)._._._.).E.).).).E.).E.).)._.4X).6X).6X4X4X4X5X4X6X4X6X5X4X6X_.4X5X6X5X6X7X7X7X6X7X5X7X7X4X5X5X7X5X7X7X6X7X7X7X5X7X7X7X5X7X7X7X8X7X8X6X6X0X0X_.0X0X0XrXtX_.uX_.aX_.tXaXqXyXqXyXeXuXuXuXyXuXuXuXFXFXFXFXFXFXFXFXFXCXFXAXCXAXCXAXAXCXnXZXnXZXZXSXSXZXSXSXSXSXZXGXSXSXSXSXSXmXSXDXDXDXUXDXmXmXUXMXMXUXUXUXJXJXGXUXJXGXUXUXMXcXjX/.^.R U T T 0 w N B T %.-././.(.].xX].]./.].(.^.E E -.=.=.R R A A A w w w 1., < < < < < 1 # ",
"G.Z.M.K.Q.Q.Q.Q.N.Q.M.M.A.A.n.A.M.M.A.M.M.M.N.N.B.N.N.B.n.N.N.N.n.M.n.N.N.Q.B.Q.Q.N.M.Q.N.N.M.m.m.N.N.N.m.N.N.N.m.B.m.m.m.m.B.n.m.n.m.n.m.n.[ n.[ n.m.n.[ n.n.n.n.B.n.n.N.N.m.N.m.m.n.N.N.N.n.N.M.M.B.Q.Q.B.Q.Q.n.M.B.M.B.Q.Q.B.A.m.n.m.n.B.n.n.n.n.B.N.Q.B.B.B.N.N.Q.M.M.Q.Q.B.Q.M.B.M.N.M.M.Q.B.Q.M.Q.Q.M.M.Q.N.N.M.M.Q.Q.Q.Q.N.N.Q.M.Q.B.Q.Q.Q.Q.Q.Q.N.Q.Q.L.G.Z.Z.Z.Z.Z.Z.Z.Z.Z.Z.Z.Z.Z.Z.Z.A.Z.K.Z.L.Z.L.Z.L.L.L.L.L.I.L.L.Q.I.E.T.I.T.I.I.T.I.I.T.I.T.E.E.E.I.E.W.'.`.'.`.W.E.E.E.E.E.W.).E.E.E.E.U.E.E.I.E._._._.6X_.6X_.5X_.5X_.5X5X_.5X_.5X5X_.5X5X5X5X5X5X5X4X5X5X4X5X5X4X5X5X5X5X4X5X4X7X4X5X5X4X6X6X5X5X4X7X6X6X5X7X6X6X6X6X6X8XrXrX_.tX_.aXtX_.aXaXqXqXqXqXyXyXqXuXtXFX_.uXaXtXFXaXFXuXaXFXbXaXbXbXbXCXCXCXCXCXCXbXZXbXAXAXZXZXZXZXAXDXAXAXZXDXZXDXDXZXDXZXSXSXSXSXmXmXmXmXmXUXUXGXJXGXGXUXGXJXUXUXGXmXmXMXMXcXfX]./.T B w w 9 N B U =./.].].].].]./.-.-.-.-.E =.R D Z A A A w N w 3 , ; < < $ < - $ ",
"Z.M.n.M.M.Q.M.M.M.M.M.n.n.n.b.n.n.M.M.n.n.m.N.n.N.B.N.N.m.N.N.N.B.n.n.n.B.N.M.N.M.n.M.M.n.n.n.n.B.m.m.m.N.N.N.B.N.B.N.B.B.N.B.N.n.n.[ A.n.m.m.m.n.n.n.[ n.n.n.[ m.n.N.m.N.n.M.n.B.n.n.n.B.B.n.n.B.Q.Q.B.B.Q.B.Q.M.B.B.M.B.Q.B.B.M.n.n.n.M.B.B.B.n.n.n.B.B.B.Q.B.N.N.M.M.B.B.B.M.B.M.B.M.M.n.B.B.Q.B.B.M.B.M.M.M.B.n.M.M.B.B.B.b.M.M.M.M.M.M.b.Q.M.B.M.Q.N.N.N.M.M.M.M.N.N.Z.Z.Z.Z.Z.Z.Z.m.Z.N.Z.A.A.A.A.N.K.M.K.K.Z.K.L.L.K.Q.L.Q.Q.T.I.I.L.T.L.I.T.'.T.L.I.T.E.T.T.I.I.I.'.I.I.I.I.I.E.E.E.).E.E.E.E.R.L.I.U.T.E.E.)._.).).)._.).E.E. X).W.4X X5XE.5XW.5X).4X4X).4X4X4X5X4X4X4X4X).).4X4X).4X).4X4X4X4X4X5X4X5X4X5X4X4X5X7X7X5X5X5X6X6X6X8X0X0XaX_._._.tXtX_._.rXrX0XrX0XyXtXyXtX_.bXuXaXaXuXtXuXeXtXxXaXuXuXuXuXuXbXuXbXuXCXCXbXbXCXbXAXAXAXAXAXAXAXAXZXZXZXAXAXDXAXDXZXSXSXDXZXmXmXSXmXGXmXGXUXUXUXUXUXJXIXJXJXJXJXIXJXJXDXDXmXNXcXfX/.=.U A N N N T T R C.^./././././.=.%.U R Z T A A A N w 1.3 3 ; < < $ 1 1 ",
"N.n.n.M.M.M.b.B.M.M.n.n.n.n.n.n.n.n.[ M.n.n.n.n.n.B.B.B.m.N.m.m.n.n.n.n.N.B.B.N.n.N.N.B.n.B.n.n.B.m.m.m.B.C.N.C.m.N.B.B.m.B.m.B.n.[ ] n.m.] n.n.] m.m.n.] n.] n.m.n.m.n.m.m.m.m.B.n.B.m.N.B.m.m.B.Q.B.M.Q.B.B.B.B.Q.M.M.B.B.B.B.n.B.n.m.B.B.B.B.B.B.n.B.Q.B.Q.B.B.B.M.M.Q.B.M.B.B.Q.B.M.B.M.M.B.B.Q.M.B.B.Q.M.B.B.M.M.B.B.B.B.Q.B.M.B.B.B.b.B.B.B.B.M.B.M.B.N.n.n.n.n.M.n.N.M.m.M.M.M.M.N.n.n.m.n.M.M.M.n.M.M.M.M.Q.M.M.Q.Q.Q.Q.M.Q.Q.Q.L.N.Q.L.Q.Q.Q.Q.Q.Q.L.L.T.Q.T.Q.T.T.'.Q.T.T.T.T.T.T.T.R.I.R.L.P.L.L.T.I.I.T.I.I.E.E.E.).R.R.T.R.E.R.E.R.E.E.W.E.W.W.E. X).W.E. X). XW.E.E.E.E.E.E.E.E.E.).5X).).5XE.).5X X_.5X_.5X_.5X5X4X4X5X5X6X6X6X8XtX_._.tXtX_._.tX6X7XrXrXrX0XrXrXtXtXuXtXuXtX_.aXtXyXyXyXtXtXyXyXyXuXyXuXuXuXuXuXdXiXiXiXiXiXiXsXAXAXAXAXAXAXAXAXAXAXZXAXZXDXSXZXGXSXZXZXmXGXSXSXmXGXGXmXDXGXGXGXJXJXIXIXIXKXIXIXJXJXJXJXDXMXfX>.%.A B 9 : 3 0 T U R %.-.-.%.R R U U S A A N N w 3 3 3 < < $ - < - ",
"Z.N.n.n.M.M.B.b.B.M.B.B.n.A.m [ b.n.n.[ n.n.[ B.B.B.B.B.B.n.n.B.B.B.B.B.n.N.B.B.m.n.B.n.n.n.n.[ B.B.B.m.m.m.m.m.C.m.C.B.N.m.m.m.n.] n.] A.n.] m.m.m.A.] A.] n.m.m.m.m.n.m.N.m.N.m.n.[ B.n.m.n.N.B.B.M.B.B.B.Q.Q.B.B.B.B.Q.B.B.B.m.m.n.n.B.B.B.B.M.M.B.B.B.B.B.B.B.M.M.B.B.B.M.B.B.b.M.B.M.B.B.M.M.B.M.Q.B.B.M.B.B.B.b.B.b.B.M.b.B.b.M.b.B.B.Q.b.B.M.B.M.B.M.M.n.b.n.[ n.[ n.M.n.n.[ [ n.n.n.n.n.n.n.n.n.N.M.M.M.M.M.N.M.M.M.Q.Q.M.M.Q.N.Q.Z.M.M.Q.n.M.M.M.n.N.Q.Q.N.Q.N.Q.Q.T.Q.Q.Q.Q.L.T.T.R.Z.T.L.L.Z.L.Z.L.L.Q.Q.T.T.I.T.I.I.T.L.T.L.T.I.T.R.R.E.E.R.E.E.W.E.E.E.E.E.E.E.E.E.E.E.E.P.E.E.R.E.E.).E._._._.E._.)._.).4X5XW._._.).4XE.4X).6X_.8X_.tX_._._._.tX_.6X7X6X7X6X8X8X0XtX_._.tX_.tXtX_.0XtXtXtXtXtXtXyXtXyXtXqXtXuXyXtXqXqXqXdXqXiXiXiXaXaXsXFXCXCXAXAXAXAXAXAXAXAXZXZXSXZXZXSXZXZXGXZXmXSXUXmXmXUXUXmXGXGXJXGXHXJXHXKXKXKXKXIXIXKXJXJXDXnXfX>.T w 3 w 9 w B Z U U U %.R R U T A B N N N 1.1.3 < ; < # o ",
"G.M.] A.A.n.n.n.n.n.n.N.n.[ [ n.n.n.m.m.m.m.Z.m.m.m.m.m.m.m.m.m.m.m.m.m.m.[ n.] A.m.m.m.m.m.m.m.B.C.B.C.C.C.C.G.C.C.C.C.C.G.C.G.C.C.G.Z.S.S.S.Z.Z.m.m.m.m.m.m.V.G.Z.Z.V.Z.m.S.Z.S.S.Z.V.V.m.[ [ N.B.C.B.B.B.C.B.B.B.B.B.B.B.B.B.m.m.m.m.m.m.m.N.V.B.B.C.B.B.B.B.N.n.N.B.B.B.B.B.Q.B.B.B.B.B.b.B.B.B.B.B.B.B.B.B.B.B.B.B.B.b.B.B.b.B.B.B.b.B.b.B.b.B.b.b.B.B.B.B.n.n.[ n.n.B.[ n.m [ n.n.n.n.[ n.n.n.n.n.B.n.m.n.N.n.n.n.N.n.n.n.M.M.M.M.N.M.N.m.n.N.M.M.M.M.n.n.N.N.N.n.A.m.Z.m.A.M.N.M.M.m.A.n.A.A.A.A.Z.Z.A.Z.T.Q.T.T.T.T.I.T.G.Z.Z.L.G.L.G.L.G.R.Z.R.G.R.T.L.W.E.E.T.E.R.I.R.L.T.L.R.R.R.E.E.T.E.T.E.E._.E.T.W._._.E._.W._._.4X4X4X4X4X5X4X5X_._._._._.6X_._.4X6X6X5X6X4X4X6X_._.0X6X0XtX_.8X7X8X7XrXrX8X8X0X8XdXtX8X8XaX8XdXyXqXqXrXyXyXuXyXaXtXtXtXyXuXuXaXaXFXFXFXCXAXAXAXAXAXAXDXAXGXDXZXSXZXSXSXGXGXmXGXSXGXmXGXGXGXGXHXJXHXKXIXIXIXPXKXIXIXJXDXDX].'.E B 8 : , : 9 w w T A R R R Z A N N 3 1.< < ; < # 1 ",
"S.Z.A.m.m.n.n.M.N.M.N.n.n.M.m.[ n.] m.m.Z.S.G.G.T.G.G.G.G.G.G.G.N.N.Z.m.A.] m.m.m.m.O.A.Z.N.Z.m.C.C.G.J.C.J.W.J.'.C.C.C.C.C.J.C.J.J.G.J.J.G.G.J.S.S.S.V.G.G.J.J.J.J.J.G.G.S.G.S.N.m.m.m.m.m.m.[ C.B.B.B.B.C.B.C.B.B.B.B.B.C.C.B.m.m.m.m.m.B.B.B.B.B.B.B.B.C.C.B.B.B.B.B.B.B.N.m.B.B.B.B.B.B.B.B.B.B.B.B.b.B.B.B.B.B.B.B.B.B.B.[ B.M.B.B.B.B.B.b.b.b.B.B.B.B.B.B.n.n.B.m b.[ B.n.n.n.[ [ [ [ n.n.n.m b.n.n.n.n.n.n.n.N.B.N.n.N.B.n.N.m.M.m.M.m.n.B.N.N.m.M.m.N.n.B.N.N.n.M.A.M.N.M.N.M.m.N.M.M.N.A.A.A.A.M.M.M.M.N.N.Q.Q.Q.Q.Q.Q.Z.Z.Z.G.Z.G.Z.Z.L.Z.G.R.L.T.G.T.P.T.R.I.T.R.T.T.L.T.Z.L.T.P.L.T.L.I.I.T.I.T.E.I.I.I.T._.E.).E._.W.E.E.E.).4X).)._._._.W.).)._._.4X4X_.4X4X_.6X4X_.tX_.6X_._.8X_.7X7X7X0XrX7XrX8X8X8X8X8X8X8X8X8X8X8XrXyXyXyXyXyX_.aXdXaXaXaXyXaXaXaXaXFXsXFXCXCXAXAXAXAXAXAXAXAXZXZXZXZXnXZXmXnXSXSXSXSXGXmXGXGXDXJXHXHXHXIXHXIXPXIXIXIXIXIXJXDXNX/.=.T w 0 : : 9 9 B T T T N Z A N 1.; < < < , < ",
"R.S.S.G.G.S.Z.Z.G.Z.N.N.S.S.Z.Z.G.G.R.R.T.R..X.XW.W.W.W.W.W.W.W.J.W.J.J.J.J.J.G.J.R.R.H.W.J.W.T.(.J.(.J.(.W.(.H.J.J.J.J.J.C.'.J.J.J.~.J.J.J.J.J.D.J.S.J.D.J.J.J.J.J.S.S.S.m.m.] m.] ] ] ] [ ] [ B.B.B.V.V.B.C.B.B.V.C.B.C.B.C.C.m.B.' m.V.B.V.B.B.B.V.B.B.B.V.B.B.m.B.[ B.B.B.[ B.B.B.B.B.B.B.B.B.B.B.B.B.B.B.B.B.B.B.B.B.B.B.B.B.B.B.B.B.b.b B.B.B.B.B.B.B.B.B.[ m n.[ [ n.[ [ n.[ [ n.n.[ [ [ n.[ n.[ [ n.m.n.m.m.m.m.B.n.B.N.B.n.m.n.n.m.n.n.B.N.B.B.m.n.m.m.B.n.n.n.m.n.n.m.n.M.m.n.A.m.A.n.n.m.n.A.M.n.M.m.m.n.N.N.B.C.C.N.N.N.Z.N.Z.G.Z.G.Z.Z.m.Z.Z.Z.G.Z.Z.Z.Z.G.G.L.R.P.L.G.G.L.Z.G.Z.L.N.T.Q.L.T.I.T.T.T.T.Q.T.T.E.W.E.U.E.E.R.E.E.W.E._.E.'._.E.E._._._._._.5X_.6X5X_._._.0X5X6X_._._.5X5X5X7X7X7X8X7X_.8X8X8X_.8X8X8X8X8XrXqXrXqXyXrXaX_.aX8XyXyXyXaXaXaXaXaXaXaXaXFXCXsXFXCXAXAXAXAXbXAXbXAXZXZXZXnXGXZXSXZXmXZXSXGXDXDXGXGXDXDXJXHXHXIXIXIXIXIXIXIXKXJXJXDXFX].C.e 9 : : < w B w T A <.A N , ; - # o ",
"-X.X.X.X X XH. X(. XW.W..XR.R.H..XOX.X-X-X-X-X-X-X(.-XOXOX-XW.(.W.H.(..X.XOX.XOX.XOXOX.XOXW.(.OXJ.(.J.(.J.(.(..XJ.J.C.J.C.J.J.J.J.J.J.C.J.J.G.S.J.G.G.D.G.V.V.V.m.m.] m.' ' [ [ [ [ [ [ m.[ [ [ C.B.B.' B.B.C.B.V.' B.V.C.V.C.C.' V.' ' Y ' B.Y V.Y B.B.B.V.B.B.B.[ B.[ [ [ B.B.B.B.B.b b B.b B.[ B.B.B.B.B.Y B.B.B.B.B.B.Y B.B.B.B.B.B.B.b B.b.b.B.b B.B.B.b.b.n.[ [ [ [ m n.[ [ [ [ n.[ n.m.[ [ [ [ [ ] m.m.[ n.[ n.n.B.m.N.B.m.B.B.N.N.B.m.B.m.B.m.m.m.B.B.n.B.n.B.B.n.n.m.A.m.m.A.m.m.n.n.A.b.n.n.n.n.n.n.M.B.n.B.n.B.B.N.B.m.n.m.N.M.Z.m.Z.m.m.m.N.N.m.N.M.N.M.N.Z.Z.Z.Z.G.Z.G.Z.Z.N.Z.Z.m.N.N.Q.T.Q.T.Q.T.Q.T.I.T.T.E.W.I.E.R.I.R.E.T.R.I.I.T.I.I.E.E.'.E.)._._.)._.)._.5X_._._._._.5X5X_.4X4X5X4X5X5X5X7X8X_.8X_.8X_._.8X7X7X8X8X7X8XrXrX_.aX_.dXrXtXtXtXtXtX8XaXaXaXtXtXaXaXaXaXsXFXFXFXbXAXAXbXbXAXZXbXZXZXZXGXZXGXZXZXAXDXAXDXZXDXDXDXHXDXHXHXHXHXJXIXIXIXKXIXIXDXNXFX/.^ B , : 8 9 w B A C N N N < ; - ",
"3X3X X3X-X0X-X0X0X-X0X0X XOXOX.X X-XOX X-X-X XOXOX-XW.(.(.(.~.(.(.H.H.W.H.OX.XOXOX~..XOX.XH.H.W.J.C.G.D.G.J.S.S.S.Z.S.Z.V.V.V.G.S.C.J.D.G.C.V.C.V.V.V.V.V.' V.V.' ] ] ] [ ' ' [ [ ) ) ' _ [ _ [ ' B.' ' ' B.V.{ C.Y C.V.B.' V.V.' ' ' ' Y Y V.Y V.Y B.C.Y V.V.' ' [ m.' [ [ [ [ [ [ [ [ B.Y B.Y [ B.m.[ m.' B.' B.Y m.B.B.[ B.[ B.[ B.[ B.[ [ b [ [ [ [ B.B.B.Y m.' [ [ [ [ [ [ [ [ [ m.] [ m.m.[ [ [ [ n.m.[ m.] n.] m.B.] m.B.B.B.B.' B.' B.B.B.m.B.B.m.m.' m.[ n.[ n.n.m.] n.n.m.m.n.n.m.] n.[ A.n.m n.[ m.m.B.B.B.B.B.B.B.C.B.n.n.n.m.M.m.M.n.n.n.n.m.n.n.n.[ n.n.N.N.m.Z.m.Z.Z.Z.m.M.m.m.A.M.Q.M.Q.Q.Q.Q.Q.Q.Q.T.T.T.T.T.T.T.R.R.P.T.T.T.R.T.T.T.T.'.'.T._.E.E.E.E.E._.W.5XE._.W.5X5X4X4X X4X X X4X4X5X5X7X6X4X6X6X6X6X8X8X6X6X6X6X6X6X6XrX8X6X6X8X8X8X8X8X8X8XtXaXtXaXaX_.tXaXtXaXFXFXFXFXsXsXsXsXbXAXbXCXbXAXAXZXZXZXAXGXAXGXAXGXDXHXZXGXHXDXHXHXDXHXHXHXHXIXIXIXPXIXIXIXJXDXSX/.T B 9 : ; ; , , t A N 9 , ",
"-X X-X-X-X3X-X0X3X0X(.-X-X XW.H.H.H.W.OXT.J.J.J.S.J.G.J.S.C.C.C.J.J.J.S.S.J.S.S.O.S.S.S.S.S.S.G.m.m.m.] m.] ] m.] ] ] [ ] V.m.V.V.C.V.V. .V. .V.' ' ] ] ' ' Y ' _ [ ' ] ] ' [ _ ) _ ) _ ) ' [ ' ' ' ' ' ' ' { B.Y { Y B.' V.Y ] ' ' ' ' Y V.Y V.Y V.V.Y V.' B.B.' [ ' [ [ [ [ [ [ [ ' [ Y B.' B.] B.' ' [ B.' [ B.B.B.' ' m.m.' B.B.B.[ [ [ [ [ [ [ B.B.B.B.m.B.[ [ [ [ [ m.[ [ n.[ [ [ [ m.[ [ ] [ [ ` ' ] ] [ m.[ n.[ [ m.[ m.' V.B.B.m.m.m.m.' B.V.' ' B.m.B.n.n.A.[ m.n.A.n.[ n.[ A.A.n.A.A.A.m A.A.n.m.A.M.B.B.B.B.B.B.B.B.B.B.[ n.n.n.m.n.n.[ n.n.m.B.n.m.n.n.n.m.n.A.m.N.m.N.n.n.n.n.n.n.B.B.M.N.N.N.N.N.N.Q.Q.Q.T.T.I.T.Z.T.Z.G.Z.L.G.T.T.T.T.T.Q.T.T.T.E.E.E.W.E.E.E.E.W.E.E.E.W.E.W.E..X.XU. XE.E.).4X).6X).).6X_.)._.4X4X6X4X4X6X6X6X6X4X6X6X6X6X6X6X8X8X8XtXtXtXtXaXtXtXtXtX_.aXaXaXiXdXiXiXiXiXiXiXiXiXbXAXAXAXAXAXAXAXAXZXAXAXGXAXAXAXAXAXDXAXAXDXDXHXDXHXHXKXHXIXKXPXIXIXDXFX/.T C C > & * , 1.t N ",
"OXF.S.P.F.R.T.W.W.J.W.J.T.Z.G.Z.Z.O.m.Z.S.m.N.V.] m.m.V.V.' ] V.[ m.] ] ] ] ] ] ] ` ] ] [ [ [ [ [ [ [ [ ] [ n.] [ [ ] ] ] ] ] S.V.] ' V.] ] V.] ' ' '  .'  .' ' [ _ ' [ ' ' _ [ ' ' ' [ ) ' ' ' { ' ' ' ' ' B.{ B.' ' ' ' ' ' ' ' ' _ Y Y ' Y C.V.Y V.' ' V.Y V.' ' [ [ [ _ ' [ [ _ ' [ [ [ ' ' B.' [ m.' m.[ m.[ ' ' ' ] [ [ m.[ [ [ [ m.' ' B.[ [ m.[ m.[ ' B.m.[ ] [ [ [ ] m.[ [ m.] B.' B.' [ ` [ [ [ ] ] ] ] [ ] ' ] m.' ' V.' V.V.' V.' m.V.B.B.V.m.V.m.' [ n.[ m.[ n.[ A.m.n.n.n.[ n.[ m A.m m A.m.n.m.B.B.Y B.Y B.B.B.B.B.B.B.n.B.B.B.m.B.m.B.B.B.B.m.B.n.n.m.n.[ [ M.n.n.[ n.N.n.n.m.n.M.B.n.N.N.N.B.N.n.N.N.N.N.N.N.M.M.m.N.m.N.N.N.Z.C.Q.Q.C.Q.T.'.C.T.T.T.T.T.T.R.R.R.I.R.T.W.T.R.E.P.P.P.P.P.E.U.E.).).).)._._._._._._._.4X6X_.6X_._.6X_.6X6X_.6X6X8X8X_.aXtX_.tX_.tX_.tX_.aXtX_.aXyXyXdXqXdXpXdXiXiXiXbXiXCXAXAXAXAXAXAXAXAXAXAXAXAXDXDXDXAXDXDXDXDXDXDXDXDXHXDXJXHXJXKXIXPXPXDXFXGXnXs.s ; > 9 , N ",
"S.] ] ] ] m. .G.Z.m.] m.[ m.] [ [ [ ] [ ] ] ' ' ' ] ' '  .' ] ] [ [ ' [ [ ] ` ` ` [ ] ` [ ' [ ' [ [ [ ' [ ' [ ] [ [ ' [ n.] m.V.'  .]  .] ] '  . .V. .V.V. .V.' ` ] ] ]  .' ' _ ' _ _ [ ' _ _ ' ' ' ' ' { ' ' '  .'  .] ] { ] ' ` _ _ Y _ { ' ' ' ' { ' ' ' V.] ' ' ' _ [ _ ' ' [ _ ' ] ' ] ' [ ] [ ] [ ] [ ' m.[ [ ' [ m.[ ] [ [ [ ] [ [ ] [ [ [ [ [ [ ] ] m.] ] [ m.[ m.[ [ m.] [ [ m.' ' V.' m ` ` [ ] ] ] ] [ ] ' ' ' ' ' m.Y V.' B.V.V.' ' ' V.' ] m.' m.[ ] m.[ n.[ [ [ [ [ ] ] [ ] [ ] A.m m A.m B.[ B.C.B.B.B.B.Y Y B.B.' B.B.B.B.B.B.[ B.B.B.B.B.m.B.B.n.[ [ n.n.m.[ n.[ n.n.[ [ N.m.m.B.N.N.N.B.B.B.B.B.B.B.B.N.B.N.n.m.m.n.m.N.m.N.m.N.N.C.Q.C.C.T.C.T.T.T.T.T.G.T.Z.T.T.T.P.P.P.T.L.P.A.Z.P.G.P.R.E.E.).).).).)._._.)._._.6X_._._.5X5X_.5X4X6X5X5X6X8X8X_._.tX_.tXtX_.aX_.tX_._.aXtXrXyXqXdXqXdXiXdXiXiXiXiXdXdXsXCXCXsXsXAXAXAXAXAXAXAXAXAXAXAXAXDXAXDXDXDXDXDXDXHXHXDXHXDXJXHXIXPXIXKXJXmXfXo.s ; & ",
"] ] [ ] ] ] m.m.m.] m.m.S.m.] m.] ] ] V.] ] ] ] V.]  .V...V.' '  .] { ] ] ' ] ] ] ] ] ]  .]  .] ` ' ] ' ' ]  . .' ' ]  .V.' V.Y ' {  .' V.{ V.{ ..{ V. .V. . . .' ' V.] V.{ ' _ ' Y ' _ ' { { ' P Y Y ' ` ` ' { ' ` ' {  .' ' ..` ` { ]  .` ` ] ] ] ] ]  .' ' ] ] ` ' { ' { ] ] ' { ] ] ]  . .' ] ' ] ' ] ' ' ] _ [ ] ] ' ] ' ] _ [ _ ' ] ] ] ] ' ` ' ] ` ] ]  .] ' ' ] ] V.'  .' V.' '  .V.' ' ] ] ] ` ' ` ` ' _ ` ' ' ` ' ` [ ' ' ..' V.{ { ' Y Y  .V. .' ' ' n.[ [ ] ] ] ' [ b ) ) [ [ [ [ ' ] [ [ [ [ ' B.Y [ B.Y B.Y B.Y Y B.Y B.B.B.B.B.B.B.B.B.B.B.' B.B.B.B.V.B.Y B.Y B.{ B.' ' B.B.B.B.B.[ B.n.B.m.B.V.B.C.V.V.B.B.V.B.N.B.B.B.B.B.B.B.B.N.N.B.B.B.N.B.N.m.N.B.m.N.B.B.N.N.N.N.M.M.Z.Z.Z.N.M.N.m.Z.Z.Z.T.I.T.T.T.E.E.T.E.E.E._.W. X_.0X_._._._._.5X5X5X5X6X6X5X_.6X6X_._._._.8X_.8XaXtX8X0XqXqX0X0XqXqXqXtXyXuXeXbXuXuXuXuXbXiXbXCXFXFXCXCXAXAXAXAXSXDXAXDXAXDXZXDXDXDXSXSXDXDXDXHXHXJXIXKXPXKXJXGXxX/.~ ",
"m.] [ ] ] m. .] ] S. .m.] S.] O.] O.O.] ]  . .]  . . . .V. ...] ] ] ] '  . .] ] ]  . .V.]  .' ] ] { ' ` '  .'  .'  .'  . . . . . .'  .{  .{ '  .V. . ..... . . ... .{  . .{ ' { { { { ] ] { ' ' ' { { { ' {  .] { ]  . ... .' ..} }  .`  .{  .] { ] ] { '  . .] ` ` ` ' ` ' ` ` ' {  . .]  .{ ] ]  .] ' ] ] ] ] ] ' ] ] ] ] ] ] ' _ ] ` ]  . . .` ' ` ' ] ] ]  .] {  .' ] { ]  . .' V.V.V.V.V.V.S.O.S.O.O.S. .] ] ]  . . .] { ` '  .' ..V.{ ' ' V. . .V.V. . .] ] ] ] [ [ ' [ ' [ [ [ [ ) [ [ [ ] [ [ [ Y [ ' [ Y ' ' ' [ Y B.Y Y Y n Y Y T Y Y T B.B.T B.[ Y ' ' Y Y Y Y Y V.V.B.B.Y B.' ' ' B.Y B.) [ [ [ ' B.C.Y B.B.B.V.B.B.B.Y Y B.B.Y B.B.B.Y B.B.B.B.B.B.m.m.N.N.m.C.N.N.N.n.N.m.N.m.m.M.n.m.m.M.N.m.Z.Z.T.C.T.T.T.T.T.T.T.W.T.W.W._.E.W.T.T.W.E.W.)._._.E.)._.)._._._._._._._._._._._._.9X0X6X0X0X0XtXqXqXqXqXqXyXyXyXtXqXeXuXeXuXuXbXbXCXbXCXFXAXAXAXAXAXZXZXSXZXZXAXSXSXSXZXSXDXDXDXHXGXGXJXHXKXKXKXGXmX",
"] ] [ ` ] V. .] ]  .m. . .m. .m.V.] O.] O. .V. . . . .V. . . . .]  . .]  .] ]  . .] ]  . .] ] ] { ' { ] { ]  .] { ]  . ... .] { { { { ] '  . .{ .... . . . . .V.{  ... .{  .' { { ' { { { {  . ._ { ' ] '  . . .{ { V.{ ..V..... .{ }  .{ { ] { ' { { { ' {  .{ ' ` ' ` { _ _ ' { ] ] ]  . . .]  . .`  .]  . . .`  .` ] ] ]  . .` ] `  .] ] ] ` {  .] ] ` ]  .] } ]  . . .{ V.]  .V. .V.' V.V.V.O.S.O.S.O. .O.}  . .O. . . . .] ..{  .{ { ..'  ._ { Y { ' ` _ ) ] ] ] ] ] [ ' ' ' ' ) ) ) ) Y ) _ ' [ [ Y ' ' ) ' Y ' Y Y Y Y Y Y Y Y Y T Y B.B.Y Y Y Y Y Y Y Y Y Y Y Y Y B.Y ' T B.Y B.T B.Y Y m m [ b [ [ [ [ Y Y B.' B.T R B.Y B.B.Y Y B.Y B.Y B.Y Y B.Y Y B.Y B.B.B.B.N.C.B.B.[ [ B.[ B.n.B.[ B.B.B.m.m.m.m.C.m.m.m.C.N.C.Q.T.T.T.T.T.T.W.W.'.'.'.'.E._._.E._._.)._._.E.).)._._._.`._._._._.W.5X6X0X5X5X0X0XtX0X0XtX0XtX0X0XqXqXqXqXuXuXuXuXbXbXbXbXFXAXAXAXAXAXZXZXZXZXZXDXZXSXZXDXSXDXDXDXGXGXDXGXHXHXKXHXKX",
"] ` [ ] ]  .V. .S.] O.]  . .] O. .O. .V. .O. . .V. ... ...V. . . .' ] ]  . .O.V. . . .]  . . .]  . .`  .'  .]  . . .'  .V. .V.] '  . .{  .{ ' .. .' V.....V.{ .. . .{ V.{ ] { ] { _ ' { '  .{  .' ] _ {  .` ] ]  . .{ V.....V...|  .} } {  .{ } { { { ] { { ` '  . .{  .' ' ` { ] { ]  .] { ' ` ' ] ] ` ]  .]  . .] ] ' ` ] `  .] `  .' } ` ' ] ] ' { ' ] ` ]  .`  . .` ] ]  . .] ] ]  . .V...V.] ` O.` ` ` _ _ ` ] ` ` ` ` ` _ ' Y { _ T B.U Y _ ' '  .` ' _ _ ` ' ' [ ` [ ) ' ) ) Y Y c z c L Y c Y L Y c L c Y c L c Y L b Y Y T Y Y B.Y T Y Y Y Y Y Y Y Y Y Y Y Y Y Y Y Y B.B.Y ' Y ' B.' B.Y b [ [ [ ' ' ' Y B.' ' B.B.B.T B.Y Y [ Y Y Y b Y b Y Y Y Y Y Y Y Y Y Y Y Y Y Y B.m Y [ [ [ [ [ [ [ [ [ [ [ B.m.B.B.B.C.B.m.N.m.m.B.N.m.Q.C.Q.T.Q.Q.Q.Q.T.T.T.E.E.W.W.).W.)._.E._.'._.'._._._._._.5X XW._.W.W.5X_.0X0X(.0X0X_.<XqX0X0XqXeXqXeXqX_.tXuXbXFXFXAXFXFXAXAXAXAXAXZXSXDXZXSXSXSXZXZXSXSXSXSXZXZXHXGXHXHX",
"] ] '  . .V.V. . .V.V. .S. . .V. .O.] O. . .O... . ... . ... . .]  .]  . .O. . .V. . .O. . .]  . .]  .] ] {  .] ] ] ] .. .V... ... .] { { ..{ ]  . ... . .{ { { {  .{ { ] { { { { {  .] { ] { { { ` ` ] { ]  .{ { {  .........{  .X.} } } } } { { } } ` { } {  .]  .{  .{ ` { ` { ' { ` _ _ _ ) W Y Y Y _ ) _ _ ` _ Y ) P ` _ ` ' ] { ]  .` ] ] { { Y { ' Y { ' ` _ ` { ' { '  ._ ' { ' ' ] ]  .` _ _ ! W W W W W W W W W W W W W P Q P P P P Y P { _ _ _ _ Q _ Y ) W ) Y Y _ Y Y Y L L H Y c Y L Y Y P Y L Y P Y P _ Y Y P Y Y Y Y { Y Y { ' Y Y Y ' ' ' _ ' ` ' Y Y Y Y Y ' Y T ' ' Y Y V.Y Y [ [ [ [ [ [ [ ' ' ' { ' T T V.Y ' ' ' Y ' ' Y Y Y Y Y Y Y Y Y Y Y Y Y Y Y Y Y Y Y ' Y Y [ [ Y Y [ Y Y Y Y [ Y B.B.Y B.B.B.B.B.B.B.B.B.B.B.B.C.B.B.B.B.Q.N.Q.C.Q.T.T.T.I.T.I.T.E.I.'.Q.Q.Q.'.I.I.E.T.E.T.T.E.E.E.E.W.E.5X'.5X0X5X7X0X3XqXqXqXqXqXtXeXeXuXuXxXFXbXFXbXFXFXFXFXFXZXFXZXZXZXZXSXZXSXAXZXZXSXGXGXGXAXDX",
"S. .]  . .V.O.V.V. .] V.] V. . .O. .O. . . .D.+.O.O. .D. . ... . . . . . .O.S. . .]  .V. .V. .]  .] { ] ' ] { { { { ] ]  . ...' { { { ]  .{ ] {  .{ { ' { ' ] { { Y { ' _ { ' { ] { { {  .{ ] { { ] ` { ] { { { ] { ' { ' {  .{ { / } } } / } } } { { { `  .{ { { ` ` { ` ` _ _ _ ` ` _ _ ) P P P L L L L L L P Y P P P Y Y Y _ P { Y Y _ _ P { Y { { Y { { Y Y _ _ _ _ { _ _ _ _ _ _ _ { ] ] ` ` _ _ _ _ _ W Q W W L W W L L Q W Q P _ P _ ` P Y _ W _ _ Q _ Y _ ' ' ] ] ]  . .V.O.V. .V.V.G.O.D.O.D.O.S.O. .D.D.D.O.O.V.O.D.D.=.V.D.D.D.V.:.V.V.C. . .V. . .V.{ ' ' ' ' Y ' ' B.B.B.' ' B.B.' B.[ [ [ [ ' ] ' V.] Y ' B.B.T B.Y _ _ _ ' ] ' _ B.B.' ' ' _ ' ' ' ' B.{ C.Y m.C.V.' V.m.' ' ' Y Y [ ' Y [ Y Y ) Y Y Y ' ' Y ' Y ' ' B.' B.B.B.B.B.B.B.B.B.B.B.B.N.N.N.B.N.N.N.Q.B.M.B.Q.M.N.Q.N.n.L.L.L.Q.L.L.I.T.I.T.T.W.T.W.W.W. X X5X-X0X0X0X_._.0XqXuXtXuXxXuXtXbXxXbXbXFXCXFXAXAXAXZXAXZXSXZXZXZXSXZXZXGXAXZX",
"S. . . .S.D.V.V. . . . . .O. .V. . . . .D. .O.V.D.V.........O... . . .V. .V. . . . . .S. . . . .]  .] { { {  .' { ' ' ..V... . .{ ] { { { ` { { {  .{ { { { _ { P { { { { { { { { {  .{ { _ { { _ _ _ ! _ _ _ _ { { { _ { { { P ! ! ^ ~ Q Q Q Q Q ! Q ^ ! Q Q _ Y P Y _ _ P P _ P { P _ W Q P P P Y Y L L L ) ) Y _ _ Y _ _ Y P P Y Y I P Y Y P P Y Y P P Y ' U _ ! ! _ ! ` _ { _ _ _ ` { { `  .X.} ` } ` ` ` ` ! _ _ ! ! ` ` { { { { { ..{ ....+...D...D.+.D.D.S.!.!.D.~.D.J.!.~.~.~.H.J.~.~.~.~.OX~.~.~.+X~.OX~.~.~.OX~.~.~.~.~.(.^.(.~.~.^.D.V.D.D.D.D.D. .O. .]  .' Y { Y { ' ' { ' V.Y ' ' [ [ [ ' [ _ ' ' Y Y Y ' Y { B.U ) Y Y _ Y { { ] V.V.D.V.!.D.C.J.C.D.J.D.J.J.~.J.J.D.J.S.J.D.C.V.V.V.V.] ] ] V.' ' V.V...V.' ..' C.V.B.B.B.B.B.B.Y B.B.Y B.B.B.B.B.B.B.B.B.B.B.B.B.B.B.B.B.B.M.M.B.M.M.Q.N.N.Z.Z.Z.N.N.N.Z.T.T.T.R.L.R.R.T.E.W.E.(._._.0X(.yXqXtX_.eX_.uXtXeXuXbXFXFXFXFXAXAXZXZXCXnXAXbXZXZXGXHXZX",
"O.D. .V.D.O.O... . . .V. . . . ... . .O. . .O.O.+...O.....V...D.D.V.O. . .V.O.V.O.V. . . .V. . .{ { { ' ' { ' { _ { { ]  . .{ ] { { _ { { _ _ ! { { { { { { { Y _ P { Y { '  . .{ ' { { { P Y Y P W W W P P Q P { P _ P { P { P C ~ ~ ~ J ~ K J J ~ J J J K J P L P J P Y L P L Y _ P _ P _ Q W _ [ _ _ _ _ _ _ _ _ _ _ _ _ ' _ { { { P Y P P Y { Y { Y { P P Y _ _ _ _ _ _ _ _ _ ` { ` ]  . . .` O.}  .X.} } `  . .}  .} X.O.+.O.......O.D.:.D.!.+.D.!.^.!.!.^.^.~.~.~.^.~.~.~.D.D.D.!.^.~.^.~.~.OX~.+X~.~.~.!.~.!.~.!.~.~.!.~.^.^.~.~.^.^.D.D.=.V...D.O.+.O. .V. .V.{ V.Y { ' ' B.T ' Y { ' B.' [ [ ) ' [ [ ) Y _ { Y Y Y ' Y L L P Y Y ` ] ] ....D.!.~.~.~.^.(.^.(.^.(.^.(.~.(.~.~.(.~.~.~.^.D.J.D.C.D.S.S.S.D.V.C.V.V.C.V.C.C.C.C.C.V.V.' B.B.B.B.B.B.B.B.B.B.B.B.B.B.Y B.B.B.B.B.B.Q.B.B.B.b.B.M.N.N.N.N.N.Z.N.N.M.M.N.L.I.L.L.L.L.Z.Q.M.n.'.T.J.W.'.'.(._.(.0X_._.<X0X_.qXtXxXFXFXFXbXCXbXAXCXCXAXAXAXAXAXZX",
"D. .{ +.D.O. .D.O. . .V.+...O. . .O. .O.O.O.O.D.+.O.D...=.D.D.+.O.O.D.D.O.V... . . . . .D.O. ...{ { { { { { _ { { _ Y { { _ _ Y P Q Q Q P Q P P _ { _ ! Q Q Q P Y P P P L P P L P P P L L J J J J J L J J J J H l V H V J H J H J C V C J J K K J C J K J K K P { { ` _ _ _ { _ Q _ Q W Q _ { _ _ { .... . .{ ] { .. .D.D.D. .D.V... .' { { { { ' U ' T { { P { P _ _ _ _ _ _ _ _ { `  .{  .`  .] X.}  .O.} } ` } } ` } X.O.} O...O.|  .| +.!.D.D.^.=.^.D.^.C.^.~.~.^.~.^.^.^.~.D.^.D.J.^.^.^.J.~.XX~.XX~.^.~.!.~.!.~.XX~.XX~.^.^.^.~.^.~.^.!.D.+.+.O...O.} } O.{ .. . .] {  .] ' ' { { ' ' { Y ` [ [ ] [ ` _ [ ' ' ' _ _ _ ) ) P W W ) _ W { _ Y { V.=.C.^./.(.^.(./.(.(.(.~.(.~.~.~.~.~.~.~.(.~.~.~.~.!.J.~.~.J.J.D.J.C.D.J.D.C.C.C.C.V.V.' B.Y Y B.B.B.V.B.B.B.V.B.V.m.m.B.B.B.m.B.m.n.n.B.B.n.M.N.N.Z.M.N.N.M.Z.N.N.N.N.N.N.Z.L.Z.Z.L.N.M.Z.M.M.N.Z.N.Z.L.Z.'.'.L.T.T.T.R.R.W.-X0X0X0XeXyXuXeXuXuXiXbXbXCXAXAX",
"D.D.D.V.D.D.D.D.S.D.D.D.D.D.D.D.O... .O.O. .O.........D.S.D...O.D.D.D.D.D...O. ...]  . . ...] _ _ Q Y Y P Y P Y L P P P L P P P J J J J J P J J K J K K P L K L J P J P P L L P P P P W _ P Q W P Q ! ! ! Q Q Q W P ^ ^ Q Q ^ ^ ! ^ / ! / ^ / ^ / | { ......} ..{ _ _ ! ^ _ _ { Q P P _ P _ _ { { _ { ] ..{  .{ ] { { { .. .{ ..{ { { U Y { ' P { { ' ' P Y ' P _ _ P _ _ _ _ _ _ { ` ` `  .` } }  .} X.} } O.` } ` } `  .} } O.X.| .. .| ....^.D.D.D.D.^.D.^.^.!.^.^.^.~.J.^.^.!.D.^.^.^.D.!.^.^.XX^.~.^.!.!.!.!.!.!.XX!.^.!.!.^.^.~.^.^.~.!.^.+.+.O.O.O.O.O...]  .} {  .] ]  .] ' ] ' ] '  .' [ [ ` ' ' ' ` _ ' ` _ ' [ _ ) P ) W ) P Y _ P _ { { ..V.C.^.'.^.(.^.(.(.-X/./.-X~.~.^.(.(./.(.^.~.~.~.J.~.J.~.D.^.C.^.D.D.C.J.C.C.C.C.C.C.V.C.V.C.C.' B.B.m.B.Y ' B.B.B.' m.m.m.B.m.m.n.m.n.n.n.N.M.N.N.L.N.Z.N.Z.L.N.L.L.Z.Z.L.Z.L.L.Z.L.Z.Z.Z.M.M.N.N.T.L.G.Z.N.Q.N.N.L.N.T.T.L.T.T.E._.W._.-X0X X3XqXqXuXpXuXCX",
"!.D.D.!.^.D.!.F.D.!.D.!.D.D.D.+.O.O.O...O... .O.{ { {  ....... ...{ ..{  .{  .{ _ _ P W _ _ P J J P L I L J L J L H L L L H H H f J V J J J J J H J J J K Q K Q P J P P W P Q _ _ _ Q _ { { { ` { } { } ..} |  .| ..O.........:.| =.:...o.:.| ....| =.O.| | ...._ ^ { P _ W _ ^ P Q P Q P _ Q _ _ _ ` { ' { _ { _ { ' { { { { { ' Y Y Y Y P { Y P { T Y P P P P _ W _ _ _ _ _ Y _ _ ` ` ` { { { ` {  . . . . ...{ { }  . .....O. . ...} ..o.+.D.=.D.D.^.^.^.^.^.+.!.D.^.^.^.J.^.^.^.^.^.^.^.^.J.^.XX~.!.^.!.^.!.^.!.!.^.!.!.!.^.^.(./.(.~.^.^.~.D.:.+.+.O.....O.}  . . .{  .] { .. . . .{  .{ ' ` _ ` ' ' ` _ [ ' _ [ _ ' Y ) Y ) Y Y ) _ ) ) W Y { V.V.=.C.^.^.D.!./.(.(.~.(.~.(./.(./.(.(.(.-X/.~.~.~.~.~.~.~.~.J.C.J.J.^.J.J.^.C.^.C.C.C.C.V.B.V.V.B.m.V.m.m.B.C.' V.B.m.m.m.B.m.n.n.m.M.m.N.N.N.N.G.N.N.N.N.T.Z.T.G.N.L.G.L.L.Z.Z.G.N.Z.M.N.M.M.Z.Z.Z.T.G.P.Q.Q.L.L.L.T.L.T.L.T.L.I.T.T.W.E.G.P.R.W. X5X3X XtX",
"D.D.D.!.D.!.D.F.+.O.O...O... ...|  . . ...{ {  .{ ' _ { P P P J P L Y L L L L J P L J L L L L H L H L L L J H L L I L L J J L L J J ~ J J K J K J J J Q Q Q ! ^ P _ _ _ { { { { { { {  .{ ......}  .O.| | +.+.+.+.=.+...:.+.:...+.:.o.o.:...:.+.| ..{ ( { { { { { _ _ P P P P W Q Y P P P _ P Q P P _ _ { P _ P P P _ P P _ Y P { U Y P P P Y P Y Y Y P P Y Y Y Y Y Y Y Y _ Y Y _ P _ _ _ _ ` _ _ ` { } {  .....} }  .{ }  . ...O. .{ .. . .+.+.=.D.^.D.=.D.D.^.=.D.:.D.D.:.D.^.^.:.^.^.^.^.^.^.^.^.!.^.!.^.!.~.!.^.^.!.~.XX^.!.^.^.~.^.^.~.^.~.!.D.D.+.@.+.O....... . ... ..... .{  .{ {  . . .' ` ' ` ` ' _ [ _ ' ' [ [ [ Y [ ) ) ) Y Y P Y Y Y Y U { V...V.C.V.C.!.~.~.~./.~.~.(.^.(./.(.;X/.+X(.~.~.~.~.~.~.~.J.^.~.D.C.^.C.C.^.C.C.C.D.C.S.C.V.V.V.V.C.m.] V.Y V.B.m.n.m.[ [ B.n.n.M.A.m.M.N.L.Z.N.Z.G.G.N.N.G.N.N.G.G.N.G.G.L.G.L.G.N.N.N.N.Z.Z.G.Z.T.T.Z.T.I.T.E.T.E.E.E.E.W.E.E.E.E.E.E.P.P.R.W.R.R.R.R.P.",
"......| ........{ { { _ { _ { Q Q Q Q Q W Q Q P P P P P J J H H H J l J H J H L H z J H L P L J L J L P P L J L P L P P P P P P K J P P K P K P Q Q ^ ^ { { / { { { ^ { { { | { ..{ | | ........| X.| ..X.X.=.o...| | +...+.| ..| ..=.| | ......| | { ^ U { { U { ^ Q P P P P P P P W K Q L Q J P P P P { P { P P P { P P P P Y P Y P Y P Y Y P P P L L Y P Y L Y P Y Y Y Y Y I Y P ) ) _ _ _ _ ! _ _ { ] {  ...{ { { ' `  . .} .. .{ { { ......D.=.D.D.D.^.^.^.:.:.!.:.:.^.:.^.D.:.^.D.:.^.:.^.!.:.^.^.^.^.^.^.^.^.^.^.^.^.^.oX^.^.^.^.~.~.^.^.!.^.D.!.+.+.....O.....O.O.....O... .] ] { ] { { ` ` ` ` ' ' _ _ ' ' B.B.[ Y B.Y Y [ Y [ Y Y Y Y Y Y ' { B...V.V... .D.J.F.~.~.~.(.^.(.^.(.(.;X(.-X(.(.OX(.~.~.~.~.~.~.J.J.D.J.^.^.C.J.~.C.J.C.C.C.V.] m.m.O.m.m.B.V.m.m.m.m.m.m.n.B.n.n.n.M.A.A.Z.G.Z.N.Z.Z.G.Z.N.L.G.N.N.N.L.C.G.Z.G.Z.Z.Z.m.Z.m.m.G.G.G.R.T.R.E.T.T.R.E.E.E.W.5XE. X5X X_.5XW..X X X X X X XW.R.",
"{ P Q _ ^ Q Q Q Q P P P P K P P K W W L J P J J K J K L P J I J J J L J L P L P L J L L P Q W W P L P L P P P P P P P _ Y P P W P K ~ K Q K Q ^ ^ ^ { ^ ^ ^ ^ { ^ ^ { { { { { { } ..| ..+.| O.| X.| }  .} | .. .o...| ..| ....| ( | | | | | ........=.....^ { ..{ { { Q P Q P Q L P P P Q P P P P P P P P P P P P { Y P P P P P Y P Y L L P L Y I Y L L Y I I Y Y Y Y Y Y Y Y Y Y L L P W Y W W P _ P _ { { ] { ] ] { { ` { ] { { { { `  .{  .....V.V.=.=.D.V.=.D.+.:.:.^.:.^.:.:.!.:.!.!.:.^.^.^.^.^.!.^.^.^.^.^.^.^.^.^.^.^.^.^.^.^.^.^.^.^.^.^.D.^.D.D.+.!.D.+.+.+...O.O.+.O.O...{ .. .{  .'  .` ` ` _ ` ' ' ' ' ' T Y B.B.Y [ [ [ Y B.Y Y Y Y Y Y ' C.T T C.]  . .D.D.S.J.~.~.~.~.(.(./.(.-X+X+X+X(.OX~.~.~.~.~.~.J.^.J.D.J.^.(.C.~.J.J.D.J.C.V.m.m.S.m.] m.m.V.C.m.m.m.n.m.n.n.n.n.n.M.A.A.N.N.N.N.N.m.N.G.T.C.Z.Z.Z.G.C.L.Z.G.Z.C.G.C.Z.N.Z.Z.Z.Z.Z.R.G.R.T.T.R.R.T.E.E._.W._._.W._. X_. X X X X X5X X X X X",
"Q P K P Q P L P J J J I J J J J J P J Q K Q P W K J P J P K P J P P J L L P W P L J L J W Q W P P P P L W P P Q L P P P P Q W P P K ~ K K K K ~ ~ Q Q ^ ^ Q ^ ^ Q Q Q { { ^ { { | | ......| ..+.X.| X./ } } | | | | o.| | | | | | | | ..| ....=.=...............{ } { Q W W P P P Q P P P J P ~ P P P P P P Q P { P P P P P P P I Y L Y Y L L L Y L L Y L L c v L Y Y Y v Y Y Y c Y L Y Y P ) ) P Y _ Y { _ { { { { { _ ' { { { { ] _ { ' { ..........=.V.D.D.D...=.:.....:...=.D.:.D.:.=.D.D.:.:.^.!.!.^.^.^.^.^.!.^.^.D.^.^.^.^.D.D.^.J.^.!.!.^.^.!.!.!.!.!.D.:.O.+.+.+.O.+.+.O...O..... ... . .{ ` ` ' { ' { Y B.' B.B.B.B.B.B.Y B.Y B.Y B.Y Y B.B.B.{ B.V.Y ]  .V. . .S.S.D.^.D.~.~.(./.(./.(.-X(.+X(.+X(.(.J.~.J.~.C.J.D.J.C.J.J.C.J.J.S.C.C.C.V. .Z.S.Z.m.C.C.G.N.m.M.m.n.N.n.n.b.n.b.n.A.N.N.N.m.N.N.N.N.N.N.N.N.N.N.N.Z.N.G.G.G.C.Z.Z.V.Z.Z.G.G.G.G.G.Z.T.T.T.R.E.W.W.W.E. X_.W.W.4X XE.W..X X X X X XW. X",
"W P L P W P L P J K L J J J J P L J J J L L P P L J P P P J P J L z J H z l l z L J H J L P L L P L P P P W P W L L P _ P W P Q ^ ~ Q ~ K ~ ^ ~ K K ~ K ~ K K P Q P Q ^ { | { | { { { } } | ....X.X.| | | | | +.| +.| | o.| | :.| | | X.| =...+.........| ..{ { ..} { { ^ Q Q Q Q J Q Q Q Q P L P P Q P P P P { P { P P P P P L L L L L L L L L L Y L L L L Y L v Y v H I b H b H c Y L P ) P ) Y _ P _ Y _ Y Y ' _ ' { P _ _ ' { { ' { { ..' ..{ { ..V.=.V.=.:.......:.| :.....=.+.=.:.+.=.=.D.:.D.D.^.^.~.^.^.^.D.^.D.^.!.!.!.^.^.^.^.D.^.J.^.^.^.D.!.!.D.!.!.D.:.+.+.!.D.:.D.D.!.+.D.O.O.D.O.{ ] ` ` Y { ' ' ' ' B.' B.B.B.Y Y B.Y Y B.Y B.T B.T B.{ ' ' B.V.' { ] ]  . .D.D.C.~.D.^.^.(.(.(.(.+XOX~.+X~.(.~.(.~.~.J.J.J.^.C.(.~.J.^.D.S.S.S.D.S.V.G.G.D.S.J.C.C.G.V.m.m.N.m.N.n.n.[ b.n.n.M.N.M.m.M.N.N.m.N.N.N.n.m.N.N.N.N.Z.V.N.N.S.G.G.Z.S.G.Z.G.G.Z.G.G.T.Z.T.L.L.T.T.E.E.E.W.E.R.E.E.R.R.R.W. XR.R.R.R. X",
"_ J H L J H z H l l l l f l l l l l l V l H H l H H H l H H H l l l H l H l H l H l J z J W L ~ W J L J L W L P P W P P W Q _ P Q Q Q W ~ Q K Q ~ Q P ^ Q ^ ^ Q _ P { ^ } { } { X.| | .. .| O...| +.| O...o.| O.| | ..+.+...:...+.o.o.X.o.o.=.+.=.O...| | | ..} | } } { ^ Q Q Q ~ K Q ~ Q K ~ J ~ K K K K P Q P P _ P _ P P Y P L P Y L L L H L L L H Y v Y v L z z z z z c J c z J c J c L L W ) L L L W W P W ) P Y P Y ) _ _ { { { { { { { { { { ....=.V.....=.=.=.+.:.=.+.+.:...:.:...:...:.+.:.!.!.!.!.:.:...D.:.!.:.D.D.:.:.+.+.:.D.!.!.:.F.!.!.!.!.:.!.!.:.@.:.;.@.D.+.:.=.C.+.V.=.V.=.V.{ { { ` ` { ` ' _ ' ' Y V.Y B.Y [ m [ m [ Y Y Y V.' ' ' { ' { { ' ` ` ` ` ' ` ` ` ] ] O.S.F.S.XXF.H.~.~.+X+X+XOX~.~.~.J.J.D.!.~.F.H.J.F.D.D.S.G.O.S.S.S.S.S.S.S.J.C.C.V.V.m.V.N.C.B.B.B.B.N.N.N.B.m.B.n.m.B.N.B.C.N.N.N.N.B.Q.B.Q.C.C.B.Z.Z.S.S.Z.S.Z.P.Z.S.A.G.Z.L.L.L.L.T.L.L.R.R.I.L.R.L.T.L.W.P.E.E..X X4XE.E.",
"L H l H H l n l H l s l f f H l V l l l H l c H l z l H l l H l H H H V l H l H z J z J z W L c W c J W L J W L L J P Q P Q P _ Q Q Q ~ Q ~ Q ~ P Q Q K ^ P P ^ ^ _ _ { { { { } .... .| X.....O.O.o.+.| ..+.+...+.+.+.+.+.+.+.+.o.o.o.X.X.o.X.#.+.+.:.| O...| | } } } { { ^ Q ! ! Q Q ^ Q Q Q Q ( ~ ^ ~ ~ ~ K Q W _ P P Y Y P P Y L L L Y c L c b c Y L Y H Y b z z z z z z z z z z z z J J W L L L L c c W m L L L Y L L L Y P { P P U P { { U P { { ^ { { { .... .........=.....=.....:...:...+.+.+...+.:...+...:.+.:.=.D.=.^.:.+.:.+.:.@.D.:.@.:.!.:.@.!.!.!.:.!.!.;.!.:.!.D.D.D.!.D.^.D.C.D.{ } } } ` ` ' ` ' _ Y V.Y B.Y ' [ m [ [ Y [ ' Y Y ' ' { ' Y Y ' _ ) ) _ [ _ _ _ [ ` ]  .O.S.S.J.D.D.F.!.~.~.~.~.^.~.^.J.^.!.!.^.H.F.F.F.J.F.D.D.S.S.S.G.S.S.S.G.S.D.S.S.G.S.C.C.N.N.B.B.Q.Q.Q.Q.N.n.m.N.n.N.N.N.N.N.N.N.Q.Q.B.C.Q.B.C.Q.Z.S.Z.Z.m.Z.Z.S.Z.m.A.A.Z.L.L.L.L.I.R.L.T.I.R.L.L.L.P.I.U.E.U.E.U.E. XU.E.",
"H f s f l d s f l s s d n l f H f l V l l H H v H V l V l l l H H H H l H l l l z H z J J J J L J z J J J J J P L W P P Y Q P P Q L Q P P Q P Q P Q P ^ Q P ^ Q ! ^ ^ _ } { } {  .{ |  ...| ..O.+.......+.| +.+.+.+.+.+.:.+.+.:.o.o.o.| | o.:.+.:.+.+.=.:.......X.o.| | { } / ^ { { / { ^ ! ^ ! ^ ^ ^ K ^ K K K Q P ) P P L Y P L W L L L z H L H Y L v H Y H Y c L z z z l l z z z z z z c z c c c c L L c L L c z z z c L L L Y P P P P P P P P { P U { { { { { U { ( | | ..........=.....=.| | X.....o.| ..| ..=.......!.D.=.:.O.O.:.+.:.@.:.+.:.@.!.:.!.^.!.!.;.!.;.!.:.!.!.^.^.^.D.D.^.C.^.O.X. .O... .{ ' ] ] ' Y ' ' B.T ) m ) [ [ Y Y Y T B.{ { { { ' _ ) _ ) _ _ ) [ ) _ ` [ ` ] S.S.O. .O.O.D.D.D.D.D.~.~.^.^.^.~.^.(.H.F.F.OXH.H.H.F.D.F.J.D.D.D.J.D.J.J.J.J.J.G.J.C.T.C.m.N.T.Q.Q.N.N.N.N.N.C.N.N.N.Q.N.N.N.Q.C.B.Q.N.N.N.N.Z.Z.S.Z.Z.Z.Z.A.Z.m.Z.Z.L.Z.L.L.L.R.L.L.L.L.L.L.T.P.L.T.U.P.U.R.U.U.U.U.U.",
"z a a n d a s a l s l f s f n s f V n f H l H H l l l l H V l l l H H z H H J J f z l z z z L c z J c J L W J L L L P P Q P P _ P Q Q Q W Q Q W Q P _ P ^ Q { ^ { { { { { { }  . .}  .| ....+.| ..+.@.+.+.+.:.+.:.+...:.+...+.+.o.o.o.o.#.X.:.o...+.:.D...:.:.+...+.X.X.} } { / } } } }  .{ ^ / ^ ^ ( ~ Q K Q P _ Q P W P P P W L L L L L L c L L v Y b H c b Y L z z z l l k l l l z z z z z z z z z c z c L c c L L L H L L J T P P P P P { P P P P { P P { U P P ^ { U ^ | { | | ..| ..| ..+.| } |  .|  .| | ......| =...=.D.X.| | o...+.+.+.| +.+.+.+.@.:.!.!.!.;.^.!.^.!.^.^.J.^.^.^.D.D.D.:.O.O.O. . . .] { ] '  .' ' B.B.[ [ [ [ ' [ ' ' B.U ' ' ' ' { _ _ _ [ _ ` ` _ ` [ ` ] ` O.] ]  . . .O.O.S.D.D.O.!.D.^.~.~.~.~.^.OXOXH.OX~.~.H.H.H.H.~.H.H.H.H.H.J.^.(.J.~.J.W.(.W.T.T.T.T.G.T.T.C.Z.G.G.Z.Q.C.T.Q.T.C.T.C.Q.Q.Q.N.C.Q.C.S.Z.Z.S.S.S.P.S.Z.A.Z.Z.Z.L.Z.L.T.I.L.R.T.T.L.L.L.L.L.L.P.U.I.I.L.L.U.K.U.",
"H s s a l n s a s n s n s n s d f n f H l H H H s l l V f l H n l H H H z H H z z H c H z L z H z z z L J L L L P ) P ) P _ P _ Q P Q W Q Q _ ^ Q _ Q Q ^ { { { { _ { } } ..{ |  . .| O.O...O.+.+.:...O.O.:.O.:.+.+.O.D.:.+.O.+.o.:.+.o.:.+.:.:.:...:.=.:...:.:.:.+.+.....|  . .} |  .}  .} / / ^ ^ Q ~ ~ ~ ^ Q P Q P P P P W P W L L L L z L c l l L v c L L H z L z z l z l l l l l z l z z z z z z c L c c L L c L c Y c L P I Y P P P { U Y P P U Y { { { Y ^ ^ ^ ^ { { ^ { | { | | { | | ..|  .|  .| | } ..| { { | ....| ..| } | X.| X.o.o.| X.o.+.:.+.:.@.:.!.!.!.!.!.!.!.^.J.!.J.^.D.D.D.D.D.O.+.D.O. ...V...{ V.' B.{ B.[ [ [ ' ' ' { ' ' ' { ' ' ..] ' ] ] ] ] ] ]  .] ` ]  .]  .] S. .O.O.V.O.D.D. .D.D.J.~.^.~.~.(.(.OXOXOXH.(.(.OXH.~.(.OX(.(.OXW.(.(.(.~.(.(.(.(.W.(.W.W.W.W.T.T.T.T.T.T.T.T.T.T.T.'.G.T.T.Q.T.T.T.T.C.C.Q.C.Z.A.Z.S..XG.Z.Z.Z.Z.Z.L.Z.I.L.T.I.R.L.L.L.Z.L.L.R.L.P.I.P.U.L.U.L.L.Y.L.",
"H d a l V s s l f s d s d s l d n B f l l l v H H l l l l H H H l H z H H L L H z z z H H z L L c z J z c L L W L P ) P _ P _ P W Q _ Q { ! { _ Q ^ { ^ { ^ { { } { { { { } ..} | ........O...+.+.O.D.:.!.+.!.D.:.+.:.O.D.+.:.+.+.o.:.:.:.!.!.:.:.:.D.:.D.:.!.:.:.O.:.+.+...+.| o...O.o.| |  .{ ^ ^ ^ ^ ^ Q ^ ^ { ^ Q _ Y P P Y P W L W L L L L H b v L c L v L L c z z l z l z l l z k z l z l l v z c L L L c W Y P ) P Y ) L Y { P P { Y { { P { ' U P { { P { { { { ^ { ^ ^ { { ^ { ( | { | | | } } | } | | { ..( | { ..| ..| / / } |  .| } } | | o.+.X.+.:.+.:.@.:.:.F.!.!.^.^.^.~.~.~.^.^.!.!.D.D.D.D.D.D...V.C...C.{ ..B.] [ [ m.V.' V.' { V.' {  . .V. .O. .S.O.S.O.O.S.O.] S.O.O.O.O.S.O.O.O.D. .D.D.D.D.!.J.!.^.~.^.~.~.OXOXOXOXOXOXOXOXOXOXOXOX(.-XOX(.(.(.(.(.(.-X(.(.W.W.W.W.W.E.W.T.J.T.W.T.J.T.T.J.T.T.T.T.T.T.T.T.T.T.G.G.G.S.Z.Z.G.G.G.Z.Z.Z.Z.Z.L.L.T.P.P.T.I.L.L.L.L.L.L.I.T.I.I.I.L.L.L.L.L.L.",
"z n a l l f a n d d a a s n f l s l f l H H l H l l H l l l l H z H H z H c L L J z L z z L z z L z z L L L W L ) P _ Y { _ { { _ ! ! ! _ ! _ ^ ! ` { / { { { { } } } .. .}  . . .| ..O...+.:.D.+.:.:.+.!.:.:.!.D.:.D.:.^.:.D.@.:.:.:.^.:.^.:.^.:.:.:.:.:./.^.^.:.^.!.D.+.+.:.+.:.+.:.@.+...O...| ( | ^ ^ ^ { ^ Q ! _ P P Q W _ W W W W P P L L c l I b c L L L L z L z z H z l z l z z c H H z z c z L W c W L W L ) P ) L L P Y T Y U P Y { P Y P { ' ' { ' { { ^ ( { ^ { ^ ^ ^ ^ { ^ { | ^ | { { { { / { { | ( ..| ^ ^ | | ( { } } / } / { { { } | X...X.o.+.O.+.+.:.D.:.:.!.^.^.J.^.^.J.!.D.D.:.D.!.!.!.D.J.D.C.C.D.C.R V.{ m.[ ' m.] V.] V.V.V.' V.V...V. .O.S.S.O.O.S.O.S.O.O.O.S.S.S.S.S.D.O.S.+.D.D.D.D.D.!.D.D.!.D.~.~.OX.XOXOX(.OXOXOXOXOXOX-XOXOX-X(.(.-X-X-X(.0X-X-X0XW.W.W.E.W.W.R.J.T.J.T.J.T.W.J.T.W.W.W.W.W.W.W.T.W.W.T.T.J.R.G.R.G.R.R.R.Z.R.R.I.R.L.R.R.I.T.P.G.Z.L.P.L.R.L.P.P.P.I.P.I.P.P.L.P.",
"z a s a l a s d d d d a d s a d n f s l f l H l l V l l H H c H H l c L z L z L z L z L L L L L c J J L L P W W P P { P { _ Y { _ _ ` _ / ` ` { } { { {  .{ { ..} } ..}  . .| X...X...O.+.D.+.+.+.+.D.D.:.D.!.!.!.!.!.!.!.^.^.^.+.:.^.:.!.^.^.:.^.^.^./.^.^.^.^.^.!.!.!.!.!.!.D.!.!.D.:.+.@.:...| $.| | { ^ ^ ^ { ^ { Q Q ^ W Q _ W P _ Y L L L L L L L L Y Y L L L L J z z J J z J z z z L z z z z c Y ) L L ) c W L Y P Y L L Y P P ' P P { Y P { Y P U Y T { ^ U P ^ P ^ P ^ ^ ^ ^ { ^ { | { } / / ! ^ ^ / { | { { { | { | { / } { } { { / ` / {  .} { | | O.| +.o.+.+.D.:.D.V.=.D.=.D.D.!.D.!.D.!.!.!.!.~.^.D.D.D.C.C.V.V.C.] m. . .] V.V.C.V.=.V... .V.D.D.S.O.S.S.S.S.S.S.S.V.O.S.O.S.D.D.D.S.+.S. .D.O.D.D.D.D.D.D.D.D.!.~.OXOXOX-X(.-X-X(.OX(.W.OX(.(.W.:X-X(.-X-X-X_.(.-X-XW.(.3X XW.W.W.T.R.J.R.W.W.W.W.W.W.W.W.W.W._.W.W.W.W.W.W.R.J.H..XH.R.T.J.R.R.T.R.R.P.R.R.P.P.P.P.P.Z.T.P.R.R.P.P.P.P.P.P.P.U.P.",
"l f a l d d d k a a k f d d k d n f f d f l l l l l l H l l H H z z L z L c L L L z H L c L L H L L c W W ) _ _ P _ _ _ Y { ' { { ` _ ` ` { ` `  .}  .O...D.........X...| O.O... .X.O.+.!.+.D.:...@.+.+.!.!.^.^.^.~.~.^.~.^.^.^.:.:.^.^.^./.+X~./.#X^./.~./././.~.+X~.^.+X+X^.+X~.^.^.!.!.!.@.+.:.+.+.:...| ../ | ^ ! Q ! ^ Q Q W W Q _ W W W P L L c L Y P Y L z z z z z J z z J z L z L H L z c z c L L W W Y ) L L c L L Y P _ P P { P Y { P P Y Y { P { _ ^ { ^ Q ^ { ^ ^ ^ { ^ ^ ^ ^ { { | / { { / { / { / { ( { { ( ( ..{ / { } _ / { ^ / } { / { { ` { { {  .} | | O...+...+...+.| O.+.O...+.D.D.D.!.^.D.^.C.D.D.D.D.=.C.O.m. .O.S.G.C.^.!.D.D.D.D.D.F.S.S.O.S.D.D.S.S.D.S.O.S.O.S.O.S.O.O.S.O.F.J.S.F.F.F.S.D.D.J.D.!.J.!.H.XX.XOXOXOXOX~.~.OXOXOX-XOX-X(.(.(.-X(.-X(.-XW.-XW.W.W. XW.W.J.R.W.H.W.H.W. X(. X(. X-X_.W.W.W.W.W.W.(.W.W.W..XR.W.W.W.W.W.W.E.W.E.E.R.E.P.R.R.R.E.R.R.R.E.R.W.E.9XP.U.U. XU.U.",
"l a a f l s a f f f a l l g f l s f l l l H H c B l H l H z H c c z z L L H c L L L L L P L Y L L c L L W ) Y _ _ _ ` ' {  .{ ' ` ` ` { ` }  . . . ...+.+...D.D.O.+.O.O.O...O. .+.O.O.+.D.!.D.!.!.:.!.^.!.^.^.~.@X^.+X^.^.+X^.~.^.~.^.oX(./.%X/.+X^./.%X+X/.%X~.~.%X%X^.+X^.+X+X+X^.+X^.!.!.D.:...:.:.:.:.O.+.| +.} { { { { ^ ! ! _ _ ! _ Q W W P L L W L ) L L L L L c P c L L z L z L L z c H z c L c L Y W W ) L L P L L Y ) P Y Y Y P { Y P P P { Y Y { Y _ { ^ _ ^ Q ^ Q { ^ { ^ { ^ { / { { { / { { ^ | { ^ ..{ | | { ( { { / / / ^ ! ` ^ ! ^ { / / / / { / ^ / { | {  .} |  .} .. .| ........+.:.D.!.J.!.D.D.D.D.V.V.V.V.S.m.V.m.V.D.^.~.J.J.~.D.J.F.S.D.S.S.S.D.D.D.S.D.+.S.S.S.S.S.S.O.S.S.S.S.S.F.F.S.D.D.D.S.S.D.S.D.F.F.J.OX~.OXOXH.H.~.H.(.(.W.-X(.-X(.-X(.-X(.-X(.-X(. X-XOXW.-XW.W.H.W.R.W.H.W.W.W.W.-XW.W._.W.W.'.W.0XW. X(..XW..XOX XW. X XW. XW.5X XE. XE.R.E..XR.E.R.E.E.R.E. XU.P.E..XU.U. X X",
"l d k f l d d d f d f k k g l g H l l z H L z L v l z c z l z z c L L c c L L L Y Y Y _ ) Y Y _ ) L W W ) _ _ ' _ _ _ ] { ]  .{ _ ` ` ` ` ]  ... .....O.D.D.J.^.!.@.D.D.@.D.+.+.@.D.!.!.!.^.~.^.^.~.~.~.^.~.%X~.%X+X+X-X;X%X/.-X%X%X%X%X:X%X:X/.%X/.+X%X/.%X%X%X;X%X%X(.%X~.+X%X(.%X+X/.^.^.^.!.:.^.^.:.!.:.:.:.+.O.| } X.| } } _ ` ` ` ` _ _ W P W P P ) Y P L L P P P P P P P L L P J L L L H L c c W ) W P ) ) P Y W Y P _ ) P Y P P P P _ { { Y { { { { { _ { Q ^ ^ ! ^ ^ ^ { ^ ! ^ ^ ^ ^ { } } } / | / / { { { ( ( ( { ..{ { { { { { { { ! _ ^ { ` _ ^ ^ { Q Q ! _ { _ { { { { { }  .| } {  . ...V.D.D.!...=.D.=.V.D...=.C.G. .V. .V.J.~.(.~.^.~.~.H.F.F.F.S.S.D.S.J.F.F.S.D.J.D.D.J.J.D.J.S.S..XF.D.J.S.F.F.S.S.D.D.D.S.O.D.D.F.XX(.OX(.OXH.~.H.~.(.OX-X-X(.(.-X-X(.-X(.-X-X X X X X XOX XW.H.H.H.W..XH.H. XW.W._.-XW.(. X-X_.0X(.-X5X5X X X X(.OX5XW.5X X X X X X XW..X X X XE. X X XE. XE.R.E.R.U..XE.E. X",
"l l d l d d d d l k l f k g k l l l z z L z L L H L c H J L L L L c W W Y W ) L ) _ Y _ _ ` _ Y ) W ) ) ) _ _ _ _ _ ' { ] ] { ] ` { ` ` ` }  . .O...O.!.D.^.~.^.~.!.!.F.!.!.!.F.!.~.!.~.OX~.~.~.%X~.%X/.+X+X+X%X+X;X%X;X+X;X;X;X*X;X;X;X/.;X;X;X;X;X%X;X*X*X;X*X*X:X:X;X;X;X-X%X%X-X;X(.%XOX+X+X^.^.^.oX^.^.!.^.:.@.o...#.X.X.| { } { ` ` { _ _ _ _ W W P ) ) L P P Y P Y W P Y P Y P P L L L J W L W L ) ) ) W ) W W Y W ) P _ P P _ P Y { { Y { { { ' {  .{ _ { ^ { ^ ^ ! { { ^ Q ^ { / { { / { / { { | { | { | { ..{ ..( | { { { { / { _ { { ^ _ ^ { _ { { P P Q P Q ! ! { ` { { { { { { }  .{ { ........O. .V...V.....V...D. .m. .V.D.D.(.%X(.(.(.OX~.OXH.F.F.D.F.J.F.G.F.F.F.H.J.F.D.F.F.F.XXS.F.S.F.H.F.S.D.D.D.S.D. .D.V.S.D.D.F.H.H.H.H.~.H.H.H.~.OX(.OX/.-X(.(.-X(.-XW.W.-XOX-X-X X XOX.XH..X.XH.W. X X(.(. X(.(. XW.W.-XW. X_.-X(.-XOXH. X X X X XW. X X X X X X X XE.E. X X X X X X X.X9X X.XU. X.X X4X",
"l l d l g k d l d l g l l l l l l l l z z L L L L L L L L L L L W m W ) Y ) ) _ _ ) _ _ ` _ _ _ _ ) ) ) _ _ _ ` _ ' ` ` ] ] ]  .{ ] ] ]  .O.D. .O.O.D.D.^.~.^.(.~.XX~.~.~.^.XX~.OX~.OXOXOX-XOX+X+X-X%X-X%X;X;X%X+X%X%X-X%X;X;X;X:X;X%X:X%X;X;X*X;X%X;X*X,X:X*X:X:X/.:X:X;X:X*X:X:X*X;X:X;X%X%X(.%X~./.(.^.^.^.^.;.;.+.@.;.@.+.| X. .X.` { ` ` ` _ _ Q Y P _ _ P Y P Q Y W P P W P _ Y P P P P P ) W ) W W ) _ W _ Y P Y Y Y _ _ P W _ _ ^ _ ! { { { { { { _ { { { ^ ! _ ^ ! / ^ Q ! ! ^ { { / { } } | } | | } | { | ( { ....{ | { { { } { / { { _ ^ ` { { ! _ _ { Q Q Q { { { ../ { { { { } { } } } } .... .{  ... . .....V...V.V. . . .C.~.~.(./.(.^.(.OXOX.XOXH.F.J.F.D.J.F.F.H.H.~.H.H.H.F.H.H.F.H.H.H.F.J.F.D.J.D.D.S.+.S.O.O.D.S.F.D.H.H.~.D.~.H.~.H.OXOXOX(.OX(.(.(.OX-XW..XOX.XOX.X X X-XOX X(..XOXW. X(. X(.H. X.X(. X(._.W.W._. XW.-X XW.H.W. XW.W. XW..X.XE.E..X.XE..X XE..X X XW..X X XU. XU. X X.X4X X",
"z l k z z g l z z l z z z z z z l z c H L J P L L L L P P ) ) _ ) ) _ ) _ _ _ ` _ _ _ _ ' ` { _ _ _ ' ` _ ` ] ] _ ` '  . .{  .{  .O.O.] O.O.O.O.D.D.D.~.^.~.^.(.~.OX!.+X~.+XOX+XOX+XOX-X+X+X+X+X%X-X;X;X:X-X%X-X%X-X%X;X;X;X-X;X:X;X:X:X;X%X;X%X;X;X*X;X:XfXhX,X<XhX:X:X:X:X:X:X:X:X:X/.:X;X:X:X;X%X;X%X+X^.oXoX^.!.;.:.;.:.+.X.X.O.} } } ` } { _ _ _ _ _ _ _ Y P Q Y P P ) Q Y _ P { Y ) W Y P ) ) _ _ _ ) ) _ ) _ ) _ W _ _ W Q _ { P _ _ { ` Y { { { { { _ ^ { ! ^ ! ! { _ / ^ Q / { } } } } } } | } { ..| { | ....| | ( ..( | { } { }  .| { { { { { { { ^ Q Q { { Q Q { { } ^ _ / { / / / { { } { { ..{ { ..] { { ..........V. . .V...C.^.~.(.~.~.~.OXOXOX-X~.H.H.F.F.H.H.H.H.H.H.~.OXH.~.~..XH.H.H..XF.F.F.H.D.D.D.S.S.S.+.D.D.D.F.F.J.F.H.H.F.H.J.H.H.(.(.(.~.~.~.(.H.(.W.OXR.OX X-X-XOX.X X(. XOX XOXOX.X.XW.W. XW.H.W.W.W.W.W.W.H.W.W. X.XW. XH.W.W.W. XW.R.R..XE.R.R.R.E. X.XW..XE..XE. X XU..XR.9XE.9X X",
"z z g z z z z z c z J c c J L z J J J P P W ) W W W P _ _ ` ` _ [ ` ' ` ] ] ] ] ] ' ] ] ] ] ] ] ] ] ] ] [ ] ] ] '  . . .S.S.D.D.O.O.O.O.O.D.D.D.D.D.~.!.~.~.~.~.~.OXOXOX+X~.OX+X+X+X+X+X+X+X+XOX%X%X/.:X;X;X-X%X-X/.;X:X;X:X;X;X;X:X;X;X;X;X;X*X%X;X*X*X,X:XhX2X:XhX:XhX<XhXhX:X:X:X:X:X:X:X<X:X*X;X;X/.+X/.%X%X^.^.!.;.;.!.@.+.O.O.} ] } ` ` ` ` _ _ _ ` _ _ _ { _ _ P P _ _ _ P _ P _ _ W Y _ _ ) ) _ [ _ _ _ _ _ _ Y P _ _ _ _ ^ ! ` { _ { { ` { ` { ` ` ^ _ { ! { { ^ ^ { { _ ` { } } } } } |  .X. .| | ....{ | | { ( | ....{  .} | } .. . .{ }  .} ..} { Q { _ ^ { Q { { } { { } { { { } / {  .] { ..] { ] { { ] { .. . ...V.] ]  .V. .D.!.D.~.^.(.OXOX-X-XOXH.H.H.H.F.H.OX~.OXH.OX~.H.~.H.F.OX~.OXH.H.H.H.H.H.F.J.F.J.F.J.F.F.F.S.H.F.H.~.D.H.H.H.H.(.~.(.~.~.~.H.OXH.H.H.H.OXOX X.X-XOX.XOX.X(..XW..XOXW.(.H.R.H.W.W.H.W.W.W.W.W.W.W. XW.H.W.R..XW.W.W.E.R.E..XR.R.E.R..X.XE.E.R.E..X.XW.U.U. X.XU. X4X X9X",
"z l z z z z z c W W W W W W W W ) ) W ) W _ _ _ P _ _ _ _ ` ` } ` ` ] ' ] ] ] ]  ...V. .V.O.O.S. . . .]  . .O.]  .S.V.D.S.D.D.J.S.+.S.+.S.O.O.D.D.F.D.~.~.^.~.^.!.!.OX!.~.OXOX~.+XOX~.-X+X+XOXOX+X~.;X-X;X%X;X%X;X;X;X;X;X>X:X;X;X;X;X:X;X;X;X;X*X;X;X;X,X,XfX:X:X:X:XhX<X:XhX:X:XhX:X*X:X;XfX:X*X:X%X;X;X;X%X%XXXoX^.!.oX!.!.@.O.O.O.X.} { `  .` { _ _ _ ` ` _ ` { { ] { _ { { _ { _ _ P { { _ ) ) _ _ ` ' ` _ _ _ _ _ _ _ _ ` ` { { ^ { { _ / { ` { { } { { ` / { ! ^ { ! { ! ^ ^ / { } | X.| } | X.| | | ....( | | ....| { | | }  . . .......} } | X.} } { ! Q P P W _ ^ { { O... .X...X. . ...{ ..{ { { } ..{ {  .{ {  .{  . .V. .] V. ...V.D.D.!.~.OXOX-X-XOX~.H.F.H.H.F.H.H.OX~.~.H.OXOX~.H..XH..XOXOXH..XH.~.H.H.F.J.J.D.XXJ.F.F.D.F.H.H.H.F.J.H.H.H.H.~.H.H.H.H.H.H.H.H.H.XX.X.XOX-X.X.XH. XOXW.(.W.W.H.H.W.H.R.H.R.H..XW.W.W.W.W.J.W.H..XW.W. XW.W. XW.R..XE.R. X.XE. XR..XE..X.XE.E.W.E..XU.U.R..X X XE.",
"W c c c c z W c W m W ) W m ! m _ ) _ _ ) ) ! ) _ ! ` ` ` ] {  .` ` ] ` ] ] ] ] ] ] ] O.] O.S.] O.O.O.] O.O.a.O.] O.O.S.S.S.@.O.XXO.A.a.O.D.D.@.D.F.F.H.~.~.~.~.!.!.OX!.OXXXOX+XOX+XXX+XOXOX+X+XXXXX+XXX@X+X+X@X@X@X;X;X>X;X;X;X&X;X;X%X&X&X%X&X=X=X>X,X;XhXhX2X:X:X:XhX:XhX:X2X:X,X:X2XhX<XhX:X:X*X;X:X*X:X;X@X!.;.!.!.XX;.;.;.:.+.O.|  .} }  ._ _ ` ` { {  .` _ _ _ P _ _ P Y { _ { _ P _ _ _ _ _ _ ` _ { ` ] ` { ` ` ` ` ` ` { } } { } } } } } { ` {  . .{ ` ` { Q ! Q ! ^ _ / { | X.| { | ..| ....| .... ..... .| { { } | | O...O. .| O.X.O...X...O.} ` ` ` _ ` ` ` { _ { `  . ... ...{ { ]  . . . .....{ P ^ { _ { {  . . .] ] ' { ' V...V.V.V.D.D.~.~.-X(.~.(.H.H.F.H.~.~.H.OX~.H.~.~.OXOXOX.XOX.XOXOXOXOXOX.XXXOXH.OXH.OX.XXXOX.XOXH.H.H.F.H.F.~.H.H.F.H..Xa.J.S.XX.X.XXXS.XX.XOX.XOXOXXX.XOX.XOX.XOXOXH..XR.R.F.R.H..XR.(.(.W.H.W.H.H. XH.W.W.W.H. XW.W.R..XR..XW.W.W.R.R.R.R.R.E.R.R.R.R.E.E.R.R.R.R.E.R.",
"W W ! m ! W W m W W ` ) ` ` ` ` _ _ ` _ ` ` ` _ _ ) ` ` ] { { ] ] ] O.O.O.O.O.O.O.O.O.O.O.O.O.O.O.A.O.O.O.A.O.O.O.O.O.O.a.XXO..XS.@.@.S.F.@.D.F.F.F.!.F.!.!.~.^.!.!.!.XX!.XXXX!.XXOXOXOXXX+XOXXXXXXXXX@X@X+X@XXX+X@X@X@X@X;X@X@X@X;X%X%X@X&X@X$X&X&X&X&X=X;X:X,X:X*X;X;X,X:XhXfX:X,XfX:X:XfXhX*X,X:X;X*X*X;X%X;X!.!.;.^.;.!.!.;.@.+.+.X.........{ ` { `  .{ } { { ` { { _ { _ { { { _ { _ { { P _ _ ` ` { ] ` ..` ` { ] ` { ` { / { ` { ! { {  .{ { ` {  .{ { { { { ^ ! _ ! ! ^ ! /  .| | |  .| O.| O...| | | | ..| { ..| | | X.X. . .X. .X. .O.O.O. .O.O.} } ` { ` { ` { '  .{  .O.O.D.S.O.D.D.S.S.D.O.D...{ { Q ! { _ {  .{  .' { ..' ' ..{ '  . .V.D.J.J.H.OXOXH.H.~.~.H.H.~.H.H.H.H.H.OXOX-X-XOXOXOX-X.X.XOX.X@XXX.XXX.X.XOXOX.XOXOXOXOX.XF.H.F.H.H.OXH.~.F.XX.XXX.XXXXXa..X.XXXXX.XXX.XXX.X.XW.OX.XOX.XH..XXXH.OX.X.XH.H.H.H.W.H.W.H.W.W.H.W.H.H.H.W.H.H.H.R.R..XH..X.X.XW.R..XR.W.W.T.R.R.R.R.P.E.E.E.P.R.W.",
"! ! ) ! ! W ` W ! ` ` ` ` O.` ` ` ] ` ` ` ` ` ] _ `  .} .. . .O.O.O.S.O.O.O.S.O.O.O.O.S.O.S.O.S.O.O.O.a.@.S.O.A.O..XS.XXS.XXXXS.O.XXXXO.@.F.D.F.F.F.F.!.!.!.~.~.!.!.F.!.!.!.!.!.!.OX!.XX!.OX!.XXXXXXXXXXXXXXXX@X@X@X@X@X@X@X@X@X+X%X%X@X@X$X$X$XoX$X%X%X&X;X:X;X:X*X*X:X,XhX:XhXfX,X:XhX:X<X:X/.:X*X=X;X:X;X;X%XXXXXXXoX;.!.!.;.;.@.:.+.+...O.O... .{ } }  . .{ {  .] { ] ] { ] P { _ { ` ] ` { _ ] {  . .] .. ...} }  .} } ` ` ` ! { } } { { } } ` _ { {  .{ _ } ! ` ! ^ ! _ / Q {  .| } | | ....| | | .. .|  .X.+.| } ....+.| O.O.X.O.O.X.X.X...X.X.O. .} } }  .` ]  . .O.O.D.D.D.~.^.!.J.~.^.F.H.D.~.!.D... .{ { {  .] ] ` ' {  .{  .{ ' ' { ` ]  .O.D.D.D.H.~.H.~.H.~.H.H.OXOX~.H.~.~.~.(.OX-X.X X-XOX X-X-X.XOX.XXXOXOX.XOX XOX.XOXOX.XOXOXH.H.~.OXH.~.H.H.a.S.J.a.S.S..XXXa..XXX.XXXXXXXG.F.OXH.OXR.OXOXW.R.OXH.R.F..XR.OXH.W.W.J.J.H.H.J.H.W.H.W.T.H.R.J.H.R.H..XW..XW.W.W..XW.R.W.E.W.E.R.R.P..XR.R.P..XR.",
"` ) ` W ` ` ) ` ) ` ` ` O.` ] ` O.` O.O.] O.O.` ` `  . . .O.O.S.@.S.O.S.S.XXO.S.XXA.XXO.XXO.S.@.a.S.S.S.O.XXXXO.@.O.S.O.a.A.S.S.XXO.O.F.S.XXXXF.F.@.!.F.F.!.D.!.F.F.!.F.F.!.F.!.!.!.!.F.!.!.XX!.XXXXXXXXXXXXXXXXOX@XXX-X+X+X+X@X+X+XoX+X@XoXoXoXoXoX@X%X%X&X%X;X;X;X;X:X;X,X:X,X<X,XhX;XfXfX:X:X*X;X;X;X;X*X%X%X%X@XoX^.XX!.XXXX;.;.+.+...+.+.D. ... ...| X. .X. ...{  .{ { { { _ _ { ' { {  . .] {  . . .O.+.D.O.O.O.O.X.} } ` / { } ! } } } ` { ^ _ _ ` } { ` { / ^ _ ^ ! ^ ! ! ^ / } | { | o...+.....| ..| | ......| | | | +...X. .}  . ...O.O.X. . .X. .O. . . ... . .D.D.D.~.~.~.~.~.~.~.(.OXOX~.~.~.^.:.+.........{  .] { ' { ' { ] { ' _ ` ' ]  . .S.D.S.H.F.H.F.F.H.H.H.H.H.F.H.~. XOXOXOXOX-XOXOX-XOXOXOXOXOX.X.XOXOXOXOX-X-X-XOXOX.XOX~.H.~.H.~.H.~.~..XS.XX.X.Xa.a.A..XS.XXF..XXX.XH.H.R..XR.OX.X XH.H..XOXH..XF.OXH.J.H.W.J.W.J.W.W.W.H.H.W.H.W.H.J.W. XW.W. XW.W..XW.R.W.W.W.W.W.T.R.R.R.R..XR.R.E.R.",
"` ` W ` m ! ` ` ` ` O.O.O.] O.] O.] ] ] O.O.O.O. . . .O.D.D.O.D.O.O.S.O.@.O.D.O.O.S.XXO.S.O.O.S.S.O.S.XXO.XXS.S.O.XXS.S.S.S.XXXXS..XX.@.F.F.F.F.F.!.@.F.D.!.!.!.@.F.D.!.@.D.!.F.!.F.F.!.!.!.!.!.!.XXF.!.!.XXXXXXXXOXOXXXOX+X+XOX+X+X+X+XoXoXoXoX$XoX%X%X;X@X;X;X&X;X;X;X;X:X:X;X:X:X:X*X:X:X/.:X%X%X;X%X%X%X@X#X@XXXoXa.XXa.a.F.@.;.@.#.+.+.+.+.+... .| X...X.X... .{ `  .` { ` { _ { { {  . .{ ..O.O.D.O.D.D.!.!.D.F.F.+.O.O.X.| } } } } } X.} { ! ! { { } { / ` } ! ! ! _ / { ! { } } } | | ....X. . .|  . .| | | .... .| ..O. .O.}  .} O.O. . .O.O.O. .O.O.O...O. .O.O.D.F.F.~.~.OX+X+X+X-X-X-X-X/.(.^.(.^.^.D...D... .{ _ _ Y { { ] { { ] ' ` ' ] ]  . .O.S.F.D.F.J.F.H.J.F.F.J.J.H.H.~.OXOXOXOXOXOXOXOXOXOXOXOX-XOXOXOX-X-X-X-X-X XOX.X.XOXH.~.~.H.~.H.~.H.F.H.H.G..XF.OXF.@.XXXX.XXXXXOXOXOXH.OX XH. XOXOXOXW.H..X.XH.H.H.W.H.J.W.H.H.H.H.W.H.H.H.H.J.H.T.H.W.W. XW.W.W.E.W.W.W.W.W.W.W.W..XE..XW.W..XE..X.X",
"W ) ) W ` ! ` ` ` ` ` ` O.O.O.O.O.O.O.O.O.] O.O.O.O.O.O.O.D.+.D.O.O.O.O.O.S.O.F.XXO.O.S.A.XXF.O.S.XXa.A.S.a.S.XXXXS.O.XXXXS.XXS.XXO.O.F.@.F.F.XXF.F.!.F.!.D.D.!.@.@.;.D.!.@.@.D.F.;.F.!.F.F.!.F.!.!.F.!.F.!.!.!.OXXXXXXXXX+X+X+X+X@X+XoX+X+XoX#XoX$X@X@X%X%X+X;X+X%X@X%X;X%X;X;X/.*X;X-X-X;X%X/.%X%X%X%X@XoXXXXXoXoXXXXXXX;.XXa.;.@.@.@.#.+.@.F.@.O.X. .O.o.o.+.{ .... .{ { { ` { { { ]  .{ }  .O.D.D.!.F.!.~.OX!.~.!.!.!.F.@.+.X.o.X.X.X.} X.} } / _ ! { } } } } / { ! ^ ` { / { { / { | | ..X.......|  .| |  . . . .| |  ...| ..O. .O. . . .X. .} }  . . ...O. . .}  .O.D.F.~.!.~.OX+X-X-X-X:X:X-X-X(.-X%X/.^.^.^.D... .] _ _ ] ' { { { ' ] { { ] {  . .S. .S.S.S.S.D.F.F.J.F.F.F.F.F.H.H.~.(..XOX.XOXOX XOX X X-X.XOX.X-X X-X-XOXOX@XOX@XOXOX~.H.~.(.OX~.OX~.OXXXOXXXXXH.OXOXOXG.XX.XF..XXX.XH..XH.OXOX(.(..X.XOXOX~.H.H.H..XH.J.~.W.H.W.W.J.H.H.W.W.W.H.H.H.W.J.H.W.(.J.W.W.W.R.W.W.W.W.W.W.W.E..XR.E.E.R.W.R.",
") ! ! ) m ` ` ] ` ] ] O.O.S.A.O.O.O.O.O.O.O.O.O.O.O.O.D.+.D.D.O.O.D.D.O.S.F.D.D.O.O.F.O.@.D.F.S.O.A.O.S.a.A.S.O.@.O.S.XXF.F.F.@.XXO.XXS.D.F.@.!.D.F.F.F.!.+.:.^.@.D.@.@.@.@.F.;.@.!.F.@.F.@.F.!.~.F.!.F.!.!.~.OXOXOX!.OX~.OXOXXX+X@X+X+X+XoX@XoX@XoX@X+X%X+X+X%X+XXX+X%X+X%X;X%X%X+X+X;X%X%X%X(.%XoXoXoXoX!.XXoXoXoXXXXXXXa.@.XX;.#.@.#.@.@.!.!.+.O.| X.+.O.@.@...D.O.O. ....... . ....... . .} O.!.^.~.~.~.OX;XOX+XOX+X+X!.!.;.@.#.+.o.X.| X.X.} / ! ! } X.} } { ` / ! ^ ! / / | / } | | | | | X.X.|  .| }  .|  .| .. .} | ..O.O. . .X. .O.O. .O. .} O.} O.O.O. .O. .O.O.+.D.!.~.~.-X+X+X;X-X:X:X-X:X:X(.;X:X(./.-X^.~.D.O. .] { ] { ] ' ] { ] { ' '  . . . .O.O.S.S.S.D.J.F.F.S.D.F.S.F.H.H.~.OXH.OX.XW.OXOX-XOXOX.XOX-X-X-X-X-XOX-X.X.XOXOXOXOXOX(.-XOX(.OXOX.XOXOXOXOXOX.XOXOXOXOXOXOXOXOX-XOX X-X XOX XOX(.OXOXH..XH..XR.H.H.H.H.~.H.H.H.H.H.W.H.H.H.H.H.W.W.W.W.H.J.W.W.J.H.W.J.W.W.W.W.W.W.E.W.W.W..XW.W.W.",
"` ) ` ` ` ` ] ` X.] O.O.O.O.@.O.O.O.S.O.O.O.S.O.O.D.+.D.D.D.+.D.F.D.F.D.O.F.F.F.S.S.S.XX@.D.F.F.XXa.S.XXS.S.XXXXO..XS.O.O.F.F..XS.XXS.a.@.F.D.D.!.F.;.D.!.D.D.D.@.+.@.D.F.!.!.F.@.F.@.F.;.F.!.@.!.!.F.!.F.H.!.OXXXOXOX!.~.+X+XOX+X+X+X%X+X@X@X%XXX@XoXXXXX+X~.oX+X+X+X+X+X+X+X;X%X(./.+X+X+X/.%XXXoXoXoX^.;.;.!.!.;.;.XX;.XX;.@.;.a.a.#.@.;.F.!.@.+.+.O.+.@.@.@.+.!.D.+.D.O...O.O.+.O.O.O..... .D.!.+X~.^.^.+X;X+X+X;X%X@XoX^.!.@.:.+.:.+.o.o.X.} { ! ! } } X.} / / ^ ! ! ! ^ / } } } / | X.| | X.....X.} | |  .} { } ..}  . . ...O. .]  .}  . .}  .] } ] }  . . .} ] } ..O.D.D.~.(.+X-X-X-X:X:X0X:X(.:XhXhX:X:X:X*X-X+X~.!.D.S... .] ] { _ { ] ` ] ` ]  .]  . .] O.O.S.S.S.S.D.S.S.S.S.F.J.~.H.H.H.~.H.OX-XOX-X-XOX-XOXOXOX-X-X X-X.X@XOXOX.X-XOX-X-X-X-X-X-XOXOXOXOXOXOX.XOXOX.XOXOXOXOX.X-XOX-XOXOXOX-XOX.X XOX.XOXH.H.OXH.H.H.W.H..X(.H.W.H.~.(.H.W.H.H.H.H.J.~.J.H.W.J.J.J.W.J.W.J.J.J.J.W.W. XW.W.W.W..XW.R.",
"` ) ` ` m ! ` O.] O.O.O.] a.a.] A.O.O.O.@.O.@.O.D.+.+.S.@.@.+.+.O.D.@.+.D.D.D.@.O.D.@.D.F.F.@.@.S.XXXXS.XX@.@.S.O.S.XXS..XO.S.XXO.XXa.S.O.F.O.@.D.+.D.+.D.:.:.D.@.O.+.@.@.D.D.@.@.D.D.@.D.@.!.!.F.!.H.F.!.~.~.OXF.~.~.OXOX~.~.!.~.+X+XXX+XoX+XXXXXoX+X+X+X!.+X~.+X+XOX+X+X+X+X+X^.~.^.~./.+X^.:.!.!.;.!.@.:.;.;.XXXXS.a.XXa.O.a.O.a.a.O.@.a.F.XX!.+.O.@.@.@.@.@.+.D.!.D.D.:.+...O...+.+.+.....O.D.^.~.+X(.%X;X;X;X+X;X%X%X%X+X@XXXa.XX;.a.a.$.! X.m m a.! X./ X.} X./ } / / / { $.| / | | o.| | X.| X.| | X.| X.| ..| ...... . . . .{ ]  . . . .} ] { ]  . . .O. .} ` X.` O.O.+.~.~.OX-X;X-X-X<X+X-X:X:XhX(.jX:X/./.<X(.(.(.~.!.S. .] {  . . . .{ { ] }  . .{ ] ] O.]  .O.S.S.D.S.S.S.+.S.J.F.H.H.H.~.H.OXOXW.OX(.-X-X-X(.-X-X-X-X-X-X-X-X(.-X-X-X-X(.;X-X-X-X:XOXOXOXOXOXOXOXOX-XOXOXOX-XOXOXOXW.OX XOXOXOXOXOX(.OXOX(.OXH.H.H.H.(.W.(.(.(.(.(.(.OXH.(.(.H.H.W.H.J.J.J.J.J.J.J.(.J.'.J.(.W.~.W.R.R.R..XH.G..XR..X",
"` ` ` ` ` W ` ] O.] O.] .Xm A.O.O.a.O.S.O.O.O.O.+.D.@.D.+.S.+.D.@.O.D.+.D.@.D.@.F.@.F.@.F.F.D.F.XXS.S.XXS..XS.XXO.S.S.XXS.a.S.a.XXO.S.@.XXO.O.D.+.D.+.!.+.D.D.D.+.+.+.@.+.@.@.!.@.@.@.+.:.D.@.F.D.F.D.F.F.F.~.~.~.!.~.OX~.OX~.~.^.~.~.+X+XoX^.+XXXXX^.XX^.+XXX~.OXXX!.~.+X+X+X~.!.^.!.~.~.^.^.!.:.!.:.@.D.@.!.;.a.O.a.a.O.O.a.XXa.a.O.a.F.@.!.F.@.+.+.+.+.@.O.@.O.+.:.D.D.D.D...+.D.:...D.+.+.+.^.~.+X+X%X;X:X;X;X;X;X;X;X&X@X+XoXoXoXa.a.a.a.a.a.a.a.! X.X.X.X.} / $.} / { / } } { { X.| | $.| | } | X. .|  .|  . . .| .. . ... . . . . .}  .}  . . . . . . . . .X.} } } } O.D.!.!.+X+X;X;X;X;X-X:X:X:X:X:X:X:X:X:X/.<X:X/.~.~.!.D...]  . . . . .] `  .]  . .`  .] ] O.O.O.S.S.S.D.S.S.S.F.H.H.F.~.~.~.H.OX-XOX+X(.-X(.-X(.:X_.3X3X-X-X-X-X-X(.-X-X-X-X-X-X-X-X-X-X-X-X-X-X-X;X-XOX-X+XOXOXOX(.OX-XOX-X-X X X-X-X(.-X X XOXOXH.~.~.(.-X(.-X(.(.OXH.OX(.OXH.W.~.(.W.W.J.J.~.J.J.J.(.(.(.J.(.J.W.R.R.R..XR.R.H.R.W.",
"` ` ` ` ` ` ` ] O.O.O.m ] O.O.O.O.O.O.a.O.O.O.@.+.O.D.O.O.D.D.@.+.D.@.D.@.@.F.F.F.@.F.!.F.F.F.F.S.XXS.S.S.XXXXS.O.a.XXS.XXS.XX@.S.XXS.S.D.D.F.F.D.:.D.+.D.D.D.+.O.+.+.+.+.+.@.+.@.+.+.@.+.+.@.D.+.+.+.+.D.F.!.!.F.!.OX!.!.!.H.!.~.+X~.+XOXXXXX+XOXXXOX!.OXOX~.OXOX!.!.~.~.OX~.^.!.!.+.:.!.!.D.+.:.@.@.:.@.:.F.D.S.O.a.O.O.a.a.O.a.X.a.O.@.a.F.F.O.+.+.+.@.X.+.@.+.!.D.!.^.D.D.+.D.+.+.D.+.!.D.!.^.~.;X;X%X:X:X:X:X:X:X;X;X=X&X;X@X$X%X@Xa.=Xa.a.a.a.a.! $.X.#.! X.| / / } / } / / / / X.| | | | / / } / / } } } } } |  .}  .} ..{  . . . .`  . . .`  . . . . .O. .O.} ` } } O.O.F.!.OX+X-X;X;X-X-X:X:X0X:X:X:X:X:X:X<X:X:X(.(.(.OX!.D.D.D. . . . .]  ... ... .{ ] ] O.] ] S.S.S.+.S.O.O.S.F.F.H.H.H.~.H.OX(.OXOX(.+X-X-X;X-X:X<X<XqX:X3X<X0X(.<X0X:X-X0X:X-X:X:X;X:X:X-X-X-X-X-X-XOX-X-X-X-X+X-X-X X-X-X-X-X-XOX-X-X-X-X-XOX.X~.(.OX(.(.-X+X(.-X-XW.OX(.~.(.~.H.(.H.H.~.J.(.(.(.(.(.J.(.(.J.W.J.J.G.H.G.R.G.R.H.R.",
"` ) W ` ` m ` O.] O.] a.X.O.O.O.O.O.O.O.O.O.O.X.+.O.+.+.D.+.+.D.+.D.+.@.D.D.@.D.F.F.F.!.F.!.!.F.XXS..Xa.XXS.a..XO..XS.XXS.XXS..XXXO.O.XXF.@.D.@.D.D.:.D...:...+.+.O.O.+.O.+.+.+.O.+.+.O.+.+.+.O.O.O.O.O.@.D.F.!.!.F.!.F.!.~.!.!.~.~.~.!.!.OXXXXXXXXXXXOXOX!.~.!.~.!.F.!.!.!.!.!.!.O...{ { +.....+.O.O.X.O.+.@.@.@.O.O.#.A.O.X..Xa.a.@.a.@.D.@.F.D.+.S.+.O.O.+.X...D.:.D.!.!.^.!.D.!.!.^.D.D.D.!.+X^.+X;X%X:XhX:X,X,X,X,X;X,X:X*X=X=X=X=X=X=X1X=XOXa.a.a.a.a.O.$.X.X.X.} X./ X.X./ } / / / | / X.} } / } X./ } } }  . . ... . . . . . . . . . . . . ... .O. . . .} ` } ` ` }  .O.D.!.~.+X;X-X<X<X<X:X:X:X:X:X:X/.:X/.:X:X:X:X:X(.-X-X~.H.F.D.O. . . .{  . . ... .O.] ] ] ]  .] O.S.O.S.S.S.D.J.F.F.H.H.~.(.OXOXOX(.-X-X-X-X:X<X<XwXwXwXeXeXeX<X<X2X<X<X<X<X:X:X0X:X0X-X-X-X-X<X-X-X-X-X-X-X-X-X-X-X-X-X-X-X-X-X-X-X-X-X-X-X-X-X-X-X-X-X-X-X-X-X(.(.-X-X(.OXOX(.~.OX(.H.H.~.J.J.(.J.(.(.J.(.J.H.J.J.R.G.R.H.R.H.R.W.",
"` ! ) ` ` W ` ` ] X.] ` O.O.O.m O.X.X.O.O.O.O.O.X.O.O.O.+.+.+.+.O.+.D.D.@.D.D.D.F.F.!.F.F.F.F.F.S.XX.XS..XF.F.F.@.F.XXS.F.F.F.F.@.F.D.:.@.@.D.@.:.D.D.D...:.+.+...O.o.O.o.O.+.X.+.O.o.+.O.O.X.O.+.O.+.+.+.@.F.@.F.!.F.F.!.!.F.!.!.F.H.!.!.~.XXXXXXXXXXXX!.OX~.F.OXF.F.!.!.~.F.F.D.O. . .{ .. .....}  .{ ....O.+.O.O.O.` O.a.O.XX] a.a.m O.D.@.S.D.S.O.+.O.O.@.@.D.!.!.!.!.!.!.^.^.!.^.^.!.D.!.!.^.+X%X;X:X;X:XhX2X,X:X,X*X,X,X:X,X=X=XlXs.1Xs.lX@X@X@Xa.a.a.a.a.+.X.o.X.X.X.X.o.| } $./ | $.$.$.$.$.$.| X./ |  .....{  . ... . . . . . . . . . . . . . . . . . .] } X.` { ` X.X.O.@.!.OX-X:X<X:X<X<X<X:X:X:X/.:X:X/.:X:X:X:X:X<X<X-X+X-XOX~.F.+.O.....{  . . . .` ] ] ] ]  .] S.O.S.O.S.S.D.D.F.F.J.H.H.H.OXH.OXOXOX-X-X:X0X<XeXbXxXuXvXxXtXcXuXcXtXxX(.0X<X<X<X:X-X-X:X:X-X-X-X>X;X-X-X-X-X;X-X-X-X-X-X3X-X-X-X_.:X-X-X:X-X-X-X-X-X-X-X:X(.-X-X(.-X-X(.-X(.OX(.W.H.H.W.H.J.H.(.(.W.(.H.H.W.J.J.G.G.S.R.G.F.R.H.J.",
") ) W ` ` ` ` ` X.` ] X.m ] O.a.O.O.] ` O.` O.O.O.O.O.O.+.O.O.O.@.O.+.O.D.+.@.+.@.D.@.F.F.F.F.F.O.@.O.XX@.F.XXF.O..XS.XXF.F.F.F.D.D.D.D.@.D.@.D.D.+...:.D.D...+.+.+.O.+.O.+.O.+.X.+.O.O.O.X.X.| X.+.+.+.+.@.@.+.F.@.@.@.@.@.D.!.D.!.F.~.!.XXXX!.!.XXF.!.~.!.~.~.~.~.H.F.~.F.F.D.+.O.{ { { ..{ ` { { _ _ ` ` } ] ` O.` ` ] X.O.O.X.X.` a.O.+.+.O.+.O.O.+.O.O.O.O.O.:.+.+.D.!.~.!.^.!.~.J.^.!.!.!.^.+X%X;X:X,XhX:XhX2XhX:X,X,X,X,X,X,X,X=X1X1X1X1X=X=X=Xs.@X@Xa.a.;.:.;.@.:.X.o.o.X.X.X.| | | | | X.$.$.}  .X.X.X.{ {  . .] {  . . .V.V. . . .V. . . .V. .V. . . .X.} } } ` } ` } O.+.!.OX-X;X:X<X<X<X:X:X:X:XhX(.hX<X<X:X:X:X<X<X<X<X-X+X+XOX~.~.O.O. ... .....} O.] ] ` O.] O.] ] ]  .S.S.D.D.J.S.D.D.F.H.H.(.OX(.OX(.-X-X-X2XeXbXbXvXbXbXbXxXbXeXxXxXeXxX<XtX<X<X:X<X-X-X-X:X-X3X-X-X<X:X-X-X:X:X-X<X:X:X3X0X:X:X:X-X-X-X-X0X-X-X:X;X0X-X-X:X-X:X-X-X-X-X-XOXOXOXH.H.H.H.H.H.W.(.(.(..XH.W.W.J..XH.R.F.G..XG.G.J.",
"` W W ! ` ! ) ` ` ` ` ` O.] ] ` ! $.` X.` X.} X.} X. .X.X.O.O.X.+.| O.+.O.+.+.@.O.@.@.@.@.@.O.XXS.XXXXS.S.XXJ.F.XXS.S.XXF.J.D.F.@.D.D.+.+.!.+.D...!.=.D.+.+.+.+.+.O.+.X.X.+.O.o.+.+.+.O.O.O.X. .X.X.X.X.+.+.O.o.o.+.X.O.X.#.@.@.D.D.F.!.!.!.!.!.!.F.!.F.~.H.~.~.~.H.D.!.!.~.!.D.D...} { { } { _ _ W P _ ) _ _ ` _ _ ` ` ] X.m a.` X.O.X.O.O.O. .O.] O. .O.O.O.@.#.O.+.+.+.+.D.!.;.!.^.!.!.!.!.XXoX+X;X:X,X,XhXhX,X,X,X:X,X,X2X,X,X=X,XhX1X1X1XlX1X=X=X=X=X=X=X@XXXXX^.!.F.:.:.@.:.o.o.| | | | o.o.X.| X.X.| X.O. .} { .. .{  . . . . . .V. . . . . . . . . .]  .} } } ` } ! } }  .o.!.+X;X;X:X:X<X<X<X:X<XhXhXhX:X/.<X:X<X:X<X:X<X<X-X-X-X-X+X~.D.O. ...} } .. .] ] ] O.] ] ]  .] O. .S.O.S.D.S.S.D.D.J.H.~.~.~.(.~.OXOX-X:X<XeXxXbXuXvXuXxXbXxXxXxXcXeX<XhXhXxX<X<X<X:X<X:X<X<X:X-X;X:X:X0X:X:X0X:X0X:X:X0X:X-X:X-X:X-X-X-X-X:X0X:X-X:X:X-X:X-X-X:X-X-X-X-X-X-X XOXOXOX XOXW.OXOXOXOXW.H.H.H.H.XXZ.G..XG.S..XS.R.",
"! m m ) ` ) ! m ` m ` ] ` ` O.` ! ` ` ` X.X.` ` O.X.X.X.} ` X.} O.X.X.X.O.O.+.O.+.O.@.O.@.O.@.S.O.O.S.O.XXS.XXS.S.O.XXS.XXS.D.S.D.@.+.D.O.O.+.+.D.O.D.+.+.+.O.:.+.+.+.+.+.O.+.O.+.O.+.+.X.X.X.} } X.X.X.X.X.X.X.O.o.X.} X. .O.O.D.F.F.H.F.F.!.F.F.!.F.!.~.!.~.OX~.!.F.F.H.!.F.D.+.O. . ...{ _ _ ) W P W W Q ! _ _ ) ` ` ] m O.` ` ! ] O.X. . .] ` ` ] ` ` ` O.` } X. ...O.O.+.+.@.D.!.^.!.!.OXXX%X;X:X,XhX2XxXxXhX2XhX2XhX,XhX,X1XhXhX=Xs.lX1Xs.1X1X1X,X1X=X=X>X%X@XXXoX!.;.;.;.+.:.#.o.o.o.o.| $.} $.| X.| X...} }  .{  . . .{ O. . . . ...V. . .V. . . . . . .X.` X.{ ` ! ` `  .O.F.OX-X;X:X:X<X<X<XhXhX(./.<XhX:XhX:X:X<X:X<X<X<X;X-X-X+X+X(.F.+.O.O... . .{ O.O.] ]  .] O.]  .] O.O.S.D.S.D.O.D.S.D.F.F.~.~.~.~.(.OX(.:X<XwXuXeXeXwXbXxXxXbXxXuXtXxXxXtXxX<XeXeX<X<X:X0X<X<X:X:X3X-X:X(.:X(.-X:X:X-X:X:X-X:X-X0X:X-X-X:X-X:X:X-X<X-X-X;X0X-X-X-X:X-X-X-X-XOX-X-XOX.XOX-X-X X-X XOXOX.XH.OX.XH.R.G.H..X.XG.S.T.",
"! ) W ) ) ` ) ` ` ) ` ` ` ` ` ` ` ` ` ` ` ! ` ` ` $.! ` ` ` ` ` X.X.` a.m O.O.X.a.m O.O.a.] .XX.O.D.S.D.D.D.F.F.D.@.S.D.F.F.D.F.O.D.D.F.@.S.@.O.@.O.@.@.O.O.#.#.!.+.+.:.O.+.+.+.:.+.+.+.+.+...o.| X.} / / } X.X.X.X.X.X.| X.| O.O.O.+.+.O.F.F.XXD.F.XXF.F.XXXXF.XXXXXXXXS.XXO.O.] O.] X.X.` ! m ! m ~ ! W W ~ W W W ! c ! W ` ` Q _ ` _ ` ` _ Q ` ` ` _ ` ` ` ` } X.$.X.` X.X.O.X.@.@.@.XXXXXXXX~.;X;X:X:XhXxXhXhXxX2XxXhX1XhXhXlXlX1XlXhX1XhX1XhX,X1X1XhX2X2X,X>X&X@XoXXXa.a.a.oX:.;.o.o.o.o.:.$.$.o.$.| X.| | | ....O.O.....D.O.O.D.O.D.O. .D.D. . ... .O.D. ...{  .` } X. .`  .O.D.!.-X;X<X2X2X:X:X:X:X:X,X:X:X:X;X;X+X+X+X+X+X+XOX~.!.!.D.!.+.+.O.....}  . .} ]  .]  .`  .]  . .V. .V.V.V... . .S.D.D.D.D.F.H.F.!.~.-X-X:X<X<XeXeXeXxXxXbXxXxXbXuXxXxXeXeXeXeX<X:X<X<X(.xXeX<X(.xX(.hX(.(.hX:X:X<X:X:X<X0X:X:X0X:X3X:X0X<X:X:X:X<X;X:X:X;X:X-X-X;X3X:X-X:X3X-X-X-XOXOX-X-X-X-XOXOX-X.XOX(.H.J.W.J.W.J.J.H.J.J.",
") W W W ! ` W ` ` ` ) ` ` ` ] ` ` ! ! ` ` ` ` $.` ` ` ! ` ! $.! ] ` ` m a.m O.O.m a.a.m m a.O.O.S.O.+.S.@.D.D.D.S.D.D.D.D.F.F.D.D.D.+.D.D.@.O.@.O.@.O.@.@.O.@.@.@.@.+.+.+.+.+.O.D.@.:.+.+.+.+.+.X.| X.} } } / } +.X. .X. . . .X.O.O.O.+.O.@.F.O.O.@.D.F.F.F.F.OXF.F.F.XXXXO.O.a.a.] a.m X.` $.m m ! m ~ ! m c W ! m c ~ m W W ) W W _ _ _ Q ) Q ) Q _ ) _ ` _ ` ` ! X.! $.! X.X.X.+.@.+.@.XXXXXX+X+X;X:X2XxXcXxX2X2XhX2X1X1XhXvX1XlXs.1X,XhXhXhX,X1XhXhX1XhX2X1X>X&X&X@XoXoXoXXX;.;.;.:.o.:.=.#.$.o.$.o.X.o.+.o...X.....+.D...!.+.@.D.+.D.!.D.D.D.D. .O. . .D. . . . . . .` ` } } O.O.F.~.OX-X;X;X;X;X;X;X;X;X;X;X+X+XoX+X+X+X+X+XXX^.!.!.D.:.!...O.O.| .. .}  .`  . .] ]  .'  .'  . .V...V.V.D. . .O.S.D.D.D.F.~.F.H.~.OX-X:X<X<XeXeXxXeXxXxXxXxXxXxXxXxXeXxX<XxXxXeX<X<X<XcX(.:XeX(.xX<X<XeX(.0X:XqX<X<X<X:X<X:X:X<X:X<X:X:X3X:X0X:XqX<X3X0X:X-X3X:X:X:X0X:X:X-X-X-X-X@X-X-X-X-X-X-X-XOX~.OX(.~.W.H.H.W.H.W.W.J.",
"W m c ! ! ) ` ) ` ` ) ` ` ` ` ` ` ` ` ! ` ! ` m m $.` ` ! ` ` ` a.` X.` ` a.X.X.] X.] a.] a.O.O.O.S.O.O.S.S.D.D.D.O.O.D.+.D.D.D.S.@.D.D.F.D.O.+.F.@.@.F.@.@.@.@.:.D.@.+.+.@.+.@.:.@.D.@.O.D.+.+.+.X.X./ } / / X...} } { } { } } O.` X.O.+.O.+.O.O.O.O.F.F.XXXXF.F.@.F.F.XXS..XO.S.a.a.O.a.X.` ] ! ` ! ! m ! m ~ z W ~ m c W m W L W W W W W W W W W W W W W W W W W ! ! ` ! ! ` X.O.O.@.O.D.F.F.+X%X;X:X2XxXxXxXxXhX1XhXhXhXhXvX1XlXlX=XlX=XhX1XhX1XhXhXhX2X1X,X=X>X&X&X$X@XoXoXa.oX;.;.:.o.:.#.$.$.o.o.o.o.+.O.O.O.+...D.D.!.!.!.D.!.!.!.D.!.!.F.D.D.D.D.D.D.O.O.O...]  .} } ` ] } O.O.D.!.~.~.~.^.~.XX!.OXOX~.!.!.!.!.!.!.;.!.D.!.:.@.O.+.O.+.+...X. . .} }  . .{ ] {  .` {  . .V. . .V. .C. . .O.O.D.O.D.D.F.F.F.H.~.(.-X-X:X<XeX<XeXeXxXeXxXeXxXxXxXxXxXwXeXeXxX(.hX(.eX<X<XhX(.(.xX<X(.hX<X:X<X:X<X<X<X<X<X<X<X:X:X<X:X:X<X<X<X<X3X:XqX:X:X-X:X:X3X:X<X<X<X<X-X;X-X;X-X-X-X-X;X-X-X-X-XOXOXW.(.(.(.H.W.H.H.J.",
"W ~ m W W ) ) ` W ` ` ` ` ` ` ` m ! ! ` ` ` ` ! $.` ` ! ` ` ` ` m ` ` ` X.` ` ] ] X.` ` ` ] O.X.O. . .O.O.O.+.S.O.S.+.D.S.S.+.D.+.S.+.D.D.D.O.+.@.O.@.O.O.@.O.@.+.D.@.+.:.D.D.:.D.+.!.+.:.+.+.+.o.o.X.} / } } / { / / ! ! ` { { X.` ` } O.O.O.O.O.O.O.@.F.F.H.OXF.F.F.F.S.XXO.a.O.XXO.O.] ` a.m ` ` ! ! ! ! ~ m W c c z J c z z c z z L W c J c z L z L c L L W ~ W ! W m ! ` ! } } X.X.@.+.+.@.!.~.+X;X:XhXxXxXhX2XhX1X1X1X1X1X1X1X1XlX=X1XhX1X,X,X2X,X2X,X,X>X&X=X&X&X%XoXoXoXoX#Xa.:.:.o.o.#.,.o.o.:.+.+.:.:.+.:.+.!.J.^.^.~.+X~.!.~.!.~.~.~.~.~.D.D.~.D.!.D.D.O.+.O. . .`  .} ] ..O.O.O.O.O.D.:.@.@.D.:.:.@.@.!.+.+.O...+.+.O.| +.X.O...| O.O.O.|  . . . .{ `  .{ ] '  .' ` '  .' V...V.V.O.O.V.O.O.S.D.D.F.D.F.D.F.~.OX-X-X<X<X<XeXeXeX<XxX<XxXxXtXeXwXeXwXxX<XcXtXxX<X<XeXxX(.xX(.(.xX<X<XqX:X<X<X<X<XqX<X<X<X<XqX0X<X3X:X<X<X<X<X<X<X<X:X3X3X:X:X<X<X<X<X-X>X-X-X-X-X<X-X-X3X;X-X-X-X-X-X-X-X-X(.OXW.OXW.W.",
"W W ~ m W W ) ! ` ) ` ` ` ` ` ` ! ) ` ` m ` ` ` m ` ` ` ` ! ` ` m ! ` ! ! ` ` X.! ` ` ` ` ` X.X.X.` }  . .O.O.O.O.O.O.O.O.O.O.O.+.O.O.S.+.S.+.O.@.O.@.@.@.@.@.O.+.:.D.:.+.@.@.@.+.@.:.D.@.+.@.+.+.o.X.| } } } } } / _ ! ! ^ _ ` ` ` { } `  .}  .` O.O.S.D.F.~.!.a..XXXS..XS.XXS.XXS.a.A.O.O.O.O.X.X.] ! ` m ` m W W c W c z z z z z z J z z z z z z z z z L J J m z ~ W ! ~ m ! ! ! } ` }  .X.O.:.!.XX+X%X>X2X,X:X,X,X2X,X,X,X,Xs.lX1Xa.=X=X,X=X=X=X=X=X=X=X@X&X$X@X$X@X@XoXoXoXoXa.;.;.;.:.:.:.#.#.@.;.@.;.;.!.+.+.+.@.^.^.~.~.+XOX+X~.OX(.+X+X+X~.~.~.!.~.~.D.D.@.D.O.O.} } ` X...O.} } O.X.O.O.X.X.| X.X.X.O...X.+.X.X.X.X.X. .X.| X.} X.| O...O. .}  .{ .. .{ ] ] { { { ' { {  .V. .V. . .V.V.O.O.S.O.D.F.H.D.D.D.H.~.OXOX+X-X3X<X<X<X<X<X<X(.xX<X<XeXeXeXeXxXeXeXcXxXxX(.cX<X<X<X<XxXxXeXxX:X<X<X<X<X<X<X<X<X<X<X<X:X<X<X<X<X<X<X<XeX<X<X<X<X:X3X<X<X<X<X<X<X>X;X3X;X<X<X:X3X:X:X3X-X-X-X-X-X(.-X-X(.(.W.(.(.",
"! W m ` ) ! ) ! ` ` ` W ` ) ) ` ` W ` W ! ` ! ` ! ` ` m ` ` ! ` ! ! ` ! m ` ` ! ` ! ! ` m $.` ` ` ` ` ` ` ] ` O.] O.} O. . . . .] O. .O.O.+.O.O.O.O.O.O.O.@.O.@.O.:.+.O.+.+.+.:.+.+.+.+.+.+.D.:.+.+.X.| | X.|  .} { { ^ _ Q _ ! ` { ` ` ` ` ` ` O.` O.O.+.D.F.F.XXS.XXXXa.a.S.XXXXS.S.XXa.A.a.O.a.O.O.] ` X.` ] ) ! W W W W c c z z z z z z z z l z z z z z c z g ~ z ~ ~ m ~ ! W ~ ! ! ! ! ` ` +.@.!.!.^.+X@X^.(.%X%X;X;X>X>X,X1Xa.a.1X&X=X=X=X$X$X$X=X&X@X@X@X@XoXoXXXa.XXa.a.oXa.oX;.;.;.:.;.@.:.:.;.;.;.;.!.!.:.!.!.^.^.(./.+X+XOX+XOX+X-X+X+X+X(.+XOXOX~.~.!.D.!.+.+.O.} O.O.X.} O.X. .} }  .} X.| } X.| |  .}  .|  .X.|  .} } } } X. . .| | .. .} } ]  .} ` { ` ' ` ` ` ] ' ' ]  .' V. . .] .. .D.D.D.F.F.D.D.F.F.!.~.(.OX-X-X;X:X3X-X-X3X<X(.:X:X<X<X<XeX(.eXeX(.(.xXhXtX:X:XeX<X(.(.xX(.<X<X<X<X:X<X<XeX<X<X<X<X2X<X:X<X<X<X<X<X3X<X<X<XqX:X:X<X<X<XwX<X<X<X<X<X<X<X<X<X:X:X0X:X<X:X:X0X-X-X-X(.OX-X(.(.OX",
"` W ) W _ W W ` ` W ` ` ` ` ` ) ) ` ) ! ` ) ` W ` ` ` ` m ` ` ! m ` m ` ` ` m ! m $.` ! ! ` m ` _ _ _ ` ` ` ` O.` O.`  .] } ` ` ] O. .O.O.O.O.O.O.X.O.O.@.O.O.@.+.D.+.+.O.+.O.O.O.+.O.+.D.D.@.+.X.X.X.X.X. .X.O.` } ` ` _ _ _ _ _ ` ` ` ` ` _ _ ` ` } +.+.+.S.S.O.O..Xa.XXS.a.A.F.XXXXXX.XX.O.O.A.O.O.O.X.] ] m ` ` ` ) ) W ) P z z z W z z z z z z z z z L z J ~ z z W ~ m ~ ~ W W W ~ Q ! Q ! } X.+.+.;.!.!.;.XXXX@X%X&X=X;X>Xa.1Xs.1X=X@X@X$X@X$X@X@X$X@X@XoXa.a.a.#.;.;.;.oXa.a.;.a.;.:.:.;.;.;.;.;.;.;.!.:.:.!.D.;.!.~.+X+X+X@X@XXX+X+X+X+X;X+X(.+X+X(.~.~.!.!.!.@.:.+.+.X.} } X.} } } } / X.|  . . .|  .X./ } } } } } } }  .| } X.X.} } } | } { } { } { } { { { { _ { ` { ..{ '  ... ... .] O.O.O.D.D.F.!.D.D.F.H.H.~.~.OXOX-X;X-X+X-X-XOX(.:X-X:X-X0X:X<XxX(.<XxX<XeXeX<X<XeXcX(.cXxXeXxXeX<XeX<X<X<X<X<X<X<X<X<X<X<X<X3X:X<X<X<X<X<X1X<X:X<X:X:X<X<XeXeX2X<X<XeX<X<X<X<X<X:X:X<X<X:X:X:X:X-X-X-X-X-X-X-XOX",
"` ) W ! ` ) ! ) ` ` ` ) ` m ! ` ! m ! ` ) ! ` ) ! m ! ` ! ! ` m ! ! ! ! ! ! ! ! ` ! ` ` m ! ! ! _ _ Q _ ` ` ` `  .` ` ` ` ` `  .` } ] X. . .} O.` ` ` O.O.O.O.O.D.O.D.+.O.O.O.O.D.+.D.+.+.O.O.+.+.X.+.X.X.X.X.X.} } { ! ` ! _ { ` ` _ _ ` _ _ _ ` ` ] ` ] O.O.O.O.O.O.O.O.XXO.a.a..XS.S.XX@.XXO.a.O.O.O.O.O.X.X.` ` ` _ _ ) ) ) W W z z z z z z z z z J L z L c z z ~ z z z z z W W J W J L Q W ! / | #.;.;.!.!.XX^.@XoX@X&X%X%X=Xa.1Xa.@X$X@X@X@X@X@X$X@X@XoXoXXXa.;.#.o.;.;.a.:.;.;.;.;.a.oX>.;.!.;.^.;.;.;.!.D.:.:.:.^.^.+X^.+X+X+X^.+X+X+X+X-X;X%X+X+X;X%X^.^.!.!.D.@.@.+.O.} } } } ` } } }  .| X.X.X.| X.X.{ } / } } X.} / X.X.} } } { { /  . .} }  .}  . .{ ` { { ' _ { _ { ' { {  .V.V.' `  .O.S.D.D.F.H.D.F.F.F.!.H.~.~.OXOXOX-X-X-XOXOX:X(.-X-X-X:X:X<XxXxXxX(.xX:XxX<XhXtXeXxXxXuXxXeXeX2X<X<X<X<X<X<XqX<X<X<X<X<X<X<X3X<X<X<X<X<X3X<X<X:X3X<X<XeX<XwXwX<XwX2X<XwXeX<X3X<X<X:X3X3X<X-X0X<X<X<X-X:X-X:X-X",
"m ` W W ` ` ] ! ` ` ` ` ` ` ` ] ` ) ` W ` ) ` ! ` m m ] ` ` ` ` $.m ! $.! $.! ` ! m $.` m ! ` ! ! ! ` ! ` ` ` ` X.! ! ` ` ! ) ! ! _ ` }  .O.`  .O.`  .O. . .O. .X.O. .O.} O.X.O.` } X.O.O...O.O.X. .} O.} X.` X.` `  .` ` ` ` { W _ _ _ ` ` `  ._ ` ` ` `  . . .O.] O.O.@.a.S.S.XXO.a.O.XXO.S.S.O.A.S.O.O.@.O.O.O. .O.] O.] ` ` m W W W c c ~ z z z ~ m ~ m z k z z z z z z z z z ~ z z z L L J Q Q ! / { X.+.@.:.!.!.XXXX@XXXoXa.=X@X@X@X@X>X@X@X@XoX$XoXoX@X@XXXXXa.;.;.a.a.!.a.;.a.;.;.;.;.;.a.!.^.;.;.;.!.;.!.:.@.F.!.^.!.;.!.@X+X^.!.XX@X;X+XOX@X+X+XXX~.!.!.!.!.;.@.+.X.| X.| X.} } / X.| } } } X.} } X.| X.} } } / } } X.| } | X.} } } } } }  .}  . . .{  .{ ` {  .{ ` { _ { ' { ' ..V. .` ] O.O.O.F.D.F.D.D.F.F.F.H.!.~.J.XX.XOXOXOXOXF.OXOXOXOXOX-XOX-X(.<X<X<X<X<XeX<X<X<XeX<XuXeXeXxXeXeXwX<X<X<X<X<XwX<X<X<X<X:X<X:X<X<X<X<X<X<X>X<X>X;X>X3X<X<X<X1XeXwX1XwX2XwXwX2XeX<X:X<XeX:X<X<X3X1X3X@X3X-X-X-X3X",
"! W ` ) m ! m ` ` ` ` ` ` ` ` ] ` W W ` W ` ) ` ` ` X.` ] ` ` ` ` ` ! m m m ` ` ! $.m ! ! ` ! m ) ` ! ) ` ! ! ` ` ` ` ` ` ` ! ` W _ ` } } ] X.{ ` ` ` ` `  .} ` X.X.` X.} ` ` X.X.}  .O.X.O.O.X.} X.X.X.X.} O.O.} } { ` } ` ` ` _ ) _ _ ` ` `  .` ` ` ` ]  .`  .] O.O.O.O.O.S.XXS..XXXS.O.A.XXO.a.O.a.O.F.A.a.O.O.S.O.O.S.S.] ] ! m W W W W c z m z z z z z z ~ z z g z z z z z z z z z L z J W Q Q _ ^ { / X.+.#.@.;.!.+XXX+X@X@X=X@X@X@X@X@X>X@X@X@XoXoX@XoX@XoXa.a.a.a.a.XXa.a.!.oXa.;.:.#X;.^.oXa.oXoX;.^.!.!.;.:.@.;.!.!.;.;.;.;.;.+.!.XX%X+X+X+X+X+X^.+XXXF.;.!.@.:.+.X.X.| X.} X.X.} } / } } | } } X.X.} } } / } } { } } } X. .X.} } |  .{  .} |  .}  .{ }  .{  .{ ` ] { { _ { ]  . .....] O.O.S.D.F.S.D.D.D.O.F.F.H.F.H.XXG.XXF.OXH.H.F.F.F.H.OXOXOX-X-X(./.<X(.<X<X<XeX<X<X(.xX].eXxXeXeXwX2X<X2X<XwXwXwX<X<X<X<X:X<X<X<X<X1X<X<X<X<X<X3X>X3X<X<X<XwX<X2X2XwX1XeXwXwXwXwXwXeXeX2XeX<XeX1X>X>X3X-X;X;X-X@X",
"` W ! W ! ` ` ` ` ` ` ` ` ` ` m ` ` ` ) ` ` ` ` ! ` ` ` X.` ` m ` ! ` ` $.! ` ! ` ` m ` m ! ! ` ! ! ` ! ! ! ` ! ! ` ` W ! W ` ! ! ` ` ` ` ] ` ` ` ` ` ` ` ` ` ` ` ` ` ` ` _ ` ` ` ` ` X.O.X.O.O.X.` ` X.] X.` X.` ` ` } ` ` ] ` _ _ _ _ ` ` ` ` _ _ _ ` ` ` `  .] X.] O.O..XS.XXa.S.O.S.S.a.O.XXO.O.S.XXS.XXA.O.F.S.F.J.F.S.S.O.` ] m ` ! W W m z ! ~ z m z z z z g m h g z z z z z ~ z L L L L J L W W W ! { X.} } +.;.!.!.^.oX@X@X@X@X@X@X@X=X@X@X@X@X@X$X@XoXoXoXoXXXoXoXoXoXoXoXoXoX;.#XoX^.oXoX!.;.oX^.^.oX!.;.;.:.!.;.;.:.o.+.o.#.o.+.;.XX+X^.+X^.!.^.^.^.D.:.:.+.+...+.X.X.| X.| | / $.} / } } } } X. .| / } } { ! } } } X.} X.} } } } }  .}  .|  .} } ..} {  .{  .{ { ] ] { ] { ' .... . . .O.D.D.D.D.D.D.D.D.J.F.H.~.F.F.XXF.XXF.XXF.OXJ.F.OXF.OXH.OXOX(.%X(.:X-X<X:XeXxX(.xXxXxXxXeXxX2XeX<XwXwXeXwX2X2X<X<X<X<X<X<X<X<X1X<XeX<X<X<X<X<X:X>X<X<X<X1XwX1XwX1XwXxXwXwXwXwXxXeX2XeXeXeXeX1X>X>X3X<X;X<X;X3X",
") ` W m ` ` ` ! m ` ` ) ` ` ` ! ` ) ` ` ` ) W ` ` ` ` ` ] ` X.` ` ` ! ` ` ` ` ` ` ! X.! ` ` ! ` ` ` ! ` ` ` ` ` ` W ! ` ! ` W ! ! _ ! ` ` ` ` ` ` ` ` ` ` ` ` ` _ _ ! ! ! _ ! ` ` ` ` } `  .X.O.O.X.X.X.` ` X.` ` ` ` ` { ` ` ` _ _ ` _ ` ` ` ` _ _ _ ` ` ` ] ` ` ` ` ] ] O.O.O.] O.O.O.O.XXS.O.O.O.O.a.O.S.XXS.F.F.F.F.S.F.S.S.O.O.O.O.` ` ` ` ! m m ! m ! z ~ m m z ~ z z z z z z z z z H L L H J J P P Q Q { { { } O.!.!.!.!.a.@XXX@X@X>X@X@XoX@XoXoX$XoX@X$X@X@XoXoXoXoXoX$XoXoXoXoXoX#XoXoX;.XXoXoXoXoXoXXX!.;.;.;.;.!.F.:.#.:.+.#.o.+.^.oX^.oXoX^.~.!.!.^.@.+.:.+.:.+.o.| o.o.| X.} | | | X.} } X.X.} } X.} } } / } } / } } | } } } } } } X.|  . .|  .} {  . . .......{ ..{ { { .... . ...} O.O.O.O.S.D.F.D.F.F.F.F.F.F.~.H.F.F..X.XF.H.F.J.F.F.F.H.F.!.~.~.(.(.(.-X-X:X:X(.xX(.eXeXeXxXxXeX2X2XeXwX2XwXwXwX<XwX<X<X<X;X<X<X1X<X<X1X<X<X<X>X<X<X<X<X<XeXwXwX1XwXwXwXwXxXeXwX<XwXwXxX<XhXeX3X1X1X1X<X<X<X3X=X",
"O.` ) ! ` ` ` m ` ` ` ` ` ` ` ` [ ` ` [ m ` ] ` ] ` ] ` m X.` ` X.` ` ` m $.` ` m $.` ! ! ! ` ` ` ` ! ` ! ` X.` ! ! W ` ! ` ` ` ` ! ` ) ` ` Q _ ` ] ` ] ' ` ` ` ! ) _ _ _ _ _ ` ` ` ` ` ` O.` O.` X.` ` ` X.` ` ` ` ` _ ` ` ` ` ` _ _ _ ' _ ' _ ) Y _ _ [ _ ` ` ` m ` ` ] O.] O.] ] O.O.O.a.a.A.O.a.O.O.S.XXS.XXJ.J.F.F.F.J.O.F.O.A.O.m X.] a.m ! ` m ! ` m m m ~ z m g z z z m z z z L L z L L v H H L J L P P Y ! { } ..O.+.@.!.!.!.+X@X@X@X+X+X@XoXoXoX@X$X@XoX$XoXoXoX@XoXoX#X#X@X@X#XoXoX#XoXoXoXoXoXoXoXoXoX!.;.;.;.^.;.:.;.;.;.:.#.+.;.oX+XXX^.XXoX!.!.!.+.:.+.;.+.#.#.o.o.O.o.| X.o.| X. .| X. .| |  .X.} / } } } } / } } |  . .} } |  ...O.| ..O.{  ...| | ........ ........... ...V.V. .O.O.S.D.D.D.O.D.D.D.D.F.H.F.F.XXJ.J.XXXXF..XXXO.S.XXS.F.H.F.H.~.~.~.OXOXOX-X:XhX(.<X<X<XeXeXxX2XeX2XwXwXwXwXwXwXwXeX1X<X<X<X<X<X1X<X1X<X1X1X<X<X-X<X<X<X2X1XwXwXwXwXwXwXxX1XwX<XxXxX<X<XeX<X<X1X1X1X3X1X=X3X1X3X",
"` ` ` ) m ` ` ` ` ] X.] ` ` ] ] ` ] ` ` ` ] ` ` ` ] ] ] m a.] ] ` ` ` ` $.` $.! X.` ` $.$.` ` ! ` ! $.` X.` ` ` ` ` ` ! ! ` ! ` ! ` ` ! ` ` ` ` ] {  . . .]  .' _ _ ! _ ` ! ` ` Q _ ` ` ` ` ` ` _ ` ` ! ! ` _ _ _ _ _ _ _ ` ` _ ' ` ] ` ` ` ` ` _ _ ) _ _ ` _ ` ` ! ` ` ` ` O.] ] ] ] X.O.m O.O.O.O.O.O.S.XXXXS.XXXXH.F.H.H.J.F.O.O.O.a.a.] A.] ` ] ` m m ` ! z m m z z z z z z z c z L L z c H H l c H L H L L P P P _ {  ...O.@.;.!.!.XXOX@X+XoXoXoX@X@X@X@X@XoX@X@X@X$X@XoX@X#X@X%XoX#X#X#X@XoX+XoXoXoX+X+XoXoXoX;.;.!.;.a.;.^.;.;.;.:.;.;.!.XX^.oX^.^.;.;.!.:.@.@.+.+.:.@.+.o.:.o.#.o.+.X.X.o.o.O.| X.X.X. . .| X.} } } X. .X.X.X.X.X.X.|  .O...O.O.+.D.O.....O.+...O. .....V.D.D.....V.=.V.O.S.D.O.O.D.D.D.D.D.F.F.D.F.J.F.F.F.XXS.F.F.F.G.XXJ.J.XXF.F.H.F.!.~.~.~.~.~.OX-X/.(.-X:X:X<X<X2X<X<X<XwXwXwXwXwXwXwXwX1X<X1X1X<XeX<XwX<X<X<X<X<X<X<X>X<X<X<XeX2X2X2XwX1XwXwXwX1XeX<X<XeX<XxXeXxX1X1X1X1X1X1X1X3X=X",
"] ` ` ` ` ` ` ` ` ] ` ` ] ` ` ` ] ` ` ] ` ` ] ] ] ` ] X.` A.b.$.` ! a.m $.` ` ` X.` m m ` ` ` ` ` ` ` ! ` ` X.! ! ` ! ` ! ` ` ! ! ` ` ! ` ` ] { { ` ' ` ' ] ` ' _ _ Q _ _ ` ` ` _ _ ` ` W ` ` ` ! ) ! W W _ _ ) Q _ _ _ ` _ ` _ ] ` ' ` ` _ _ _ _ _ _ _ _ _ ` ` ! ! m ` ` ` ` ` ` ` ` ] O.] O.] ] O.] O.S.O.S.F.S..XF.F.F.F.F.J.a.A.m a.A.O.O.O.O.O.` ` ` m ! m ! m W W c c z z c z W z L l l l H b H Y H L L L L L P P _ ` {  .O.+.;.;.!.XXXXXXoX@X@XoX$X@X@X&X@X@X&X&X$X@X@X@X%X&X@X$X$X$X#X#X+XoX+XoXoXoXXXoXXX^.;.a.a.;.a.;.a.;.;.;.;.;.;.oX!.oX^.oX^.XX^.!.!.;.;.:.;.#.:.:.+.:.+.+.+.#.o.:.+.+.+.o.X.| |  .| X.}  .| X. .X.+.X.| | O.X.X.....O.D...D.......@.:.O...+...D...+.:.D...D.S.D...O.D.D.D.S.D.J.F.D.D.F.D.D.D.!.D.J.F.F.F.F.H.F.XXJ.XXXXS.H.F.F.F.~.!.~.H.~.~.~.OX(.~.+X-X-X:X<X:X<X<X2XeXwXwXwXwXvXwXwXwX1X1X1X<XwX1X<XwX1X<X2X<X<X<X<X2X1X2X1X1X1X1X1X1X2XwXhXeXhXeXeX<XxX<X<XxXpX1X1X1X1X1X1X1X1X",
"O.` ` ` ! ` ` m ` ` ] ` ` ` ` ] ] ` ` ` ` ` ` ` ` ] ] ] ! m a.$.O.X.$.m m m a.X.` ` a.` ` ! X.` ! X.! ` X.! ` ` ! ! ! X.` X.! X.` ! ` ! ` } ` ` ` ` ` ` ` _ _ _ W _ _ _ ! ` ` ` _ _ ! _ ` ` ` ! _ ! W ! ! W Q ! W _ _ _ _ _ ` ` ` ] ` ` ' _ _ _ [ _ ) _ [ _ _ ` m ` ` W ` ` m ! m ! ` ` m O.] O.O.X.] O.O.O.O.@.O.@.F.J.S.S.D.S.O.O..X] A.a.a..Xm O.X.` X.m ` ` ! m W z c c z m ~ c c W c c c l b H b L Y c L z c z L L P _ { { ..o.+.!.!.!.XX;.oXoXoX@XoX@X&X&X=X$X=X@X@X$X&X$X@X%X$X@X@X%X%X@X+X+X@X^.^.oXoXoXoXoX^.XX^.oXoX!.;.;.;.a.^.XXoX^.oX;.oX!.!.oX;.oX;.;.;.;.;.;.;.@.:.#.#.#.:.o.o.+.+.:.+.+.o.X.X.$.X.X.X.X.| X.| | +.+.+.O.o.X...O...O...:.D.D.D.D.+.D.D.+.:.D.+.D.D.D.D.D.D.=.D.D.D.D.D.O.D.D.@.F.D.D.D.D.H.F.F.D.H.F.F.F.J.F.J.XXF.F.F..XF.H.H.H.D.H.H.F.H.!.OXOX(.(.(.+X-X:X0X:X<X:X2X2X1XwXwXwXvXvXwXwXwXeX1XwX<X1X1X<X1X1X<X<X1X1X<X2X3XeX1X<X<X1X1X1XwXwXeX2XxXeXhXeXxXxXeXxX3XpX1X1X1X1X1X3X1X",
"] ` ` ] X.] ` ` ` ` ` ` ` ` X.] ` ` ` ` ` ` ` ` m $.$.$.X.A.X.A.` O.O.] X.] X.] ] X.] ] X.` ] X.m ` ` ! ` ! ` ` ` } ! ` / ` ! } ! ! ! ! ! ! ! ` ` ` ` ` _ ` ` { ` _ ) ` ! ) ` ! ` m ` ` ` ` ` ) W W ! W W W ! W W ! ! ` ! ` ! m ` ` ` ' [ _ ) W m W W _ _ ` ` ' W ` ) ` W ` ` ` ! ` ` ` ` ` ` ] m ` [ ] ]  .O.S.S.S.F.J.S.S.S. .A.a.m .XO.a.a.m a..Xm a.O.A.] m ] W m W m ! z ~ z W W W L z z c Y c c l z z c L z z L L Y _ _ { ..} } O.O.:.!.^.XXXX+XoX@X@X=X@X@X@X&X@X@XoX@X@X@X@X@X&X@X@X@X@X%X+X;X+X-X@X@XXXXXXX^.@XoX@X+X^.XXoXa.a.oXoXoXoXa.a.!.;.^.;.;.^.:.:.;.;.;.s.:.;.a.,.:.:.:.#.;.:.;.#.o.o.O.o.o.o.o.o.#.X.+.o.| O.O.O.+.O.+.+.D.D.D.=.^.^.~.^.^.^.@.@.!.D.!.D.F.D.D.D.D.D.D.D.D.D.D.D.D.!.D.~.D.D.~.D.!.D.D.D.!.D.D.J.!.D.^.J.!.D.J.~.J.~.!.J.H.!.J.D.F.J.H.H.H.H.H.H.H.~.(.-X-X-X+X-X3X<X2XwXwXwXwXwXwXwXwXwX2XwX2X2X2X1X<X1X<X<X<XwX<X<X<X1X<X1XwXwXeX1XvXwXwXvXpX1XpX1XvXvXpXpX1XpXpX1X1X1X1X1X1X",
"X.` ` ` ` ` ` ` ` O.` ` ` O.] ] X.` ` ` X.` a.` $.m A.$.X.$.X.X.` O.] O.] O.O.X.O.m X.] O.X.X.] $.$.$.` $.X.` X.} ` X.} ! } ` / ! ! ! ! ! ! ! ` ! ` ` ` _ ` ' ` _ ) ` ) ) ` ` ) ` ` ` ` ! m W ` ) W W W W W W ) ! W m W ) W W ! ) ` ` ` _ W W ) W W W ) ) [ ` ' ` m ! ` ` ` ) ) m ` m ` ] ` ` ` ] ` ] ` ] ] S.S.S.S.S.G.S.O.S.S.m a.a.m a.m ` .Xm m O.m O..XX.m [ ` W m m m m m W W c z m m b c v c c H z c c L z z z c L W _ _ _ _ _ { ..O.D.!.+XXX+X@X-X@X@X=X&X=X=X=X&X@X&X@XoX@X@X@X;X&X&X%X@X@X@X;X@XOXOX@X+XXX+X+X+X^.^.@XoXa.oXXXa.@Xa.@Xa.a.;.a.;.;.s.^.a.:.a.^.;.a.a.a.a.a.a.:.#.:.a.:.;.#.#.:.:.o.o.+.o.+.+.+.:.+.+.:.+.+.:.@.!.!.=.D.D.D.^.J./.(.~.J.!.D.F.!.F.H.!.!.!.!.D.D.D.D.~.D.D.F.D.F.D.!.~.!.D.!.D.D.D.F.D.F.!.J.D.J.!.J.J.~.~.J.J.J.J.H.J.J.J.F.J.J.F.F.H.H.F.H.H.(.(.-XOX-XOXOX;X>X<X1XwXwXwX1XwXwX2XeXeXwX2XeX1X<X1X<X<X1X1X<X1X1X1X<XeX1X1X1X1X1X1XwXwX1X1X1XvXvXpXvXvXpXpXpXpX1XpXpXvXpX1X",
"] ] ` ` X.` ` ` ` ` ` ` ` ` O.] ` ] ` ] ` m m ` ! $.$.$.X.a.! A.O.m a.m ] O.] ` m O.O.] m O.] X.` $.` $.} } X.X.} } X.} X.` } ` X.! ! ! ! ! ` ! ` ` X.` ` ` ] ] _ ` ) ` ` ` ` ) ` ` ` ` ! ! ! W W W W W ! W ! W W W ! W ! W W W ` ) ) ` ) ) ) W W W ) ` _ ` ` ` W ` ! ) W ` ` ! ! ` ` ! ` ` ` ` ` ` ` ` ` ] ] O.O.S.S.O.O.] ] O.m O.a.m m X.O.m m a.] a.a.m O.O.] [ m m ! ! m m ! m W m L c m W L c c L W z z z v z z L c W P Y ) L P W ` } O.@.!.XX!.XX@X@X@X>X,X,X,X,X&X@X@X&X@X@X&X;X&X;X&X&X;X;X;X;X@X@X@X@XXXoXoX^.oX+X%X@XoXoXa.@X@XoXoXoXa.oXa.;.!.;.;.;.a.:.;.s.#Xa.a.#Xa.;.a.;.a.,.a.;.;.;.;.;.+.#.#.:.:.@.;.:.@.:.;.;.:.F.!.;.!.+.!.!.D.D.^.~.^.^.~.^.!.!.!.~.~.!.~.!.^.J.~.D.!.D.F.!.J.!.!.J.D.~.!.~.~.J.D.D.D.D.!.J.!.D.!.J.J.J.J.J.J.J.J.~.H.J.J.H.F.S.D.F.F.J.F.J.D.H.F.~.H.OXOXOXOXOXOX-X<X<X<X<X1XeX<XwXwXwXeX2X2XwX2XeX1X2X1X<X<X1X1XeX<X<XeX1XeX1XeXvXwXwXwXwXvX1XvXvXvXvXvXvXlXpXpXpX1XvXpXvXvX",
"X.` m X.] ` ` ` ` ` ` ` ` X.O.O.X.X.X.X.` a.` X.$.A.X.A.X.A.X.X.O.O.m a.O.O.m a.a.` O.X.a.m X.] X.` $.` X.} X.` O.} X.} } X.X.} ! ` ! ! ! ! ` ! ` ` ` ` ` { ` ` ` ` ` ` ` ` ` ` ` ` ` m ` m m W W W W W m W W ) ~ m m ! m W W W ) ) ) W ) W ) W m W ) ) _ ) _ ' ) W ) ) ! ) ) ` ` ) ` ` m ` ` ` [ ) [ ` ` ] ] ]  .O.] O.] ] ] ` a.m m a.m .Xm a.A.` A.m O..X] ] O.] ` ` m ! a.m ` ` W W m ) m ) c c m ) c m z z l z z c c L L L P P ) _ _ ] O.+.F.F.!.XX-X@X@X=X,X,X2X>X=X&X%X@X@X@X@X&X&X>X;X;X;X;X>X@X@X@X@XOXoX+X+XoX+X+X@X@Xa.@XoXa.oX@X@XoXoXa.^.oXs.;.^.oXa.a.a.a.oX#XoX#X#Xa.a.a.a.a.:.;.oX;.a.:.;.;.;.;.;.:.@.;.!.;.!.;.;.F.!.!.!.!.^.D.^.^.~.^.~.(./.(.~.~.XXOX~.~.~.~.~.~.J.^.~.~.H.~.!.D.~.!.!.~.J.J.D.!.!.D.!.D.D.!.D.!.J.D.!.^.J.!.~.~.D.J.J.J.H.D.S.F.D.J.D.F.J.F.J.D.H.F.H.H..XXXF.F.OXOX-X;X-X<X<X<X<X<X<XwX2XeXwX<XwX2X1XeX1X1X1X<X1X1X1X1X1X1X1XwXwXwXvX1XvXwX1XpX1XvXvXvXvXvXvXvXlXvXvX1XvXvXvX",
"a.` ` ` X.X.` ` ` ` X.` ` O.O.O.X.m m a.a.m X.X.$.A.$.$.$.A.$.A.] X.X.] ` O.O.` a.m O.] ] O.a.` X.` } } } X.X.} X. .X. .X.X.} X.$.! $.m ` ! ` $.` ` ` ` ` O.` ` ` ` ` ` ` ` ` ` ` ` ` X.` ! m ! W W W m W m W ! z ! m W W W W W W ) ) W W W W W W W W W ` W W ` ! W ` ) ! ` m W W ) ` ` ! ` ` ! ` ) _ ` ` [ ' ` ` ] O.] ] ` ' ` ` ` ] ` ` ] ] ` ` ` m a.A.O.A.] A.] ] [ m X.] ] ` ` m ) m ) ` [ ) W m ) W m z z l l c v L L Y ) Y W ) W _ ] ] +.O.+.D.F.XXOX-X@X>X>X,X,X;X%X;X;X%X%X;X>X>X;X,X>X>X>X=X@X@X@X@X@XoXoXoX@X#X+X%X@X@XoXoX@XoX$X@XoXoXoXa.a.^.;.;.>.a.a.a.#XoX#X@X@XoXoX;.oXa.oXoXoXoXa.oX;.^.a.;.;.;.@.;.;.:.!.;.!.F.XXF.!.XXF.a.XX^.^.~./.~.+X(./.~.+X+X~.+X~.OX!.~.+X~.~.~.!.~.~.~.J.!.J.^.~.~.^.J.!.J.D.J.J.!.J.J.!.D.~.J.!.F.H.D.H.~.J.D.H.H.J.F.J.F.S.D.J.F.S.D.F.F.J.F.F.H.F.J.XXF.OXOX@XOX-X3X>X3X<X<X<X1X1X1X<X1X1XeX1X1XwX1XwXwX1X1X1X1X1XvX1XvX1XwXwXpXxXpX1XvX1XvXvXvXvXvXvXvX1XvX1XvXvXvX",
"m ` ` ` X.m ` ` ` ` ` ` ` X.` O.X.a.` ` m a.] O.$.A.$.$.$.$.#.$.O.O.O.X.a.m m a.m a.X.O.X.X.m m } } X.} X.` } X.X.O.} X.} } X.} $.$.$.$.` $.$.` X.` ` ` ` ] ` ` ` ` O.` ` ` ` ` ` ` X.m ` ! ! m W W ! W W ! W W ! W ~ c z W W W W ! W W W W W W W W W W W ) ` ` ) ` ! ` ) ` ` ` ` ` ) ` ` m ` m ` ` [ ` ` ` ` ' ` ` ' ] ] ` ' ` m ` ` ` ` ` ` ` a.m O.m A.] ] ] ] ] [ ` O.` m O.` ` ` ` ) ) ) [ ) ) [ ` ` W W c z c L L Y ) ) _ ) Y Y ) ) ` ] ] ] O. .+.O.F.OXOXOX@X;X%X@X-X@X;X@X%X;X>X>X>X,X>X>X>X>X=X>X@X@X@X@X@X@XoXoX%X@X%XoX$X@XoX@XoXoX$XoXoXoXa.s.;.;.a.;.a.oXoXoX#XoX#XoXoXoXa.a.^.oXoXoXoXa.XXa.XX!.oX;.:.;.;.!.;.!.!.XXXXXXXXXXF.XXXX~.^.^.(.(.%X-X/.%XOXOX@XOXOX+XOX~.~.~.+X+X~.~.!.!.~.~.J.~.J.~.J.!.J.!.!.D.D.D.!.!.D.~.D.!.F.~.H.J.!.J.H.J.H.D.H.J.F.J.F.F.F.F.J.D.S.S.F.J.F.J.F.F.F.F.XXXXOXOXOX-X@X&X>X<X<X<X<X1XwX<X1X1X<X1X<X1X1X1XwXwX1XpX1X1XpX1XpXvX1XvX1X1XvXvXpXvXvXvXvXlXvXvXpXvXvXpXvXvX",
"a.m ` X.X.X.X.X.X.O.` X.` O.X.O.` a.a.m a.m X.` $.$.$.$.$.A.A.#.X.O.O.O.O.m a.m ] ` O.m O.` ` a.X.X.| X. .O.O.X.X.} X.O.} X.X.} $.` $.! ` ` X.` O.X.O.` ` ` ` ` ` ` ` ` ` ` ` ` ` ` ` ` ] ` m X.! ` ` W ! W ! ) W W ! z ! m W W ) W W W W W W ) W W W ! W ` W ` ` ) ` ) ` ` ` ` ` ` ` ` ` ` ` ` ` ` ` ` ` ` ` ` ` ' ] ` ` _ ` ` m ` ` m ` ` ` _ m ] m O.] O.O.O.A.] ] ] ] ] ] ` ] ` ` m [ [ ] ) ) ) ` m ` ` m m Y Y Y ) Y Y ' _ ) ) ) Y ) ) ' _ ` ` ` ` O.O.F.F.F.XXOXOX@X@X@X;X@X;X;X>X>X2X2X2X1X>X=X>X>X@X=X@X@X@X@XoXoX@XoX%X@Xa.@XoXoXoXoXoXoX^.a.^.^.;.oX;.^.a.;.oXoXoXoXoXoXoXoX;.oXoX#XoXoXa.oXoXoXoXXXXX!.;.^.XX!.!.oXoXXXXXXXXXOXOXOX@X(.(.%X+X%X/.-X-X@X-X%X@X;X-X+X+XOX+X+XOXOX~.~.~.J.J.~.~.^.~.D.J.J.D.D.J.C.^.J.^.D.~.F.!.F.~.H.!.!.!.H.F.!.F.H.J.F.H.F.J.F.J.F.F.S.F.S.F.F.J.F.F.F.XXXXF.F..XXXOXOX-X@X-X<X>X<X<XeX>X1XeX1X<X<X1X1XwX1XpX1XwX1XpXwXvX1XvXvX1X1XwXvX1XpX1XvXvXvXvXvXvXpXlX1XvXlXvXvX",
"a.` ] O.X.X.` ] ` X.O.` ` X.O.` a.m $.$.m a.m a.$.$.A.$.$.$.$.$.O.O.O.O.O.a.m a.O.X.O.a.m a.O.O.} O.O.X.X.X.O.O.} O.} ` X.} }  .` $.` $.$.$.` X.` O.` ` O.` ` ` ] ` ` ` O.` O.` ] X.` ] ` ` ` ` ` ` W ` W W W W W W m ~ m ~ W m W _ ) W W W W W W m W W W m ` W ` ` ` ` ` m ` ` ` ` ` ` ` ` ` ` ` [ ] [ ' ` [ _ [ ` ' ` ' ` [ ` ! m ` ! ] m ) [ m ] O.] ] ] A.O.O.O.m ] ] ] [ ` m [ [ ] ] ` [ ` ` [ ` ` ) ) ) ) ) ) Y ) _ ' ' Y [ [ Y ) L ) ) _ _ [ ) _ ` ] S.O.O.@.!.XXOXOX@X;X-X;X;X>X2X>X2X2X1X2X2X=X=X>X>X=X=X@X$X@XoXoX@X@XoX@Xa.a.@XoXoXoXa.oXoXa.oXoX^.#Xa.;.oXoXoXoXoXoXoXoXoX#XoXoXoXoXoXXXoXa.XXoXoXoXXXoX^.XXXX+X@X@X@X@X@X-X@X@X@X@X/.+X%X+X;X;X:X:X;X@X;X;X+X;X+XOX+XOX+XOXOXXXOX!.!.~.^.J.J.J.~.^.J.^.!.J.D.D.J.D.!.J.!.D.H.!.F.H.~.H.H.H.H.H.H.!.H.F.J.F.H.F.J.J.S.S.S.D.S.H.S.F.XXS.@.F.F.F.XXXXXXOX-X;X-X3X<X>X2X3X<X1X<X1X<XwX1XwX1X1XwXwXpX1XvX1XvX1XvXvX1XxXvX1X1XvX1X1X1XvXvXvXlXvXvXvXvXvXvX",
"` X.O.] +.O.X.} O.` X.O.` X.O.O.m a.m $.X.A.$.X.X.A.a.$.#.#.#.#.a.] a.m a.O.O.O.O.m a.m m a.] O.O.O.X.O.X.+.| O.O.O.| O.O.X.X.| a.X.X.` ] X.O.O.] X.] ] ` X.] O.X.] X.] X.` ` m a.` X.` X.m X.! ` ` ` ` m ! ` ! m m z W W W W ! W ) W W W W W W z ~ m ~ ) W ! ` ) ` ` ` ` ` ` ` ` ` ] X.] m ` m ` ` ` ` ` ` ` ` _ ` ` ` ` ` ` ` ! ` ` ` ` ` ` ) ' _ ] ]  .m.]  .] ` O.m ] ] ] m [ [ ) ) ) [ ` ) m ` X.m ` m ` [ [ ' [ [ ' [ V.m.] ' [ Y ) Y ) _ _ ) ' _ ] `  . ...O. .+.F.!.!.~.OXOX-X-X@X>X<X1X=X1X1X>X@X>X>X=X=X=X=X@X@X$X@X@XoXoX@XoXa.@XoXoX;.oXoXoX#XoXoX#XoXoXoXXXoXoXoX^.oXoX!.oXoXoXoXXXa.a.oXoXXXXXXXa.XXa.XXOX@X@X;X;Xa.@X@X@X@X@X@X@X%X+X%X%X;X:X:X<X;X;X;X>X;X@X-X;XOX+XOXOXOXXX~.~.~.~.~.~.~.F.F.~.^.J.D.F.D.!.D.~.D.F.F.F.!.F.OX!.F.F.XXS.J.S.S.J.D.D.F.H.F.F.J.F.O.S.XXO.F.F.S.D.O.O.S.XXJ.XXS.J..XOXOXOXOX-X>X3X>X>X>X3X1X<XwXeX1X1XwXwX1X1XwXpX1XhXpXxXpXlX1X1XvX1XpXlX1XvXvXvXlX1XvXvXvX1XvXvXvX",
"X.O.O.X.O.O.O.} +.O.O.O.+.O.O.X.a.m a.$.` X.$.$.X.X.A.X.A.$.A.#.m a.X..Xm a.O.O.O.a.` .Xa.m O.O.O.X.O.| O.X.O.X.X.+.O.X.| O.O.O.m X.X.X.X.X.X.O.X.X.` X.` X.X.] X.] ] X.` ] ` X.m $.` ` ` ` X.` ` ` ` ` ] X.` m ~ ! ! W W W ! W ! ) ~ W c ! W W ! m c ! ! m W ) ` W W ` ` ` ` ] ` ] ` ` ` ` ` ` ` ` m ` m ` ` ` ` ` ` ) W ` ` ) ) _ ` [ ` ` _ _ ` ' ] ] ]  .m.m.] ] ] ] ] m m ] ) [ ) [ [ ) ) [ ` ` m ` ` ] [ ` ` [ ] ] ] ] m. .] ' ) ) Y ) [ _ [ _ [ [ _ ' ' ] ` `  . .D.D.F.!.OXXXXXXX-X@X>X>X>X>X1X=X=X>X=X=X=X@X@X@X@X@X@X$X@XoXa.oXoXa.oXoXoXoXoXa.^.#Xa.^.oXoX^.oX^.oXoXoXoXoXoX;.XX^.a.XXoX@XoXa.oXoXXX@XoXXX+X@X@X%X&X;X3X@X>X@X=X3X>X=X;X;X;X;X*X:X:X:X;X>X>X>X;X;X;X;X@X@X@XOX+X+XOXOXOX~.~.~.~.~.~.F.^.!.~.~.~.~.D.~.@.F.F.!.F.!.F.H.XXF..XJ.XXXXXXF.F.F.F.F.F.H.F.F.J.a..X@.H.XXOXF.S.XXXXS.XXF.XXXXa.XXOXOX@X-X-X>X>X-X>X2X<X<X1X1X1X<XwX1XeX1XwXwX1XpXxXxXvX1XpX1XpXlX1XpXvXvXvXvXvXvXvXlXlXvXvXvXvX",
"O.X.] X.O.O.X.} X. .X.X.X.O.X.X.a.m m $.` X.X.` X.X.$.$.$.#.#.$.m a.X.O.a.m a.m O.O.a.X.X.a.a.] O.o.X.O.| O.o.O.O.X.+.X.+.X.X.O.O.X.` a.X.X.O.O.O.X.X.] X.] ] X.X.X.X.X.a.m a.` m a.X.` X.` ` ] X.] O.] O.m ` ` m ! m W m W m ! W W m ~ z W W W m ~ W ! W ! m ` ` ! ` ` ` ] ` ` m X.` X.` ` ` ` ` ` ` ` ` ` ` ` _ ` ) ` ` W W ` [ _ ` ` ' _ ` [ ' _ ' ] ] m.]  .] O.[ m [ ] ] [ [ ) ) [ ) ) [ ) m a.` m m ] ] [ [ ' ] ] m.V.V. .' ' ' Y ) _ [ ' ` _ _ _ _ [ ' ` ) W ` `  .O.S.+.XXO.a.XXXXOX-X>X=X>X1X>X>X>X>X>X@X;X@X@X@X@X@X@X@X$XoXoXoXa.oXoXoXoXoXoXa.#XoX#XoXoXXXXXXXXXXXa.XXXXa.XXa.XXoXoX@XoX@X@X@X+X@X+X@X@X@X@X@X>X>X>X=X@X=X3X3X=X=X>X;X;X:X:X:X,X,X,X>X,X>X>X>X>X>X;X@X-X-X@X+XOX+X+X+X+X+XOX~.~.OXOX~.~.~.!.~.~.~.~.F.F.F.F.!.F.!.F.XXH.H.XX.XXXXXH.OXH.F.F.F.F.XX.XS..Xa..XOXF.XXOXS.XX.X@.OXF.OXXXXXXXOX@XOXOX-X-X@X-X-X>X>X>X1X1X1X1X1XeXwX1X1X1X1X1X1XvXvXvXlXpXpX1X1XvXlXvXvXvXvXvXvX1XvXlX1XvXvX",
"O.X.X.X.X.O.X.X.X.O.X.O.O.X.O.O.m a.m a.X.X.X.$.X.X.#.$.#.A.$.#.a.X.] a.` a.m a.a.a.m a.a..Xm a.+.O.O.+.O.+.O.O.+.+.O.+.O.X.O.O.O.m a.m O.O.O.O.O.O.X.X.] X.X.O.O.] O.X.` X.m ` m ` ` X.` m a.X.] ] O.X.` X.` ] ` ! ! ! ! W ! m ) W W W W ~ m W ~ W W m W ! W ! ` m ) ` ` ` ] ` ` ` ` m ` ` ` ` ` ` ` ` ` ` ` ` ` ` ` ` ` ` ) ` _ _ [ ` ` [ [ ` ' ' ] ] ] ] m.] ] m ] ] [ [ [ [ [ [ [ ) ) ) ) ) m m m ` m ] [ ] ' ] m.m.V.V.V.m.V. .] ' ' ' ` ] ] ' ' ' ) _ ' Y ) _ _ _ ' `  .O.O.O.[ O.@.XXXXXX@X=X=X3X@X@X=X3X>X@X@X>X@X@X@X@XoX$X@XoX@X@XoX@Xa.oXa.oX/.oXoXoXoXXXoXoXoXoXXXoXoXoXXXXXoXXXXXoXa.@X@X@X@X@X@X@X%X@X;X;X>X;X<X>X>X=X=X=X=X1X>X>X>X<X:X,X:X2X2X2X2X>X2X,X>X>X>X>X;X;X;X@X;X+X-X@X-X+X+XOX+X+XOX@X~.~.~.+XOXXX!.!.XXF.XX@.F.!.F.XXF.XXXXH.XXF.F.XXH.XXOXH.OXOXOXF.XXa..Xa..XF.H.F..XXXS.a.F.XXF.XXXX.XXXOXOXXXOXOXOX@X@X-X>X>X3X>X1X3X1X1X1XwX1XpX1XpX1XlXvX1XpX1X1XlX1XpXvXvXvXvXvXlXvXvXvXvXvXvXlX",
"a.O.X.X.O.@.O.X.+.+.+.+.+.+.+.O.a.a.m a.m a.! $.A.#.$.#.A.#.A.#.O.a.a.a.m a.a.m m a.a.X.a.O.a.m +.O.O.+.+.O.+.+.+.+.X.+.+.O.+.X.O.O.O.O.X.O.] O.O.O.O.] X.X.X.O.` a.O.m a.m X.` a.m ` X.X.X.a.m X.O.a.m O.] X.] O.` ` ` ` ` ` ! ! W W W W W m ~ W ! W ! W ! ! W m ! m ` ` ] ` ` ` ` ] ] ` ` ] ] ` ` ` ` ` ` ` m ` ` ` ` ` ! ) ` _ _ ' ' ' ` ' _ ' ] ] ' ] ] [ ] [ ` ` [ ] ] [ [ [ ) m ) ! m ! m m W m m ) [ ] [ [ ] [ m.m.V.V.V.V. . .] '  . . . .] ] ' { Y ' { ' _ ` ' ` ] `  .` ] X.O.a.a.A.a.a..X3Xa.@X@X3X@X@X>X;X;X;X@X-X@XoX@XoXoX@XoX@XoXoXoXoXoX#XoX#XoXoX@XoXXXoXoXoX+X@XoX@XoXa.@XXX@XXX@X@X@X@X@X>X@X=X@X;X;X;X>X>X>X=X=X=X=X=X,X,X,X2X,X,X2X,X2XhX1X,X1X1X1X2X,X>X>X>X;X;X;X-X@X;X@X@X@X-X@X-X@X@XXXOXXXOXXX!.XX!.!.XXXXXXXXF.XXXXXXF.XXF.XXJ.XXJ.@.F.H.OXXXOXOXOXOX.X@XXX3X3Xa.a..Xa.XXOXXXXX.XXXOXXX.XOXOXXXOXOXXXOX@XOX3X@X>X>X3X>X<X1X<X1X1X1XwX1XvX1XvXvX1XlXpX1XvX1XvXvXvXvXvXvXvXvXvXvXvXvXvX1X",
"O.O.X.O.O.+.o.O.+.+.+.+.@.O.+.+.a.m a.a.a.m a.! #.$.#.#.$.#.#.#.a.m m a.a.m O.O.m a..Xm a.O.a.m +.+.@.O.+.+.O.@.+.O.O.+.+.X.+.X.] a.O.O.] a.a.O.a.O.O.O.X.X.X.O.a.m O.a.] a.` X.X.X.X.m ] O.` X.X.] ` ] X.] O.m O.` ` ` ] ` ` m ! W W ! ! W ! W m ! m ! W ! m ` ` ` ! ` ` ] ] ` ` ` ` X.a.` ` ` ] ` ` X.] ` ` X.` ` ` ` ` ) ! ` ` ` ` ] ] ' ' ` ` ' [ ] ] ] ] ] ] ` ` _ m [ [ [ ) [ [ ) m m m m m m m W W [ ) ] [ [ [ m.m.m.V.m.V... .]  . .V.V. .V. . .' ' ] ' '  .' ' ] ] ` ] ` ` ` X.m b.a.a.a.a.XX@XOXOXa.@X-X@X@X@X@X@X@XXX@XoX@X@X$X@X$X@XoX%X@X$X%X#X%X@X@X@X+X+XoX@X@X@X@X+X@X@X@X@X@X@X@X@X@X@X=X>X;X>X>X;X>X>X>X>X>X2X=X=X>X>X>X=X1X,X2X2X2X1X1X1XhXxX1X,X1X1X1X2X2X2X>X>X>X>X>X;X;X;X;X;X@X;X@X-X-X@X@X@XXXXXXXXX!.XXOXXXXXXXXXJ.XXXXOXF.F.H.XXXXXX.XOXXXOXOXOX-X-X-X@X@X3X@X3Xa.3Xa.OXOXOXOXXXXXOXOXOXXX-X@XOXOXXXOX.X@X-X@XOX>X=X3X>X3X<X<X1X<X1XeX1X1XvX1XvXvXvX1X1XvXpXvXlXvXvXvXlXvXvXvXvXvXvXvXvX",
"a.O.O.O.+.+.@.O.+.+.+.+.+.+.+.@.! m a.m ! a.m ! #.$.#.A.#.#.#.$.a.a.` m a.a.X.a..XX.a.a.m X.a.a.+.+.@.@.@.+.@.D.+.+.+.+.+.+.+.O.O.O.O.O.O.] O.O.] ] O.X.O.X.a.] m a.m m O.a.m X.X.a.m a.a.` a.m ] ] X.O.O.] ` O.` ` O.] ] ] ` ! ! W ` m ! m ! m ! ! ! ! ` ! m ! ! ` ` ` ` ` ` ` ` ` ] ] m O.] ` ] O.X.] ] X.X.] X.] O.` ` ` ) ` ` ] ] ] ]  . .' ' ' ] ] ] ' ] ] [ ) ) [ [ [ [ m [ m m m m m W W ~ m z m m W [ ) [ [ [ [ [ B.[ V.V.{ ..' { ' ..V. . .] ] {  .] '  .'  .' '  . .] ` ` X.m ! a.X.X.! a.a.a.XXXXXXXXXXXXXXOXOX@X@X@XoX@X@X@X%X@X@X%X@X&X%X%X&X&X&X&X%X@X@X;X&X@X&X;X;X>X;X@X=X;X@X>X=X=X=X=X>X>X>X,X>X>X2X>X2X<X2X2X=X1X1X>X2X2X1X1X1X,X,XhX1XhXxXvXhXhXhX1X1XhX2X1X2X2X>X>X>X>X>X>X;X>X>X;X@X>X;X@X@X-X@X@X@XXXXXXXXXXXXXXXXXXXOXXXXXXXOXOXOXOXOXOXOXOX-X-X-X-X3X3X3X3X3X3X3X3X3X=X3X-X-X-XOX-X@X-XOX;X-X@X-X-X@XXX@X@X@X@X3X@X3X>X@X@X<X>X<X<X<X1X1X1X1XpX1XvX1XvXvXlXpXlXvXvXvXvXvXvXvXvXvX1XvXvXvX",
"O.a.O.X.@.O.@.O.@.+.@.D.O.@.D.@.a.a.m a.a.m a.a.A.#.#.#.A.a.#..Xm .Xa.a.m .Xa.m X.a.m a..Xa.] X.+.@.@.+.@.+.+.+.+.+.+.+.+.+.+.+.a.] a.] O.a..XX.O.a.X.O.X.O.m a.a.] a.O.a.m a.m a.m a.m m X.m a.O.O.O.O.O.O.a.m ` O.` X.` X.` ` ) ! ! ! W ! ! ! ! ! m ` ! ` ` ! ` ! ` m ` X.] ` ] ] X.m a.m m a.` ` X.` ] X.] ] X.] ` ` O.` ` ` ] ]  . . .] ] ] _ ] ' ] ] ' [ ] [ ` [ [ ) [ [ [ ) m ! m m ~ W m m z m W m m m [ Y ) Y ) ' ' m.' Y { ' { ' { { ' '  . .{  .'  . .' ' ' ` ' ' `  .` ` ! $.m m $.$.m m a.A.O.O.O.a.O.@.F.F.XXXXOXXXXXoXoX@X@X&X&X&X&X&X&X&X;X&X&X;X&X;X@X;X;X;X;X>X;X>X>X>X>X>X>X>X>X>X>X>X,X2X1X2X2X1X2X2X2X1XhX1X1X1X1X1X,X1X1XxX,X1X2X2X1XhXxX1XlX1XxX1XvX1X1X1X1X2X1X2X2X<X<X>X>X>X>X;X@X>X=X;X;X=X;X@X+X@X@X+XXXOXXXOXXXXXXXXXOXXXOXOX@X-XOXOXOXOX-X-X;X;X<X>X1X1X1X1X1X>X1X3X>X>X>X@X3X;X3X;X@X3X<X3X-X@X-X-X3X=X-X-X@X@X-X@X-X>X3X>X<X>X1X1X1X1X1X1XvX1XvX1XvXvXvXvXvXvXvXvXvXvXvXvXvXlXvX1XvX",
"#.#.:.o.#.#.+.@.+.O.+.+.+.+.@.+.X.#.a.X.#.X.X.X.X.$.a..Xa.#.a.A.XXO.O.a.a.O.O.O.m a.a.X.a.m m a.@.;.+.X.+.o.+.#.a.` m a.#.@.a.A.` a.A.` a.O.a.a.O.O.O.a.O.X.O.O.O.a.O.O.O.O.O.O.@.O.O.F.O.@.@.S.O.O.S.O.O.O.O.O.] O.O.O.O.] O.` ` ! $.m ` m ` ! ! ! m ! ` m $.m m ! ` ` ` ` ` ` X.` X.m O.` O.` ` ` ` a.` X.` X.` X.] ` ` ] ` ` ] ] ` ` ] ` ` ] ) [ ` ` ` ' ` ` [ ) ) ) ) [ ) [ b ) b [ b Y b b m c c m m m m m c W Y ) [ [ [ Y V.Y V.V.Y ' Y Y ' Y ' ' V.' '  .Y V.] O.] ] ] ` O.` ` ` ` ` O.` X.X.` O.O.O.O.O.O.O.+.D.F.F.~.!.OXOXXX@X@X@XOX@X@X;X@X=X;X;X;X;X%X;X>X3X>X>X>X>X>X>X>X>X>X3X>X@X>X3X=X>X>X1X>X>X1X1X1X1X>X1X1X1X1X1X1X>X1X1X1X1X1X1X1X1X1XxXhX1X1XvX1XvX1X1X1X1X1X1XpX1X1X1X1X1X1XlXs.1XlX=X=X1X=X=X=X=X=Xd.3X=X=Xa.a.3X3Xa.a.a.a.a.3Xa.a.3Xa.3Xa.3Xa.3X1X3X1X1XvXvXpXvXvXvXvXpX1X1X1X1X=X1X1X3X1X3X1X3X3X1X3X1X<X<X<X3X3XOXOXOX3X>X>X3X1X3X3X1X1X1X1X1X1X1XvX1XvXvXvXvXlXvXvXvXvXvXvXvXvXvX1XpXpX",
",.o.#.#.o.o.;.#.:.@.:.@.:.!.D.!.a.X.X.X.#.X.a.$.a.a.$.X.#.$.a.#.O.a.a.O.O.a.a.a.a.a.` ] X.a.a.O.:.@.:.#.+.:.+.@.X.a.a.a..X#.$.#.a.! a.a.m a.m m O.a.O.O.O..XO.O.O.O.S.O.O.O.O.O.O.@.O.O.O.O.O.O.S.S.O.O.O.@.A.O.O.O.] ] O.O.` O.` $.m $.$.$.` m ! ` ! ! ! ` ! $.` ` ! ` ` ` ` ! ` ` ` a.m a.m a.a.m $.m ` m a.m O.O.X.O.` X.a.` ` ] ] ] ` ` ] ` ` ` ` [ _ ` [ ) ) ) ) ) m ) ) m ) b ) b ) b b b c c c c b b m m c m b ) Y Y [ Y Y Y Y Y ' Y Y Y Y V.' ' ' ' ' ] ' ' ' ' ] ] ` ] ` ` ` ` ` ` ` ` ` ` ` ` } O.O.O. .} O.+.+.F.!.~.XXOXOXXXXXOXOXXX+X+X@X@X;X;X(.;X+X@X@X@X;X>X>X>X>X=X>X>X@X=X>X@X3X=X>X>X>X>X3X>X>X1X2X1X3X1X2X2X>X1X1X1X1X1X1X1X1X1X1X1X1X1XlXpXlXpXvXpXvX1XxXpXvX1X1XpX1XpXpX1X=X1X1X1X=X1X=X=X=X=X=X=X=X=X=X=Xa.3X3Xd.a.3X3Xa.3Xa..Xa.3Xa.3Xa.=X3X3X=X1X1XpXpXvXvXvXvXvXvXvXvX1X1X1XvX1X1X1XvX1X1X1XvX1XpXvXvX<XwX2X<X-X@X-X3X@X3X>X1X1X1X3X1X1X1X1X1XvXvX1XvXvXvXlXlXvXvXvXvXvXvXlXvXvXvXlXvX1X",
"a.$.#.o.#.#.;.#.;.@.@.;.!.!.!.;.A.a.X.a..Xa.$.a.X.a.X.a..Xa.@.a.XXa.O.a.a.a.a.O.a.O.O.a.a.O.a.a.@.;.@.;.@.+.+.@.a.O.b.a.a.$.#.#.b.a.a.` a.A.X.a.a.] O.O.O.a.a.O.S.a.a.O.a.O.O.O.F.O.@.O.O.F.O.@.O.XXO.O.O.S.O.S.] O.O.O.O.] O.] ` X.` ` ! ` ` $.` m m ` ` ! $.m ! ` ` ! m ! ` ` ` ` X.` O.O.O.` a.m a.m m a.O.O.a.m a.m ] X.m m ` ] ` ] ] ` ] ] [ ` ` ) ` [ ` ) ) ) ) ) ) W m Y m Y b Y b b b b v c v v m m b b c b b b Y b Y b Y Y Y Y Y Y Y Y Y Y Y Y [ Y ' Y ' ' ' ` ] ` ] ` ` ) ! m m ` ` ` ! ! ] ` ` ` } ` ` ` { O.O.D.D.F.XXS.F.XXXXXXXXXXXXoXOX+X-X+X-X+X+X@X@X@X@X@X-X@X=X3X>X@X3X>X@X3X=X3X>X3X>X>X>X>X>X>X>X2X>X2X2X1X1X1X1X1X=X1X1X1X=X1X1X1XxXlXlX1X1XpX1XvX1XvX1XvX1XvX1XvXpX1X1X1X1X1X1Xh.=X=XlX=X1X=X=X=X=X=X=X=X=X=X=X=X=Xa.=X=X3Xa.a.3Xa.3X=X3X3X3X3X3X1X1XpXpXbXvXbXvXbXbXbXvXvXvXvXvXvXvXvXbXvXvXvXbXvXvXvXbXvXxXvXwX3X>X@X@XOX3X3X1X1X3X1X1X1X1X1XvX1X1XlX1XvX1XvXvXvXvXnXvXvXlXvXlXvXvX1XlX1X",
"#.a.#.;.#.;.#.;.;.!.!.!.!.!.!.;.X.a.$.a.$.a.a.$..X#.a.a.$.a.@.@.a.XXa.a..XO..XO.a.a.a.O.O.a.m a.@.!.;.#.;.;.:.@.O.a.a.a.X.a.#.#.a.! ` a.` a.a..X] a.X..XO.O.S.O.O.O.O.O.O.O.O.O.F.O.O.O.@.O.@.S.S.O.@.A.XXO.O.S.A.O.O.O.O.O.O.] ` ` ` X.` ` ` ! ! $.` ! ` ! ` ` ` ! ! m ` ` ` ! X.m O.O.X.O.O.O.m a.m a.a.] a.m m a.] O.X.` ] X.` ] ] ] ` [ ` ` _ [ ` ) _ ) ) ) ) ) ) ) c m ) b b L b b b b b c v c v j x x b b c b b b b Y b b Y v b c Y Y b Y Y Y Y Y Y Y Y Y _ _ _ ' ` ' ' ` ) ! W ! W W W ) W m ! m _ _ ` _ ` _ ` { ..O.D.D.F.O.F.@.XX@.XXXXXXXXXX+X+X%X+X+XOXOXOXXXOX3X@X@X.X@X@X3X@X@X>X@X@X@X@X=X3X@X>X3X3X=X>X3X>X3X1X>X>X>X>X>X1X1X1X=X1X1X1X=X1X1X1XvXpXlXvX1XvX1XvX1XvXvXvXlX1XvXvX1X1XlXvXlXlX1X=X=XlX=XlX=X=X=X=X=X=X=X=X=X=X3X3Xa.a.=Xa.3X=X=X3X3X3X=X1X1XpXpXvXpXnXbXnXnXnXnXnXnXnXnXnXZXnXnXnXvXnXZXnXZXnXZXnXvXnXbXbXvXpX2X3X@X-X@X3X1X3X1X1X3X1X1X1X1X1XvXvX1X1XvXvXvXvXlXvXvXvXvXvXvXlXvXvXvXlX",
"a.#.#.#.;.;.;.;.;.!.!.;.!.!.!.XXa.X.a.#.a.X.a.a.a.$.a.a.a.a.a.a.S.a.a.O.a.a.a.a.] a.X.a.a.m a.a.;.;.;.a.;.@.;.;.a.O.a.O.#.#.#..X` a.a.! O.a.m m .Xa.a.m O.XXO.O.S.A.O.a.S.O.O.O.@.F.O.@.O.@.@.O.S.O.@.S.O.O.S.O.O.O.O.A.O.X.O.O.a.m X.` m m X.` ` ` ` ! $.m $.` ! $.! ! ! ! ` ` ` X.` ` O.O.O.O.a.a.m a.a.m X.a.X..XO.O.O.` ` ` ] ` ` ` ` ` ` ` ` ` ` ) ) W W ` ) m m W ) b m W ) c b m b b b v j c v v v m b b n B.B.n b b b b b v c b v b c b x Y b b b b b b ) ) [ ) [ [ [ _ ! m ! ! ! m m m m W W ! m ! ! _ _ _ _ _  . .D.F.S.@.@.@.O.XXO.XX!.XX+X+XOX+X-X%XXXa.a..X@X@X@X-Xa..Xa.XXOXXX@Xa.OX@X@X.X=X@X-X@X@X@X@X3X>X3X2X>X>X>X>X3X1X3X2X2X1X1X1X1X1X1X1XvXpXlXpXlX1XvX1XvX1XlXvXvXlXvXvX1XlXlX1XlX1X1X1X1XlX1X=XlX=X=X=X1X=X=X=X3X=X=X=X=X=X3X=X3X=X=X=X=X<X<X1X1XlXvXbXnXnXnXbXnXbXnXnXnXGXnXnXGXZXZXZXZXGXbXGXnXZXnXZXZXZXZXnXnXpXpX1X1X>X>X3X>X1X1X3X1X1X1X1X1X1XvX1XvXvXvXlXvXnXvXvXlXvXvXvXlXlXpX1XlX1X",
"#.a.#.a.;.;.;.;.!.;.;.!.;.!.;.!.a.a.a..XX.a.a..Xa.a.a.a.a.3Xa.a.a.XXa..XO.a.O.a..Xa.a.X.a.` a.a.;.;.;.@.;.#.@.@.O.XXO.a.#..Xa.#.a.b.` a.a.O.a.a.a.` a..XS.XXO.XXa.O.O.O.O.a.XXO.F.O.a.S.X..XO.XXa.A.S.a.@.A.a.S.O.a.O.O..XO.O.O.m a.O.X.a.` X.] X.` ` ` ` ` ! ` ` m ` ! ` ` ! ! ` X.X.X.O.O.S.O.a.m a.A.a.a.a..Xa.] a.O.] ] ` ` ` ` ` ` ` ` ` ` ` W ! W W W ) ) W ) W m m W m b c m m b b b v b v v v v x j x b B.x n B.x Y Y n v v v b v b c c b x x b b v b b Y b b ) ) ) ) ) m m m m z W ! m W c ~ W W W W W _ _ { ` ` O.D.D.O.F.S.F.a.O.XXXXF.XX!.+X^.OX+XOXXX.Xa.a.OXXXOXXX.Xa.XXXXXXXXXX.XXXXXa..XXX@XXXa.OXOX@X@X@X@X>X>X=X>X>X>X>X>X>X<X1X=X1X1X1X1XvXvX1X1X1X1XvX1XlX1XpXlXpX1X1X1XvXhXlX1XlX1X1XlX1XlX=X=X1X=X1X1X1X=X=X=X=X=X=X3X=X=X3X=X3X=X1X3X3X1X2X2X1XpXpXvXvXbXZXnXGXbXZXnXGXbXZXGXnXGXZXGXGXGXGXGXGXGXGXZXGXZXGXZXSXZXZXnXnXpXpX1X<X<X3X1X1X1X1X1X1X1X1XvXvX1XvX1XvXvXvXvXvXvXlXvXvXvXpXlXlXpX1X",
"#.a.a.#.;.a.;.;.;.!.!.!.;.oX!.!.$.a.a.a.X.a.X.a..Xa.a.a.a.a.a.a.a.a.a.a.a.a.a.O.O.a.a.X.a.a.$.a.#.;.@.a.;.;.;.@.@.;.@.@.#.a..X#.a.` a.X.X.a.a.a.O.a.X.a.O.O.a.O.O.O.O.a.O.O.a.O.a.O.O.O.O.O.a.S..XS.S.XXO.XXS.XXO.O.XXO.S.O.O.O.a.m O.` ` X.` X.a.` ` ` ! ` m m m ` ! ` m ! ` ` ` ` ` X.O.O.@.XXa.` a.a.a.A.a.m O.O.a.m X.X.` ` ] ` ` m ` ` ` m ` ` ) W ! W W ! ) ) m W W m W m m c m c c c b v m v v x m x b b n x B.n x n x b x x x x v x x x n v v x v v v v b c b c b c ) ) m m m m m z m z z m z m m W W W ) ) _ `  . . . .F.O.XXO.O.S.XXO.F.!.!.!.OX~.~.~.XX.Xa..Xa.a.a..X.Xa..Xm a..X.Xa..XO.a.a..X.Xa..XXXXXXX-X@XOX-X@X@X3X>X3X>X>X>X>X=X1X=X>X1X1X1X1X1XlX1XpX1X1X1X1X1XvX1X1XpX1XvXvXvX1XlXlXlX1X1X1X1XlX1X1XlX=X1X1X=X1X1X=X3X=X=X1X=X=X3X=X=X3X1X1X1XwX1XvXpXvXnXbXbXnXGXnXGXnXnXGXZXGXGXGXAXGXGXGXGXGXGXGXGXGXGXGXGXGXGXGXZXZXZXnXbXbXpX1X3X1X1X1X1X1X1X1X1X1X1XvX1XvXvXvXvXlXnXvXvXlX1XlXpX1XlX1XvX",
"a.a.#.a.;.;.;.;.oXa.^.;.^.!.oXoXa.a.a.$.a.a.a.a.a.a.a.a.a.=Xa.=X@.@.a.#.X.a.a.a.a.a.X.a.a.` a.a.;.;.;.@.;.;.#.#.#.@.!.@.#.a.#.a.X.a.a.A.a..Xm ] a.] a.O.a.S.O.F.O.XXO.O.XXO.O.O.S.XXO.@.a.O.O.O.O.XXS.O.S.XXO.S.@.A.a.S.O.XXO.A.] a.m a.X.m a.` m ` X.` ` ! $.a.! ` ` ` ` $.m $.X.] ] ` ] a.O.@.m a.A.a.A.a.` a..XO.O.X.O.m m a.X.` ` ` ` ` ` ` ` ` W ) m W W W W m ) W m ) ) c Y m ) m b b b v j m m v b b b b n B.x n B.B.x x j k k x k x k j v v x b v x x v v v v v c c c m m z z k z z z z c z z c c W W m L P ) _ ` '  . .O.O.A.S.O.a.O.a.@.F.@.F.!.~.!.D.O.a.a..Xm a.X.a.a.a.a.a.a.a.m a.a.a.a.A.a.a.a.a.a..X@XOXOX@X3X@X@X-X@X@X@X>X>X=X=X>X>X1X>X1X1X1XpX1XlX1XvXpXlX1X1X1XlX1XpXlXvX1X1XlXvX1X1XlXlXlX1XlX1XlX1X1XlX1X1X1X1X1X1X1X1X1X3X=X1X1X1X1X1X1X1X1X1XvXvXvXnXnXGXnXnXZXZXGXGXZXGXGXGXGXGXGXGXGXGXGXGXGXHXGXGXGXGXGXGXZXGXGXZXZXmXnXpX1X1X1XpXpX1X1X1X1XvX1XvX1XvXlXvXvXvXvXvXvXvXvXvX1X1X1X1XvX1X",
"a.;.;.;.:.;.a.;.#X;.oXoX^.oXoX;.a.a.a.a.a.a.a.a.a.a.a.a.a.a.a.a.a.a.a.a.@.a.@.a.a.! a.! a.a.$.a.#.a.a.#.a.a.#.#.a.#.#.a.#.#.a.#.a.X.a.a.X..Xa.a.O.XXa.O.a.S.a.O.XXa.O.a.O.O.XXO.O.XXO.O.a.O.O.a.O.@.O.S.a.O.O.O.O.A.a..XX.O.a.O.a.m O.a.m X.O.O.O.O.] ` ` a.` ` ! m ` ` ` ` X.m m ` a.m O.O.XXO.] a.m a..X] O.O.X.O.] a.m ] ] ] ] ` ` ` ` ` ] ` ` W W ) W ) W W ) W ) ) ) ) ) ) ) ) Y b Y c v b x b x Y b b Y b B.n n x B.B.n x j k k k x j k x j k j x x v x b b b x v b b b x v v v v v v v c c c c z L c c L b ) ) _ _ _ '  . .O.O.S.O.O.O.X.O.+.@.!.!.~.~.F.O.S.O.XX] a.] a.m O.O.O.` O.` a.m a.a.O.a.a.m a.a.a..Xa.a.a..Xa..X@X@X@X@X3X@X-X;X;X;X>X:X2X2X2X1X=X1X1X1X,X1X2X1X1XxXhXxXxXxXlXlX1XlX1XlX1X1XlXlX1XlX1X1X1XlX1X1X1X1X1X1X1X1X=X=X=X1X1X1X1X1X1X1X1XvXvXvXvXnXbXZXnXnXGXGXZXGXGXGXGXGXHXGXGXHXGXHXGXHXGXHXHXHXGXGXGXGXGXAXGXZXZXZXnXbXbXvXvXvX1XvXvXvX1X1X1XvX1XvXvXvXvXvXvXvXvXvXvXvXlX1X1X1XvXlX",
";.a.a.;.a.;.a.;.;.;.^.a.^.a.^.a.a.a.a.a.a.a.a.a.a.a.a.a.a.a.a.a.a.a.a.a.a.a.#.a.a.a.a.a.a.a.a.a.;.#.$.a.#.#.a.#.#.a.a.#.#.a.#.a.A.a.A.a.a.a.a.A.XXa.A.a..Xa.S.XXXXO.a.O.S.a.O.XXO.a.XXO.O.XXO.a.a.O.a.O.A.a.S.XXa.S.O.O.O.@.S.O.O..XO.O..XX.O.O.O.O.` X.X.m ` ` ! ! ! ` ` ` ` a.a.` a.a.S.S.XX.Xa.a..XO.a.a.O.a.O.O.a.A.a.] X.] ` ` ` ` ! ` ` X.` ` ` ! ) ! W ) ) ) ) ` _ ) ) ) ) ) ) ) Y c c c Y n Y n x Y n b n B.B.x q x b.x x x k j k k k k j j k k x x x x x b v v x b x b x v v v v k v v k c c c m m Y Y c L Y ) Y ) ' ] ] O.] O.O.O.O.$.O.+.+.D.D.D.J.D.O.a.O.] a.O.O.O.O.O.a.m X.X.X.` X.m m a.m m a.a.a.A.m a.a..X.Xa.a..XXXOX@XXX@XoX@X-X;X;X;X>X>X>X=X1X=X1X1X1X1X,X1X1X1X1XwXhXhX1X1X1X1XlXvXlXvXvXlXlX1XvXvX1X1XlX1X1XvX1X1X1X1X1X1X1X1X1X1X1X1X1X1XwXvXvXnXvXnXnXnXGXnXZXnXGXnXGXGXGXGXGXHXHXHXHXGXHXHXHXGXHXGXHXZXHXGXGXHXAXZXGXnXbXZXnXbXvXvXvXvX1X1X1X1XvX1XvX1XvXlX1XvXvXvXlXlXvX1XlX1XvX1X1X1X",
"a.;.a.;.oX;.a.;.;.oXa.a.a.;.a.;.a.a.a.a.a.a.a.a.a.a.a.a.a.a.a.a.a.a.a.a.a.;.a.a.! a.a.a.! a.a.d.a.a.#.,.#.#.#.#.#.#.#.a.a..X#.#.a.a.X.X.a.a.a.a.a.S.XXa.#.a.S.O.O..XX.@.a.O.a.S.O.#.O.a.O.a.O.A.O.O.S.X..XO.XXO.a.O.A.a.XXO.O.O.O.O.a.] ] a.O.O.O.O.X.] ` ` X.` $.m ` ` ` X.X.` X.O..X.XXXXX.XOXa.] O.a.X.a.O.O.a.a.] ] O.O.` O.` ` ` ` ` ` ` m ` ` ` ) ! ! ` ` [ ` ` ` ' _ _ ' _ ' ) ) Y P Y Y Y n n B.Y x x Y B.x b b x x q x x k x x k k k n a k n x v x x x x x x v b x j b j v v v v v v c k v c c z b Y c c Y Y Y Y Y _ _ [ ` ] ` ] O.O.O.O.X.O.S.D.S.S.D.] a.O.] ] X.] X.X.` m X.X.] X.] m ` ` X.a.m a.m m X.a.a.O.O.O.a.a.a.a..XXXa..X.X-X@X;X+X;X-X-X>X=X3X=X=X,X1X2X,X>X1X1X1X2X1X1X2X1X1X1X1X1X1X1X1X1XlX1XlXvX1X1XlXlX1X1X1X1X1X1X1X1X1X1X1X1X1X1X1X1X1X1XvXnXnXnXnXnXnXZXZXGXnXGXZXGXGXGXHXGXHXGXHXHXHXHXHXHXGXHXGXHXHXGXHXGXZXGXZXZXGXGXnXnXvXvXvXvX1X1X1X1XvXvXvX1XvXvXvXvXvXvXvXvXlX1XvX1X1XlX1X1X",
"a.a.a.a.;.a.oXa.oX;.oX#XoXoXoXa.a.a.a.a.a.a..Xa.a.a.a.a.a.a.a.a.a.a.a.a.a.a.a.a.a.a.a.a.a.a.! a.a.#.a.a.a.a.#.a.a.#.#.#.#.#.a.#.a.X.a.a.a.A.a.a.XXXXO.S.a.O.a.F.a.O.a.O.O.XXO.a.a.O..XO.a.O.a.O.O.XXXX.XO.XXS.XXS.O.a.S.O.XXS.a.a.] ] a.O.O.] a.] a.O.] a.m ` ` ! ` ! $.X.m O.O.X.O.O.a.F.XXa.XXa..Xa.a..Xm A.a.] O.O.a.a.O.O.O.] ` ` ` ` ` ` X.O.` ` ` ` ` ` ` ` X.` `  . . .V. . . .' Y Y Y Y Y Y Y b H Y b n q b x n x x x n k x k x x j j j j j x n x x x b x b x x x j b j v v v j v k v c z x x v c c v c v c c Y b Y Y Y ) ) ) ` ` ` ` ` ` ` O...S.D.D.S.O.O.X.] X.] ` ` m ] ` ] ] X.m X.! ! ! ` X.m ` ` m $.m ` O.O.O.X.O.X.` a.a..Xa.a.@XOX+X-X+X@X@X;X@X=X=X>X<X,X>X>X=X=X2X=X2X>X,X,X1X=X=X1X1X1X1X1XvX1XvX1X1XlX1XvX1X1XvXvX1X1XlX1X1XvX1XvX1X1X1X1XxXhXvXvXvXvXZXnXZXnXGXnXbXGXnXGXGXGXGXGXHXGXHXHXHXHXHXHXHXHXHXHXHXGXGXGXGXGXGXGXnXGXZXZXZXnXbXvXvXvXvXvXvX1XvX1XvX1XlXvXvXlXvXvXvX1XvX1X1X1X1X1X1X",
"oX#Xa.^.#XXXoXa.a.#Xa.a.a.$Xa.a.a.a.=Xa.a.a.@Xa.a.a.=Xa.a.a.=Xa.=Xa.s.a.a.a.a.a.a.a.d.a.m d.a.a.a.a.a.d.a.a.#.a.a.#.#.#.a.#.#.#.a.a.a.a.A.a.a.A.XXa.S.a.XXa.XXO.a.O.S.O..Xa.O.a.XXa.O.a.@.@.a.@.a.S.@..Xa.XXO.XXa.O.O.O.a.X.a.O.O.O.O.O..Xa.] a.O.O.O.O.O.O.O.` X.` ` a.m ` O.` ] O.XX.X@.@.XXO.a.O.a.O.O.a.A.] XXO.O.O.m O.O.O.O.` ` X.] X.` O.O.` X.` ` ` O.O.O...V.O.D.D.(.^.J.D.C.=.V.{ Y Y Y Y Y n x Y x Y n Y x x x n x x k v x n k k j n a j n k x n x x x x x x x x j b v j j v j v c j x c x z v v v v v v b b z c Y Y m W W ) ) ` ` ` O.` O.O. .V.O. .A.O.] O.` ` ] ] X.] ] ` ] ` ` ` ! ! ` ` ! ` ` ` ! $.a.` X.O.] X.O.O.O.O.S.XXF.XXXXOXOXOX.XOXOXOX@X@X@X@X3X=X3X=X>X>X>X>X<X>X>X>X=X=X1X=X1X1X1X1X1XvX1X1XvXlXvXvX1XvXvXvX1XlX1X1XvX1X1XvX1X1X1X1X1XhXvXlXvXnXnXnXnXnXnXGXZXnXnXGXGXGXGXGXGXHXHXJXHXHXHXHXHXHXGXHXGXGXGXGXGXGXGXZXZXGXZXZXGXZXnXvXvXvXvXvXvX1XvX1XvXvXvXlXlXvXvXvXvX1X1X1X1X1X1X1X1X",
"^.;.#XoX^.s.a.#Xa.a.a.#Xs.a.a.a.a.a.a.a.a.@X=Xa.a.s.a.a.=Xa.a.a.a.a.a.a.a.a.a.s.a.a.a.a.a.a.a.a.! a.a.a.a.#.$.a.#.a.a.a.a.a..Xa.a.` a.a.a.a.a.a.XXXXXXXXS.S.a.XXa..Xa.a.O.a.a.O.O.a.XXO.F.F.@.@.XXO.a.S.S.XX.XS.O..XXXXXS..XO.O.a.X..XO.X.O..X] O.XXXXO.O.O.` O.` X.` ` m a.X.O.O.O.S.XXXXF.S.J..Xa.m a.a.] O.a.O.O.O.a..XX.A.O.O.] O.O.O.O.O.O.X.O.a.O.D.+.O.F.D.F.^.~.~.^.(./.(.(.(.(.V.V...{ Y Y Y Y H v Y n x n x x n x x x x x x l x k n j n k j k n x x n j x x j j x b j v j v j v j j v c x v v v x x v n v v H v v c c m W m W W ` ` ` _ ` ` `  . .V. .O.` O.` O.] X.] ] ` ] X.` ` ] ] ` ` ` ` X.$.` ` X.m m ` ] X.] O.X.X.O.X.O.O.D.F.F.F.F.F.XXXXXX!.XXXX@XOX@X@X@X;X>X>X>X>X<X>X<X>X1X=X=X1X1X1X1X1X1X1X1X1X1X1X1X1X1XvX1X1X1X1XvXvX1XvX1X1XvX1X1X1X1X1X1XlXvXvXnXnXZXnXnXZXnXGXGXnXGXGXJXHXHXHXHXHXHXHXHXHXHXHXHXHXHXHXHXHXGXGXGXGXGXZXGXnXnXnXZXbXnXvXvXvXvXvXvXvXvXlXvXvXvXvXvXvXvXlXvX1XlX1X1X1X1X",
"#Xa./.a.a.oXoXs.a.oXa.$X@X@Xa.a.=Xa.a.a.a.=Xa.a.=Xa.=Xa.a.a.a.s.a.a.a.=X$Xa.a.a.a.a.a.a.a.a.a.a.a.a.a.a.a.a.a.a.#.a.a.#.#.a.#.a.a.A.a.A.A.a.a.a.XXO.XXXXa.XXO.a.a.S.O.a..Xa.O.a.a.S.a.@.@.a.F.@.O.XXa.XXO.a.a.O.a.O.O.a.a.O.O.a.O.O.O.XXO.X.O.a.S.O.a.O.O.O.O.O.O.m ` ] ` ` a.m O.A.a.a.S..Xa.XXa.a..Xa.O.a.O.a.O.O.O.O.O.a.a.O.O.a.O.O.XXXX.Xa.S.XX.XXXOXXXOX~.~.~./.(.(./.:X(.:X(.(.^.^.V...' Y Y T x b v Y x x Y b n b n n x v n l n k n n i n k n n x n x x x x j x b.j j x j j j j j j v j v v b v x v v x v v v v v v c c c c c m W ) W ` ! _ ) _ ` ' '  .` ` ` O.` ] O.] X.] ` m X.X.] X.! m ` ` $.m ` ` ` ` ` X.` ` X.` ` ` ` O.O.O.O.+.D.+.@.@.O.XX.XO.a.XXXXXXOX-X@X@X@X@X;X;X;X;X;X;X=X3X=X=X=X=X=X1X1X1X1X1X1X1X1XlX1X1X1XvXvX1X1X1X1XvXlX1X1X1X1X1X1X1X,X1XlXlXvXnXnXnXnXnXZXnXGXGXGXGXHXHXJXHXHXHXHXHXHXHXHXHXHXGXHXGXHXGXHXGXGXGXGXGXGXZXGXnXnXnXvXnXnXvXvXvXvXvXvXvXvXlXvXvXvXlXvXlX1XvX1X1X1X1X1X",
"^.#X#X;.oX^.oXXXa.a.$Xa.a.a.=Xs.a.a.=Xa.a.a.a.=Xa.a.a.a.=Xa.=Xa.$Xs.a.a.a.$X$Xs.a.a.a.a.a.a.a.a.a.a.a.a.a.a.a.a.a.a.a.a.a.a.a.a.a.a.a.a.a.a.a.` XXXXa.XXO.XXa.a..Xa.a.a.O.O.XXO.S.a.F.F.F.@.;.F.O..XO.a..Xa..Xa.O.a..Xa.A.XX.XO.a.S.O.O.a..XO.O.a.S.O.O.O.O.O.O.` a.X.O.X.X.m a.a.O.a.A.XXO.F.XXA.O.a.X.O.a.S.O.X..X@.A.O.O.S.O.O.O..XXXS.XXXXOXXXOXOXOX-X@XOX+X;X-X-X:X:X:X(.<XhX:XhX(.^.C...' P Y Y b H l n H v n n n n x n x n v v v x x n j n n n k n x n x x x x x j j x x v j m j v j v v v v x v b v v v n v b b n n v b c c W m ) W ) W W W _ ) ` ' ' ' m ` ) ` ` ` ` O.O.] X.O.O.m X.m ` a.m $.m $.` ` ` ` ` ] X.X.] X.O.` O.` ` ` O.O.O.O.O.O.O.O.X.a.a.m .Xa.OXOXOXXXOX-X@X-X+X-X-X@Xa.a.=X3X3X=X=X=X1X=X1X=X=X1X1X1X1X1X1X1X1X1X1XlX1X1X1X1X1X1X1X1X,X=X1Xs.1X1XvXnXnXnXnXGXnXGXZXGXGXGXGXHXHXHXHXJXHXHXHXHXHXHXHXHXHXHXGXHXGXHXGXGXGXGXZXGXGXZXZXmXnXvXvXvXvXvXvXvXvXvXvXvXvXvXvXvXvXvXlXlX1X1X1X1X1X",
"s.#Xa.oXa.a.oXa.a.a.a.@Xa.$X@Xa.a.a.a.a.=Xa.a.=X=X=Xa.=X=Xa.=Xa.$Xa.=X$X$X$X$X$Xs.#X#Xs.oX;.s.;.a.a.a.a.=Xa.3Xa.a.a.a.a.a.a.a.a.a.a.a.a.a.a.a.XXa.F.XX;.a.!.XXXX!.@.;.@.;.!.@.@.!.@.!.@.D.F.;.@.#.O.XXXXO..Xa.O.XXXXXXXXO.XXO.XXO.XXO.XXO.XXO.XXA.O.XXO.D.O.O.O.O.O.a.O.O.O.O.] O.O.O.a.@.O.X..Xa..XX.a.O.O.O.] a.] O.O.a.O.a.O.F.F.OX.XOXOXOXOX@X+X+X+X+X@X+X+X%X(.-X+X+X+X+XoX;.^.^.D.D.' ' ..' P Y l v l n l n n v n v l l v v l l k x x v v n n n n n n n n B.n x n j j x x x x x j n n x n v v v j v c v z v v v v x x v b Y b b c L L Y W P W W ) ) _ ' _ ! ~ ! m m $.m $.m O.O.O.] ` a.m X.O.m m a.m a.m ` ` ] ` ` ` ` ` a.m ` a.m m ] m ` X.] ` a.m X.O.O.` O.X.S.@.S.XXF.XXOXOXOXOXOXOX3X3Xa.3X3Xa.3Xa.3X3X=X>X=Xa.1X1X>X>X1X>X1X>X1X1X1X1X1X1X=X1X1X=X1X=X1X=X1XlXlXvXnXnXnXnXnXGXGXmXGXmXGXGXHXHXJXKXHXJXHXKXHXKXHXGXHXHXJXHXHXGXGXHXGXGXGXGXZXSXZXZXZXZXnXbXnXvXbXnXpXvXvXvXvXvXvXvXvXlX1X1XpX1X1X1XpX",
"oXoX^.s.a.a.a.@Xa.a.a.@X=Xa.$X$Xa.a.=Xa.=Xa.a.=Xd.a.=Xa.a.=Xa.=X=X$X$X$X$X*X$X$X#X#Xa.#XoXa.#Xa.a.@Xa.a.a.a.d.a.a.a.a.a.a.a.a.#.a.a.a.m #.a.@.a.a.a.@.a.;.XX!.XX@.a.;.XXa.;.;.!.;.;.@.;.:.@.:.D.O.a.XXO.XXXXO.a.XXO.O.XXXXO.XXO.a.O.XXO.XXO.XXS.a.O.a.S.F.O.O.O.a.] ] m O.O.O.a.O.O.A.O.O.O.O.O.m a.a.O.a.O.O.a.X.X.O.O.O.S.O.XXD.F.S.XXOXXXXXOXOXOXXXXX^.!.^.^.~.~.^.~.~.!.:.;.| ......U { U Y P Y I l l n n l l n n l v n n v l k k k k l l n Y n b n n x x n q x x x j b.x x x j x j x x x x x v v m c c c c v c c c c b b [ ' Y Y Y Y b L L c L L L Y Y Y ) m m m ~ m m X.$.a.O.m ] ] .Xm O.a.m a.] m ] O.m .Xm ` ] a.` ` ] a.m ] O.m a.m a.` ] m X.X.m ` ` ` ` ` O.O.O.O.O.S.F.J.XXF.XXOXOXa.a.a.a.a.3Xa.3X3Xa.3Xa.3X3X>X1X=X=X>X>X>X=X=X1X=X1X=X1X1X1X1X1X=XlX=X1X1X1XvXvXvXvXnXnXnXnXnXGXmXGXGXGXGXHXHXHXKXHXHXHXHXHXHXHXHXHXHXGXGXHXHXGXHXGXGXSXGXSXZXnXnXbXbXnXbXvXvXvXvXvXvXnXvXlXlXvXvXvX1XlXvXvX1X1XvX",
"a.oXoXa.a.@X@Xa.XXXX@Xa.a.=X$X$Xa.=X=Xa.a.s.=Xa.a.=X=Xa.=Xa.=Xd.*X*X=X$X$X$X$X$X$X#X$X$X#X#X#X$Xa.d.a.a.a.a.a.a.a.a.a.a.#.a.a.a.a.a.a.a.a.a.a.O.F.@.a.@.;.a.oX!.@.;.;.;.@.;.;.;.;.D.@.;.:.@.@.@.a.S.O.XXa.S.XXO.S.XXa.O.S.a.O.XXO.a.S.XXO.XXS.XXS.O.S.O.O.D.D.O.m a.m a.O.O.a.m O.O.O.O.O.O.O.a.O.a.m .X.XX.a.O.a.O.O.a.F.F.S.XXO.D.+.D.O.D.@.D.D.@.@.D.:.+.!.+...D.O.+.....{ { ^ ^ { P U Y I Y T I L l l l H l H l l l l n l n k k l l n l n l n n n b x x n n x x n x j x x x x j x n n b.x x v v v v z c c c m m m m b [ B.m.' Y Y Y c c c L z z z z L c b L m ~ m m m ! ! m m m X.X.` a.O.O.m m m ] O.O.O.m a.m O.] m m a.] m .Xm O.a.m O.m X.] ` ! m ` ` ` m W ! ) W ` O.` ] O.O.O.O.S.XXS.#..X.Xa.a.a.a.3Xa.a.3X3Xa.3X3Xa.@X3X@X3X>Xa.1X=X3X1X1X=X1X1X1X1X1X=X=X1X1X1XlXvXlXvXnXlXnXnXnXnXmXGXGXGXGXHXHXHXGXHXGXHXHXGXHXGXHXHXHXHXHXHXGXHXGXGXGXZXSXZXZXZXbXnXnXbXvXbXvXvXvXvXlXvXvXvXvXvXlXvXvX1XlX1XvXlXvX",
"/.^.s.oXa.a.a.a.a.a.a.@X$Xa.@X=X=Xa.=Xd.=Xa.a.=X=Xa.=X=X=X=X=X=X=X=X*X=X*X*X=X$X$X#X$X#X$X$X#X$Xa.=Xa.a.=Xa.a.a.a.a.a.a.a.a.a.a.a.a.a.a.a.a..Xa.@.a.@.XX;.;.!.;.a.!.a.XXa.!.!.@.@.:.@.@.+.@.@.@.O.O.XXO.S.a.S.XXa.S.A.a.a.S.XXO..XO.a.O.XXO.XXO.XXXXO.XXD.D.O.O.O.] a.m a.` O.O.O.O.O.a.O.O.O.A.O.] a.X.O.O.O.] ] O.O.O.O.O.O.O.O.O.O.X.O.` ` X.| | }  ...} { ..{ ..{ { { _ ^ P Q P P P P I H I I v H l V V l n v H l l l l l l l k l l l v l l n n n n n n n b n x x x x j j x x j x x n q b x x x x m m m ) m m m ) [ B.[ m.m.m.B.Y Y Y l c l z l c c v L c b z z z z ~ m m m m ] m ` m m ] X.] a.a.m m ] m a.m a.m ] m a.m A.a.m O.O.m O.O.O.m ` ` m ` m m ` W W W ) W ` ` ` ` ` O.] O.O.O.O.#.#.#.a.a.a..Xa.a.3Xa.3X3Xa.3X@X@X@X@X@X=X3X=X3X=X=X=X1X=X1X=X=X1X=X1X=X1X1X1XvXvXlXvXvXnXvXnXnXnXnXmXGXGXGXGXGXHXGXHXJXHXHXHXKXGXHXGXGXHXGXHXGXGXGXSXmXSXZXnXnXnXbXbXbXvXbXvXvXnXpXvXvXvXvXlXvXvXxXxXvXpXvXvX1XlX",
"a.a.a.a.oXa.oXoXa.a.a.@X@X$X=Xa.=X=Xa.=X=Xa.=Xa.=Xa.=X=X=X=X=X=X=X=X=X=X=X*Xs.=X&Xs.$X$X$X$X$X*Xa.a.=X=Xa.a.a.a.a.a.a.a.a.a.a.a.a.a.a.a.XXa.a.a.;.;.;.a.XX;.;.!.a.!.;.a.;.!.!.@.@.:.:.O.@.+.@.+.O.XXa.O.XXS.O.XXXXXXS.a.O.a.O..Xa.O.O.a.S.a.S.O.O.S.O.S.F.O.O.D.O..XX.X.a.m a.O.$.O.O.a.O.O.O.O.A.a.O.O.O.O.O.a.O.O.X.O.O.X.X.O.} ` { ! ! ! ^ _ ! _ _ Q _ ^ P _ { P { P P P K J K K I J H H H n H V H l V l s f n f f n n n l l f n f d H n H l n n n n n n n n n n x n n b.q x j j j j x x n x x m b b b b m m Y Y B.b [ B.B.B.Y Y Y b c z z z z z c z c c c L m z c m m z m m m ! m ! ! ` [ ] O.m O.] a.] O.] ] ] O.O.] O.] O.] O.m O..XX.] ] ` m ` ! W m ! m W ! ) W W ! ` ` W ) ` O.` ] O.O.A.#.#..X#..X.X#.O..Xa..Xa.a.P.a..Xa.@X@X@X@X@X3X=X3X3X3Xa.1X1X3X=X=X1X=X=X1X1X1XvXlXvXvXvXnXvXnXlXnXmXnXGXnXGXGXSXGXGXGXGXGXGXGXGXZXGXGXSXGXGXDXZXbXZXnXbXZXbXbXbXvXbXvXbXvXvXvXvXnXvXvXvXvXlXvXvXvXhXvXxXvXpXwXpX",
">.;.^.oXa.oXa.a.@Xa.a.@Xa.=X$X=Xa.=X=Xa.a.=Xd.=X=X=X=X=Xa.=X=X=X*X=XfX=X=X$X=X*X&X$X*X$X$X*X$X$X3Xd.a.a.=Xa.=Xa.a.=Xa.a.a.a.=Xa.a.a.a.a.XXa.a.a.XX;.XX!.;.!.!.;.;.;.a.F.!.;.;.!.@.@.@.@.@.:.:.@.XXO.S.O.O.a.XXO.O.O.XXS.XXS.a.O.O.a.a.S.a.O.XXXXS.a.a.S.F.F.F.O.a.m O.] ` ] m O.O.O.O.] X.a.O.a.O.O..XO.a.O.O.O.X.X. .} ` ` ` _ { ! Q Q P Q P Q P P P P P P P Y I L I P K H V V H K H H Y T H T H H H I H V H H V H B l H H H H d d d n l H n I I n I n H v x n x x q B.j j x x x j n x j x b x b j x b x b m m b b b B.b b B.b b b v v v z k z z z z z z c c L z z z z z c z z m z m m m ! ] ] ] O.m X.m A.] O.O.A.O.] O.O.A.O.a.X..XO.] ] ` ` ] ` ` m ! ! m m W W W ) m ` W ) W ` ` W ` ` O.` $.! $.A.#.$.$..XO.a.] a.a.a.A.a.a.a.XXXX.XXX@XXX3Xa.a.3Xa.3X>X>X=X=X=X1X1X1X1X1XvXvXvXvXvXvXvXvXvXvXvXvXvXnXbXnXvXvXpXnXlXvXvXvXnXbXvXnXvXbXbXbXnXbXbXvXnXbXnXvXvXbXvXvXvXvXvXpXvXvXvXvXvXvXvXvXxXwX1X1X1XvX1X1X1X",
"oX^.oXs.a.a.oXoXa.a.@Xa.a.@Xa.$Xa.=X=Xa.=Xa.=Xa.=X=X=Xd.=X=X=X=X=X=Xs.=X=X=X*X=X$X$X$X=X=X$X*X&Xa.=X=Xa.=Xa.=X=X=X=Xa.a.a.a.a.a.a.XXa.a.a.XXa.a.a.!.XXa.a.XX;.!.;.XX;.;.;.;.;.;.:.@.:.@.+.:.@.@.O.O.a.XXa.@.a.XXXXS.@.a.S.XXO.a..XO.S.O.O.O.a.S.a.@.O.F.F.O.F.D.a.O.O.O.m a.O.O.O.O.a.] O.A.a.S.a.a.O.O.X.O.X.X.} ` } ` } ` ` / ^ ~ ~ ~ K J P K P Q P P P P L I I L P I P I K I K I I I T T T T I K P U P U P T P P K P T P Y P J J L I I Y T I H I H Y x n n x x n x n j x j x j j j x x x x x j b x b b b b b b b b b b b b x x n x k k c z c z z k k z c v v c z z c z z c c c z z z m ! ` m m O.` ] ` .X] ] a.m O.] O.A.A.O.m A.] O.m a.` ` m ` ! m m ! m ! ) W W W W W W W W ) m ! ` ) ` $.m m $.$.$.$.A.$.] O.m a.a.A.a.A.O..Xa..Xa.XXXXXXa.a.3X3X>Xa.3Xa.3X=X=X3X3X=X1X=X1X1XvX1XwX1X1XwXlXvXvXlXvXvXnXvXbXvXbXvXvXvXvXnXcXvXvXvXvXvXcXbXvXvXpXvXvXvXbXpXvXpXvXvXvX1XpX1XpX1X1X1X1X1X1X1X1X2X<X>X2X1X<X2X2X",
";.s.;.a.a.oXa.oXa.a.a.a.$X@X$Xa.=Xa.a.=Xa.=Xa.=X=X=X=X=X=X=X=X=X*X=X=X=X=X*X=X*X=X=X*X*X=X=X$X$X=X=Xa.=Xa.=Xa.=X=Xa.a.3X=Xa.=Xa.XXa.@Xa.a.a.a.a.!.a.;.XXXX;.XX;.@.a.@.a.;.;.;.@.D.;.@.@.@.+.D.@.F.@.O.O.A.@.S.XXS.a.#..Xa.O.XXO.O.O.a.a.O.XXS.@.A.@.XXO.S.F.D.O.] ] a.O.a.m O.O.O.O.] a.O.O.O.O.A.O.O.O.X.] O.] ` X.` } ` { ` ! ~ ~ K K J K K P K P K J J P P P P P T Y P U K K K K P U { R V.C.U ( ( ( ^ ( ....=.( ..{ | ^ U P _ { { P { U P P T Y T I H H n n n j x x j x j j j j j j x x x x b j x v x c x c x b j b.x x b x x k k k k z z c k z g k k l v l c z c k c z k z z z c z z m m ! ] m ] m ] m m a.m O.] ] O.] O.O.O.O..Xm a.m m a.` ` ` ! m ! ` ! W ! ) W W W W W W W W W ) ! ) ` m $.m $.m $.m $.] ] a.m m ` ` a.a.O.O.a.S.a.S.XXa.a.a.a.a.3X@X3X=X=X3X=X=X=X3X=X1X1X1X1XwX1X1X2XvXvXvXvXvXvXvXvXvXbXvXbXvXvXvXvXbXvXvXvXvXbXbXbXvXpXpXvXvXvXpXpXvXvXpXpXvXpX1X1X>X1X3X>X>X>X=X1X2X>X>X>X<X2X>X>X>X",
"a.a.a.a.a.a.a.a.a.a.a.a.a.a.a.=Xa.=X=X=X=X=X=X=Xs.=X=X=X=X1Xs.1X>Xs.1Xs.1Xs.=X=X=X$X=X=X=X=X=X*X=X=X=X=X=Xa.=X@Xa.=X=Xa.@X@X@X@X@XoXa.a.XXa.a.a.a.XXoXXX;.oX!.;.@.;.a.@.;.a.F.;.@.@.+.;.+.;.+.@.O.O.#.O.O.O.a..XXXa.a.O.a.XXO.XX@.@.O.@.@.S.a.S.F.F.@.D.D.O.D.O.O.O.X.O.O.a.m O.m a.m O.a.O.O.XX@.S.D.O.O.O.O.` ` ` } ] ` } ]  .Q ^ ~ ~ ( Q P ^ U U U P ' T ' U P T T U U { =.^.(./.^.^./.(./././././.^.(./././.^././.(.^.^.D.:.:.+.....R ....U { U ' T P H n n n x n b.q j j x j j j j m j x b v j v v c j k c x x x x x j x x v v j k k k c k z z z h k v v k h c z k k k z k z z j c c c m z m ! ` ` ] [ ] ] ] ] ] O.O.A.O.O.] X.O.m X.O.m a.m X.] m m ` m m ) ` ) ` m m W W m ! m W m W W m W ) W ) _ ) _ _ m ! ) ) ` ` ' ` O.X.] ` O.D.F.XXF.XXF.XXOXOXOXOXa.a.@X3X@Xa.3X=X:X<X<X2XwX<XeX:XvX1X1XpX1XpXvXpXpXwXwXeXpXvX1XvXxXxXxXxXxXxXxXeXxXxXxXuXxXxXuXxXeXxXeXxXwX<XwX<X>X>X1X>X>X>X<X<X>X>X3X3X=X3X>X3X3X",
"$.a.a.a.a.a.a.a.a.@Xa.a.3Xa.=Xa.=Xa.=Xa.d.=X=X=X=X=X=X=X=Xa.1Xa.=X=X=X=X=X=X=X=X=X=X$X*X$X=X=X$Xa.=Xa.=X=X=X=X=X=X@Xa.@X@X=Xa.a.a.a.$X@Xa.XXa.XX!.a.;.XXXX;.!.XX;.;.;.!.;.@.;.;.:.@.:.+.+.+.;.@.@.a.O..X.Xa.X.] S.O..XO.O.O.O.O.@.@.@.O.O.@.S.F.O.@.D.O.D.D.O.D.a.` O.O.O.` O.O.a.O..XO.a.O.O.a.S.F.O.F.O.O. . .`  .` } { ` } } ^ ^ ^ ^ K ^ { U Y { ' ' { { { { { ..C.^.^./././././././.(.].'.].hXfXhXjX].hXcXhX].(.fX/./././.^.!.....=...=.%.( U U P T P H l n n x x n x j j j j j j j j j x b j v j j j c k k x x k x x b x x v j j k k k g k h h z m v z k v k k v k z k k k j z c z c c z m m m m m ` ` [ ] ] m ] ] ] ] ` [ ] ` ] O.` X.O.m ] m ` X.` ` ` ` ` ) m ` W ` ) ) ! m m W m W ) m Y P ) W ) ) ) ) ` m W ) ) _ ` ] ] ] O.O.O.O.S.D.S.O.J.F.F.F.OXOXa..X.X@X@X3X@X3X3X<X<X<XeXwXeX2X1X1X1XvXpXpXpX3XpXwXeXpXwXpXwXvXbXxXbXxXxXbXxXbXxXxXxXxXxXxXxXeXxXeXxXeXwXwX<X2X3X1X3X1X1X<X3X>X>X3X=X>X3X=X>X>X3X",
"a.a.a.a.#.a.a.a.a.a.a..Xa.a.a.=Xa.=X=Xs.=X=X=X=X=X=X=X=X=X=Xs.1X=X=X=X=X=X=X=X=X=X=X$X=X=X=X=X=Xa.=X=X=X=X=Xa.a.=Xa.=Xa.=Xa.a.a.$Xa.oXa.XXa.a.a.XXoX;.a.a.XXoX!.;.;.@.a.a.;.F.!.@.@.;.+.:.@.;.+.@.O.a.O.O.a.] a.a.a.O.O.O.a.a.O.@.O.O.O.@.@.@.@.F.@.+.S.+.O.O.O.m O.O.O.O.X.` a.O.O.] a.O.a.O.A.XXO.F.O.S.O. .O. .` } ` } ] ` { { ^ ^ ^ ^ ^ ^ ^ ..{ { R R C.V.E =.=././.hXfXfX:X].xXxX].cX].cXcXcXcXjXcXcXjXcXcXhXfXhX/././.*X/./.D.=.=.=...=.R ..U U P P L H n x n x j x j j j j j j j b x x x c j j c k c k v k k j x x x b x c j k k k k z z z k k h v z v j k z k z k z c k k v k c c c m m W m m W W ) ) ! ` ` m ] ` ` ` m ` X.m ` $.m ! ! m O.` m m ! m ! ) ` ` ) m ` ` m ` m m m W m W W ) ) Y ) Y ) ) _ ) ) m W ) ) _ [ _ ` `  . .] O.O.] ]  .S.S.D.H.F..X.X.X.X.X3X3Xa.:X-X<X3X<XeXeXeX3X1X1X3X1X1XpXpXwXeXeX1XwXeXpXwXbXxXbXvXxXbXxXxXbXuXbXxXbXeXxXxXxXeXeXxXeXwXwX<X1X3X1X3X<X<X2X<X>X>X3X1X>X>X3X3X=X",
"a.$.a.a.#.a.a.a.a.a.a.a.=Xa.=Xa.=Xa.=X=X=X=Xa.=Xs.=Xs.lX=X=X1Xs.=X=X=X=X=X=X=X=X=X=X=X=X=X=X=X$X=X=X@X=Xa.=X=X=X@X@Xa.@X@X=X3X=X@X@XoXa.XXXXXXa.XXa.XXXXXX;.oX!.a.XXXX;.XX;.;.;.@.;.+.;.+.+.+.@.@.@.O.a.O.O.a.O.] O.O.a.O.O.O.O.O.X.@.@.O.O.O.F.O.O.+.+.O.S.O.O.a.m O.O.O.O.O.m O.m a.m O.A.O.XXS.S.D.O.S.O.O.O.`  . .` ` ` } } { { { { ^ { { { ......R =.V.C.E ^././.hXcXhXcXjXhXjXcXcXcXcXcXcXjXjXcXjXcXjXjXjXjXcX<X].fX/././././.D.:.=.=.=.%.R U U U T L l n n j x j j j j j j j j j j j x j v j j h m h k k k k k x x x b x c j v k k k k k h k z k v k h m k k k k k k k k k g k c c c k z z z m m m W m m m m m m W m m ! m m ! m m ! m ! ] X.m X.` ` ! ! ` m m ` ` m ` ` m ` ` ! ! W ! m ) ) _ Y ) ) Y ) ) ) W W ) ) _ ) ) _ ` ' ] ` ) ) ) ` ] ]  .O.S.S.#.#.#.a.a.a.a..X+X-X-X:X:X<X<X<X1X3X1X3XpX3X3XpXeXeXeXeXpXpXvXwXxXxXxXxXxXxXeXxXxXxXxXxXbXxXxXeXxXxXwXxXeXwXwXwX1X1XeX1X1X2X<X<X3X1X>X3X>X3X>X1X3X",
"o.a.#.:.a.a.a.a.a.a.a.a.a.=Xa.=X=X=Xa.=X=X=X=X=X=X=X=X=X=X1Xs.1X=X=X=X=X=X=X=X=X=X,X=X=X=X=X=X=Xa.=X=X=X@X=X=X=X=X@X@X@Xa.=X=Xa.a.@Xa.@XoXoXa.oXa.XXa.XXoXXX!.!.XXa.!.XXXX;.!.:.;.@.:.+.+.@.+.@.O.@.O.F.a.] a.a..X] a.O.O.O.O.O.X.O.O.X.O.@.O.O.@.O.O.O.O. .O.O.` O.X.m m X.] X.a.m X.a.m a.a.] a.S.O.S.O.O.] O. .] { ]  .{  . . .{ { { ..U { ..R ....R R C./.^.^.^./.hX].hXjXjXcXhXjXhXhXcXjXhXjXjXjXjXfXjXhXjX].hX/././././././.^.^.=.=.=.%.%.R ( U U P J l n n j j j j j j j j j j j j v v j j k k k k z h z d k k x x x x b c j v k k k h m z h m h k k k h k z k k h h m h k z k z k c z c c c m z z m m c m c m c c m m z m ! m ! m ~ m m m ! ! ! m ! ! m m ` ) ! ` m ` ` ` m ` m ) [ ) ) _ ) _ Y Y ) Y Y ) Y [ Y ) Y ' ) ) ) _ ' [ ) ) ) m ) ) [ ` ] ] O.O.] A.a..X.X.Xa.H.OXOX-X-X3X<X<X3X3X3X1XpX3XpXpX3XpXpXpXwXeXpXpXpXvXeXpXbXxXxXxXxXbXuXxXbXxXbXbXeXxXuXxXeXeXpXeXeX1XeXeXeXeX<XeX3X3X1X1X1X3X3X3X3X",
",.#.#.#.a.$.$.a.a.a.a.@Xa.a.=Xa.a.=X=Xa.=Xa.=X=X=X=X=X=X=X1X1Xa.=X=X=X=X=X=X=X=X=X=X=X=X=X=X=X=X=X=X=X=X=X=X=Xa.@X@X@X@X3X=Xa.=X$Xa.$Xa.oXoXoXoXoXXXoX!.;.oX!.oXa.!.a.!.;.;.!.!.:.F.@.@.@.#.#.+.O.@.@.@..X] X.O.X.a.] a.a.O.] a.O.@.@.O.O.O.@.+.O.O.O.@.O. . .` ` X.` a.a.m X.` ` X.O.` O.O.m a.] O.O.O.O.O. .] ` } ] } `  . . .{ .. .............=.=...C.E /././././.fX<XjXhX].fXfXfXjX].fXfXfX].].fXfX*X].fX].]./.]./.>././././././.=.=.-.-.%.%.R U U T P H n j j j j j j j j j j j m j j j k k k k h k k z h k k d k x x x x j c k j j c h h h z h z m h k c k v h k c k z v k k k k z k v z z z v c k c c c z z z c z c m c m m m m ~ m ~ m m m m m ! m m ! m W m W m ! ` m m ` ] ] ` ` ` [ ) [ ) [ [ Y ) ) ) ' ) ) ) ) Y ) ) ) ) ) ) Y L c W W ) ) [ ` ' ] ] ] ] O.$.#.A.X.D.S.J.H.(.-X-X-X@X3X3X3X3X3XqXqXpX3X3X3XeXpXwX1XvXeXvXpXxXuXxXeXxXxXxXxXxXuXeXxXxXxXvXxXvXpXvXeXeXeXpXwXeXwXeX1X1X3XpX3X3X1X1X1X=X",
",.#.,.a.a.a.a.a.a.a.a.a.a.a.a.=X=Xa.a.=Xd.=Xa.=X=X=X=X=X1Xs.=X=X=X=X=X=X=X=X=X1X=X=X=X=X,X=X=X=X=X=X=X=X=X=X=X@X=X@X=Xa.=X@X=X@X$Xa.a.$XoXoXoXoXXXoXoXa.!.a.oX!.;.a.@.a.a.!.!.;.@.:.;.@.+.+.@.@.O.@.O.@.] a.a.] a.] a.m ] a.a.] O.@.O.O.@.X.O.O.O.O.O.` O. .O.} a.m ` ` X.` m X.m ` X.` ] X.X.] O.] O.] O.] } ] ` ] { ]  . . . . . ...{ ....=.=.=.=...=.=./.-././.-./.fX*XfX].:XfXfXfX:X/.].].*X/././././.>.8.>./././.>./.*X/.*X/.(./.^.-.-.=.%.%.( U ( P P H l n n j j j j j j j j j m v j v j h k k h k h h h k d k k x x x x j j k j k k h c h m m h k k k k k k k z k k k k k k c k k k x k k k c v z c k c c k c c z c c c z m ~ z z m z m z m ~ ~ z m m m m c W m ) ) m m m ] [ [ ] ` [ ) ) ' ' Y ' [ ' [ Y ' Y ' Y [ ) Y [ _ ) ) L ) ) Y Y Y ) ) ) [ ` [ m ] ! ] a.A.` X.V.V.G.D.J.~..X-Xa.3X@X3X3X3X3XqX3X3X3XpX3XeXpXpXpXvXbXxXeXxXxXbXxXxXbXxXbXxXuXbXpXvXbXvXvXpXvXpXpXwXvXwXwXpXpXwX1X1X1X1XpXpX1X3X1X",
";.:.#.:.$.a.a.A.a.a.a.a.@Xa.=Xa.a.a.=X=Xa.=X=X=X=X=Xd.=Xs.1Xa.=Xs.=X=X=X>Xs.=Xs.=X,X=X,X=X=X=XfX@X=X=X=X=X=X3X=X=X=X@X=X=Xa.3Xa.@X@Xa.@X@XoXoXoXoXXXXXoXoXXXXXoX;.XX;.!.a.;.;.!.!.!.@.@.+.+.+.@.O.O.@.@.a.O.O.a.] a.] a.O.] a.O.O.@.@.@.O.O.O.X.O.X.O.O.O.` ]  .X.m ` ! ` ` ` ! a.` ` ` X.] X.] ] X.] ] ` ] ` ` ` } ] } `  . ...........V...V.=.V.V.=.=.=.=.^././././.*XfX*X]././.fX/.]./././.fX/.].]./.8././.>./.]././.].>.].*X/././.-.-.=.=.%.%.R R U U P H n n j j j j j j j j j j j j v j j j h k k h k z d k k k k x x x x m k c c h k c h z h h c c k k k v h k v h v h k z k j z k k l k k c z c v c k k c k z k k c z c z z z z z c z g z m z m m z ~ z W c m m m m m ` ` m ] ` [ m ) ) ' ' ' [ Y _ [ ' Y [ [ Y [ ) Y Y ' ' Y ) b Y Y ) Y ) ) ) ) ) ) [ ) [ m m m m ! b.] ]  .V.S.J.H.OX.X.Xa.3X3X3X3X3X3XpXpX3XpXpX1XpXeXwXeXeXeXbXxXuXxXxXuXFXbXxXvXxXbXvXvXbXpXbXvXvXpXvXpXpXpXpXpXpX3XpXpXpXpX1XpX3X1X",
"o.o.o.#.:.;.;.;.;.a.;.a.oXoXoX#XoX$XoX$Xa.=X$X=X$X=X=X=X=X=X=X$X=Xa.=X=X=Xa.1X=X=X=X=X=X=X=X=X=X=X=X=X=X=X=X=X=Xa.=X=X=Xa.=X=X=Xa.$X=Xa.$X@Xa.a.oXa.oXoX^.a.a.^.a.a.F.a.a.F.XXF.@.F.@.@.@.@.+.+.` a.` ` a.O.] .XX.] O.a.a.m .XO.a.O.S.+.O.S.O.O.O.}  .O. . .{ ` ` ! ` ` ` ! ` ` ` ` ` m ` X.] ` ` ` ` } ` ` ` } ` ` {  .{ }  . .{ { | | =.V.D.=.=...V.E ^.-.^.-.>././.].#XfX].s.*Xs.8./.8.>.fX8.8.>.>.>.>.>.>.>.>.>.>.>.>.8.].fX].*X/.;.:.>.=.=.=.=.R R U Y I H j j h j j j j j j j b.j b.q j j j j j j j j j k j k x v x x c x v j k k k k j k k k k k k k m v z k k z k z k k k k k z k x v v v c v v v v c v n l x l k c x z v z c z c c c z c z c c c z z z c m m z m z m m m m m m m m ! m ` ) [ [ ) ) ) ) ) Y ) _ ) _ ) ) ' _ Y Y Y _ ) ' Y _ _ P Y ) P ) W m W W ) ) ` [ [ ) ] ` O.A.S.@.a..X.X.X-X3X3X3X3X3X3X3XdX3X3XpXpXpXpXpXpXpXpXpXpXpXpXpXpXpXvXbXbXpXbXvXbXpXvXbXpXpXvXpXpXpXvXpXpXpXvXpXpXpXpXpXpX",
"#.#.o.#.+.+.:.;.:.;.;.XX^.XXXXoXoXa.a.oX@X$X$X$X$X$X=X=X=X=X=X=X=Xa.s.=Xa.1Xa.1X=X=X=X=X=X=X=X=X=X=X1X=X=X=X=X=X=X=Xa.=X=Xa.a.=X$X$Xa.$Xa.$Xa.=XoXoX;.oX#X;.^.;.XX;.XX@.F.XX@.a.a.@.@.@.+.+.+.+.a.X.X.a.] a.a.] X.a.a.] O.] X.X.A.O.+.+.+.O.O.S.O. . .} O.} ` ! ! ` ` ! ` ` ! ` ) ! ` ] ` ` ` ` ` ` ` ` ` ` { { } ` ` { { } ` { } | | | ..=.=.V.-.V.=.=.-.D.=.^.:././.*X*XfX*Xh.8.8.8.8.8.>.8.>./.>.].fX].>.].>.].8.>.8././.s.fX*X].fX>.>.=.-.=.=.E C.R U T Y Y n n j j j j j j j b.j j b.j b.j j j j j j j k j x x k x x v v c c k v k k j c k h m k k k v h j k h k z h k k k k k k z z x k v v l n v l v l x k x l v l k v v z v z c z k c z z c z c c c m m m z c z m m z c m z m m m ! m m W W W ` ) ) _ ) ) _ ) ) ) ) _ ) _ Y _ ) Y ) Y _ ) Y Y ) ) Y ) Y W m W ) ) ) ) ) ` ` ` [ X.A.O..Xa..XS..X.X3X X.X3X3X3X3X3X3XpX3X3XpXpXpXpXpXpXpXpXpXvXpXpXbXpXbXvXbXvXbXbXvXpXbXpXvXvXbXvXpXpXpXpXpXpXpXpXpX1XpXpX",
"o.o.o.:.#.#.#.#.;.+.;.;.a.^.oXoXa.a.a.$X$X$X$X$X$X$X$X=X=X=X$X$X=X=X=Xa.1X1X1Xs.=X=X=X=X=X=X=X=X=X=X=X=X=X=X=X=X3X=X=Xa.=X=Xa.a.$Xa.@Xa.$Xa.$Xa.oX;.oXa.^.a.;.oX;.XX@.a.XX@.@.a.@.@.@.@.@.+.O.X.a.] ] a.a.` a.a.X.a.m .Xm a.O.O.O.O.+.S.O.D.O.O.O. .] } ` ] ` ` ! ! ! ` ` ! ` ! ` ) ! ! ` X.m a._ _ _ _ ` _ ` _ ` { { ` { { { { { / ..| =.V.V.=.V.V.-.V.-.D.-.=.=.>.>.#X8.*XfXfXfXh.h./.8.8.8.h.8.fX].>.fX>.8.8.>.>.>.>.8.8.fX].fXfX]./.>.>.:.-.R V.R V.V.T T Y v k j h j j j j j j b.j j b.q j j j j j j x j j k k j x x x x x c j k k k k k k c j k c k k j z k z h h k h h v k x k k k z k v n v k l n v x l v l x k x v z z k v v c z k z k c k z j k z v c c v c z c h c m z k m c c z z m ! m m m ) ) ) ) ) ) ) ' ) _ _ [ _ ) ) _ Y _ ) _ _ ) ) Y Y ) Y ) c W c W ) ) W ! m ` ] ] ` ] m.S.A..X.X.XOX.X.X-X3X.X.X3X3X3X3XdX3XpX3XpXpXpXpXpXpXpXpXpXpXpXbXvXbXpXbXbXvXvXbXvXbXpXbXvXbXbXpXvXvXpXpXpXpXpXvXpXpX",
"o.o.+.o.o.o.:.+.@.:.+.;.;.;.;.a.a.a.a.a.a.$Xa.$X$X$X$X$X$X$X$X=X=Xa.=X=Xa.s.a.1X=X=X=X=X=X=X=X=X=X=X=X=X=X=X=X=X=Xa.=X=X3Xa.=X=X$X@X$X@X$X@X$X$XoXoX;.!.;.^./.;.;.@.a.@.@.a.F.F.@.@.@.@.X.@.X.@.X.` a.X.] a.m a.O.O.O.X.a.O.O.O.O.@.O.O.O.+.O.O.` { ` { ` { } _ ` ! ! m ` ! W ` ) ! ` m m m m m Q _ Q W _ W W _ ! ` _ _ _ _ ` { ^ / { ....V.R ..=.=.=.=.=.=.=.=.=.:.>.>.>.fXh.fXfXfXh.fXfX8.fXh.h.8.8.8.fX8.8.8.8.>.8.>.>.fX].fXgXfXfX*X/.>.-.:.-.E =.E V.T Y Y l n n j j j j j q b.q j j j j j j j j j j x j j j k k x x v x x j v k k k k k v j h m h k k k k k h k k k z h k k z x x x x x k v l x l x l l v l x l v k l k x z k z z k z z z z k z z z c z c z v z c c k c h z z k z c c z z z m z m ) ) W ) Y _ ) Y [ _ ) [ ' ' _ [ ) _ [ ) ) Y Y ) W ) Y W W c W m m ) ) ) ! m ` m ` O.] ] a.A.O..X.X.X.X.X3X.X.X3X3XdX3X3X3X3X3XpXpXpXpXpXpXpXpXpXpXpXbXpXvXbXvXvXbXbXbXbXvXvXbXbXbXvXbXpXpXvXvXvXbXvXpXvXvX",
"o.o.o.o.X.o.o.:.:.#.+.:.@.;.;.;.a.a.a.a.a.a.oXoXa.@X$X@X$X$X$X$X=X=Xa.=Xa.=X@X=X=X=X=X=X=X=X=X=X=X=X=X=X=X=X=X=X=X=Xa.=X3Xd.=Xa.a.=X=Xa.@X=Xa.$XoXoXoXa.#X^.oX^.a.@.@.a.@.@.a.@.@.@.#.+.@.O.$.#.` X.a.` ` a.O.] a.] O.O.O.O.O.X.O.O.O.O...O.O.O.` ! ` ! ` { _ ! ! ! ) ! ` ! ! W ! W W W ` ! ! m W W W _ Q W W W _ Q Q _ Q _ { Q ^ ^ { | | ......=...=.=...=.=.=.%.=.,.>.>.*Xh.fXgXgXh.gXfXgXgXgXfX].fX8.8.8.8.>.>.8.>.8.8.gX8.gX].].fXfXfX>.>.>.-.=.=.=.U { T I k j j p j j j j j b.q j j q j j j j j j j j m j x x j x x x n x j k k k j v z v j v c j k k v k k z z h z z k k x k z z l x l x x k x l x l x k x k x k k k k x k k x z z j k k j k c k k h m c k v c k c k z c k z k c k k z c c c m m m m z m ) ) ) ) ) ) ) ) ) _ ' ) ' ) ) _ ) ) ) Y ) L ) ) W c W W W W W W m ` ) ) ` ` ` ` O.A.A..XXX.X.X.X.X.X.X.X9X3X3X3X3X3X3XpXpXpXpXpXpXpXpXpXpXpXpXbXpXbXbXbXbXpXbXbXpXbXbXbXbXbXbXbXbXvXvXbXbXbXvXpXbX",
"#.+.o.o.o.o.o.X.X.:.#.o.:.:.+.;.:.;.#.a.a.a.a.oXa.$Xa.$X$X$X$X@Xa.=X=Xa.=X$X$X@Xd.=X=X=X=Xa.=X=X=X=Xa.=X=X=Xa.=Xa.=X=X=X3X=X3X=X=Xa.=X=X@Xa.$X$XoXoXoXoX;.a.^.XX@.XXa.@.F.a.F.;.@.@.@.+.@.O.#.O.a.X.] a.X.] a.a.a.O.O.X.O.O.O.O.O.O.X.O. ...O...} ` ! _ ! _ ! _ ! ! ! ` ! ) W ! W m ! ! m m m ! W W W Q W W Q W W W _ _ _ P _ Q Q ^ ^ ^ { U ..{ ........R V.=.R %.,.%.=.>.>.s.fXh.fXjXgXgXgXgXh.gXgXgX8.].8.8.>.8.&.&.8.8.8.gX8.gXgXfX]./.>.>.>.-.=.^.R ..U Y P l j j j j j j j j j j b.b.b.j j j j j j j j j j x x x x x x v x v k h j k j h j z k k k h c k k k h z m k h k c v k k x x k x k l x x x x l k v k k k k v k v k k z k x z j k k g k k k c k z k c k z k k v k m c m h v k c v v z c z c z z m m m Y ) W ) ) ) ) ) ) ) _ _ _ [ _ _ ) ) W Y ) ) Y c m W m m m ) m W m W W m m ` ) ] O.m .XA..Xa..X#..X.X.X.X3X9X3XdX3X3X3XpX3XpXpXpX3XpXpXpXiXpXbXbXpXpXbXbXbXbXpXpXbXpXbXbXbXbXpXbXbXbXbXbXvXbXbXbX",
"+.o.o.| X.X.X.o.+.o.+.#.+.@.@.;.;.#.:.a.a.a.a.a.a.$X$Xa.a.$X@X$X=Xa.a.a.a.=X@X$X=X=X=X@X=X=Xa.=X=Xd.=X=Xd.=X=X=X=X=X=X=X=X=X=X=X=Xa.=Xa.=Xa.@X$XoX#XoXoX#XoXoX^.a.a.@.;.a.a.;.@.;.@.+.:.@.+.+.o.a.X.a.X.a.` a.] ] a.] .XO.X.O.X.| ..O...X. . .X. .{ ` ^ _ ^ _ Q W ! ! ! W ! W W W W W W W W W m W Q W W W W Q W W Q Q P P Q W Q Q Q ^ ^ { { ..{ U ....R =.( R ..%.( %.,.*.>.>.h.gXfXfXfXjXgXgXkXjXgXfXh.].h.8.8.8.8.8.8.8.h.9.h.].fX8.].].>./.-.-.-.E ....T T L v x j j j j j j j j j q j j j j j j j j j j j j x x x x x x x x j k k k k k v v k k v k m m h k k z k h h m k z z k v k k x k k x k k v k x k x k x x n k k v k z k k z j z k k c k z k z k z v h k k k k k k h h k c j k c k v z v v z m z m z c c ) m m ) ) ) ) ) ) ) [ ' ) ) Y ) ) Y W ) ) c c ) m W W ) ) ) W ) m ) m ~ m W m A.a.m ] .XA..XA..X.X.X.X3X.X3X3X3X3X3X3X3X3X3X3XqXpXqXpXpXiXpXpXiXpXpXpXbXpXbXbXbXbXbXbXbXbXbXbXbXbXbXbXbXbXbXbX",
"+.o.+.o.o.| | o.o.X.:.+.#.;.:.:.;.;.a.#.#.a.,.a.a.a.a.a.$X$Xa.@Xa.a.=X=Xa.a.$X$X=Xa.a.=Xa.=X=Xa.=X3X=X=X3X=Xa.=Xa.=X=X=X=X=Xa.=X=X=Xa.=X$X=Xa.@X@XoXoXoX/.oXoXoXa.;.a.XX@.XX;.XX;.;.;.@.@.@.+.+.m a.] ] a.X.m a.a.] a.m X.O.] X.O.O.| O...O...| X.{ { _ ^ _ ^ Q ! W ! ) ! W W W W W W ~ m ~ m ~ W L W W P W L W W W P W P W _ P K K P ^ { U U { { R ..R { %.| R %.( %.,.:.*.s.>.h.h.h.gXh.jXgXjXkXgXgXgXgXh.h.8.*.*.8.8.8.8.gXh.8.8.].h.8.8.>.-.=.=.-.R R P P P v k p j j j j j j q b.b.j j b.j j j j j j j j j x b b x v x x x j h k j h k k c j k k k h j j k k k k z z h k k z x l k c k k k k x n x x k x x n n k x k j v j x k x z z v z z k z k c k k k h k k k k k k k k k k h k h h k k v v z z m z c c c W m L W m ) ) Y Y ) _ _ ) _ ) ) ) ) ) Y Y ) ) ) ) W m ) ) ) ) m ) W m W m m c [ [ m A.m m A.m .XA.A..X.X.X.X.X3X9X.X3X3X3XpXdX3XpXqXpXpXpXiXiXbXpXbXbXpXbXpXiXpXbXbXbXbXpXbXbXbXbXvXbXbXbXbXbXbX",
"| X.| X.X.o.o.o.| X.o.#.:.O.#.o.#.:.#.:.;.;.;.;.a.a.a.a.oXa.oXa.a.a.a.XXa.XXoXoXa.a.a.@X@X@XXXXXa.a.=Xa.a.=X=X=X=X3X=X=X=X=X=X=Xa.=Xa.=Xa.=Xa.a.@X@Xa.@XoX^.#XoXa.oXoXa.a.;.;.oXXX;.;.+.;.+.#.X.X.O.a.] X.a.X.O.a.O.O.O.X.` O.O.....O.O.O.| O.O.{ } / _ _ ^ ! _ Q Q ! W Q Q ! ` W ! W ! W W m W J W W W J W W W L L J L J L P J J K K P { P U { T U U ..R U R %.%.<.%.%.&.s.h.h.fXfXfXh.gXgXgXgXjXgXgXgXgXgXh.8.8.8.8.8.8.8.8.8.8.8.8.>.8.>.>.>.-.R %.....U Y Y l x n n h j j j j j j j j b.q q j j j q j b.j j x x b.j j b.n j h j h h j k k k c j k k c k k k k h c z z z k k k k z k k k k k x k k x k x k j k k j j v j v v k k z k k z k z k k c c h m h m c k j c k k k k c h j v k v z k c c h m k m c c c c c c z m z m c c m ) [ ` ) ) ) ) ) ) m L ) m b ) W m W m m L ) m ) b m W m ) m [ [ m b.A.A.A.b.$.A..X.X.X.X.X.X.X3X X-X0XqX<XqX3XqXpXpXpXuXiXpXdXpXpXiXbXpXiXbXiXbXbXiXbXbXbXbXbXbXbXbXbXbXbXbX",
"| X.$.| | o.o.+.| X.| o.+.o.o.+.$.$.#.#.#.#.:.;.a.a.;.a.;.oX^.oXa.a.a.a.a.a.a.XXa.=Xa.@Xa.a.@Xa.a.=Xd.=X=Xa.=Xa.d.3X=X=X=X=X=X=X=Xa.a.=X=Xa.=X=X@Xa.@Xa.#XoXoX^.oXoX;.a.^.a.;.;.XX;.@.+.+.;.+.o.a.] ] a.X.` O.O.O.O.O.O.O.O.O.O.O.X...| ..O.| .. .{ { { _ ! _ ! ~ ~ L Q Q Q _ ` W W Q W W W W W W L W L W W L ~ W L L J L L L J K K K P T { P P T { U ..U ..R ^ U ( ( %.,.*.s.s.h.h.h.fXh.h.gXgXgXgXgXgXfXh.8.8.8.8.h.8.8.8.8.8.8.8.9.>.>.>.>.-.-.=.R R ..U U Y v n n j j j j j j j j j q b.j b.b.j j b.j j j q b.x x q x x x j k k j k k v k j j h m c j k c v z k h k h m k z k k z j k k k k k x x x x k x k j k k k z v j c z k k k k k k j c k h k k h k k h z k k c c k k c k h m k h k k h c m k c z z m c c z m c c c z m m W ) ) ) ) ) ) ) W m W m ) L W m m L L ) ) m ) ) ) ) L ) c ) [ m m [ m b.m A.b.A.A.A.Y..XA..X.X.X.X3X X3X-X0X3X3X3XqXqXpXqXpXpXpXpXiXiXpXpXdXpXpXbXbXbXbXbXbXpXbXbXbXbXbXbXbXbX",
"o.| | |  .X...o.} | | O.o.+.+.X.#.o.o.:.:.#.;.:.#.@.;.;.;.;.a.a.a.a.a.a.a.a.a.a.a.a.a.@Xa.@Xa.a.a.=X3Xa.=X=X=Xa.d.=X=X=X=X=X=X=X=X=X=X=X=X=X=X=X@X@X@Xa.#X^.^.#XoX;.oX;.a.;.;.;.;.;.;.:.;.@.:.X.] a.a.] a.` X.a.O.O.a.O.O.O.O.O.O.| X.O.O.| | O.} } / ` _ ^ Q Q W ~ Q L Q _ _ ^ W W ! W W W J c W W W J L J W W L J J L J J J J H C K P U Y P U U U { U U ( ^ ( R <.<.%.,.>.>.h.8.h.fXh.fXh.h.fXh.fXfXh.].h.h.8.8.h.8.h.8.8.9.8.8.>.>.*.>.-.-.%.=.R R R R ' T T v x j j j i j j j j j j j j j j j j j j j j j b.j j j b.x x b.q k k k j k j k v k v j k k k k k k z c h k h z k k k h j k k k k k x j j k j k j j k j k j j c j k k k k k k k k c h h h k k k c c j h k h k h k h k k h k k h k c k h z k c c c j z c k h m m m z W c ) m ) W W ) ) Y ) ) L m L ) Y ) b ) ) b Y ) ) b ) ) b Y m m m m m b.b.A.b.b.b.A.A.A..XY..X.X.X.X X-X5X0X3X3X3X3XqXqXpXqXiXpX3XpXpXpXpXiXpXpXiXiXiXiXiXiXbXbXpXbXbXbXbXbXbXbX",
"| X.X.} | | o.+.} | X.| | o.| o.o.o.o.o.#.#.;.+.+.#.;.#.;.;.;.;.#.a.#.a.a.#.#.a.a.a.a.a.a.a.a.a.a.a.a.a.a.3Xd.=X3X=Xa.=X=X=X=X=Xa.=X=Xa.=Xa.=Xa.@X=X$X$XoXoX#X^.oXa.;.oX;.a.oX;.!.;.;.#.;.;.:.+.a.O.X.a.] a.a.m a.O.O.O.O.O.O.O.o.+...o.| X. .| | } { / ^ ^ Q Q Q ~ Q W Q Q W ! W W W W W W W W J W W W W W W L L J L J L H J J V J I I P P P P { T T U U ^ U R ( U ( %.%.*.>.s.>.8.>.h.8.8.8.8.h.h.>.8.>.h.>.8.8.].h.8.8.8.8.8.9.-.&.-.-.,.%.%.R R { { { U P Y v n k n j j i j j j j j j q b.q j j j j j j j j j j j j b.x x x j k k v k k c k z j h m h c j z k c h c c h k k k k v k k k k k x n k n n x k x k j k k j c v v v j k k k k k k h k m j k j k h m h m k h c z k j k h k h h k k h k m m c c h m m h z m h c h m c c ~ m m ) m m L m m L m m W m b ) b ) m Y ) [ b ) ) ) b ) Y m m m n.m b.m b.b.b.b.A.A.A.A..X.X.X.X.X X X X X3X9X3X9X3X3XqXqXqXdX3X3XpXpXpXpXpXpXpXpXiXpXbXpXiXiXiXbXiXiXbXbXpXiX",
"| X.| / } X.| o.X.| | | } X.| X.o.o.o.o.o.:.#.:.o.o.#.+.:.;.;.;.#.a.X.#.X.a.X.a.a.a.a.a.a.a.a.a.a.a.a.a.=Xa.=Xa.a.=X=X=X=X=X=X=X=X=Xa.1Xa.=X=X=X$X@X@XoXoX$XoXoXoXa.a.a.a.;.;.a.;.:.@.:.;.F.:.+.] a.] X.a.] O.O.] ] O.a.@.O.O.O.+...+.| X...X.|  .} } / ^ ! Q ^ ~ ~ P W Q ! _ _ W L W W W W P W W W L W W W L L J W J z L H J J J C J K P P P T P T U U U U R ( ( %.( %.,.>.>.s.h.h.>.fXs.8.>.8.>.>.>.>.>.8.>.8.8.8.h.8.8.8.8.&.-.-.&.,.=.,.%.%.R U U R V.T T Y n n j n n j h j j j j j j j q b.j j j b.q j j q j j j j q b.q x k j z j k k k k k j k k k k k k k h c h c z k k k h h v j k k k x j j j j k j j j k j j j m m j m h j h h k j c j c j h k k j j k k h c k k k k k k k h k h k k j h m h k m h m j h m h m j k h c c m z m c m c W m m c c W m c Y c ) ) b [ b ) ) Y m Y L ) b ) m m m b.m b.b.b.b.b.b.Y.A.Y.A.Y..X.X.X.X X X-X3X X5X X0XqXqXqXqXdX3X3XdXdX3XpXdXiXdXpXpXdXpXpXiXpXiXiXpXpXiXbXiXpX",
"o.X.X.| | | X.X.X.| $.} | | | o.o.o.o.o.o.o.X.o.o.o.o.:.;.:.#.;.a.#.#.#.X.$.a.a.a.a.$.a.a.a.a.a.3Xd.a.a.a.a.a.=X=Xa.a.=X3Xd.=X=X=X=X=X=X=X=X=Xa.$X$X@XoX#XoX@XoXoXa.oXa.;.a.oX;.a.;.;.;.;.:.;.@.a.O.a.X.] a.O.a.O.a.O.] O.O.O.O.+.+...+.+.o. .| } | } } ^ ! Q ! W Q Q Q W ^ ! { W Q W Q W W W ) W W Q L L J W W L z J J z J L z J K K J T P P U U U P U U U U ( %.( %.%.=.*.>.>.>.>.>.8.8.8.>.&.>.,.*.*.>.>.>.*.8.8.>.8.8.&.8.&.&.%.%.%.%.( %.U R U R { T T Y Y x v j n n n j j j j j j b.j b.q j j j q b.j j b.b.q b.q x x b.j v k k h k v j z k h k j k k h j z c h z c h z c k k j k k k k j k k j j j j j k j j j v j h j m h k j h z h j h h c h m z j g k k k h k k h k k h k h k j k h k j h h m m h m h k m h m h m z m c c z c c m z m c c c m c m c W b Y b b ) b ) ) [ ) ) b m ) ) m m m m m b.m m b.b.A.b.b.A.A..XA..X.X.X.X X X X5X3X3X3X3X3XqXqXqX3X3XpX3X3XpX3XpXpXpXpXdXpXpXiXpXpXpXpXiXpXbXbXpXbX",
"| X.|  .X.| X.| | | | } $.X.X.o.| $.$.o.o.o.o.o.X.o.o.o.#.#.#.+.$.a.a.$.a.$.a.X.X.a.a.a.a.a.a.a.a.f..Xa.a.d.3Xa.a.a.=Xa.3X=X=Xa.=X=X=X=Xa.=X=X=X=X$X$X@X#XoX%X#XoXa.a.a.a.;.a.;.;.;.;.;.;.;.;.o.] a.a.` a.] a.m ] a.a.m @.O.O.+.+.o...| | ..X.| }  ./ { { ^ ! ^ Q Q Q W _ _ / { W W W L W W W _ W W W J W z W J L L L J L H L J H C H K P P T Y U P P U U U R ^ ( %.%.%.,.-.>.>.>.>.8.8.8.>.8.>.*.,.&.-.-.*.*.*.&.>.8.>.-.*.&.%.&.%.%.U %.( Z Z R T T R R B.T Y Y b n j j j i j j j j j q j b.b.j j j j j j j j q j j b.x x j j v j h k h j j j k k k j k k j k h k k h h h c h h k h k k k k k k j x j j x x j j j j j j j j h j j h m j h j h k j k k j j j d c k c k h j z v m h h k k k k c h m h m h m j m h m m j m h c m c c c v c z z c z c c c c c c m c c c m b Y m Y ) b ) b W m ) m m m m m m m b.b.b.b.A.Y.A.Y.Y.Y..XY..X9X X X X0X X5X0X0X9XqXqXqXdX3XqX3X3XpXpX3X3XdXpX3XdXpXpXpXpXpXpXpXiXiXpXiXpX",
"X.| | | / } | X.X.X.X.| } | | X.o.o.o.$.o.o.| o.o.o.o.o.o.o.o.:.a.$.$.$.$.a.$.a.a.X.a.X.a.a.! a.a.#.a.a.a.a.a.a.a.a.a.a.a.a.a.=Xa.=X=Xa.1Xa.s.1X@X@X@X$XoX%X#XoXoXoXa.a.a.a.^.oXa.;.;.;.;.;.;.@.a.] a.a.` a.] a.O.O.O.a.O.O.O.X.+.+.+.+.O.| | O.| / { / { ! { ! Q Q ^ Q Q / _ { Q Q W W L P W W W W W W W W L J L J L J H L J L J J K H P T P U { U U U U U U %.R ( ( %.%.=.,.>.>.8.>.s.8.8.>.8.-.&.%.,.,.,.-.&.,.&.&.&.8.&.&.&.R %.%.Z U Z U Z T R U T R T Y T n n n n j j j h j j q j j j q j j j q b.q b.j j j b.j j b.q b.j j k j k k k h k k k k k k k k j k k k k k k k k k k k k j k k k x j x x k j k x v k v k v j j h m h j h j h m h k h k h k h d j h h c k m h k h j j k k j h k j j j h h m h m h m h m k j m h h k c c c k m v m v z z c c c c c c c c b c b Y b ) [ ) ) m ) m W m m m m m b.b.b.m b.b.b.A.A.A..XY..X.X.X.X X X X X X X X3X3XqXqX9X3X3XqX3X3X3XdX3X3X3XdXpXqXqXqXpXdXpXdXiXpXiXpXiX",
"o.| X.| | X.| o.o.| | X.$.$.! m ( $.$.( / $.a.$.a./ a.! a.! a.<.a.~ d.m a.a.a.a.~ ~ a.a.a.a.a.a.#.a.a.a.a.a.a.a.a.a.a.a.a.@X$X=X=X=X=X=X=X=X=X=Xa.$X$X#X#X#X#X#X#XoXa.oXa.;.;.a.:.;.;.:.;.;.;.;.@.+.@.@.@.@.+.@.o.O.#.O.O.$.#.+.+.+.+.+.+.X.+.| | ^ ^ ^ ^ | ^ ^ ~ K ~ ~ ~ Q ^ ` ~ W W W W W W W W W J Q L L L Q P J I H H L H H H J I K I P U P P U U P R { R { R R | %.%.&.-.>.,.>.8.h.fX8.8.>.-.&.%.%.%.&.&.%.&.&.&.&.D R &.%.R %.D ( U Z Z A U R T U U ' ' Y j j j j j j j j q b.j j x x q b.b.j b.q j j j q j b.q j b.b.j j j k h j k k j j h m h h j h v h j j d j d h h d i n n n n x n b z x x x x x x x x x k k k k d k j h j k h j j j d j d k k k k k j h k k j k k k x k k k x k x k x x k x x x v v m j k c c j c c c c c c k v v v c c c z m h c c k c c c m m z m m z m m m m c W m m m m j b.b.b.m b.m A.A.P..XK..X.X.XY.P. X X X4X X X5X X X3X X3X3X9XqX9XqXqXqXqXqXqXqXdXqXqXpXqXpXpXiXiXpXiXpXpX",
"+.| +.X.X.| X.X.| X.X.| $.$.$.a.$./ ,./ $.$.<.$./ / ~ a./ a.a.a.~ a.! a.a.~ ! a.a.a.~ a.! a.~ a.#.#.$.#.#.#.#.a.#.a.a.a.a.a.@X@Xa.@X@X=X@X$X@X$X$X$X$X#X#Xa.#XoX^.oXoXa.oX;.oX;.;.;.;.;.a.;.;.a.;.@.@.@.@.@.@.+.+.+.#.O.O.#.O.#.+.+.| ..| ..| ..| | / | | $./ ^ ^ ^ ^ ~ ( ^ Q ^ Q Q ~ ~ W ~ W W W ~ W W W P P J L L H c J H I P J I H J J P P U T U U U U U { U ..R R %.%.=.-.,.-.*.>.>.s.>.>.-.,.,.&.D R &.D &.&.&.%.&.&.&.&.&.D %.R R R U U T A Z Z Z U { P Y j j j j j j j j j j j j j j x j q j j j b.j j b.q j b.j q j j j j k j k k h j h j h h j k j j k h j j h j j k j i n n n n n n b x x k k x x x x b x x n k k d d d k k k k k d j k k k j j k j d j j k k j k x x x k x n k k x x k x x x x c x v c c c k j c v v c k k c z c v c c m c j k m k z m h m h z v z m z m m m m ~ W m m m m m b.m m m b.b.A.A.A.K.A..X.XY..X.X9X X4X X X4X X5X X0X3X5X9X3X3X3XqX3XqXqX3XqXqXqXqXqXqXdXdXiXqXiXpXiXqXiXiX",
"+.| | | | o.| X.| } } X.$./ ~ ! a.<.$./ $.$.! d.a.a.! a.<.a.~ ! a.~ ~ a.~ a.a.<.~ a.a.<.m a.a.~ $.,.#.#.,.#.#.;.#.a.a.#.a.a.a.oXa.=X=Xa.a.@X$Xa.$X$X$X$X#Xa.s.#X#XoXoX^.^.a.;.a.a.;.;.;.;.;.;.;.@.@.@.@.F.@.@.@.O.O.O.#.O.O.$.O.+...| X...O...o.| } $.| $.| | $.| ( / ^ ^ ^ ~ ^ Q ~ ~ W ~ ~ ~ W W W L L L Q L W J L L H H I H J H J H I K I T P T P U T T { T R R U %.%.%.%.,.,.,.&.&.&.*.&.&.,.&.&.%.%.%.%.%.%.,.&.&.%.&.%.D R %.%.%.( %.U Z Z A A R U ..U U Y j j j j j j j j j j j j q b.j j j j b.q q j j q j j j j j b.b.q k j k j j j h j j j j j j h h h k j i j j a k d j n n Y x Y n n v k k v x x x b x x x k k d k d h k j d j d j d d j h j h k j k k j h k j k k x n k k j n k k k x x n x x x x v j c v v v v v m z z j c m h k c c h k z z m k m k k z c k m z z m z m m m m m c m m m m m m b.b.b.A.m Y.A..X.XK..XY..XY.P. X.XY.4X X X X3X X X X3X9X3X9X9X3X3X3X3XqXqX3XqXqXqXqXqXpXpXqXqXiXpXiXpX",
":.+.+.o.O.| X.| } | } $.X.$.a.! ! / $.$.! $.$./ <.~ ! <.a.! ~ a.~ <.a.~ a.~ ~ a.a.! a.! d.a.~ a.$.$.$.#.#.#.;.#.#.$.#.#.a.a.a.a.a.a.a.@Xa.a.$Xa.$X$X$Xa.#X#X#X#XoXoXoXa.oXa.oX;.a.oXa.;.;.a.;.;.;.@.XX@.;.@.F.@.#.@.+.#.@.#.+.O.+.+.+.+.+.o.o.| o.X.o.| | o.| | | | | | / / Q Q ~ Q ! ! ! W W ~ ~ L L Q L L L K J L H H J L H L H K I J I I P U T U U U U R R { T R R %.%.%.&.%.%.D %.&.%.%.%.&.%.D R D D D &.&.&.%.&.%.D D &.&.,.&.%.%.%.U Z N A Z R U R ..B.Y x x j j j j b.j j j j q b.q j j b.j j j b.j j b.j b.j j j j j j v j k k k j m h j h j h h j j j j j j j k h a k k n n Y n n n n x j v v x j b v x x x k k k k k j d j j d j d j j k k k k j d k j k j k k k x k k j d n j n n j k x x j x x v x m c k v v v c k j z c k k c z k k c k k k h k h z k k c z v c z z h z c ~ z z m m j m m m m m b.m m A.b.A.P.K..X.X.X.X.X9X.X9X9X X4X4X X X5X X X.X.X9X.X3X9X9X9X9X9X3X9X3XqXqXqXqXqXqXpXqXqXqXeXqX",
"+.+.| | X.| | | / | } } ! a.~ ~ $.$.$./ $.<./ / ! ! d.g g ~ ~ a.! a.~ a.a.! <.a.~ a.! a.~ a.a.~ $.$.a./ #.#.#.@.#.#.#.#.;.;.a.a.a.3Xa.a.oX@Xa.@Xa.$Xa.#X#XoX#X#X;.#XoXoXoX!.!.oXoXoXoXa.#X^.;.a.F.@.XX!.@.@.a.@.+.+.O.@.+.+.@.@.+.+.X.+.O.+.o.+.| | o.X.| o.:.+.;.:.:.:.$./ ^ ~ Q ! Q ~ ! W W J P ~ Q P K J P P J J K K I J J J L H I I P P T P U P U U U U U U U R ( R %.%.%.%.%.D Z Z D R <.%.<.D D R D %.&.,.&.*.,.&.&.D &.%.&.&.>.>.:.%.U Z T Z U %.%.{ ' Y v x x n j x x j j j j j x x x q q j j j j j j j j j j j j j j j v j v j x k x k h c j k k h j h j j j d d j a d l f l n n H n n z k x z x v x x m j j j j k k j j h k d d j d j h j j h k j j i j k d j k k k n n j n j j n k j j x k x k x x x c v j v v k k c h k m h c h m k m z h k h c k k m h k z k v z z m k z c c c c z m m m m m b.m m b.b.b.Y.A.Y..X.X.XY..XP..X.X9X.XE. X9X X9X X X X.X.X9X9X X9X.X9X9X.X.X9X9X3X3XqXqXqXqXqXqXqXqXqXqX",
"o.+.+.X.| X.} X.} / } / ~ a.! a.$./ / $./ a.$./ a.! m a.! a.! ~ ! <./ / ! ~ a./ a.~ a.! a.~ ~ a.a./ / a.,.#.#.#.#.#.#.#.#.;.;.a.a.a.a.a.a.a.a.oXa.a.a.a.oXs.;.;.^.oX!.oXa.^.oXa.;.;.!.^.;.;.a.^.@.a.@.@.F.XXO.@.@.#.@.#.@.#.@.O.O.+.+.O.o.+.+.o.X.+.o.o.X.| +.:.^.^.^.^.| | / / ^ Q ! Q W ~ ! ! Q L Q P Q W J Q J J P J P J I J I I L P P I U I U U P U U ^ R ^ U U %.%.%.%.%.D <.D D R Z <.R R D R %.D D %.,.>.>.-.%.&.%.&.&.&.*.>.>././.>.&.U Z R R =.=...{ Y v x n j j j x j j j q b.j j x b.j j j q j j j j j j j j j j j j v v v v k x l k j h j h k j h j j d j h k a d d n n s d n T T Y z k k x v v c v j h m j j k j j k k k j k d j d h d k i k i k h a i j n j k k k k j j n i j n n n n j j x x k x j v k k j v v v m c k c k c k c h k k m m h k k k k k k z j k k h k k c h c z m j m j m m j m m m b.b.b.A.A..XA..X.XP..XY.9X.X.XU.E.P..X.X.X.X.X.X.X.X.X.X.X.X.X9X.X.X.X9X.X.X9X3X3X9X3X9X3X3XqXqX",
"+.o.X.| } / / } } / / } ~ ! $.! / / / / / $./ $.~ a.a.g ~ ! a.~ ! a.~ a.! ! a.~ ~ ~ a.m ~ ! a.~ $.$./ $.o.o.$.#.$.o.o.#.#.;.#.;.#.#.a.a.;.a.;.a.^.s.;.;./.;.;.a.a.XX^.oXoXoX!.^.^.a.oX;.;.a.;.;.@.@.@.@.a.O.@.@.#.#.O.@.@.O.O.#.+.+.#.X.#.O.+.O.o.o.:...o.:.;.:./.oX^.;.o.| / { ^ ! Q ~ ~ ~ ~ W Q W Q W P P Q Q J P L K K J L I P P P J I P P T U P U U U R U R R %.R &.%.%.%.%.D R R Z S D R D %.D R Z R D &.*.>.*.&.&.&.,.%.&.-.-.>.fXfX].>.%.%.D %.%.=...{ Y b x x x j x j j j j j j x j j x j j j b.j j j j b.q j j j j j j x v c x v v x v c j k j k j k j h j d j k n d n l l P P R ' T Y z z z z v x v x j k j j j k j k h j d j j h j k j j h j i j d j j a n j j k j n k n n k k k k k j j k k j k x k j v j k k k v c c k k c m h c h m k c h k k m k h v k k h k c k k c k c m z c c j m m j m m m j m m b.b.A.a.A..XY..XA.P..X.XY..XE.U..XU..XP.P..XY..X.X.X.X.X.XP..X.XP..X.X.X.X.X.X9X9X3X9X3X3X5X3X",
"X.X.X.| X.} X.} / } / / a.! $.$./ / / $./ $.$.$.a.~ ! ~ a.<.a.~ ~ a.! / ~ a./ / ~ a.~ d.a.~ ~ a./ / $./ $.$.$.#.$.$.o.#.#.o.;.#.#.#.#.a.;.;.;.;.;.;.;.;.;.;.;.;.^.a.a.;.;.;.;.oX!.;.;.;.XX^.;.XXF.@.@.@.@.a.@.@.@.@.@.@.@.@.#.#.+.+.+.+.O.#.+.:.+.X.:.+.X.:.:.:.^.#XoX:.:.| / | ! ^ ! ! ! ! Q Q Q Q Q Q W Q Q P P K P P P P K K P I P T P P U P U P U U U ..^ R R U %.%.%.%.%.%.%.Z D D Z R D %.D %.%.D <.R &.-.>.8.*.*.%.&.%.&.>.>.>./.fX/.>.&.&.%.%.%.:.{ Y Y v x x n j j j j j j b.j x j x x j j j j j b.j j j j j j b.j q b.x z x x z v v v c h m h h k h v k j k i s n d n l I { ..C.^.D.V.l z z l z z z x c j c j j j j j j d j k k j d j h j j h j i j i j n i j n n j k k k j j n k j k j n j j k k k x c k k k k v v v c c z c c c c m h c j c z k h k k z z k m z k c z k c k z v v m z j m m m m j m m m m A.A.A..X.X.X.X.XP.Y..X.XY.U..XU.P.P.P.P.P..X.XY.Y..X.X.XY..X.XP.P.P.P..XY..X.X.X.X.X X.X X9X",
"o.{ ! ! } { / } ! ! ! ! ! ! ! ! m d.$.! ! $.! d.~ ! ~ ~ a.a.~ a.$.$.$.! $.$.a.~ $.$.$.$./ $.$.$.$.$.$.$.$.$.a./ $.$.#.#.#.;.;.@.#..X$.a.$.$.a.a.:.#.#.+.;.:.:.;.!.;.!.XXXX^.!.oX^.a.!.oX;.;.!.;.@.@.a.F.@.a.#.@.#.#.@.@.+.#.#.O.O.#.+.O.#.+.+.#.| :.:.+.:.:.!.;.;./.:.:.o.$./ / ^ ^ ! ! ! ! Q ! ! ^ Q { { Q ^ P ^ ^ P P P K K J P I I K I U P U U U U U ..R ( ..( %.%.%.%.&.%.%.%.D R Z R %.%.D %.&.D %.D D &.&.h.8.*.&.&.*.&.&.&.8.>.>.>.-.-.%.%.%.=.%.=.R B.Y n v x n x x x x v j j j v j j j j j j j j j j j j j j j j j b.j v c v v v v v v v l k k x l x k k k k d k k d n B { ..C.].cX].'.{ f f Q L z L c k h v j j j j m h j k k c j k h i j j i j h k j n n j i n j i j n a k j j n n n j j j n n x k k x x k v k v k c h h m v m c k m k m k k h m k k k k k k m k h h j k v z h c k h m h m v m j m j b.m m b.b.Y..XA..X.X.X.XP..XP..XP.P.P.P..X.X9XP..X.XY..XY..X.X.X.XY.Y..XY..X.X.X.X.XY..X.XA..X.X.X",
"} / ! ! / ! ! ! ! ! ~ ! ! ! ! ! ! ! ! ! ! ! ! ! a.! a.! g ! ~ ~ ~ a./ $./ $./ ! $.$.$.! $.$./ $./ / $.! / $./ $.$.$.$.$.o.#.#.#.$.$.a.$.$.a.a.! X.o.X.:.#.@.+.:.:.;.;.XX!.oX;.^.;.!.!.;.!.^.!.;.a.O.@.@.a.O.@.@.@.O.@.@.#.O.@.@.O.@.+.o.o.+.+.;.:.;.;.:.:.:.>.;.^.;.^.:.=.| | ( / / / ^ ! / ! Q Q _ Q { Q { Q { _ P P ^ P P P P T P P I K K U ^ P K U U U { ( R %.R =.%.%.%.%.%.%.&.%.D %.%.&.%.&.%.&.D R D %.,.h.>.>.>.&.&.&.&.&.&.-.>.-.,.,.&.&.&.&.%.=.V.R Y v n n n x x x x j j j j j j j j j j j j j j j j j j j j j j j j b c c v b c v v v v k k k v k x d k k d d d l f T V.^./.cXnXbX].%X^ K ~ J C L z z m k k h j j j j k k j k d k k h k i j k d j k j i n j a j j n n j k n k d j k i n j j j k x j x k x k k c v j m c z c h c c h k h k z k k k z k z k k h k v z z c v v c z c c k m v j c m j m j b.m b.b.Y.A.A.A..XA..XP.P.P.P.P.U.P.U.U..XU..X9X.X.X.XY..XY..XY..X.X.X.X.XY..X.XY..XY..XY..XY..X",
"! ~ ~ ~ ! ! ! ! ! ~ ~ ! ! ! ! ! ! ! ! ! ! ! ! ! g ~ a.~ ! ! ~ ! $.! ! $.$.$.$.a./ $.$.$.$.! $.! / ! $.! / ! ! $.$./ / X.o.o.o.X.$.$.$.a.$.$.m a.| X.o.X.X.#.o.:.@.:.:.;.;.!.!.!.!.^.oXoX^.;.;.!.O.a.@.#.@.@.@.@.@.@.@.#.#.@.#.@.#.+.o.+.+.+.:.:.;.^.^.~.^.;./.^.:.:.;.:.o.$.( / / / / ! ! ! / ! ^ ! ^ _ ^ Q Q ^ ^ ^ ^ P P U Q U ^ K K K K U K U U K U ( U R U U R R U R U Z %.>.,.&.-.&.,.&.-.-.*.&.D &.R D D &.>.8.8.8.8.&.*.&.&.&.-.-.-.*.&.&.&.&.&.%.=.V.R Y H x n n x j x x j j v k j j x j k j j j j j j j j j b.j j j m j b v c v v v v c v v k x k k l k j d k j d n l V U D.(./.cXmXNXNXcX>.U C K K P K z z c c j h j j j k k k k k j k j k k k k k k k n i i j i j a j j k j n n j j d j a a j k j k k x x x z c k j c c k k c k c h c h k k k m k z k k z z k k k z k c z c c c c m c m z c m m j m j m j m m b.A.A..XO..X.XA.A.P.P.P.P.U.P.P.P.U..X9X9X.X9X.X.X.X.X.X.X.X.XY..XY..X9X.X9X.X.X.XY..XY.9X",
"! ~ W ~ ! ~ ! Q ! m ~ ~ ! ! ! ! ! ! ! ! ! ! ! ! ! ! ~ ~ ! ! ! ! $.! $.! ! $./ ! $./ $.! $.$.$.$./ <.! $./ / $./ $./ $.$.X.$.$./ $.$.$.$.$.$.$.m / / | X.| X.| X.o.+.+.@.;.:.;.;.;.!.;.!.;.!.;.;.a.X.a.a.@.@.@.#.#.O.#.#.#.O.+.#.+.o.+.#.+.@.:.;.^./.%X/././.;.>.:.:.:.:.:.o.=.o.} { / { { ^ ! ! Q ! { ^ { ^ ^ _ { ^ ^ { ^ P ^ P U U U K K K U U U P U U U U ....( U U U Z Z %.>.].fXfX>.-.-.>.>.*.&.&.&.%.S S &.-.8.8.8.8.8.&.&.&.&.8.&.-.-.&.&.E &.-.E =.E V.T H n n b k n x x v j j j j j x j j j k j j j j j j j j j j j j m b c b c Y c b c c v x l x v x n d k k l l n V H T V./.cXmXNXnXmXcX*X%.( Z ( ( ~ ~ z z k m j j j j h c k k j d j j k h k j k k k j j n j n j n j n n j k j k n j n j j n j n j k j x k k k k k k k k m h z k m k m k m h h k k k k k m h c h c k c c c c c c z c k c c c j m j m j m j b.b.b..XA..Xm A.A.P.P.A.P.P.P.Y.P.P..XP.P..X.X.X.X.X9X9X.X.X.X.X.X.X.X.X.XY..XY..X.X.X.X.X.X",
"! ~ ~ ~ ~ ~ ~ ~ ! ! ! ! ~ ! ! ~ ! ! ! ! ! ! ! $.! ! ~ ~ a.! a.~ $.! $.$.! $.! $./ / ! / ! $.$.! $./ / $.$.$./ / / / / $.$./ / / ! / / / ! / / / / } / / / | X.X.X.X.o.o.:.#.+.:.;.;.;.!.!.;.;.!.a.O.a.O.@.#.@.@.#.@.@.#.#.+.#.#.:.+.| :.:.:.:.!./.^././.*X/./.^.>.:.:.o.o.o.=./ $.( / / / / ! / { ^ { ^ { / ^ ^ ^ { ^ ^ ^ ^ U ^ ( ^ U K U K K U U U U U U { ..R =.U T R T T %.>.jXjXfX].>.-.>.>.>.&.&.&.D D E F &.&.8.h.8.*.&.&.9.&.&.>.>.-.*.&.&.&.&.&.=.V.R B.H l v n n n x x j x j j j n j j j j h j k j j j j j j v j j j m Y v Y b v Y L c c c v v v l v n k k l l n l H H { ../.cXMXMXNXMXNXjX>.%.U <.U ~ K J H l j j j v j j j k k k d j a k h k n n j j n k j k n j j n j a k n j d k n j n j i n j j k x k k k k k k c k h m h m h z k k k z k k k h m k z k h m z z k k h v z k c k c z z m h m j m j j m m m m A.m .XA..XA.A.P..XP.P.P.P.Y.P..X.XU..XY..X9X9X.X9X.X9X9X9X.X.X.X.X9X.X9X.X.X.X.X9X.XY. X",
"m ~ g ~ W ~ ~ c h ~ ~ ~ ~ ~ ~ ! ! ! ! ! ! ! $.! a.! ! a.g ! ! ~ ! ! ! $.$.! $.! ! / ! $.$.! ! $.! / $.$.$./ / $./ / / / / / / / ^ ! / / ! ! ! ! / / / } / / $.} { / / } X.X.X.+.+.+.@.:.;.;.:.;.X.a.O.a.#.@.#.#.#.#.O.@.#.+.O.#.+.+.o.+.:.:.:.^.^././.fXfX/././.:.:.=.o.| ,.o.| $.| | $.{ / / ! { { ^ / { ^ ^ ^ { ^ { ^ ..( { ^ ( ( ( ( U ( U ( K ^ P { U ..R V.=.-.E ^.%.%.=.].jXjXjX].>.>.>.>.8.*.*.&.&.E D E D 8.9.9.8.9.&.9.&.&.9.-.9.&.9.9.9.F 5.&.E -.=.T Y l n n x k x k x j j j j j j j k j j k j j k j j j v j j m j m b v v L L v b b c c v L c c v v k l v l H H I J U D.].cXUXUXUXUXMXNXfX=.%.U Z ( K K H l z c m v v v k k j k k k k j k k n j x k n j n j n k k j k k j n n j j n k j n j j k k d k x j k j c k k k c h c k j k k k z k k m h k k k k k c c k c m k m k k m h z k c z c m h m j m j m j b.m m A..XA.O.m .XA..XP.P.Y.L.L.P.Y.U.Y..X.X.X.X.X3X.X9X.X.X.X9X.X.X.X.X9X.X.X9X.X9X.X.X9X X",
"~ g g g g ~ J z ~ ~ g ~ ~ m ! ! ! ! ! ! ! ! ! ! ~ ~ ! ! ! ! ! ! ! ! ! $.$.! ! $.$.! ! ! ! $.$.$./ / $.! $.$.! ! ! ! ! / ! / / Q Q ^ ! ! / ~ ~ ! ^ Q ! Q / ! Q Q / / / / / { X.X.o.+.+.;.:.@.@.F.a.O.a.O.a.O.#.@.#.#.#.#.+.#.#.+.#.:.:.o.:.:.:./.^././.hXfXhX/./.:.,.o.=.=.o.=.| o.( o./ } / / / ! { / | { ^ { | ^ { { ^ U { ^ ..~ U ( ~ ( Z ~ U U U P U U R V.R ^./.]./././.].*XjXjXfX>.>.].>.>.8.8.9.&.F D &.D &.9.8.gXh.8.8.9.&.9.-.&.*.&.*.&.9.F &.&.E V.V.Y H n v n n k k x k j k j j j j j j j j j j h j j j j v j j j j m v b b b b L c L b H Y c c c c z c c l c v H H I T =.(.].NXUXUXMXMXMXkXfXs.>.<.K U C C z c c c k v v c k k x x x k k k j x n n j k j k k k n k n n n j k k j d k k n j j n n j j x k k j k k k k k c h j k k h k k m k m k m k k h k k k v c z h c k h z z k c z c c h z m k m m m j m j m m A.m A.A..XA.A.P.P.P.P.L.Y.P.P.U.Y..X.X9X.X.X.X9X9X.X.X.X.X.X.X9X.X9X9X9X9X9X.X9X9X9X9X",
"g g g g z z g z z z ! ~ ~ ~ ~ ~ ! ~ ! ~ ~ ! ! ~ ! ~ ~ ! ! ! ! ~ ! ! $.$.! $.$.! ! ! ! $.$.! / $.! ! ! ! ! ! <.! ( ! Q ! ! ! Q ~ ! ! ( ! ~ ~ ~ ~ Q ~ ~ W ! Q ! ! ~ Q Q Q / / | | | o...@.@.@.:.;.#.#.O.a.#.@.#.O.@.@.@.#.o.+.o.#.#.+.+...:.:.^.#X/./.hX].hXfX*X].:.=.=.o.o.o.o.$.| | X.$./ / { ! / { { { / { ^ ^ ^ U ^ { { { ( ( ( ( ( <.K ( ( U ( U ( U ....=.^.=././.].fXfXfX].].>.>.>.>././.].8.&.9.*.9.&.E D &.5.8.9.gXh.8.9.9.&.9.9.>.9.9.9.&.9.9.&./.E R T T n l n x n k x x k j j k j k h j d j j j j k k j k x x j j b j L v v H v b b L b v b L Y L c z c L L c L v I L T ../.].NXUXUXMXkXNXNXjXkXfX,.( Z C H H z c m c c c k k x z v x v x x k x x x n k n x n k j k k j k n j j n n j j k k j j j d j k k k k k k c j k h c h k k v k k h k h k h z k m z c z c k c c z c m c k c c m c z m m h m j m j m j m j m m m m m .Xm A.P.A.L.P.A.P.P.Y.Y..XU..X.X9X9X3X.X.X9XY.9X.X9X9X9X3X.X9X.X9X.X9X9X.X9X7X",
"z z h z z z z W ~ z W W ~ W ~ ! ~ ! ! ~ ! ! ! ! ! ! Q / ^ ! _ ! ! _ _ ! ! ` / ! ! ! ! m m $.! ! $.$.! ! ! ! ! ! ! ! ! ! ~ ! ! ~ ! m ~ ~ m ~ ~ ~ ~ ~ m ~ m ! ~ m ! ~ ~ ! ~ ! ! ! X.o.X.o.+.+.@.:.@.@.#.+.@.O.#.#.X.@.#.X.@.#.X.#.;.#.X.o.:.:./.^.#X#XfXjXjXjXgX/.>.:.=.( $.=.=./ | / $.$.$.! ! ! { / / { ^ ^ ^ ^ ^ ^ U { ^ U ( ..( ( ( ( %.( ( U U { U ( U ......=.-./.fXfXfXfXfX8.8.>.>.8.fXfX].8.8.9.-.&.&.S E &.9.8.8.8.gX].9.9.F &.9.*.9.9.8.9.9.&.&.E ^.R T T x n H n n x x x x k x k k k j j h j j k j k d j n n k x v v v c l v c c z c L v c H c z L L L Y c c L L L L L P ( %.>.jXNXMXMXNXNXzXMXzXNXh.D Z C J L L H b v b v n b n v x x x x x x n x x n x k l x v k x k j k d n k h d n j v h j h j k k h k k k z j k k k k k k j h c h j c k k c k v k c k m h h m c c v v k c c c c c m m z z m z m m j m j m m m m m n.m A.A.A.A.A.K..XY..XY.U.U.9XE.U..XE..X.X.X9X.X.X9X.X9X.X9X5X4X9X X9X9X3X9X9X.X9X",
"h g d z l l z z z W J ~ W J J ~ W W ~ ! ~ ! ~ ! ! ! ! ^ ^ ! ^ ! ^ ` ! ! ! ! ! ! ! ! ! f.! $.! ! ! ! ! ! ! ! ! ! ! ! ~ ~ m ! ~ ! ~ ! ~ ~ ~ ~ m z ~ m z ~ ~ W W W ~ ~ ~ ~ W ! m ~ } } | .. .X.+.:.@.+.+.#.@.#.#.#.O.#.#.X.#.X.#.O.#.+.:.#.:.:.s.;.#XfXfXfXjXjXjX/.>.:.,.=.,.:.o.$.o.o.$.$.$.! X.! } / | / { / ^ ^ ^ ^ | U ( ..( ( ( ( %.$.| ( ( ( ( U %.U R U R ( ( =.:./.].fX/.h.>.>.8.8.8.8.fX8.h.8.8.8.9.&.&.&.E F 9.8.h.kXkX8.*.e.9.&.8.&.8.&.&.9.9.9.-.-.R T T Y Y x n x n x x x x k n k k h d j j d h k n j k h k k l v n l v l v l l c L c H c L L L L L L W W ) c ) Y P L P K ^ =.fXjXzXzXzXBXMXBXzXzXh.&.Z C K J L L Y H v b b v v v b v b n n b x x B.n l x x v v v k k a i j j k n j j k h j k j h h k k h k h k h z k h k k m k m h c k h c z h c k k h c k c m z j c c c z c z k c c z z z m c c c c m k m j j m m m m n.A.A.A.A..XY.A.Y.Y.K.U.U.U.E.U.9X9X`.9XE.9X.X.X9X9X.X9X9X9X7X X9X3X9X.X9X.X9X9X",
"z d h k l l l z g z J W z W W ~ ! ~ ~ W W ! ~ ~ Q ! ^ ! ! ^ ^ W _ _ Q W ! ! ! ~ ! ! ! ! ! ! ! ! ! ! ! ! ! ! m m h ! h ~ ! ! h ! z ~ ~ ~ z ~ z ~ z ~ z ~ W z ~ z z ~ m m W W ! ! ` ` {  .} ..O.+.#.#.#.#.#.#.@.@.#.@.#.@.O.#.#.O.#.#.X.:.:.;.:.^.#X/.fXhXjXcXjX:X#X>.:.:.=.:.:.=.=.$.$.$.$.! / X.} / / { | / ^ | ( | ( ....( { ( ,.( / %.%.=.=.| %.( U U U R ( =.U %.=.>././.fX8.8.8.8.8.fXfXgXgXh.8.8.9.&.&.&.S &.F 9.9.9.kXkXgX8.F F &.*.8.9.9.9.9.9.&.-.-.R R n T n n Y n x x x k k x j j d d h k j d n j n j n k n n x H v v l c z v l v L L H c L L W L L P W P b L Y ) ) P P K U ( -.fXjXjXzXMXMXBXVXzXgX,.Z K ~ J L Y L v b v b c b v b v b b b b n x b x v x v v v n k k k n j d n j a k h k h h k h j k j k k k k k k z c k k h k k k k k h k k c j k c m k k c k c z c v c c k v v c c c c z z v c z m m m j m j m m m b.m m A.A..XA.A..XY..XY.U.U.U.9XE.E. X X.X X.X.X X X9X9X9X4X4X9X X9X9X9X9X9X.X9X9X",
"d h h k d d d g d z g z J J L J z ~ z ~ ~ W W ~ Q Q Q ! ^ Q Q ! Q Q ! ! ! ~ ~ ! ! ~ ! ! ! ! ! ! ! ! ! m ! ! ! f.! ~ ! ! ~ h ! ! ~ ~ z ~ ~ z g ~ z z z z z z z ~ m g g ! ~ z W ~ ! ` / { { X.O.+.O.O.#.+.#.O.@.@.a.X.@.#.a.#.O.a.@.o.:.+.#.:.a.s./.%XfXjXjXjXjXfX#X/.>.:.>.:.:.o.o.:.#.$.$.$.X./ X.} | { / | ^ | | { U ..( ..%.{ $.( =.o.=.=.=.=.=.=...R ..=.%.=.{ R %.=.>.>.>.].>.h.8.8.gXgXgXgXgX8.8.&.&.F 9.&.&.5.&.*.8.].gXgXh.9.5.F 9.&.&.9.9.9.9.&.-.E ..U Y n n n n q B.n j x x k k n d j k j k j j k j n n n j k n n v v v k k z c L H c L L L Y L P ) _ W W W W ) ) ) _ Q K U U %.>.fXgXkXMXBXMXUXBXgX&.Z C ( J Y Y Y H L b b b b b b b b b x b B.x b x v v v c x l k n d j d n j d k j h k k j k h h k h k k k h k k k h k h k k k k k h c v h m h h m c z m h c z c k c c c j z c z c z z z m z m v z m j m c b.m m m m m m A.O.A.A..XA.K.K.P.U.U.U.U.P..X9XE.9X9X X4X.X.X9X X9X9X4X9X9X9X9X9X9X9X9X9X.X",
"d h h h h h h d d g z z z J W J z z ~ ! ~ W W ~ Q Q Q Q Q Q Q ~ ~ ! ~ ~ ~ ! ~ ~ ~ ! <.! ~ ! ~ ! ! ~ ~ ! ! ~ ! h ~ ! ! g ~ ! h ! ~ ~ z ~ J z z z g z z z z z z z ~ z z ~ z W ~ m Q _ ` { {  .O.+.X.X.$.#.O.#.@.#.a.O.a.O.#.O.a.#.#.#.+.#.;.;.:.s.>.*XfXhXjXjXjXfX*X/.>.>.>.:.:.=.=.o.o.$.X.$.$.| | | } | | ^ | | ( ( ..( ..( =...%.%.=.=.:.=.=.=.=.=.=.=.=.=.=.=.=.,.-.-.>.8.h.8.8.h.gXgXgXgXgXgX8.h.8.9.F &.D 9.&.F &.9.8.h.h.gX9.j.9.9.9.9.8.9.&.9.*.9.&.=...T H H Y n n b n n j x k j h n d n k j x j n n j n n x n x x x Y n z x k z z m z m c L L Y P ) _ P W W W L _ _ ' _ P P U U %.-.].gXkXNXBXUXBXzXh.&.<.Z U P P Y P L b Y c c Y b b b b b Y b b n x Y c v b v v v k k k k k k n k n n k k h v k h k h k k k k k k k k c h m h k h k h m k k h c j h h k h m k z k m z c c h m z c m z m z z m z m z m b b m b j m m m m A.m m A.A.A.A.A.Y..XY.Y..XP..XU..X.XU..X4X X9X9X X9X.X9X4X4X9X9X9X9X9X9X9X9X.X.X",
"h u p u i h s h a d g l g z z z ~ z ~ z W ~ W ~ Q ~ Q ~ Q ~ Q ~ ! m ~ ! ~ ~ ~ ~ ~ ! ! ~ ~ ~ ! ! ~ ~ ! g ~ ~ ! ! g g ~ m h ! h ! z ~ z g z z g g z g z z z z z m g z z ~ ~ z ~ ~ ~ W ! W { } | O.$.$.$.X.O.#.#.#.X.a.X.a.O.#.O.#.o.#.#.#.:.:.;.a./.*X*XfXfXjXfXfX/.*X#X/.^./.:.:.:.:.=.o.( | $.| / } } / | / | / ..| =.( ( ( { %.| =.=.o.=.:.:.-.=.=.=.-.=.-.>.-.-.>.>.>.8.8.8.h.h.gXgXgXgXgXgXgXgX9.h.9.*.9.9.F 9.5.F *.9.9.w.h.h.h.9.*.*.F 8.9.9.9.9.9.&.E R U Y H n n n n x n n j j n k k j j n k n j x j n j n n n n n x n n k d k z z z z z L c L L L P W _ L W W m ) _ ' _ { P T K R =./.fXNXzXUXBXBXzXh.&.Z U Q Q { Y P P L Y Y c v b L Y Y n n b b Y Y x v v c v v v v k k x k k k k k k k h k j k k k k k k c h j z k k h c k j k k c k k k k m h c m z c c k m v z v m c c z m c c c m z m z m m z m z m m b m b.m m b.m m m A.m A.P.A.A..XA.Y.Y..XP.Y.U.U.U.9X9X.X X.X X X9X9X4X9X4X4X9X9X9X.X9X.X9X9X9X",
"i p p u u u u h a a d l l l z z z z z z J W W W W W ~ W P Q ~ Q ~ ~ m ~ ~ ~ ~ ! ~ ~ ! ~ ~ ~ ~ ~ ~ ! ~ ! ~ ! ~ h ~ m ~ ~ ~ m ! ~ ~ z J z g g g z g z z g h z z z h z z z z z h W J W L ! Q ! { X.! X./ X.$.@.#.#.a.X.O.O.a.$.O.a.X.#.o.o.o.:.,.:.;.*XfXfXfXhXfXfX*X/.*X/././.s.:.:.:.X.$.$.$./ X.| } / X.$.| | | | ( ..{ { | ( | =...=.:.=.-.-.:.=.>.-.-.-.>.>.>.>.>.>.>.8.8.gXh.h.kXgXkXkXgXgXh.h.8.9.8.9.9.F 9.*.5.F 9.9.9.8.h.h.w.8.9.*.9.9.8.9.9.9.*.-.&.R T T n H n n b x n j n k j k j n k j n n n n n x x x n x x n b x v k k k k z c m z c H z L W W W W W W W W _ _ _ { _ P I T U %.-.gXzXMXBXUXMXzXh.D <.~ P { { P Y P Y c Y c Y c c Y Y b n b Y Y b Y b v v c c v v v v v v x k k x x j z z j h j k k k v h m z j z j k h k k h m m h m h z k z k h c m z c m z m z m z m m c m z m m m z m z z W z W c ) m ) m [ m B.] m m m A.a.A..X.X.XA.A.K.P.P.P.U..XU..X9X.X.X9X9X X.X9X9X4X9X9X9X9X.X9X9X9XY.Y.9X",
"i p p p u u u u a a a d d g l l z g J ~ z J J ~ J Q P Q Q L P L ! m ~ ~ ~ ! ~ ~ ! g ~ ~ ~ ! m ~ h ! h ! h ! h ! ~ g ~ g m ~ ! h z z z z g g l g z h h z z h z h g h h g h z g g g z J J W W ! } ! ! X.X.$.#.@.O.a.O.a.O.X.a.O.$.#.o.o.o.o.#.#.#.#X#X*X*X:XfX*X/.fX*X*XfX*X*X%X#X:.=.o.| ( $.X.X./ / / $.$.{ / / | | | ^ | ( ( ( ..%.=.| :.=.=.=.>.=.=.-.-.>./.8.8.>.>.h.h.8.8.9.h.h.gXkXgXkXw.h.9.h.h.9.F *.9.*.*.F F 9.F 9.9.8.h.h.9.&.&.F *.9.F 9.F 9.&.=.U T T n H n n n x x n j j n j n j n n x x x n x n x x x n n x n n n k j z z c z z z l c c L c L P W W J W P ) _ ' ' { P T B Z R ].gXNXMXUXBXBXzXh.,.Z ( U { { { P L L L c L c Y b L Y b Y Y b n Y x v v v c v v v v v v v l v x l n j j k z m k k k k j j h j z j v h k k v k z v c k c k c k c m k h c c z z m m z m z m m W z m m z m W W m m m m c m m ) [ [ [ [ m m A.A.m A.A..XA.Y.Y..XY.P.K.P.Y.U.U.U..X9X.X.X X.X9X.X9X9X4XU..X9X9X9XY.9X9X.X.X",
"h u M r r p p p u i a a a d l d d f g l z z z z z J J L L P P L ~ z ~ ~ ~ ~ ~ ~ g ~ ~ ~ ~ ~ ~ ~ g ~ z ~ ~ z ~ z g ~ z z ~ z z z g J z g z g d d k g k g d k d l h h g h g d g d g z z W W Q _ ! ! ~ ! ! $.X.X.X.O.a.a.O.O.X.O.a.a.! a.~ a.! a.$.^.#X/.fX*X*XfX*X/.#X*XfX*X*X*X/.:.=.X.=./ $.=.X./ } / X./ / } / / ( | | ( | | | %.....=.=.=.=.-.-.-.:.-.>.>.>.>.>.>.8.8.h.8.h.h.h.kXgXh.kXkXgX8.8.8.9.*.9.F 9.F 5.F F 9.F 9.*.9.[.h.h.8.9.F F 9.9.*.8.9.-.E R T H H n n n k k n x x j n j n n n n x n x n x x n x x b n b B.n n k k z z v z z k c z c c z W W W J J W W ) ` `  .P P U T U E >.jXzXBXBXUXzXkX9.D D U ( { { { { { Y _ P Y P ) ) ) b L Y b Y Y b b b c c c b b c c c v v c c v c v z z v j c c k k k k k j c k v v m c h m k k c h c c k c z c c c m c z m m m m m m z m m z m m W ! W m W m W ) m W ) ) [ [ [ ] ] ` [ [ ] A.] m .XY.A.A.P.P.P.P.P.P.P..X9X9X.X9X.X X9X9X X4X9X4X9X9XY.9XY.9X9X9XU.Y.",
"h h M M M M p u y y u i i a d d d d d l g z z z L J c L L L L J g ~ ~ z z ~ ~ ~ ~ ~ ~ ~ ~ ~ ~ ~ ~ z ~ ~ z ~ z ~ h ~ ~ z h ! g ~ z J g z l g d d d d d d d d d d h h h g h g d d d z z z z W W W m ~ ~ ! ! X.X.a.O.X.X.a.O.a.O.X.! a.! a.~ a.$.,.:.>.;.#X>././.#X>./.*X*XfXhX:X:X;.o.$.o.| $.X.| } / / X.} / $.} | | ^ | | ^ ( | ..%.=.=.=.=.-.:.:.=.*.-.>.-.8.>.>.*.*.*.8.h.h.8.9.kXh.kXgX9.h.8.9.8.F 9.8.8.8.9.9.*.&.9.5.F F 9.h.h.gXw.9.&.9.*.9.9.9.&.-.^.R T H n n n n n n j x x x j n j n x n n n n n n n n x n n x n n n n k k k c v v z z z z J J L W W z W W W W ) ` ] { _ { ( T Z =.>.jXMXUXUXMXzXh.9.D Z ( U | { { { { W ) ) Y L Y Y ) Y Y Y Y Y Y Y Y L b b c c c b L c c v v v b v v v j c j k k c j k c k v v c v v z v c c c c c m k c c k c c v z z c m z m ~ m ~ ~ m ! m W m W m m m W m ~ m W m L m ) [ ' ] [ ] [ ] A.] ] A..XA..XA..XA.P.P.U.Y.P.U.U.E..X X.X9X X X9X9X4X9X9X9X9X9XY.9XY.9XY..X9X",
"h M r h h p p u p p p y i i i a h d d d k z l l z J J L J L L J z ~ z ~ ~ ~ ~ ~ ~ g ~ ~ ! ~ ~ ! ~ ~ ~ z ~ z ~ g ! ~ h ! z z ~ m g z g z l d d l d d d d d d d d h h h h u s g u d d g z l z z ~ ~ ~ ~ ! ! X.$.X.O.a.X.O.X.a.O.a.a.~ $.$.a.~ a.a.:.:.:.;.^.;.>.#X^.>.*XfX*XhXhXfX^.=.( | ( $.o./ / ! / / / / / / ( / / ( ( $.( | =.%.....=.:.:.-.>.-.-.,.-.-.>.>.>.8.>.h.8.h.9.h.gXh.gXgXh.gX8.8.F 9.F 9.F 9.9.F F F 9.F 9.&.9.F 8.h.kX8.*.*.9.9.F 9.9.-.-.R V.T I V n s a n n n x x n j j x n x n n n n n n n n n n x n n n n j k k j z z v c c z l c c z W W W z W ~ m _ ` ` { { Q U C Z *.fXjXMXUXBXBXzXh.&.D D %.( ( | ....{ _ W ) W ) L W W L L Y L b L Y c b b c b c b b c c c c c c c c v v j c c v j v v j j j v j c c v k c c k m h c c v c c c k c c z c z m m m m z m m m ! m m m W ) m W W W m W m W ) W [ _ ` ] ] ] ` [ ] A.A.] A.A.m .XP..XP.P.Y..XU..XE..X9X.X.X9X X X9X X4X9XU.9X9XY.Y.`.9XY.U.Y.Y.",
"h u M r u M M h p p p p p y y i i i h d d d d g z l z z J z H z z z z z z ~ z z ~ ~ ~ g g m ~ ~ z ~ ~ ~ z ~ g ~ z z ~ h ~ z ~ h z J z g l g d g d d d h d h i d h h h h h u h h h d d d g z z z z ~ ~ m ! $.$.$.X.X.X.X.X.X.X.` ~ a./ ~ ~ a./ $.o.:.:.:.:.>.:.:.:.;.;.#X/.,X*X;Xa.:.o./ / X.$.^ / / $./ / / $./ / | $.| | ( | ( | | %.=.=.=.=.=.=.=.-.-.>.>.>.8.*.*.8.8.8.h.9.h.h.w.h.h.w.h.9.9.F F F 9.F 8.8.9.9.9.*.9.F &.F 5.9.8.kXgX8.9.8.9.F 9.-.9.E V.T T H l n s n k n j x x x j x n x n n n n n n n n n n n n x j n x n j k h z k c k k l c z c J L W ~ W z ~ W W _ _ { { U K Z R -.fXNXUXBXUXMXj.9.G D <.( ( | ....| ..Q _ _ W L ) Y W b Y L Y Y Y L m L b Y c Y c b Y b b c c b c c v c c c j m v v v v j v j v v j m c k h m c c c c v z c k m v m m m m m m m ! m m ~ m m m W W ` m ! m m W W m W ) [ ) ` ` ' ] ] ] ] ] ] O.O.A.m .XA.A.A.P.P..X.XY.U.U.U. X.X9X X.X X X9X9X4XU.9XU..X9X9XU.U.9X9XY.Y.",
"h h p r M p p M p p p p p p i p p y i i a a d n k l l l l l l l z z z g z z z ~ g ~ ~ g ! z g ~ ~ m g ~ z g ~ z ~ z ~ z h ~ z z z z z l l g d d d d d i a i a a h h u h u h h h d d f d d g l z z ~ ~ ~ m ! $.$.! X.! $.` $.X.X.$.$.a.a.$.#.:.=.o.o.:.:.:.:.:.:.;.,.>.a.%X%X&X*X#XX.$.| $./ / ! $.! ! X./ / / / / ( / / ( | | ( $.%.| o.=.=.=.=.-.-.=.>.-.>.-.>.>.>.*.8.8.h.8.h.8.h.h.].8.9.9.&.S F &.9.*.9.9.F *.9.F 9.5.F &.5.8.gXkXNXgX8.8.9.9.9.*.&.-.V.R B.l l f n n n n x x x n j n j j n n n n n n n v n v n n v n n n n k h z v z k z z z z z v W z W c W W ~ W ) ! ` _ P K U C D >.jXzXMXUXBXNXkX9.G S Z ( ( | | ..| | ` ` _ W W W W ) W P Y L L Y c Y ) c b b b b b ) c b c c c c c c m v v v j j m v v j v v c j m j c k k z c c m h c k c c z m c c m W m ) ! W ! m m ! m m m $.! m m W m ! ) ) W W ) _ ` ' ` `  .] ] ] O.] a.A.A.A.A.A..XA.Y..X.X.X9XU.E..X X9X9X.X9X X X9X9X9X`.9X9X9XY.`.9X9XY.U.Y.",
"h h M h h p p h p p p i p i q i p p u p i i s a d a a k d l l n d z k z z g g z g h g ~ ~ z m ~ z ~ z ~ ~ z z z z z g z m g g z g z g z l f d d d h d h a i i i h h h u h h h h h d d d d d l l g g g g ~ ~ ! ! ! ! ! ! ` $.! $./ $.~ $.o.$.$.o.o.=.=.o.:.:.:.:.=.#.;.:./.@X%X%X;.$.$.$.$.$.$.! / $.! / $./ $./ | / | ( | / ( | | $.%.=.=.=.:.=.%.=.,.-.>.>.>.>.8.*.>.*.8.8.h.9.h.w.w.h.8.9.&.&.D E S F *.9.*.9.9.9.9.*.F 9.9.*.9.gXNXkXgX8.8.*.9.*.8.&.E C.R T H f s n n l x n j x j j j n j n n n T n n n n n l n v n x x b x k k j h j k k k x z z c z c W W ~ z m W W ) _ ! ^ K K Z %.8.kXzXUXBXMXNXh.*.D D D D | =.=.....| { ` _ _ Q W _ W ) ) Y ) Y ) Y W Y b Y ) ) ) b ) Y c b c m m b c x x m m m c c v v j v v v m v m k c v m m z m m m v c c c z m m m m ) W m m m m m m m ! m m m m m W ! m ) ) ) ) _ _ [ ` ] ] ] O.] m O.A.b.A.X.X..XA.A..X.X.XY..XU..X9XE.9X X X X9X3X9X X9X9X9XU.`.Y.`.`.9XY.Y.Y..X",
"h M h h p p p p p p p p p p i p p r p p y y i i i i a a d k d g g d z g g k g g g g g g h z m ~ ~ g g m z ~ z z z g z z z g z z z f z l g d d d d d a a i a i i h h h h h u h u a h d a a a d l g g g z z ~ ~ ! ! ! ! ! ! ! ! $./ ! ! / / $.X.o.o.| X.o.=.o.=.:.o.$.o.;.a.;.oXa.;.$.$.X.$./ X.$.$.! / / / $./ / / ( $.( / ( | / $.%.%.( %.,.=.,.=.,.-.-.-.>.>.>.*.>.*.8.8.8.8.h.8.h.8.8.8.F &.S &.D F 5.9.*.9.9.8.9.9.*.&.9.F 9.9.].kXkXgX8.8.9.9.&.9.&.^.R U P H f f n l v n x x x x n x x x n n n n n n H n l n v n v v n n n k k k k k d k z x z z c z W z W z ~ z W W W ! ! Q K ( Z -.h.jXzXmXBXBXzXh.e.S D D ( | | :.| =...{ } ` Q _ ) ) _ _ _ ) W Y L Y P c m ) b b ) ) ) ) b c b c b c c m b v v m c c c v v v v m v c c m k z k z m m z c z z c c m c W W m ) m W m m c m m m m m m m ! m m m m ` ) ` ) _ ) ) _ _  . . .m a.a.A.X.A.A.A.A.A.P..XY..X.X.X X.X4X X.X X X9X.X.X9X9X X9X9X9X).).`.Y.9X.X.XY.Y.",
"d h h M h p p p M p p q i p p p p p p p p y u i u i a a h d d h k h d d l g g g g g g z ~ z g ~ z z ~ g z z ~ z z z z z g z z z z z g l d l d d a a d a a a h i h M h u u u u u i u u u u a s d h g g z ~ z ~ W W ~ W m ! ! ! ! ~ ~ ! / / / / / | $.| $.| o.X.| o.:.:.;.:.;.:.#.#.$.$.#.$./ X.! ! $./ / / / } / | / | ^ | $.( | ( $.o.( | o.=.=.=.=.=.:.-.>.>.>.*.>.*.F 8.8.h.9.8.8.h.8.8.9.&.%.S S D *.*.8.*.F 8.8.9.*.9.F 9.&.8.gXkXgX].9.9.8.*.9.-.-.E =.{ T I n n f l v x n j x n x n n x n n n Y n n l n n l n v v n x n x j z h k d j d k x v z z J z W W ~ m W W ! ) ) ! ( ~ ( D *.jXjXzXUXUXMXkXh.F A D R %.=.=.:.:.=... .{ ` ` _ _ _ _ _ ) ) P P Y Y Y Y W b Y ) m Y ) c m Y b L m m v b b m v v m j m v v m b v m m m k c z z m z m m c c c c c W m W m W W m ) W m W ! m m m ! m m m ) ! m ` ) ) ) ) _ ) _ _ ` `  .O.m a.m $.A.X.A.A.a..XA.P..X.XU..X9XU. X9X4X X9X X9X9X3X9X9X X4X4X).`.`.`.Y.9XY.Y.Y.",
"d h u r u r p u p p p p p p p p 8 M M p p p p u p p u u u u r h h h h d h d h d d d d g d z z z z z z m z z z z z z z z z z k l l z k l k l l d d d d d a s s i u u u u u h a h i h h u u a h g h h g h g g z z W ~ W ! ! m ! m ~ ! ! / $.! $.O./ } } X.| o.o.,.$.$.#.,.#.,.#.:.$.$.$.$.| $./ ^ ! / } } / / / ^ ^ / | ^ ( { ( ( ,.( $.%.o.%.=.=.:.,.-.:.-.>.=.>.>.>.>.8.>.h.8.8.8.8.8.8.8.-.E S D S R &.&.&.>.8.8.8.9.9.9.>.9.9.9.8.h.8.8.h.9.8.-.-.-.-.-.{ U P H H n n n n b n B.q n n B.q T q n n n H q Y n n n n n n n n x j n n n k k k l x x v l H z z ~ z c ~ W W P _ _ Q ^ ( Z %.h.gXkXzXBXUXzXgX8.D S D %.>.fX]./.^.=.^.=...| { ^ ! _ } ! ` ) ) _ [ Y Y c L m L ) W m ) m W m Y b b ) b c m c c c b c j m v v m j c c c m c c m c Y m L b c L m ) ) Y m m m ! m ! m W m ~ m W m m m ! ! ! m m ! m ! m ! ` W ` ` ` O.O.O.O.` ` a.m A..XO.S.P..XR..X4X4X9X9X9X3X9X9X.X9X.X X X4X X4X4X4X4X).U.4X9XU.U.Y.U.Y.",
"g h u u h r M r p p p p r p p p 6 p 8 M 0 M p p p p p u u h h u a s d d d d d d d k d d z z z z m g z g z c z z z z z z z z c z z g z g k g l g d d d d a a h u u u u u a h s a u u u u a a h d h h h g z g g z z c z ! m ! ~ m ~ ~ ! ! ! / ` ` { _ / } | $.| | / ,.| $.o.o.$.| o.$.$.X.$./ / / / { } / | { ^ / / { ^ | | { | { | ( ,.( %.| =.,.=.=.,.=.>.-.>.-.*.>.>.*.8.*.>.h.8.8.8.h.8.9.-.R D D D %.&.&.-.8.8.9.8.-.&.9.&.9.9.8.9.8.9.9.8.9.9.-./.-.V.R U T T H T n b n n b n b T q n T n T T n n I T n T n T b n B.n n n x n n n j k j x x v l l c z z J W ~ z z W W _ P ^ P ( ( %.h.jXzXMXBXMXNXh.8.&.S %.-.].cXcXhX]./.^.=.( ^ | ^ ! ! ` W ` ` ) _ _ ' Y Y m W c m ) ) ) ) m Y m ) c m b c c m c v b c v c c m j c c m v v c z v c b Y m b b b b b ) ) ) m ! m m m m m W m m ! m m ! m m m ! m ! ! m ! m ) ` ` ` ` ` ] O.O.[ ` .Xa.m O.A.S.P.P..X.X4X5X4X.X.X9X.X9X9X X9X9X4X X4X5X4X5X5X`.4X).U.9XU.U.K.K.",
"d h h h h u h h y u y u p p p p p 6 M M M 8 p p M r p p r u u u u u u h i h h h h d h z d z k z z z m z c z z z z z k z c H z c z z z z z k g k d d a d a u u u u u u h u h a h h u u u u h h d g h h g g g g h g g z z z z ~ ~ ~ ~ ~ ~ ! ` ` ! Q ! _ ^ ( / / / $./ ( / / ( / / / $.$.| } { { / { / / / / ^ ^ ^ ^ ^ | / ^ ( | ( | $.$.( | %.=.=.=.,.-.>.=.>.>.,.,.>.8.>.>.*.h.8.8.8.8.8.].-.-.&.R S %.&.%.&.-.&.&.&.&.9.9.9.&.&.F *.8.8.8.9.-.8.-./.-./.E U T T T H n T T n T n T T B.T T T q B.I T T T T T T T T T T T H B H n n n n T k l x v v v l c z z m z z z z W W P _ { U ^ ( ,.fXcXzXUXUXMXzXh.>.D D &.8.NXMXMXnXNXcX/.=.{ ^ ^ / Q ! W _ ) _ _ _ _ Y Y W m W W m ) ) ) ) Y ) Y ) b Y b m m c m m m c c m c c c c v c c c c c m b ) Y b L L b Y b b ) ) m m m $.! ! m ! m m m m m m m m ` ` ` m ` m ` m ) ` ` ` ` O.] ] ] ] ` m m A.] .XS.P.R..X4X4X4X9X.X9X9X9X X9X9X.XE. X4X4X X4X5X4X X).U. XU.U.U.U.I.",
"d h h h h h u h i i u y u p p y p p p 8 p M M r r p p r M u u p u r u u u a h h h d k d d d z z z z z z z c k z z z z z H c z H z z l z l g k g d d d i a a u u u h u s a h h a h s h u u s h i h h h 1.h h h g h d g g z g ~ z g ~ g m W W ! ` W W ! Q ^ / ( | ( ( ~ ( ~ ~ ( ~ / / ( / / / / ! ^ ^ ! ^ ^ ^ ^ ^ ^ ^ | ^ | ^ ^ { %.%./ =.%.,.o.,.,.=.=.=.>.=.-.>.-.*.>.*.>.8.8.>.8.8.8.h.].8.9.-.%.%.&.,.&.&.%.E &.R &.&.&.&.9.F F 9.9.*.&.&.&.-.E =.-.E =.T U T T B T T b T B.T T T E T T E e B.T R T R T E T T T T T T T T B T n T n q l l l k l l c v z z z z z z W c L Y P ^ ^ | o.>.fXzXNXzXMXzXgX8.&.%.&.>.].NXUXDXMXDXNXjX=.=.| ( ^ ! ! ! ! ! _ _ _ _ ' { W ) W m ) ) ) ) ) m b ) Y ) c ) c m m m m m m m m c m m m m v c c c m c c b ) m m b ) m ) [ ) ) m m m m m m m m ~ m m ! m m $.m ` m m X.` ` ! ` ! m ` ` ] ` O.O.] X.a.m O.a.] O.G.S.R..X X4X4X9X.X9X9X3X9X X9X.X X9X X4X4X5X4X4XU.U.9XU.U.U.P.P.U.",
"g h s h u h u s i a i y u p y y p p p M 8 M p p r p p p M r M u p p r u u u h u h h d d k d k g z h z z z z z z l l l l z z z z k l l l l l d k d d d a s a i u h a s h h h a h u a u u u h i h h h u u h h h h h d f d g z z g f l z J W W W _ W W Q ! ^ / | { ( / ^ ( ~ ~ ^ ( ~ / Q / / / Q ! Q Q ^ Q ^ ^ ^ ~ ^ ^ ^ | ^ | ( | | ( / %.o.=.o.=.=.-.=.=.,.-.>.>.,.>.>.8.8.*.>.8.8.8.fX8.].8.].>.,.-.&.&.&.%.E %.&.E D &.&.9.*.&.&.*.-.&.&.-.&.-.=.-.=.V.V.R T T B T P U T T E T E E E 5.5.5.'.E E E E E E E '.5.E E E C.S e T T T T T T T q T B.l v v v z c z z z z z m L J P P ..%.:./.gXNXNXzXzXjXh.&.&.%.&.8.jXMXUXBXMXUXMXjX>.,.%.( / ( / ! ! _ ` _ { ' { { W ) ) ) ) ) ) ) m ) ) b m b ) b ) c ) b m W m m m m m m c m m c c m c m W m ) ) c ) b ) ) ) [ ) m ! m m ` m ! m m m m ! m m m ` m a.m m ` ` ` ` ) ` ` ` ` ` O.O.m a.] O.O.] .XO.A.J..X.X X X5X4X9X9X3X9X9X3X9X9X9X X4X X5X X4X). XU.R.E.P.E.P.U.U.",
"d h u h h u h h i a i i u u y u p p p p p p p p p p p p h u r M r p p u u h u u h h h h d g g k z z z z z z z z g l l l l z l l l l g k d d l g d d a d a a a i h h h h s a s h h h h h h s h s h u u h h h h h d d g d d z g f g l g l l z W W L W L Q _ { / | ( / ^ ( ~ K ~ ^ ~ ^ ~ Q Q Q Q ~ ~ Q ~ Q ~ ~ ^ ^ ^ / | { | ^ | ( =.o.=.$.o.( %.=.%.=.,.,.:.-.-.:.-.>.>.>.>.>.8.8.8.8.8.8.].].].8.8.,.-.,.%.&.%.&.&.R &.E &.D 9.9.8.-.*.&.&.%.%.%.R =.=.R E T T E T U T { T B.C.E '.5.'.5.5.'.p.5.5.5.5.5.5.].5.5.5.5.5.5.E E E E E B.E T E T T q H l l c z z z k z z z ~ L _ _ { | ( :.fXjXjXlXzXgXfX*.R S D &.h.kXMXMXMXMXMXMXjX>.:.o.| ( / / / ! ! _ { { { { ' ) W W W W m W ) ) ) [ [ ) ) Y ) m ) m ) ) m ) ) m m m ! m W W m c m c m m W ) m Y b ) m [ ) [ ) m ` ` ` m ` m m ! ! m ! m $.` m m ! m a.m ` ` m ` ` W ` ` O.] ] O.m O.O.O.O.O.A.S.J.G..X X5X X5X9X9X.X9X9X9X.X9X X4X4X4X4X4X4X XE..X.XR.R..XW..XR.",
"d h u h h u u s a i i i u y i q p y p p p p p p M h u u r r u r p p M h u r u r s h d h h d g d h z h z h z h z l k k f f l l l g l d l d l f d d d f a d a d a d h d a h a h s a d d a d a h s t h u g u u h h h h h h d h d d d s a d l l l z c c L P Q ^ ^ ^ / ( ~ ~ ( ~ ~ ~ ~ ~ ~ Q Q ~ Q ~ ~ ~ ~ ~ ^ ~ Q / ^ | | ( ( ^ | | | ( o.%.%.%.o.| | %.=.=.=.=.>.-.-.,.>.>.>.8.*.8.8.8.8.8.].fX].8.8.-.-.&.&.%.&.&.-.&.&.F &.&.&.*.>.>.&.,.&.%.&.%.R =.E V.T R E C.E V.^.R T E 5.'.5.'.6.6.6.0.|.'.[.].7.[.7.7.4.0.5.6.5.5.].5.].5.E 5.5.'.E B.T T I H v v v k z m z z z z J P P { ....-.fXfXjXjXjX8.>.%.D D D &.h.kXzXMXBXBXMXzXgX>.:.%.( %./ / Q / ` { { { { { { W W W W ) W ) m ) ) ) ) [ b ) m m c W m m W m ) m m m m W ) m m c c c z W ) ) ) m W ) ) ) ) ) [ ! m ` m ` ` m ! m ! m m m m $.` m ! ` m m X.` ` ` W ) ` ` ] ` O.A.O.O.] O.O.a.A.S.G.W.H. X5X5X5X9X9X3X9X9X X X9X X4X X X X X5XW.W.E.R.R.R.R.R.R..X",
"f a s u a s u u i i i i y i p y y p p p 8 M p r p p r M M h r M r u r u p u u u u u s h d d d d z h z h z z z z k g l f l l f n d d d d d d k d d d a d d d a d d d d h h a h a h h d d h h i h h u u u h h h g h u s i h h h a a a a a h l k k l l z J L Q Q ^ ( ~ ~ ~ ~ C ~ C J K ~ J K Q ! ~ ~ K J K K ^ ^ ^ ^ { / | | | | | %.| %.o.=.| ,.%.( =.=.,.=.>.=.:.-.*.>.-.>.*.>.8.8.8.8.].].].].].8.>.-.,.-.-.-.&.&.&.&.E &.&.9.*.*.>.,.%.%.%.%.U R =.R E T R E C./.E C.E T E E 5.6.[.6.6.6.6.6.6.[.7.[.7.[.6.6.6.6.6.6.7.6.7.6.7.[.5.5.5.5.E E T I v H v z c v z z z ~ z J Y { P :.=./.fXfXjXgX8.>.,.D D R %.&.].kXNXMXUXzXNXh.h.&.,.<.,.o.( / ~ { { ` ` { { { { W W ) m m W m ~ ) [ ) ) ) ) ) Y W c m m W m W m c m m ! ) ) W m c m m m c W ) ) L m ) ) ) ) ) [ m ` m ` ] m ` ) ! m m $.$.m m ` a.m ` m X.m X.m ` W ` ` O.] O.] m O.] O.O.O.A.O.S.D.R..X X X3X5X3X9X3X9X3X5X9X X X X X X5X XW. XW..XR.R.R.R.H..XW.",
"d s u u i a h i a i u u i y y y p p p p p p p p p u p p M h p u h r u u r h h u M h h h h h h d h h k g k d d g d d d g l g l d d l d d d d d f d a d d d s d d d d d d h d a a h d s h h d a u u h h h u u h h u u u h h h h a a i s a a n k k k k l H J P Q ~ ~ K ~ K K C C J J J J J J C W J J C g J ~ ~ ^ ^ ^ ( ^ ^ ( | ( | ( ( | %.( =.=.| =.=.=.=.=.:.,.-.,.>.>.>.>.>.>.8.-.8.>.].].].].8.>.8.>.*.-.>.-.-.-.&.-.*.9.*.&.>.>.-.,.-.,.%.%.( R %.R R E E '.5.].E E E E e E 5.0.6.[.6.|.6.6.6.6.6.6.6.r.6.6.6.6.6.6.6.6.6.6.6.0.'.6.'.5.5.'.T T H I H v v v Y z z L L H L P { ^ =./.*XfXfX>.>.%.R D D D &.&.h.kXzXMXzXzXzXh.*.,.%.%.%.( $.( / Q ! ! _ { _ { { W m m ! ! m W m W ) ) ) ) m ) ) ) W ) ) ) ) [ ) ) ) m [ ) ) m ) ) ) ) m W m m ! ) ) ) ) ) ) ) [ ) ) ` m ` ) ) ) ` ` ` m ) ` ` [ m a.m m ! m ! ` m ` m ! ` ` ` O.a.] O.O.O.S.O.XXA.S..XJ.W. X X X.X.X3X.X9X.X9X.X X X X X X XOX XW.W.H.R.H.H..XW..X",
"d d h u a d s d i i a u y y y p p p p p p p p r p r p p r r M r M r u h r M r p r u u h h h s d g d h d z g d d d g d l d d g d f k k f d l k d d d d s d d d d d d d d d h a h d h h i s a h u t h h u h s u u u u u u u u a a i i i u i k a a k d l z J L P P ~ Q ( ^ K J J C C J J V C W J J g C J J C ~ ~ ~ Q ~ ^ ^ { ^ { ( | ( ( | o.| =.%.| =.%.,.=.=.:.=.-.:.>.>.>.>.>.>.>.8.>.8.>.>.].8.>.>.>.-.-.&.&.,.&.&.-.&.&.*.&.8.>.*.>.,.=.=.%.%.%.U %.%.E C.5.'./.].E E E E 5.5.[.6.|.6.|.6.|.6.|.6.|.|.|.t.|.t.|.6.r.6.6.6.6.6.6.6.6.5.'.5.E e T H H n H I H n J z H J J P P ^ ..=./.].fXfX].-.%.D D R D R 8.8.kXMXBXNXzXjX8.9.D %.%.D %.( / / ! ^ Q _ P { { _ W W W m ) ! W W ) W ) ) ) ) [ ` m ) ) m ) ) m ` ` [ ` m ` ) ` ) ) ) ) m W W m m ) ) m ) ) ) ) ) ` ) ) ` m ` ` m m m ` ` ` ) [ ` m m ! m m ! m ! ! ! ` ` ) O.] O.m .XO.A.F.O.S.O.O.S.S.XX~..XOX X.X.X9X.X3X.X.X3XOX X X-X-X X X.X.XOX.XOX X.X~.OXOX",
"g h s s s s a s s i u u y y y p p p p p p u p p p u r u u p r p h h p r u r r M h u r h s h d d h h g d d d g g l g l g f g k d f d k f d k d f d f d d d d d d h d d d d h h h d a a h h d s h h u u u u h h i u u u u u u u i s i i i i i h h i d d l J L W P U ^ K ~ K J J J z V z J V J z J g V g C V J ~ ~ K K ^ ^ ( ^ ^ ^ U ( | %.%.=.=.=.%.( =.=.=.=.,.=.=.>.>.>.:.>.>.>.-.*.>.8.8.>.8.8.>.-.-.*.,.-.&.&.-.&.&.&.&.>.*.-.>.>.>.:.=.,.%.%.=.R E =.5.5.5.].5.].E E e E 5.6.0.6.|.6.6.6.|.6.6.6.|.6.r.r.t.t.r.|.6.t.6.|.6.6.6.5.5.5.p.E T T H H H H H v Y H g J J L P P { | =.^././.].fX/.-.R D Z D D &.8.gXkXMXMXzXkXgX9.&.D %.<.( ( ( ^ / ! _ _ _ Q _ { _ ! ! m ! ` m m m ) W ) ) ) m ) ) ) ) ) W ) ) ) ) ` m ` ` ` m ` [ W ) m W W W ` m m W W ) m ) ) ) ` ) ` _ ` ` ) ` ) ` m ` ` m ) ` m a.m ! ! m ! ! ) ! ! m ` ` ` ` ] O.O.O.O.S.D.O.O.S.S..XW..XOX.X.X.X.X.X.X.X.X3X.X XOX X X XW.W.OXOXH..XOX(.OX XOX",
"f d u h a a i u y i y y y y y y p p p p p p p r u p u p u h M u r M p M r M p h M r u u u h h d g h h h d d h g d d d d d d d f d d d d d f d d d k k d d d d l d d d d d d d a d h a i h h i u s h u u i i a i u u u u u i i i a s i i i i i h d d f z J ~ K ~ ~ K ^ Q K J H C V l V z J l J f g g g V V C C J K K ~ K K P Q U U ( ( ( ( | | =.( =.,.| =.,.:.=.=.-.:.>.,.>.>.*.>.>.>.8.>.>.>.8.*.*.-.,.-.&.=.,.-.,.-.-.&.&.*.&.>.>.>.*.>.-.%.%.R R -.E '.E ].5.5.5.E e E 5.5.0.6.6.6.|.|.|.6.|.6.|.6.|.6.|.|.t.|.6.r.6.6.6.6.5.6.5.5.E E T T T T n H H n H H H J z H L J P U | ~././.fX/././.R %.D R R R %.9.gXNXBXNXkXkXh.F D Z <.<.<.( ( / { { { _ _ { _ _ { ` ` ` ` ) ! ! m ) ) ) ) ) ` ) [ ) W ) ) ) ` ) ` ` ` m ` ` ] ) [ ` ` ` ` m ` m ` W ) m W W W ) ) ) ) ) ) ` m ` m ` m ` ) ) ` ` ) m m ! m m ! m m ` m ! ` ` ` ] ` O.O.O.A.S.O.D.D.XXJ.F.F.H.W.H..X.X3X.X3X3X3X.X.X-X X-X.XOXOXOXOX.XOXOXOXOXOXOXOXOX",
"d a s u h a a u y i y u y y y p p p p p p p p p p u p u M h h u r p u u M r u r r r h u u u h h h h u u h h g g g g g h d g a d d a d d k d d f f d d d d d d d h d d d d d h d h d a h h a h u h h i a i i i a h i i a i d a d s u h s h u i u i d d z J ~ ~ ~ P Q P K K J H J H V H l l H l l g s B g g V V C C J K C K K K K K U U ( ( ( | %.( %.^ %.=.=.=.=.=.,.:.,.,.:.,.>.>.>.>.>.>.>.>.>.>.-.-.-.-.,.-.>.,.-.&.-.*.,.*.*.*.>.>.*.*.-.,.%.R =.E 5.].5.5.].5.5.5.e 5.5.6.[.6.6.|.6.6.|.|.6.6.6.6.|.6.|.t.t.|.6.6.6.6.6.6.5.5.5.5.e e T T V n n B n l l H H v H H H L P ..=././././././.-.%.%.R R D E &.8.gXkXzXNXkXjXh.&.D <.<.<.( ( ( / } _ _ ` _ _ _ ` ` m ` ` m ` ! m ! ` W m ` ` m ! [ W _ ) _ ) ) ) ` [ [ ` ` ` ` ] ] ` ` [ ] m O.m m ) m W W W W W m ) _ ) [ [ _ ` ) ) ) ` ) ) _ ` ` m a.m m a.z m ! ! ) m ` ` ` O.O.A.] S.O.D.S.O.D.S.XXF.H.H..XOXR..X.X.X3XXX.X@X3X-XOX XOX.XOXOXOX+XOXOXOXOXOXOXOXOX",
"d a h u a s u y y y u s u 0 y p 0 p p p p p p p p p u p u r M r u u u M h h r h p p M h u u u h h u h t u h r h h h s g d a a g d d d d f d d k d k d d d d d d d d d d d d d d d a s h a d h u a a i i i a i i d d d i i d a h u i s h u h i i i d d l g J J ~ K U P K K J V J l l l V f f f f g g g s g V g V f V J C C K H C I K U K ( ( ( ( U ( ( %.| ,.o.( %.o.=.:.-.,.:.>.>.*.*.,.,.-.-.-.*.-.&.-.,.-.,.-.>.,.-.-.*.-.>.*.>.&.-.*.-.,.=.%.%.E -.-.].].[.5.5.5.5.E p.5.5.7.6.|.[.|.|.6.6.6.6.|.6.6.t.|.t.t.6.|.6.6.6.6.6.7.5.5.E T T T B V H n n n v H H H H H L H I P ..=.(./././.>.-.-.%.R D %.D &.9.8.kXNXNXzXgXh.8.D S S <.<.( ( ( { { ` _ _ _ _ _ { _ ` ! ` ` m ` ! m W m ! ) ` [ ) ` [ _ _ ) _ ` ` [ ` ` ) ` ` ` ] ` ` [ ] ] O.m ] ] ` ` ) m ) m W W W _ _ ` _ ` ) [ ` ) ) ) ` ) [ ) m z m z ! m ! m ` ` ` ` ` O.] ] ] O.O.S.D.F.F.D.F.J.H.XXH.OX.XH.@XOX.X.X.X3X@X.XOX-X-X@X+X-XOX+X+XOXOX-X+XOX-XOX-X",
"s h s s s a r p y y y 0 y r p y y p p p p p p r p p p p p p r h M h u u u h M h u u M r M h u r r h r r u u h t h u h s h s a g a d d d d d d f d d a f d d d d d d d d d d d d d h s a h d h u a i h a a d i i a d i d i a d d h h s h h h a i h d d g z J ~ ~ K P Q K J H H H f H f f n f d d g s t g s V V g V V g V V I C C C T K U ( U U ( ( U ( ( | %.,.%.| %.=.o.:.,.,.=.,.,.,.%.%.%.,.-.,.,.-.,.&.&.-.-.*.-.,.*.>.&.>.8.*.>.-.>.,.,.-.&.&.-.-.5.5.].].5.5.5.E p.5.[.6.6.6.6.6.|.6.6.6.6.6.6.6.|.|.6.t.t.t.6.|.6.|.5.p.5.E e T e T T H n k k v v n l H H H H H I P ^ ..:././././.-.=.%.R E &.D &.&.>.h.gXkXNXjXgX8.&.D Z <.<.<.( ( ( ! ` ' ' _ [ ' _ _ _ ` m m ! m ` ` ` ` m m ` ` m ` ` ` ) ) _ _ _ ` ` ` ` ] ` ] O.] A.m O.O.] O.] ] ] ` ` ) ` W W ) ) ) ) ) _ _ ` ` ) _ [ ` _ ` _ [ ` m m m a.m m ! m ` ` ` ] ` O.] O.A.S.S.S.D.D.F.D.XXF.H.H..XOX.XOXOX.XOX@X@X.X@X3X-X-X-X@X-X@X-X+X-X+X@X+X-X+X+X;X+X",
"h s u u u u u r y y y y y y p 0 p p p p p r p p r p p r p u r M h r u r u M u u u u h u u r r u h M r h r h r h h t s h s d s a d s d a d d d l d a d a d d d d h d d f d d d h d h h h h s u s i a a a a i i d i i i i i i i i s h h h h h h a h d d l J J C J K K P K K J H H f l f f d s s s g g g g s g g V s g f V V V H V V C C C U K K ( U ( ( U ( ( | | ( | ,.=.,.=.,.=.%.%.%.&.%.&.%.%.%.&.,.%.=.,.,.-.-.-.>.*.>.*.8.*.8.8.*.>.-.*.&.%.&.E E 9.].5.p.[.5.5.5.p.5.5.6.7.6.|.6.6.6.6.7.6.6.6.6.6.6.t.t.t.6.|.6.6.6.6.6.5.E e T B T T H l k l k x v n H x H H H H J P ..^.^./././.-.=.%.R D R &.E &.9.].kXNXkXkX8.8.9.S D <.S ( <.( ^ ! _ _ _ _ ' _ _ ' _ ` ! ! m ! ! m m ` ! ` m ` ` ` ) ) _ _ ) [ ` [ ` ] ] ] ] ] ] O.m a.m O.O.O.] ] ` ] m ) ` ) ) ) W ) ! ) [ ) ` ` ) ` ) ` ` [ _ ` ` a.z ! m ! m m a.` ` ` ` ` ] O.O.O.O.O.F.D.F.F.F.F.OXOXOXOXOXOX-X@X-X.X@X3XOX3XXX+X-X;X-X%X+X@X+X%X;X@X;X@X+X;X+X;X",
"s i i y i y y s y y p i p p p p h M p p p M p M u q p p y y i y u p y i u i u i y y u p i u u u y y y y u u t h r u h h h h h g h g h h h g g d d d d h d a k k f d k s d d d a a a s i s h a d h d d d d h d h d h d d d h d d h h h h h h h h a d n l f H J K K K J K J J V f l f l s l n a s d s B n s l f f f s s V V B s B B V V C C C K K C K K ( ^ ^ ^ ( ( | ( =.o.#.%.,.%.( %.<.%.%.%.,.%.,.%.,.&.%.-.,.-.*.&.*.>.>.8.8.8.8.h.9.*.8.8.*.E -.5.5.].[.5.5.p.5.5.5.7.7.6.6.6.6.6.7.7.7.7.[.p.7.[.7.r.t.t.i.r.r.7.7.7.5.5.5.T T T T B B n n n n n n n v l l H H H H T { =.^./.^.E /.R R U R D S E F 9.gXw.kXNXkXh.9.&.S R D S Z <.%./ ! ! ! W _ _ _ { U U { ` ` ` ` m ` m ` ` m ` ) ` ` ` ` ` ) ` ) ` ` ` O.` ` ] ` ` ` O.] O.] ] O.a.A.O.] ] ] ] [ _ ) P ) L Y ) _ ' [ [ ) m ] ] ] ` m ) _ [ ` ` _ ` ) [ ` ` [ ] O. .O.S.O.V...=.D.D.^.~.^.^.~.(./.(./.(.-XOX-X-X-X-X-X:X:X;X;X%X%X;X;X:X;X;X&X&X&X&X$X&X&X&X",
"a a s u y i y y y p i p p p p p p p p p p h p h y i p p p p y i M r y i i i i i y y u u i i u i i u y u u u h t r h 1.h h g h u h h h g g h h d d d d d d k d a d a d f d d d d a h a u a h a a d a d h a h i h h h i i h d h h h u h h h h s u s s f V V H L P K K K K J C H l f l d f d a n s s f s f f l s d s l f H H n B s g B V V V ~ K C K K K U U ^ ( | ( ( ( | =.( | $.( ( ( %.( %.%.-.%.%.%.%.=.,.,.-.>.>.-.>.8.>.8.8.8.8.9.9.8.*.9.9.&.9.9.].4.].4.5.e 5.p.7.7.6.6.|.6.6.7.7.4.p.p.7.[.7.6.t.r.t.t.t.r.r.[.7.7.5.5.E e T T T T n H n n n n v l n l H H H H H P { D.^././.V.E =.=.%.R &.D F F 9.h.gXkXkXkXw.9.E &.E &.S <.R ( ( ! ! W W W Q P { { ' { ` ! ` ` ` ` ] m ) ) W ` ` ` ) ! ` ! ` W ) ` ` ` O.] ` O.] O.] O.] ] O.A.S.O.S. .] O.` ` _ _ ) L Y ) ) [ [ ` ` [ ] m m ] ` ` [ ` ` _ [ ` ) ` ` [ ` ` ] ] ] S.O.S.O.D.S.D.^.~.~.~.^.~.~.(.(.:X(./.-X-X-X;X;X:X-X:X;X;X;X;X*X;X*X;X*X=X*X%X$X&X$X&X$X",
"i s s y y i y i y u i p p i p p p M j M j M h M y p p p p p y y h u u i a i i i y i i i i i i i i a i a h h h h h t h h u g h g h t h h h h g d g d z d k d d k d d d a d a a d s h a a a d d d d d d d h a h d d a h d d h h h h u h h h h h h d d f s l V L I J K K J K J J V l V l l n s n f s n s V l s f d f n f s n B n B g g g B V C C C C H K U U Q ( ( ( | ( %.| ,.( =.( ( ( ( %.%.%.%.%.%.,.%.,.,.-.,.>.>.>.8.8.8.h.].h.9.8.8.9.8.9.9.9.9.5.].[.].5.3.E E 5.5.6.5.6.6.[.p.7.4.p.p.5.4.7.[.|.7.r.r.r.r.r.|.7.[.5.5.e T T T T B n B n n n k n k l l l l Y H I P T V./././.=.=.=.R R R R D &.9.8.h.gXkXkXkXkXh.9.5.D E S S <.<.Z <.~ ! ! ! ! P _ Y { { _ ! ` ` ! ` ` ` m ) ` ) ! ! ` ! ` ) ` ` ` ) ` ` ` ] O.` ` ] X.] X.A.O.O.O..XXXO.O.S.O.O.] ` Y _ W _ [ _ ` ` ` ) ) m ] ` ` ` ` ` [ ` ` ` [ ` ` ` ` ` ' ]  .O.S.O.S.O.D.D.D.^.J.~.^.(././.-X/.-X(.-X-XOX-X-X-X;X:X;X:X:X*X;X;X:X:X,X=X*X&X$X*X$X*X&X$X",
"s u s y i y i y i y p i p p p i p h M p p p p p y p i p p p y i h u u h i i a h i i a a i i i k d s h a h g g d g h h t r u h t r h r h t h h g k k d d d d k d a a a d a d d d d d a a a a d d d d d h d d d h h a d s h h d h h h u h h u s h d d d f n H J J K J K ~ K J J J l H s s d f n d B s f f s d s s s s s V B s s s t g t B g V g V V C K K K K U ~ U ^ ( | ( $.( / ( <.U %.U %.%.%.%.%.=.%.%.&.,.-.>.>.>.>.8.8.8.].h.h.9.h.8.8.h.9.9.9.5.5.[.5.5.3.e p.5.7.6.6.0.6.7.4.p.5.p.5.p.5.7.7.7.[.6.}.r.|.r.6.4.5.5.5.e T T B n T B n n n l n x l n v l l H H P P ..=.=.^.D.=.R %.R ( =.%.&.&.8.9.8.kXkXkXkXkX8.5.9.5.E &.S S Z ( <.~ ~ ! ! W _ { P { { _ ` ! ` ` ` m ` ` ` ) ` ) ` ` X.! ` ` ` W ` ` ` O.O.` ` ] ] ] ] O.] O.O.A.X.S.A.@.S.S.O.] ` _ ) _ _ _ ` _ ` ` m ` ` ] m ` ` [ ` ] ` ` [ ] ` ] [ ` ` ] ] ] O.S.S.F.+.D.D.!.~.~.^.~.(.+X(.(./.;X/.;X-X;X-X;X;X;X:X:X*X;X:X;X;X*XfX:X,X=X=X*X&X&X&X*X&X",
"y u u y y i y i y u i p p i p p p p M j p p p p p p p y p p i i i i i i d k i a a a a a d a d s d a d d l g d g h r u u h h r r r u u r h h d h h h d h a d d n a a a d f d d a d a a a a d d d d d d d d d h d d a h d h d h h h h h h h h a s d d f f l H H H J K J K J J J H V l s d n f n f f s f f s f s d s s s B s B s s s s g g V s f B V V C T K C U C ( ~ ( ~ ( ( ( ( ( ( U U R %.%.%.%.D ,.%.,.&.-.>.8.>.8.8.8.].h.gXgX].h.].w.8.9.9.9.9.4.0.0.0.5.S e 5.5.0.0.6.0.0.5.p.p.p.p.5.5.5.7.[.7.[.|.6.6.r.6.6.5.5.5.5.T T T B H B H f n n l n n v H H l B V H P ^ R =.^.^.%.( ^ U ( U ( -.%.*.8.8.gXkXkXkXkXkX0.9.4.9.e.5.&.E D Z U U U { Q Q _ P { P _ _ ` ` ` ) ` m ` ` [ W ` ` ` ! { ` ` ` ` W ` ` ` ] O.` ] ] X.] O.O.] O.A.O.D.F.F.F.F.F.D.O.{ ` _ W ) ` ` ` m m ] m ` m ` m ` ` ] ` ` [ ` ` ` ` ` ` ] ` O. .S.S.XXO.!.+.!.^.!.XX~.^.~.^.+X%X%X%X-X(.;X+X;X;X;X;X;X;X;X;X,X,X,X*X=X,X=X;X=X*X&X&X&X=X&X",
"i u s y y i i y i y i i p i p p p p M M p p p p p y p p y i q a i i i a i a a a a a k a k d k k a k d l l l z g g g g s r r h r h r u h s s d h h h h d n a d h d f d a d d d l d d d a s d d d d d d d d d d d d d h d d d d d h h h h d a d d s d f d s f V H V J K P Q J J J l V l n n f n V n f s f f s f s s d s s s s n 9 t g t V B f B f f V V I C I I K U U K ( ( | ( | U ( <.%.( %.%.=.%.%.%.,.-.*.>.*.*.8.8.8.8.gX].gXgXgXh.gXgXh.w.8.0.9.0.9.].4.E e e p.'.0.].6.6.5.5.3.5.e 5.p.7.6.7.7.7.|.r.[.|.6.6.6.5.5.E T e T B V n B n H n n n v v l H n H n f V I U ..V.=.=.{ ( U U U U %.=.&.>.h.h.gXkXkXkXkXw.9.4.9.4.9.9.4.9.5.&.=.U { U ^ ^ { { { Y _ _ ! ! ` ` ` ` ` m _ ) W ` _ ` ` ` ` ` _ ` ` ` ] ` O.O.` X.] X.] O.O.O.O.XXD.F.J.F.H.F.D.D.O.] _ _ ] ` ` ` ] ` ` ` [ ` ` ` ` ' ` ] ` ` ` ` ` O.` O.O.O.O.S.O.S..X@.+.^.:.!.^.~.oX+X%X+X+X+X%X;X%X%X%X;X+X;X;X;X*X;X,X;X,X*X,X,X=X*X,X=X;X&X;X&X>X&X$X",
"u s y y y y y y i y p i p p p p j M h p p p p p y p p u p p y i y i i a a h i d k a d d k d d d d n g z z J W C g g g h h t u r t h u u h s a a h d d d d k d k l d f k d d d d d a a a d d d d d d d d k d g d d d d d d d h k d d g h d d d d d d a f f f f H g J J ~ P J H V l l s l s V f n B f B f f f V d V s B s s s B s g t s s g s f V V V V C I H K K C C ( ( / ( ( ( ^ ( ( U %.%.%.%.%.%.&.,.*.-.>.8.8.8.8.h.].gXgXgXgXgXkX].gX[.9.w.4.0.9.0.0.5.3.3.E 5.5.0.0.0.5.5.E p.p.E p.5.5.6.|.6.6.7.r.[.6.[.6.5.5.e E T T q B n B n H n n H l n H l n n I V V C K ^ =.=.^.=.( U U U U U %.=.>.8.gXgXkXkXkXBXkXkXw.w.w.9.w.9.0.9.9.9.E =.R U { { U { P { Y { ` ! ! ` ` ` ` m [ ) _ _ ` ` ` ` ` ` ` [ ` ` ` O.O.m ] ] m O.O.O.] O.O.S.D.F.F.OXH.H.!.D.O. .{ _ [ _ ` m m ` m ] ` ) _ ` ' ` ' { ` ` ] O.O.] O.O.O.O.O.S.S.XXS.a.@.;.!.!.XXoX^.oXoX+X%X+X%X%X%X%X;X;X;X;X%X;X:X:X;X=X=X,X*X=X=X&X=X=X&X&X&X&X&X&X%X",
"u r u y y i i y i i i p i p i p M p p p p p p i p p p p y y y y i i i i i n i i a a k k d k k d l l l z W J W J g ~ g g h h h h h u s h u h a d g d d g l l l l d l d d l d l d a d a a a i d d d g d d d d d d d d f d h k g g d h d g d d d f d d d d d f l f z V J K J J J J H l H s n f f l s s n V V f f B s s n s B B s s s s B g V B B f f V V V C I I C C K K ( ( ( ( o.%.( ( %.U %.%.=.%.&.%.,.>.-.>.8.8.8.fXgXjXgXkXgXgXgX].kXgXgX[.9.w.9.0.0.4.5.E S 5.5.0.5.0.0.7.5.p.5.e p.p.5.7.6.[.7.t.|.|.6.|.7.6.5.5.E e e T E B n B H H n n n n v l l H I n B V H U ..V.=.D.^.( U C U U ( =.=.>.8.gXkXkXBXkXkXw.w.9.w.w.4.0.0.0.0.].9.9.-.=.R R R { U { { P Y ! ! ` ! ` ` ` ` _ ) ) ` ` ` ` ` ` ` ` ` ` ` ` ] m a.O.m a.` ] O.O.O.F.J.F.F.H.OX!.F.H.D.D. .] _ _ _ ` ` ` ` m ` ` [ [ ' ` ]  .` O.O.` O.] O.O.O.O.S.O.F.XXS.XX.X!.;.XX!.oXXXoXoX+X@X+X%X&X%X;X&X;X+X%X&X;X;X;X*X,X:XfX,X;X*X&X*X*X;X&X&X&X&X&X&X&X",
"u u y y y y s y y y p p p i p p p h M h p p j M p p i p i p i i y y i i i i n i h d k k k d k k l l z L W W Q Q ~ ~ z g g d g d h d u h g s d h d a a d k l l c d d l g l d d i d a a h d s d d d d d d d d d d d h g d d d d d d h h h g h d d d d d d f l l J J J J J P ~ L J H z l l s V l f s f f f B s B s V B s V s s B s s s s s f B f B f B V V B I V V B C K U ( ( ~ ( ( ( U %.R =.=.%.%.&.-.>.-.>.8.8.fX].fXgXkXjXgXgXgXgXgX].].[.w.9.w.9.4.4.4.3.S 3.5.0.[.0.6.5.5.5.p.e p.5.5.6.6.6.|.6.|.6.|.6.6.6.5.5.E E T E T q H f n H n l n v n H H n n H V H V K ^ :.:.:...{ K Z B I C ( %.:.,.h.gXkXkXkXBXkXj.}.q.0.w.7.7.w.0.0.0.].0.].E ^.5.E C.B.T B.{ { ! Q { ` ` _ _ _ ) ) _ _ ) ` ` { ` ` ` ` ` ] ` ] ] ] ] ` X.m a.] O.O.S.D.F.F.F.~.~.~.OX~.~.S...` _ _ W Q ) ) ! ) m W ` ) _ `  .` ] X.X.O.O.O.O.O.O..XO.XXXXS.XXO.;.a.;.a.XXa.XXoXoXoXoXoX$X#X&X&X%X%X;X&X*X*X,X,X*X*X,X*X&X&X$XoX#X+X#X+X@X@XoX@XoX",
"s y s y u y i y y p y i i p j p p p j p p h h p i p p i i i q i y i u u i a i d a k d d l d d l l l H L W W ! Q ~ W ~ W W g l l d g s h d g g d d d l d l l l l l l l z l d d a a a a a a d d d d d d d d d d d d h k h d d d h z h g k k g d d d s f d f f l l f J J J J P P Q J H l V l f l f V f f V H f f d s l V s V f B n f s B f f f V V V l B V V V V H V B C K ~ ( ( ( ( ( ( %.( %.R =.%.%.=.>.>.>.>.>.8.fXgXjXkXgXgXfXgXfXgX8.w.gX].0.4.0.0.4.5.3.3.3.p.5.0.0.5.6.5.p.E p.E p.5.6.6.6.6.|.6.|.6.6.6.6.6.5.5.e E q T E n H V n l l l n Y l n B B f H H H P | ..:.=.U U C C V Z U ( =.>.>.fXjXkXzXkXBXkXkXw.0.w.w.w.w.w.0.0.0.].9.5.].5.'.E E E E T ..T ! ^ ! ^ _ _ _ ) ` [ _ ) _ ` ` ` ` ] ` ` ` ` ` ] ` ` ` ] O.O.O.] O.O.O.F.D.F.F.OX+XOX~.~.~.!.O...` _ _ _ ! ) ) ` ! ) ` ` ]  . . .O.O.O.O.O.a.O.XXO.O.a.O..XXXS.a.F.;.a.XXa.XXoXa.oXoX$X@X%X&X*X&X;X*X*X;X;X;X:X*X,X;X,X;X&X%XoX@XoX@XoX@XoXoX@X+XoX",
"u y u y y y y i y y y i p i p p p M p p p M M p p p p i q i i i i y i i i a a a a k k f d k k l l v J L Q W ! { ! ! ! ! Q P J z z f d d d g l k f a d l n l l c z l z k l g d d s a d a a a a d h d d h d d d d g k d d d h d k d h g h d g d h d d f d f f k f f f z J L P P P J J H l l f f H V f V f V f B B B B V B B V s B s B f V B f B s s H V B I V H B B V C K ( K ( ~ ( U U ( %.%.%.%.%.=.-.,.-.>.8.>.].].gXjXjXjX].].].h.8.9.9.].w.w.9.0.4.e.5.3.3.3.5.6.0.0.5.5.5.e p.E p.5.6.6.6.6.|.r.6.6.6.}.6.6.'.5.e E E T T q H l l n n l l v n n H n n B V H P P | ..=.{ U I B V Z C Z %.:.>.8.h.kXzXkXkX{.w.j.q.w.w.6.w.6.q.0.w.q.0.[.5.].5.'.7.5.'.C.T C.B.^ ! ! ! _ _ _ [ ` [ ) _ _ _ ` ` ` ` ` ` ` ` ` ` ] ` ` X.] O.O.] O.S.D.O.F.F.OX!.~.~.~.%X~.~.D.D. .` _ _ ) ` ` ` m ` ` O... ...O.O.X.O.O.a.O..XO.O.XX.XO.O.XX.XO.a.@.a.a.a.oXoXa.a.$X@XoX$X$X&X&X*X*X;X*X*XhX*X:X*X;X*X%X%X%X@X%XoX+XoXoXoX+XoXoXoX",
"s u u y i u i u i y i y i p i p j M h p p p p j i p i p a i i i i i i i i a a a a a d k d k l l v H J L _ ^ ` / ! ! X.! ! W Q W W g f d d g l g l l f a l l l z z z l l l k d d h a a a a d a d h h h d h d d d d d d d g k d d d h d d h d d d d d d d d d f d f f l J L P _ _ L H H H V H l f V V V V V V V V B H B f f B s f n B s s f B f V B V V V H B H B V V C K K U ~ ( U ( U U U =.R %.%.%.%.-.-.-./.>./.].].].].].].].8.>.8.-.9.9.9.9.0.9.4.5.e.S S 3.5.5.0.0.5.5.p.e e p.5.p.5.6.|.|.t.|.|.|.6.6.6.5.p.5.T T T T T T n l l H v n n l H n n f n l l H P P U | | ^ K T C A C Z ( %.>.>.8.h.kXkXBXBXkXkXu.w.7.7.w.6.q.q.q.q.q.0.4.7.].[.0.5.5.5.].E E T U U ^ Q ! ! ) _ ' ` _ W ) _ ` ' ` m ` ` m ` ` ` ` ` ] ` ] O.m O.+.O.O.D.D.F.H.OX~.OX(.+X+X^.!.!.{ { _ _ ) ` ` ` ` O.] `  . .D.O.O.O.@.O.O.O.a.a.a.O.a.XXa.XXa.a.a.a.a.a.a.a.oXoXoXoX$X$X$X*X&X*X,X:X*X:X:X*X:XfX%X%X%X%X@X%XoXoXXXoXoXXXoXXXoXoXXX",
"y u i i i i y i i u i y h p h p j p p M h p p p p i p i i i i i u i i a i d a k a k d l a k k l l L L L _ ^ { } } { ^ ! Q ! Q _ ! J l g l d d d d l a l l l l l g k l d g d d d d h a a a a a d h h h h d d d d k h d h d d h d d d d d d d h g d d d d d f d d f l g z J L L P H z H V f H V V H V V J C H V I V B V B B V f s f B f f B l B f l B l B B H B V B V C C C K K U Z U U ( ( R %.%.R =.%.=.=.-.>.-./.8.].].].].8.8.>.9.&.9.9.5.9.9.0.9.4.3.5.3.p.5.6.5.0.5.5.5.p.e E p.p.5.6.6.6.|.r.r.r.r.6.6.7.5.5.E R e T T T T n l l v n n n Y n n H n d V l H L P ' U ..P K C B Z Z Z R %.>.>.h.h.j.kXBXkXu.w.w.y.w.w.7.q.q.q.6.7.7.7.7.[.7.[.0.'.6.'./.E C.R ^ ^ ( Q _ _ _ _ ` [ _ ) _ ) ` _ ! m ` ` ` ` ` ` ` X.` ] ` X.` O.O.X.+.D.@.F.!.~.+XXX^.+X~.~.^.^.O. .` ` _ _ ` ` O.` ` O.O.O.O.D.a.m a.m .Xa.O..XO.XXXXXX.XXXXXXXXXXXa.oXoXoXoX@XoX$X%X@X#X&X&X&X;X*X;X*X:X:X;X;X%X+X#XoX+XXXXXXXoXXXoXXXoXoXXXXXXX",
"s s i s s i i i i i i i p h p p M p h j j p p h i i n p i i i i i i i a n a d a a k k l d l l l H L P Y _ Q { { ! { ! ! _ { { { Q W z g l l f s a f l a a l l l k g l d l d d d d d d d a d d d d h d k d d k h d d g k d d d d d d h g d d d d l f d g d s d d d d d l H l J J l H l V f V l V J J H C K I T K I T V B s B f B f s s V s B n B B f l B H n H B V B V C C C K U Z C U Z U %.U %.( ( R =.=.%.=.>.-./.-./.-./.-.-.-.D &.E E E e.9.9.4.3.3.3.e 3.5.0.6.0.6.5.5.e E e E 5.5.7.|.6.|.t.|.r.r.[.7.5.5.E e T T T q B.q H l v l Y H n n H n B n f H H H J T U { U U I A B Z Z Z <.&.>.>.h.gXNXBXkXkXj.w.w.7.e.t.q.6.}.y.6.|.7.7.[.7.7.[.[.0.6.0.].].5.R ( ^ ^ ^ _ ! _ _ _ [ [ _ ) _ _ ` ` ` ` ! m ` ! ` ` m ` ` ] ` X.m ] O.O.O.D.D.F.~.~.~.~.OX+X~.^.~.+...} ` _ ` ` ` O.O.O.O.O.O.+.O.] a.] a.O.a.a.a.a..X.Xa.a.XXOXXXa.a.XXoX@XoXoX$X$X@X@X$X%X%X#X%X%X*X;X:X*X/.%X%XoX+XoX^.^.^.!.!.!.a.XX;.!.!.;.a.;.",
"i s i i s i y i i i y j j p j p h p h p h p h p i p p i i i i n i i i h h a d k f k l a d d k l L L L P W { _ / } / / } } { {  .` ! W J W z g d f a a f l k d k g k d d d d d d f d d s d s d d d d d d d d d d d d d d d d d d h g d d g h d g f d d d d f d f l g l l f f l l V l V f V V H H J J J H I K P U U C V V f B B f l B B n f B n B H f B H B V V f B V V V C C K K K Z U U U R %.R ( R =.R R =.=.-./.-.-./.-.-.-.-.&.&.D &.E E D 5.5.9.3.E 3.e p.5.0.0.'.6.5.p.E p.E 5.p.5.0.6.|.6.|.r.|.6.6.7.5.5.e T T T T T T q v v n H n H n H n l l n l l H H P Y P P Y U T C Z Z Z U %.&.>.h.h.kXkXzXkXkX{.w.w.w.7.7.6.q.6.q.6.6.|.[.6.[.[.6.6.[.4.[.].]./.E %...^ { P _ _ _ ` [ _ ) ) ) _ ` ! ` m ! ` ` ` ` ` ` ` ` ] X.] ` ` X.O.O.+.D.!.!.^.~.^.+X(.%X~./.D.D...` ` ` ` O.` ] O.] O.O.O.O.a.a.a.O.O.a..Xa.a.a.a..XXXXXXXXXXXoXa.oXoX@X@X$X@X$X%X%X#X#XoX#X/.%X%X/.:X+X/.~.^.^.^.^.;.;.D.:.!.!.;.;.F.;.;.!.;.",
"u i s a i i s y i i i i p i p p j p p h p p j p i p n i i i a i i i d i a k k a k d d k k l l z H J P Y _ ! / ` ! { }  .O.O. .{ { ` ! Q W W z l d n f a a f k l l d d d d d l d d d d d d d d d d g h k h d d d d d d d d h d d d d h d g d d d l f l d l f l n l f g d d f d f f f f V f H H H H C H K K K U U U K I C V V B V s B s f s f B s f B l B l B B B V B B V C H I C K K K U Z ( U ( ( ( U ( =.=.-.:.-.=.-.-.-.-.E -.-.%.E &.D D S &.9.5.5.3.3.3.5.7.0.0.|.5.5.5.e E 5.5.5.5.6.6.6.|.6.|.6.6.[.6.5.3.E T T T n n T B.l v H n Y n H v H l n H l z J J P P P { P P I C Z Z T D %.&.8.h.h.kXBXBXkXw.w.w.w.6.w.w.6.6.y.q.r.q.6.6.6.6.6.[.[.6.[.[.4.[.].E =.( ^ ^ ^ { _ _ ` _ [ W W _ _ _ m W ) ` ! m ` ! ` m ` ` ` m ] X.` ` O.+.+.@.F.!.~.^.~.+X+X-X%X~.~.F.D. .} `  .` X.O.O.O.O.O.D.+..Xm O.a.a..XXXa..Xa.a.XXa.XXXXXXa.oXoXoX@XoX$XoX&X&X@X@X#XoX#XoX%X%X%X%X/./.+X~.+X^.^.!.:.@.:.@.+.@.:.@.:.@.@.;.@.",
"s a a i u a u i u i i u u u i i p i p p i p n p i i i i a a i i i i i a d a d d a d n s d n l H L L ) _ ` ^ { ! ^ ^ | X.X.| ..X.m $.m m ! m z z g h d d f l l d l k l g k g l d d d d k g g d g h d d j k k d k d k k k h d h d h h g g g g f f d f d f f f B f V f s l l V f d s f l V V H C I C C U K K U ( U C Z C C B V V V s B V g B g f f B V B f f B n B g V V V C I I K K K K ( U ( Z ( ( R { R ..%.=.=.=.=.=.-.=.-.=.=.=.%.R U Z S E R E 5.5.S p.5.5.4.6.0.7.4.e.3.3.S S 3.5.7.6.6.|.t.r.|.|.[.7.5.5.E T T T n T T x Y H H c v v H v v n n l l f V H J J K K P P U T K T U R %.&.>.gXh.kXBXBXzXkXw.e.e.7.w.7.w.t.w.y.q.q.6.q.t.w.7.q.q.q.[.[.[.[.[.[.5.-.R U U K ! W W _ _ ) ! ! c ! O.! ) ! ) ) ` W W ` W ` ` ` ` ] ` ` X.O.m .XO.XXXXJ.XXH.OX;X+X-X-X~.F.D.S.O.O.+.+.O.O.D.O.O.@.D.@.a.$.a.a.a..Xa.a.a.XXXXXXXXXXa.a.a.a.$Xa.$Xa.$XoX@X$X@X@XoX%XoX#XoXoX^.XX^.~.^.~.!.!.D.:.:.+.+.+.+.+.+.#.O.+.+.+.+.",
"a a a a i s u s u i u i i i i i i p i i p i p i n p i i j a n i h h h h i d d d d d f l f l H z L L W W { { / ^ Q / | X.o.O.` O.$.$.$.! ` $.~ m z z g d k l l l z l l k g l d d k k g g k k g k k z g k g k k d z k k d d h k h h h h g g g f f g g l g f V V B s n B d s l f s V l B s B V H I I I I U U U ( ( ( ( ( Z Z C B B g V g B B g B f f s B f B f B l V V V B V J I K K U U U K C ( U ( U ( ^ R ( ( =.=.=.=.=.-.=.=.=.%.( U U Z Z Z R &.E 5.S e 5.4.6.0.7.0.4.S S e S 3.3.4.7.6.}.r.r.r.r.[.7.7.].E E T T T T H n l I c H l H H v b H H l H n l f I J P K K P P P K I T U %.%.&.8.gXgXkXBXzXBXkXw.w.w.e.7.w.y.w.t.w.t.q.6.6.w.w.t.q.q.[.[.[.|.[.[.4.[.9.&.R ( ( Q ! _ _ W W _ ! ~ W ! W ` ` W ! W ` ` ) ` ) ` ` ] ] ` ] X.` a.X.O.S.XXXXH.OXOX(.-X;X-X~.~.F.S.S.S.O.S.D.D.O.@.@.F.@.@.$.a.X.a.XXXXXX.X.XXXXX@X@Xa.@Xa.@Xa.a.@Xa.@XoXoXoXoXoXoX#XoX^.^.!.XX;.;.!.^.!.!.!.!.D.@.+.+.+.:.+.+.+.O.+.O.+.D.+.",
"d s s s u i h s i i a i i i i i i i y y n p i p j i i i i k n i i h h h d d d f s n n s f l H L L L Q _ _ / ^ / ^ ^ } X.O.X.O.O.A.! $.A.X.a.m m c z z k l z z z z z z l k k g k g l g z z z g l z z c z z k k g z k z d d k h g h g d f g V f f l g g l H V V I H s s l V l f s f f f B H H T I I C U U U ( U ( ( <.| ( ( C C V s B g B g B g V f f f B B f B V g B V V V J K I I P ( K ~ U ~ ( %.U U ( ( %.| =.=.=.%.=.=.=.%.R ( U U Z C Z Z R R &.S 3.5.5.5.7.6.6.7.4.3.S S 3.5.e.4.7.6.r.t.r.6.|.6.7.[.e E T e T T n V H H z c H H l v v v v n l H l H H H K K K P K P K P K U Z R -.>.h.gXkXzXBXBXkXj.q.e.7.w.e.t.w.q.q.r.q.q.q.q.6.y.y.q.q.6.[.[.6.[.[.[.q.0.].9.&.%.K ~ } ! W ! ! W ~ ~ W W ! W ` m ` ` W ! W ` ` [ ] ] ` ` ] O.O.O.a.A.S.H.!.OXOX-X;X;X-XOX~.F.F.+.S.S.+.@.O.O.@.O.F.F.a.a.$.a.a.XXXXXXXXa.XXXXa.a.@Xa.a.a.a.a.@X$X@XoXoXoXoXoXoX^.;.;.;.;.;.:.+.!.@.D.:.D.D.+...X.O.o.O.+.+...+.O.+.O.D.D.",
"d a h i s a i s d a i a a i i i i i i j i i i i p i i i i n i a i h i h h d d k a f f l s f z H L P W ! ^ _ / ^ ^ / } X.O.O.O.X.$.! $.X.a.b.m a.W z z z z z z z z z z z l g k g l l l z l z z z z z z z z l z k z d z k z h k k d h g f g g V V V f l f V H T T I I B s V V V d f V f H B V V I C K U C U U ( ( ( ( %.| ( Z C B B g B g B g B f B B f f l V s s s g f V H C I H K K ~ U K ( <.( U ( U ( ( ( %.%.R ..=.%.=.( %.U ( U C C B A B Z S S E 3.p.5.[.7.[.7.4.4.3.3.S 3.5.4.7.6.r.r.t.r.t.r.6.6.7.5.E e T T n T l l l c H H c H v H H v l v H l H H J K K J K K P P U P U U %.>.8.h.kXNXzXBXBXkXj.w.w.w.w.t.w.t.r.q.y.q.y.q.6.6.7.w.y.q.|.6.6.[.[.w.{.{.[.gXgX8.%.U ( ( ~ K ~ ~ ! W W W ! W ) ! ! ) ! ` m ` ` ) ` ` ] ` ] X.m ` ] O.O.XX!.H.OXOX+X-X-X-XOXOX~.F.D.D.D.D.O.F.D.@.O.XX@.F.#.a.a.O.XXXXXX@XXXXX@X.X@Xa.@X@X@XoX$Xa.@Xa.oXoXoXoXoX!.!.:.;.:.;.#.O.:.D.@.!.D.D.D.O.O.| X.| O...+...O.O.O.O.O.D.",
"h s d s h s a a a a a a i i n i i i i i i i i i n p i n i n a i i i h h h d d d f d d d n f H L L W _ ! ! { ^ ^ ^ / / X.o.X.+.X.$.! $.$.$.A.X.X.~ z z z z L c J z z z z z g k g g g z z z z z z z J J H z J l l z z z g k z k d s g l f T n T q f f V V H I T T T B V B V V V B V V V f V V I H T I U U U ( ( ( ( %.| =.| ( I V V V V V B V V V f B V f B f B l B g g B V H I I I K U ( ( U U K ^ ( ( ( ( ( ( ( | %.( %.( %.U U U C V B B B B A Z S S 3.5.7.[.7.7.[.p.5.3.S 3.E 4.4.7.q.r.}.r.r.|.7.6.7.4.5.E T T I H l f g z z c H c l H v l v v v l H H H H K K ~ P K P P U U U Z %.8.].kXNXBXBXBXBX[.w.w.w.w.w.6.q.6.q.y.q.6.q.q.q.q.6.r.q.q.[.6.6.|.[.[.{.kXkXw.kXh.9.%.D ( ( U ( K ^ P W ~ m W ~ ! ! ! m ! W ` ` ` ` ` ] ` X.! X.X.] O.O.XXF.!.!.OXOX+X+X:X-X-X~.~.F.F.F.F.F.O.F.@.F.F.!.;.a.a.@.XXXXXXOXXXXXXX@XXX@Xa.@X$Xa.@XoX$XoXoXoXoXoXoXoX;.^.;.!.@.:.@.+.#.+.!.D.+.=.O.....| X.X.O.O.@.O.O.D.O.O.O.D.",
"h s h s a a a a l k k d n i i i a i n i n i n i i i p i i j a i h i i h d h d d a l n f f l H L W W W Q _ / / ^ ^ / / X.o.+.+.O.$.$.$.$.$.X.` ` W W W c W L L c W z z J z z z z z k g k g l g k g g V z l l l z l k l k k d k k n n f H T T T T H C V I I I T T T T B B B B B f V s s V B V I I C I C U U K ( ( ( ( ( | =.( U C J C C V V V V V f V V V f B V s V B V V C J I K I K U K K C K ( ( U U ( ( ( ( ( ( ( ( ^ U U U I C C V B B B w A A S E E 3.[.6.6.[.p.5.p.3.S 3.5.4.4.7.6.6.r.r.r.6.|.6.0.4.E E e T T H V l l z z H H H l v H v v l H z H H H H K K K K P P U U U U %.-.8.gXkXNXzXBXBXkXj.w.w.e.6.7.6.6.y.y.q.q.y.q.6.q.6.w.w.y.q.[.6.6.[.6.[.u.}.BXBXkXBXkX8.&.D <.U U ~ Q P W W W ! m ! ! m ` ` ` ) W ) ` ` ] ` m ` ` ` X.O.O.O.F.F.!.OXOX-X+X+XOXOX~.~.~.F.F.F.@.F.F.F.F.F.F.XXa.O.a.XXXXXXXXOX@XOX@X@X@X@X@X@X@XoX@Xa.oXoX;.a.oX!.^.;.^.;.:.;.@.#.+.+.D.:.:.D.S.D.O.O.O.X.+.:.+.O.D.D.D.D.D.S.D.",
"d d s h s a a a l k d d d i n i i i n i i i i a n i i i i a n a a h h h d d d d a f f f a l J c W ~ Q ! / ! ^ ^ ^ / / $.X.#.O.X.$.$.$.$.a.! X.X.! ! ) W ) P L L z ~ W z g z z z z z z z k z z l g g f f f d g g d k k k l k k g n I B T T T T T U U Z U U U U U R T A B B B B V f V B V V V I V B T Z K U ( ( ( ( ( %.=.=.=.| U Z K C C C V C V V V V V B V V V V g V V C H I K I I U Q U ( <.( ( ^ ( ( ( ( Z ( ( U ( Z ( U C C V V B B B B B T S S S 5.5.[.7.7.|.p.p.5.3.3.5.3.4.4.w.y.r.r.r.r.r.r.6.7.4.5.R T T T H l l l z z H c l H l H c H v l l z H J H K ~ K P K U P U U U %.>.h.kXNXUXBXMXBXkXw.w.w.e.w.q.t.6.6.q.y.y.6.q.q.q.q.r.q.y.y.6.6.|.[.|.6.y.}.|.BXBXBXkXj.h.9.D S Z Z U Q Q W W m ! W ! ` ` ` W ` ` ` ` ` ` ` ` ` ` X.] O.O.a.D.F.F.XXOXOX+XOXOXOX!.~.!.F.F.F.@.F.D.F.F.~.!.OXa.XXXXXXXXXXXXXX@XOXXX@X@X@X@Xa.oXoXoXoXa.a.;.^.:.;.;.;.;.:.:.:.+.#.#.o.+.+.+.+.+.D...+.| +.+.+.D.O.D.F.D.D.D.D.S.",
"s h h s h a h d l l k k d n h i i i j i n i i a i p i n i a i j i i i d d s d k f k a l f l z J W W Q ! ^ / ^ / ( ( / $.o.O.O.#.$.$.$.! a.$.X.X.X.$.X.` _ _ Y z z z z J ~ z J z z z z z z z g l f f f f f f d d d d g k k k l k T n T T T T T T U U U U U R R R E S T T T B B B B V V V B V V I T V I U U K <.( ( %.( | =.=.=.( K U K C C V V V C V T V H H V B g B V V I H K I K K ( K K ~ C K ( U ( ~ Z ( ( ( Z ( ( ( U U T V V V g s B B B B T S E 3.].7.[.7.[.[.5.p.S 3.3.4.0.7.q.6.r.r.r.r.r.6.7.7.5.E R T T C z l l l z J l L H l l c l l l l l H H H H J K Q U K U U ^ U R %.8.fXNXBXBXBXBXBXkXw.w.w.7.w.t.w.r.6.}.y.6.y.y.w.y.6.w.t.w.y.|.[.[.|.[.7.u.k.BXBXk.BXBXkXj.h.D D Z Z K U P _ W ! W ! ) ! W ` ! W ) ` ` ` ] ` ! ` ] ] X.X.O..XF.F.F.XX!.+XOXOX!.OXOX!.~.F.!.XXD.F.F.@.F.!.!.!.XXa.a.XXXXXX@X@X@X@X@X@XoX@X@X@XoXoXoXoXXXa.!.;.@.;.+.;.:.+.+.X.o.#.X.| +.+...O.+.O.....+.+.+.!.D.!.!.D.!.D.F.F.D.",
"d i a d s i d d d d a k a k a n a j a i n u i i i i i i i n a i a a h d d d d s d d d l z z z L ~ m ! ! ! ~ ~ <.! ( / $.#.$.#.$.a.~ a.~ a.! X.#.X.` X.` ! ~ ~ ~ z g g ~ ~ ~ z z z z W ~ z z k g g h g g d h d d d h d h d k f l T T T B.e E C.E T E E T E C.E E E R T S T w T B B B B B B V T B V T I K K Z Z ( <.( %.%.=.:.=...( ( K C C C C C V V C V I H H H C V V V C C H I K U K K U U K ( K ( U ( <.( K K ( K U C K C K I V V V V V B B T T T E 5.5.7.6.6.7.5.5.p.E 3.5.5.0.7.[.6.r.|.|.6.r.6.7.4.5.S S U I H H c c z L H L J H H v l l c l z J l l V J J K K K K K U U U %.>.h.gXkXVXBXVXBXBXj.w.w.w.t.w.7.t.t.t.t.t.6.q.q.q.q.y.q.6.y.t.w.t.t.u.t.u.i.k.BXk.BXBXBXBXk.BX9.9.R A C C K ^ ! m ! ! ! ! ! ! ` ` ` W ` ` ` ` ! ! ` m ` a.O.O.@.F.!.F.~.XX!.!.!.!.F.!.!.!.F.!.!.F.~.!.H.!.!.XXXXXXXXoXoXoX@XoX+X@X@XoXoXoXXXXXXXoXXXa.XX;.;.;.:.F.+.:.+.:.:.+.o.#.o.+.+.O.+.+... .O...+.!.@.@.D.F.F.F.F.F.F.F.D.",
"d i s g s a d a d k k d l d k a a a a a j i i i i i i k i i i u i d a d d d d d d d l l z J L J m ~ ! ! ! ! ! ~ ! / $.$.$.#.$.a.~ a.~ a.! a.#.$.X.X.X.$.! ! m m z z z z z z W z z z z z z z l g g z h z d d d h h d i a a a n T T T E E '.5.5.p.E T E E E E E E E E E R R T e T B B B s V B C C T I Z Z K U ( ( ( ( ( | =.:.=.=.( ( ( <.J C K C C V H I H I I I V V V V J J I K I K K U ~ C U ( K K K ( C C Z <.K <.C C C I C C V l l s l V T B T E E ].6.].|.[.6.7.p.p.p.E p.[.0.6.6.r.r.r.r.|.r.6.7.4.E S S T J H L z H z z L J L z z l z l c z l H z V V C C ~ K P U U U U ( =.8.fXgXBXUXIXBXBXBXw.w.e.w.e.t.t.w.t.e.6.6.6.6.6.q.q.6.6.y.w.t.y.t.w.u.e.t.i.i.i.BXk.BXBXk.k.BXk.h.F S Z Z ( / ! ~ ! m ! ! m ! ` ` ` ! W ` ` O.! ! ` a.a.m O.a.O.D.F.!.~.~.F.F.!.!.!.!.F.F.@.!.!.D.!.F.!.~.~.+X^.^.XXXX+XoX@X@X@X@XoX@X@XoXXXXXoXoXa.oXXXXX;.;.!.:.!.+.!.@.:.@.+.o.+.#.+.:.D.+.D.D.!.+.+.!.;.F.F.F.F.F.F.F..XS.F.",
"f s a d d a d a k l d l k d a k d j k i a i i i j a i i i n j a i a a d d d d d d d d z l z L z ~ ! ! $.$.! a.~ / ( $.$.$.$.$.$.~ a.! a.a.! $.$.X.#.m $.a.m ! m ~ ~ g z z z z ~ z z z z z z z l z h k h k g d d h d d s s s I T B.5.'.5.p.5.5.'.5.E E e E E 5.E 5.E E E E T B T A B B B B B T I C T K I U U ( U ( ( ( %.=.:.=...( $.^ <.C K K C T C I C I I I K C V C C I J I K I K K U U ~ ( ~ Z K C C C C C C C C C C H B H H f B n B B l I B e E E 5.].6.[.6.7.7.p.E p.5.5.4.0.6.6.r.r.|.r.r.r.6.7.5.E S U T J L c c c L J I H L H L z l z z l z l H J V J K K K U P U U %.%.-.8.gXkXzXJXVXVXVXBXu.w.w.t.e.t.7.t.7.t.t.7.r.6.q.6.6.6.7.t.7.7.t.w.u.w.t.w.k.BXBXBXBXBXBXk.BXBXk.h.9.G A Z Z ^ ~ ! ! ~ m ! ! m ` ` ) m ! m ` ] m $.$.! m a.X.m @.@.F.!.!.!.F.;.!.;.!.@.@.!.!.!.!.!.^.~.!.~.~.^.XXXXXXoXoX@X%X#X%X@X%X@X+X+X+XXXoXoXoXXXa.a.!.;.;.!.:.!.:.!.!.:.:.+.@.+.+.+.!.+.D.!.!.~.!.!.!.!.F.F.XXOXOXXXXXXX~.",
"d u a f a a d d f k k d d d n a i n a n a n a j i i i n i i a h a d d d d d d a d d g l z z z L m ~ ! ! $.<.~ g / ( ,.$.$.! a.$.a.~ a.<.~ d.$.a.#.X.a.! a.! ! ! ! ~ ~ g ~ z ~ g g z ~ z z z z l z z z g k k d a g d d B I T T R E 5.5.5.5.5.0.5.5.5.5.5.5.p.5.5.5.5.].E E S S T T B B B B T B T T C Z C U U Z ( ( <.%.| =.=.=.:.=.o.( ( ( Z K K K K K U I I I I C C V J H J I K K K K C K Z C Z ( Z <.C Z C C <.<.C C C V H B H H B V n l B B T T T E 5.5.[.6.[.7.5.5.p.5.5.p.[.6.7.}.r.r.r.t.|.q.7.4.5.e S T T I H z L H H I L J J L H H c c l l z J z V J C K K U U K U ^ R =.>.h.gXkXBXVXVXJXVXBXk.j.e.e.w.t.t.7.t.7.7.t.6.q.q.r.w.6.y.w.w.t.w.t.t.t.t.g.|.k.k.k.k.BXBXBXk.k.BXzXj.8.D Z ( ~ ~ ! ! m ! ! ! m ` ! ! ` ` ! ` ` m a.m m a.m X.a.@.D.@.;.F.F.!.@.@.!.;.!.!.;.!.!.!.!.!.!.~.!.~.oX!.XX!.+XoXoX#X%X&X$X%X@X@X@X+XXXXXXXoXoXXX;.;.!.!.;.!.!.:.^.:.;.;.;.;.!.^.!.!.^.!.~.^.^.^.^.!.+XXXOXXXOXOXOXOXOXOX",
"d u d f a s d d d k d k d d a n n i n a i n a a a i i n d i k i d s a d d d d a h d g k z z z z ! ! ! ! ~ ~ a.a.a.! ~ a.a.a.! ! ! $.a.a.,.$.$.#.#.#.X.O.$.$.$.$.! ! ! z g z ~ m z ~ z W L z z z z z z k n l d d T q w T T T R E 5.5.'.5.4.7.[.7.7.4.4.5.p.5.5.5.5.5.5.9.E E T S T A T A B T B T T I I Z C U U U ( U U %...=.=.=.| %./ ( ( ( ~ U U U K I K I T K I H C H C C J I K K K K C ( ~ Z Z Z ( C Z <.C ( ( Z C C B B I V B H n H T T T T T T E 5.5.[.6.6.p.[.p.3.3.4.7.[.6.[.6.6.t.t.t.y.y.6.4.S S S T P L z L z Y I I Y J L J J J z z z z z z g C J K J K K K Q U | =.-.>.gXkXzXBXBXJXVXVXBX}.q.e.7.w.e.t.7.t.e.7.t.w.q.w.y.q.q.r.q.w.r.t.6.w.7.t.u.k.i.|.k.BXx.BXk.BXBXBXk.BXgX*.F / <.! W ! ~ ! m ! ~ $.! ` m ` ` ` ` ! ` ` a.` O.X.O.O.O.@.F.F.F.!.F.!.;.;.;.!.!.!.!.!.!.!.~.!.^.^.+X!.XXoXXXoX@X%X$X#X$X$X@X+X+XXX+X+XoX!.oXXX^.!.!.!.!.^.;.^.^.!.!.XX^.oX^.~.~.^.+X~.~.%X(.OX@XXXXX@XOX@X@X-X-X@X@X+X",
"d r s d i s d s f d k d n i i i a a j a d n i i a n a j i n a n i a a d a d a d d d k z z z m ~ ~ ! ! $.~ a.~ <.~ z d.~ ! $.! a.a./ / $.#.#.#.$.X.#.#.#.#.$.a.! $.! ! ~ ~ ~ ~ ~ m ~ W z L J c z z z z z l n V V B T T T S R E E 6.'.6.6.6.7.7.7.6.7.7.6.7.7.7.7.5.].5.5.5.E E T Z T T T T A T Z Z T I U U U Z ( U ( ( ( %.| :.=.,.o.o.%.( ( ( U U ~ U K I I P I I C H C H I I I I K T U K C U C U K Z Z K <.( <.( ( U I C I I H B n B H T q T q T e E 5.[.6.[.7.[.p.5.3.3.5.p.[.6.6.r.|.|.r.|.r.q.4.3.3.S R T I L L c L H Y I I K J J L L L J W z z l J J J K K K K U U U ( =.>.].jXNXzXVXIXVXVXVXBXj.w.t.e.t.t.e.t.t.t.t.7.7.t.y.q.q.y.q.q.t.6.6.y.7.t.t.k.BXBXBXBXk.BXx.k.k.x.z.BXBXj.h.s.D ~ ~ ! ! ! m $.a.m ` ` ` ! ` ` ` ` X.` X.` $.O.+.O.O.@.@.F.;.F.@.!.;.!.!.!.;.!.!.XX!.!.!.!.~.~.~.~.OXXXXXXX%XoX#X#X#X$X%X%X%X@X+X@X@XoXoXXXXXXXoX+X^.XX^.XX^.^.^.oX@XoX@X~.+X+X+X+X+X(.+X%X+X@X-X@X-X@X@X-X@X-X-X=X;X",
"h u u d i u a i n d n d i d i i a i a j j i j a i d i n n h n a a a d d f d d d d g g z m ~ m ~ ~ ! ! $.<.~ a.g ~ a.a.a.a.~ a.! $.a.a.$.#.#.#.#.#.,.#.$.#.#.$.#.$.$.! ! ! z ~ z z W W J W z z L J W z z l H T T T T T E E E /.5.5.6.0.7.6.6.7.7.6.6.[.7.7.7.7.7.7.5.4.5.5.E E R U S T T Z T T T Z I C U U Z Z U ( R ( %.( %.=.=.=.,.=.( ( ( | ^ ^ ^ U P P T T P K C K C H I K I K K K K K U ( ( U ( ( ( Z ( ( %.,.( ( K T T B H T H T n n n T T T T T 5.].[.[.7.p.p.3.3.5.p.4.[.6.6.}.r.r.r.t.y.6.4.3.S S Z Z I L z L b Y I T Y K L W L W L J c z z l J K K K K I K U U U ( :.>.].NXBXBXJXVXIXVXBXBXBXy.6.w.t.w.t.t.t.7.7.t.y.w.t.y.q.y.q.t.w.r.q.y.7.w.i.k.|.BXk.BXk.BXk.BXBXBXBXk.k.zXzXh.G ~ ! ! m ! $.! $.` X.` ` ! ` ` X.] ] X.X.X.X.O.+.+.@.@.@.F.@.!.!.XX!.!.!.a.oXXXoXXXXX!.^.~.~.+X~.%X~.XXoX+X%X#X#X#X$X$X&X%X;X%X@X;X+X@X@X@X%X@X%X@X+X%X%X%X%X%X%X+X%X%X+X;X;X+X;X;X-X;X;X-X;X@X-X>X@X>X@X>X@X>X3X@X;X",
"h r s h i u a a a d d a k i i i i i i a i a i i k i n a a a k d a a s d n d d s g h z z m ~ ~ m ~ ! ! ! a.~ g a.<.~ ~ a.~ a.! a.,.#.$.$.#.#.#.#.#.$.#.#.#.#.#.#.$.$.! ! ! ! ! ~ ~ ~ W W W W W L W c z z H H T T T T C.E E 5.3.].5.0.0.6.6.6.t.6.6.r.6.6.6.6.7.7.4.7.4.5.5.E 5.E R R S S T Z T Z T T I Z C U ( ( Z ( ^ R U U ..=.=.#.,.,.o.=.=.=.( ( U K K K P K K K C K K K K K C K U C U ( Z U %.Z %.( %.( ,.,.=.,.R P H B B n T n B T n B T q T T T 5.5.[.6.[.4.5.3.p.3.5.p.[.6.6.6.|.t.r.t.y.6.e.3.S S U I J L c c Y I P Y T P L Q P W W L L J J l V J K K K U K P U U %.:.].].kXMXBXBXIXVXVXVXBXBXj.k.u.j.t.w.t.t.e.t.7.w.t.w.6.w.6.7.w.6.t.7.t.e.t.i.BXBXBXBXk.BXk.BXk.x.x.VXk.zXVXBXh./ d.! ! ! ! m ! ` X.` X.$.` ` ] ] X.] X.X.$.@.O.@.@.D.@.@.@.F.;.F.;.!.!.!.XX^.^.XXXX^.+XXX+X^.+X+X+XoXXXoX+XoX#X$X%X%X&X&X=X;X;X;X;X%X@X@X+X@X%X&X;X;X;X;X:X;X;X:X;X&X>X;X;X;X;X:X;X:X:X;X;X;X>X>X@X>X@X>X3X;X=X>X>X;X",
"a r u i a s s f a a a a u u u i a i i n i n i a a n a f k d k a g h z d z d z g k d z z W z ~ ~ ! $./ / / $./ $./ $.$.,.X.o.:.#.#.#.$.#.! a.! a.a.~ $.a.$.a.$.X.X.X.X.X.! ! ! m ~ ~ ~ m ~ ~ ~ ~ g z z z g ~ <.~ =.E V.5.].5.].7.6.0.6.6.6.6.6.t.6.6.|.6.6.6.7.7.7.5.p.p.5.5.5.e E E T E A Z T Z Z I T C Z C U Z U U ( %.%.%.%.=.%.%.=.,.:.,.%./ ( ( U U ~ U K K U C U C K ( ( U Z ( ( ( ^ | ( %.%.%.%.,.%.,.,.-.:.=.( T C V V H H H H n l I H H w T e E 5.[.7.7.p.p.5.3.5.5.[.7.[.t.t.r.r.|.|.6.p.5.e E T B U P P L z c W L P P L H z z ~ J J J J P K K P K P ( K K U ( | %.>.*XgXkXBXUXVXIXVXVXVXBXBXBXBXkX|.|.}.u.u.u.w.6.6.6.w.w.w.q.q.y.6.6.6.6.6.q.u.BXBXVXBXk.BXBXBXBXz.BXVXBXBXzXVXlXd.s.,.X./ $.$.|  . . . .X... .S.O.O.+.O.o.@.+.@.@.XX@.@.@.@.!.@.!.XXXX!.XXXXOX+XOXXXXX+XOX+X+X+X@XOX+X@X+X@X%X&X&X;X&X&X*X,X:X:X:X;X;X;X;X;X,X;X;X;X:X,X:X,X:X2X:X2X:X,X;X,X>X=X>X>X>X>X<X>X>X>X>X<X>X>X>X>X>X>X>X2X>X",
"u u u i u u i d a a i s s u s u i i i i n a a a a n d k a f d f h k g k d z h z h z z z m z m W / / / / $./ $./ / / $.$.$.:.=.o.#.#.$.#.a.! a.m ! a.a.$.a.$.X.a.` a.X.` ! ! ! ! ! ~ ! ~ ~ ~ C g m ~ z ~ ~ g K Z E E 5.].].[.5.[.[.7.7.6.6.|.6.6.t.6.p.6.6.6.6.6.7.7.5.7.7.5.5.5.E E E R R Z Z U Z Z Z Z C U U ~ U U Z U U R =.=.%.%.%.,.=.,.=.%.%.( U U U ( U ( ( U ( ( ( ( ( ( ( ( | %.%.=.%.%.=.%.%.,.-.>.=.>.>.=.R I V T T B B H H H B I B T B T T E ].].[.7.].p.p.5.5.4.4.[.7.6.6.t.r.r.[.7.p.5.E S T T K T K L L c c P P T J J ~ J J W J ~ L K K K K P P ^ ( Z Z ( =.=.>.].jXNXBXUXIXVXIXVXVXBXBXk.BXBXBXBXBX}.w.q.7.w.q.w.7.w.7.w.w.q.q.6.7.7.0.0.q.BXBXBXBXBXBXk.k.BXBXk.zXk.j.zXzXh.s.,.:.X. .X.o.o.:.+.+.+.D.@.D.D.D.F.@.@.@.@.@.@.@.XX!.!.;.XXXXXX!.XXXXXXXX+X+X+X+X@X@X@X@X@X@X-X@X@X@X;X%X;X;X;X&X;X;X;X:X:X,X:XhX;X*X,X;X:X;X,X;X,X,X:X,X:X,X,X2X,X;X,X>X>X>X=X>X>X>X>X>X>X>X<X>X>X>X>X;X>X>X2X2X2X>X",
"r r r r y y u i a s u u y y y u i a i n i a a a d a k d d l l k g h h z z g k h z h z z m ~ m ! ! / / / $.$./ $.$.,.$.o.o.o.#.#.X.#.#.a.$.a.$.a.a.! a.a.#.#.a.X.X.X.X.$.! ! ! m ! ~ ~ ! ~ ~ ~ C g g ! g I K ( U C.E ^.5.5.[.4.6.0.6.6.6.6.6.t.6.6.t.6.6.6.6.t.6.6.7.7.5.5.5.5.5.E 5.E E &.R R Z U Z Z T T C C U U Z U U ( =.R =.%.%.,.=.-.=.=.=.%.%.( ( U U ( ( U ( ( ( ( %.%.=.%.=.=.-.-.:.-.:.-.,.>.*.>.>.>.>.>.=.U C C I I H H H I B H H T I T T R E '.0.4.6.p.5.5.p.5.4.[.7.6.6.t.t.6.r.6.6.5.5.e T Z I K K P J ~ z W L P P P J J J J J ~ K K K P K P P U U ~ C K ,.=.>./.fXjXzXUXVXVXIXVXVXzXBXBXBXBXVXBXJXBXBXkXq.0.0.0.q.w.w.w.w.0.0.w.0.7.[.0.[.0.kXBXkXkXk.k.{.j.j.j.j.j.h.h.h.h.s.s.a.:.:.o.+.:.:.@.+.!.!.!.!.!.~.~.~.;.!.!.;.!.XXoXXX^.XXXX^.XXXXXXXXXXXX+X+X@X@X+X@X;X;X;X&X;X&X;X;X%X%X%X&X%X&X&X&X;X;X,X,X,X,X,X:X2X,X,X:X,X;XhX;X:X,X,X,X,X:X,X,X,X>X=X,X,X>X>X=X>X>X>X2X<X,X,X<X>X>X>X>X>X<X,X2X>X",
"u 0 p y y r y s i u s y y y y s i 0 i i a a a a k l l l l l g l z z z k z k z z z g z m ~ m ! ` X.$./ $.$.$.G $.$.$.o.o.o.=.#.#.#.#.#.#.a.X.a.$.! a.a.! a.a.X.a.X.X.X.X.$.m ! ! ~ ! ! ~ ~ ~ ~ ~ ! ~ ~ ~ K Z U R E E E ].].7.[.7.6.0.6.6.t.|.p.|.6.p.p.|.p.6.t.6.6.6.6.7.4.p.5.7.5.E 3./.E R R Z U U Z Z Z Z K Z U U U U U R ..R %.%.,.-.,.=.>.=.,.=.%.R %.%.%.%.%.%.%.=.%.-.=.:.-.:.>.>.-./.-.>.>.*.>.>.>.>.>.>.-.%.U T B T I H I I H T I I I T T T T E 5.5.[.5.[.4.4.5.4.4.7.[.6.6.r.r.|.r.6.7.5.5.R T U K I K K J m m m L P U J J ~ W ~ ~ K W K Q K K K ( ^ ^ ~ <.( ( ^./.fXfXjXzXVXJXIXVXJXVXVXVXBXVXVXBXVXBXBXBXkXw.0.9.0.9.e.9.9.9.0.9.9.0.[.].9.9.9.9.w.gX9.8.9.9.h.9.h.h.s.F F F d.,.s.,.:.+.:.:.:.!.!.!.^.~.~.~.OX~.~.OXXXXXoX^.XXXXoX+X+X@X@X@XoX+XoX+X@X+X@X@X@X;X%X;X;X@X;X;X;X>X;X;X&X&X;X&X;X>X>X;X,X,X,X,X,X,XhX,X,X2X,XhX,XhX;XhXhX:XhX,X,X,X,X,X,X,X,X,X>X1X>X>X>X>X>X>X>X>X>X>X=X>X>X,X,X,X>X,X,X",
"u y 0 y u y y u s y y s y y i y y i y i i n a n l k l l l l z l g z z z z z z z z z z m m ~ m ! / $./ / $.$.$.#.,./ o.o.o.o.:.o.$.a.#.a.#.a.a.a.$.#.a.$.#.a.$.a.a.! ! ` ! ! ! ! ! ! ~ ! ! ! ~ ( ~ ~ ~ Z U Z U U R E /.].].7.[.7.0.6.6.6.6.6.6.p.t.p.t.7.|.6.t.6.6.6.6.7.4.p.4.5.3.5.E E E E R R R R T R Z T Z Z U U U U U ....R %.%.,.%.-.,.=.>.>.=.%.%.=.=.%.=.=.-.&.-.=.>.-.>.-.-.-.].-./.>./.>.>.>.>.>.>.>.>.,.%.U B B I I I I I I I I I P T T T T E E 5.5.0.p.5.5.5.4.4.[.7.6.|.6.r.|.6.6.7.3.E S Z Z K J K P P m W W Y T P J ~ W J W J W K K P K K P Q ^ ^ ^ ( ( =.:.#XfXfXNXMXVXJXJXIXBXVXzXBXzXzXMXBXMXBXBX[.].9.9.9.9.9.9.9.9.9.9.9.9.].].].-.5.9.&.9.-.&.%.*.*.F &.F F G D D ,.#.,.;.:.:.^.;.;.:.^.^.^.^.^.~./.+X(.~./.+XoX+X^.XXXXoX+X@X@X+X+X@X+X+X+X@X+X+X%X;X;X&X;X%X;X;X&X&X;X;X&X=X;X*X,X*X=X;X=X,X,X,XhX,X,X2XhX:XhX,X2X,X2XhX,XhX:XhX:X2X:X,X,X,X2X=X1X=X1X,X>X,X>X>X>X,X,X<X,X>X>X,X>X>X>X,X,X>X",
"u y s y u y y y i y i 0 0 y y y i 0 y i i i a a d g k k l z z z z z z z z z g z z z h ~ ~ m ! ! / / $.$.$.$.,.$.#.$.o.o.#.:.o.o.#.$.#.#.a.O.O.#.#.#.$.$.#.A.$.$.X.$.! ! ! ! m ! ! ~ m ~ a.~ / / ^ ^ ( U U U U U ..E E 5.5.].7.[.0.6.6.6.6.6.t.6.t.t.p.7.7.t.6.6.6.6.6.6.6.7.p.7.5.5.5.5.5.E E E E R S T U R R U U U U U U R U U %.%.=.-.=.-.-.>.>.-.-.,.-.-.-.-.-.-.-.-.-.-.].>.>././.8.].8.].>.fXh.8.8.h.>.>.>.%.%.U Z T I I L K I I T I T T P T T T T E 5.'.5.].5.].p.].5.7.[.6.r.|.r.|.r.[.6.3.E S T K K K P P P L c m _ P P J W J ~ ~ ~ ~ Q Q K ^ P U ^ ^ ^ ( ( / =.>.*XfXfXNXMXmXJXVXBXBXBXzXkXzXh.j.gXkXgXgX].8.&.9.8.8.8.&.9.>.9.-.>.-.].9./.-.-.-.-.-.E %.%.,.,.,.*.,.,.,.,.,.,.#.,.:.a.oX^.^.:.oX+XoX~.+X~.~.~.~.OX(.~.+XXXXXXX+XoX+X+X%X+X;X+X@X%X%X%X%X%X;X&X&X;X;X;X;X;X&X;X;X;X&X;X;X*X;X;X;X;X,X,X:X,X,X,X,X,X,X,X,X:X2X,XhX,XhX2X2X2X,XhXhXhX,X,X=X2X1X=X,X=X=X1X<X>X,X<X<X>X>X>X,X,X2X>X,X>X2X>X,X",
"i y y i y y y i i y y y i s y y q y y i n i a a l d l l g k z z z z z z z z g g z g z m ~ ~ ! ! $./ ! $.$.$.$.$.o.#.o.#.o.o.o.o.#.#.#.a.a.#.#.a.#.#.$.a.a.$.$.$.$.! ! ~ ! ! ! ! ! ! ! d.~ ! ! / ( ( ( ( U ( U U U R e ].5.[.[.4.0.0.6.6.6.6.6.6.6.7.7.7.p.t.6.6.[.6.[.6.[.7.7.p.4.4.5.5.5.E 3.E E R R S R R R Z U R U U ( U R ..( %.%.%.=.%.>.>.-.:.*.-.-.>.>.-.>.>.>.>.].>.>.>.8.-.]./.-.>.].].].>.8.8.8.8.>.-.&.R U Z C I I I T U T K T T T T B.T T E T p.5.5.5.5.5.5.4.7.[.7.6.r.|.|.6.|.[.7.5.S Z Z K ~ K P P P W m W L { P Q J W ~ ~ ~ J Q Q Q P ^ ! Q ^ { / ^ / :.^.*X/.*XjXjXcXzXzXzXjXjXh.h.s.*.s.>.>.*.>.&.%.%.-.>.>.>.>.>.>.>./.>./././.^./.^.:.-././.>.:.:.:.,.>.a.s.a.s.s.:.>.:.a.#X%X%X^.oX%X%X%X+X+XOX+X+X%X~./.+X+X+X@X+X+X@X%X%X@X;X%X%X;X%X;X=X;X%X&X&X>X;X&X&X&X&X&X;X&X&X;X&X;X,X*X=X;X,X=X;X,X,X,X,X,X:XhXhXhX:X,XhXhX2X,XhX2XhX2XhX,X,X,X2X>X,X,X1X1X,X,X,X,X,X,X,X2X,X2X,X,X2X,X,X,X,X,X>X2X",
"i y y y s y y y u i y y y y i y u y y y y n a n d l k z z z z l g z z z z d z g z z g z z m W ! / $.,.$.$.$.$.#.#.#.o.o.:.=.:.o.$.#.a.#.O.a.#.$.a.$.a.$.$.a.$.$.! ! ! ! ~ ! ! ! ! ! ! ! d.g ! <.%.( ( ( ( ~ Z ( T R E C.5.5.0.0.0.6.6.0.6.6.6.6.7.7.7.7.6.7.7.6.|.6.6.|.6.6.6.p.7.p.4.p.5.E 5.5.E E E E S S R S R R R R U =...U %.%.=.=.=.,.-.,.>.*.-.>.*.>.8.>.8.>.].>.].>.].8.].8.].8.].].].>.].h.8.8.fX8.8.-.%.R T Z I I I P K K T T U P U T T T T T E '.5.5.3.].5.5.5.[.7.6.6.|.6.r.r.6.7.5.E S Z K K K P { P J W W W W P P K W K ~ W W K Q Q K Q P Q ^ ^ { ^ ^ ( | :././.*Xs.>.>.h.fXh.*.8.,.,.,.%.,.*.>.>.-.=.%.%.=.;.>.:.>.>.>.>././.^.~.^.^.^./.^././.:X;X%X;.:.:.s.s.a.s.a.s.a.#XoX/.#X&X%X%X^.+X@X%X~.+X%X%X+X%X-X-X%X%X%X@X%X;X&X;X%X@X&X;X;X;X;X;X:X&X;X;X>X&X&X&X;X;X;X;X;X,X,X;X,X=X;X:X;X;X=X;X;X;X,X;X,X:XhX:X,X,XhX:XhX,X,XhX2XhX,XhX2X,XhX2XhX,X,X,X,X=X,X,X=X,X,X,X,X:X:X2X,X2X1X2X,X>X2X,X,X>X",
"i 0 u i y p y y y i q a y y y i y i i a i n a n k d f k f l l l z z ~ c ~ z z z z z z W W ! ` ! / $.$.$.! a.<.a.! a.! $.o.o.#.#.#.#.$.a.$.a.a.$.$.$.a.! a.~ ! a.! ! ! ! ! ! <.! ( ^ ( | =.R =.=.,.%.%.( | U ( U ( ( D E 5.9.4.0.4.0.0.6.0.6.6.6.6.7.4.7.p.[.7.7.|.7.[.7.6.[.7.7.7.p.7.3.4.3.5.3.5.E 5.E S E S S E %.R %.=.R ..=.%.=.%.=.%.=.%.,.%.-.>.>.*.*.8.>.8.>.].].h./.8.8.].h.8.fX8.].8.gX8.8.8.8.].8.9.-.-.%.R Z T P P U P R T U B.T T T T T R T E E E E 5.E 5.5.9.0.7.[.r.r.t.t.|.7.[.4.e R T T g ~ ~ ~ ! L W W m W P P W L Q ~ Q ~ Q Q Q Q ^ ! ! ^ _ ^ ^ ^ ^ | | o.=.| | ( %.D ,.,.D <.D ( D D ( ,.,.=.-.:.=.-.^./././.>.>.#X/./.oXoX^.XX~.%X/./.:X/./.^.XXXXoX#X#Xs.s.s.a.*X*Xs./.*X#X%X@X%X@X%X%X;X%X%X-X%X%X-X/.-X%X%X%X%X;X;X*X;X;X&X%X;X*X*X*X:X%X&X*X&X*X=X&X&X*X&X=X;X*X,X,X*X,X;X=X=X=X&X=X=X*X,X;X=X,X=X,X,X,X*X,X,XhX,X,XfX,XhXhX:XhX,XhX*X,X=XhX,X=X=X,X,X=X>X,X,X,X>X>X,X,X,X,X,X=X,X,X=X>X,X",
"y 0 y i y y y y y i y u y y y y y y y q i a a a d l k d k l g l W z g z z J z z ~ g W W Q Q ` _ $./ <.a.a./ a.! a.! / a.:.o.,.#.$.$.#.#.a.a./ a.$.a.! a.~ a.~ ~ ! ! ~ ! ~ ! ! / | | ( ..=.=.=.=.%.=.,.=.R ( U ( U R R R -.5.9.4.4.4.4.0.0.7.[.6.6.6.[.7.[.p.7.7.6.6.6.|.|.7.6.7.7.7.7.4.4.3.4.3.3.5.E 5.E E E S E E R R E V.R =.%.%.%.%.,.=.&.%.-.*.>.>.8.>.>.h.8.8.h.>.8.8.8.8.8.8.].].gXh.].8.8.fX9.8.8.9.8.&.&.R R U U T U P T T { U R R T ' T T B.T T E T E E E E 5.9.0.6.6.6.r.t.6.[.|.4.5.E R T V ~ ~ m ~ P W W m W W P Q Q ~ ~ Q Q Q Q Q ~ Q Q ^ { / ^ / ^ ^ ( $.| =.$.( ( ( ( ( ( ,.( ^ $.<./ ( ( =.=.=.=.=.:.:.^./.%X/.s./.>.*X%X#X+X+X+X+X+X+X/.(.(./.%X+X#X#X#X#X#X#X*Xs.s.$X*X#X*X#X%X;X;X%X%X;X%X;X%X/.%X-X%X%X%X-X%X%X&X&X%X&X%X*X%X&X*X:X;X;X;X*X%X&X&X&X*X=X*X*X*X=X,X*X*X,X,X*X*X;X*X;X=X;X;X=X=X,X*X,X,X,X=X=X,X*XfX:X*XhX2X,X,XhX2XfXhX,XhX*X=X=X,X=X,X=X,X=X,X,X,X,X,X,X>X,X,X,X,X,X,X,X,X=X,X",
"i y y i 0 y y p y y y y y p y y y p i i i i a a d k a k d d l k z g ~ g J z ~ z z ~ W ~ W ` ! ! ! $.! a./ a.a./ $.#.a./ :.#.:.o.$.#.$.a.$.$./ $.$.a.! ~ ! m a.~ ! ! ! ~ ~ ~ / / | ( R =.=.=.-.-.-.&.%.&.R %.R R ( R %.R -.5.5.5.5.9.9.0.7.[.[.6.6.5.6.7.7.p.7.7.6.[.}.r.[.|.7.7.6.7.7.7.7.p.4.4.3.5.5.3.3.5.5.E 5.E -.E E E R =.%.%.%.&.&.%.&.&.&.*.>.>.>.8.8.8.].h.8.8.].h.].8.8.gXfXh.8.gXgX].gX].gX0.].9.9.-.-.E R %.U U U T P U U T T T T T C.B.T T T E E R E S E 5.4.4.[.6.r.|.r.r.[.7.7.5.S Z C J ~ m W ! P Y W W W W P P P ~ Q ! Q ! Q Q Q Q ! { / ` { ! { / { | | | | | ( ( ~ ( ( ( ( <.( / / ! ( o.=.=.:.:.:.^./.~./.:X*X/.#X#X#X+X+X+X+X%X;X-X/.:X%X%X%X%X%X$X$X$X*Xs.*X*Xs.s.>.*X/.#X;X%X%X%X+X;X%X%X-X*X;X/.%X;X;X/.%X%X%X&X*X;X*X%X;X*X;X*X%X*X*X;X&X*X*X=X=X*X*X=X=X*X,X=X,X*X*X;X=X=X=X=X;X=X,X;X,X*X;X=X*X:X;X,X*XhX,X,X,X,X,X*X,XhX,X,XhX=XhX,X,X=XhX=X=X,X=XhX,X=X,X,X,X,X,X,X,X=X=X=X,X,X,X,X,X",
"i y 0 i p y y y y y i 0 0 p p y q i y y n s i a i d a d d k g g z z l W z z z J W z ~ W W Q _ ! / ! ! ! ! a.! a.,.#.$.a.o.:.#.:.o.#.,.a./ a.a.$.$.! ! a.! d.! ~ ! ! ~ ~ ! ! / / | %.=.=.-.-.E /.-.-.-.-.-.-.=.R %.%.R &.E -.9.5.5.5.5.4.0.7.0.q.6.[.[.4.7.7.4.7.7.6.7.[.7.t.|.[.6.r.7.7.7.7.7.4.4.e.5.4.5.5.5.5.5.-.5.E E /.E -.-.%.&.&.-.&.&.&.&.-.8.8.8.>.8.8.8.8.h.gXh.8.8.fX].h.gXw.gX8.8.gX9.gX9.gX8.9.9.9.&.-.&.R R P U P U P T ' R T R T T E T T T B.E T R R R E 9.[.[.[.6.r.t.[.|.7.4.E S U K J m z ! ~ P P W m W W _ Q Q Q Q Q Q Q ! ! Q ! ! { ` / } ! { ` } { | | | | | / ^ ( / ( / ~ / / / ! o.=.:.:.:.^.^.^./././.:X/./.%X/.%X%X%X%X;X%X;X%X:X%X;X;X%X;X&X%X%X*X#X*X*Xs.*X*X*X#X#X#X%X%X+X@X%X%X%X;X%X%X%X%X;X/./.;X%X%X%X%X%X%X;X*X%X%X*X;X;X*X;X&X&X&X*X*X=X;X=X*X*X=X*X=X*X=X=X*X=X;X&X&X=X,X,X*X,X;X=X,X=X,X*XhX*X:X,X,X*XhX,XhX:X,X*XhX=XhX=X,X=XhX=X,X,X,X=X=X,X>X,X,X2X,X,X:X,XhX=XhX=X,X,X,XhX",
"i 0 y y 0 p y y 0 y y p p 8 0 y u y y i i n i i a a a k d d d d z l z z z ~ ~ z W z ~ W Q W ! ` / / ! a.! a.a.! a.$.#.o.:.:.o.:.#.#.#.#.! a.! ! ~ a.~ a.a.a.~ d./ ! ! ~ ^ / / =.=.=.-.>.5.].E E >.9.-.9.-.-.E /.&.E E -.5.9.5.9.9.5.9.0.0.0.7.6.q.0.q.7.0.7.7.7.7.7.7.6.6.6.6.r.t.7.7.7.7.7.4.e.4.4.4.4.4.4.4.4.5.5.5.5.-.5.9.E E E &.&.&.&.9.&.9.-.8.].8.8.8.9.gX8.h.h.8.gX8.h.8.gXgXgXh.[.h.h.gXw.h.[.9.9.9.4.9.-.-.E R { U U { P T { T V.R B.T T T R T T C.E E S R E 5.[.[.[.r.|.[.6.|.5.5.E T U ~ z m ~ m ! Y { W ) W W W Q W Q Q ^ ! ! ! ! ! ! ! ` } ! ! }  .} } } |  .| / | | } / / / / } ! ! $.$.....:.D.^.=.^.^./.:X/.(./.%X%X/.+X+X/.+X%X;X&X@X;X@X%X@X%X%X%X%X%X*X#X#X*X*X*X#X*X#X#X#X%X@X+X%X^.;X+X%X%X%X(.*X/.%X%X%X*X%X%X*X%X*X*X&X*X%X%X*X%X*X&X*X*X$X*X*X=XfX=X=X*X;X*X=XfX=X*X*X=X=X&X=X=X,X=X,X=X=X=X=X=X=X=X=X;X=XfX,X,X=X,X=XfX,X=XhX*XhX,X,X=X=XhXs.,X=X,X=X,X=X=X;X;X=X,X*X,X=XhX=X=X=X=XhX=X",
"i y p y 0 p y 0 y y p 0 8 p p y y y i y i i i n a a i a d d d d g g z g g z z J J ~ J W W W Q Q / / <.a.a.~ ! a.#.#.#.#.#.o.#.=.#.#.,.#.a.~ ! a.! g a.~ ~ ! ! m / ! ! ( / ( | =.=.>.^.-.V./.].].9.9.9.9.9.9.5.E -.-.E -.-.9.9.5.9.9.9.4.0.0.0.[.q.q.[.6.0.7.7.7.7.7.0.6.6.6.|.r.r.|.7.|.7.7.7.7.7.4.p.4.e.4.4.e.5.9.5.9.5.9.E 5.9.9.9.9.9.&.9.&.&.9.9.9.8.9.].h.w.8.8.[.h.h.[.[.gXw.gXw.gXgX].[.[.gX[.8.].9.].9.9.5.-.R R U U P U U U T T T T T V.B.T T B.E T E T E T 5.5.].7.|.|.|.|.6.[.7.5.e R U ~ ~ ! m ! m { P ) ) ) ) _ Q Q ! ! Q ! ! _ / ! ^ } ! } X.} } X.| } ....X.X. ./ } } } / X.} X.m a.$.`  ...:.=.^.^.^./././.:X/./.%X/.%X%X%X%X%X%X+X%X%X;X@X@X@X@X;X%X%X%X%X#X*X*X*X*X&X#X%X+X#X%X+XoX+X%X+X/.%X/.;X/.%X%X%X%X%X%X%X#X%X%X%X%X*X%X*X*X%X%X&X*X&X#X*X*X*X*X=X=X*X=XfX=X=X,X=X=X*X*X=X=X=X=X=X=X=X=X=X=X=X=X=X=X,X,XfX,X=X=XhX=X,X,X,X=XhXfX=XfX,XhX=X1X,X,X=X=XhX,X,X,X,X,X,X:X,X=X=X=X=X=XhX=X=X=X",
"y 0 p p p p p y y y q p p p p p 0 y q i i i i a i a a a s d d g g k g g ~ z g W g W z ~ W ~ Q ! / a.~ ~ ~ a.a.~ #.#.$.:.#.#.,.o.o.o.$.$.<.a.~ a.a.<.a.~ a.~ ! a.$./ ! ( ^ | =.:.:./.>.].].5.].].9.8.9.0.].].5.].9.9.-.5.9.4.].9.9.9.0.0.0.0.6.[.q.[.q.[.q.q.6.6.7.0.7.6.6.[.6.r.|.6.}.6.q.6.7.7.e.7.e.e.7.4.4.4.4.4.4.5.].5.].].9.9.5.9.9.5.5.9.9.9.8.8.9.8.w.].[.h.gXw.[.9.gXh.h.gXh.[.h.w.gXw.8.[.h.].w.].9.9.].9.E =.R R T U U Y { U V.R B.T T T T V.T B.T R R T e /.].].[.7.|.|.|.[.7.4.5.E Z U ~ m W ! m m Y { Y ) m ) ! Q ^ Q ^ ` { { ! ! _ _ { } } } ` ` O.......O...X.X.X. .} X.} }  .X.O.` O.X.O.O.+.!.^.^.^./.(.:X%X%X:X%X%X-X%X#X%X*X/.#X%XoX@X@X+X@X+X%X;X%X%X%X%X%X#X#X%X%X%X@X@X+X+X+X+X+X+X%X%X+X%X*X;X%X%X%X*X*X#X%X%X#X*X*X%X%X%X&X%X*X*X%X*X*X$X*X&X*X=X*X=X*X*X*X=XfX=X=X=X*X=X=X=X=X*X=X=X=X=X=X*X=X=X,X=X=X=X*X,X,XfXhX*X,XfXhX=X,X,XfX,X,Xs.hX=X=X,X=X,X,X=X=X,X=X*X,X,X,XhX=X=XhX=XhX=X,X,X",
"y 0 p p 8 M p p i p y y p 8 p p y y u u i a i a a a a a d d d k g g z g ~ z z ~ W g ~ z J Q Q Q / ! ~ a.a.~ ~ a.#.#.#.o.o.o.o.o.o.o.o.$.a.! ! ! ! ~ ~ ~ ~ ~ a.~ ! ! ( ^ | %.:.=.-.-.].-./.].].].].0.[.].[.5.[.].].0.9.].].].0.9.0.9.9.0.0.0.6.6.[.q.6.}.[.y.q.q.7.0.7.6.6.|.}.|.[.|.6.}.y.q.7.7.7.4.7.4.p.7.7.4.0.4.4.0.5.4.5.4.4.9.9.5.9.4.9.9.4.9.0.w.].].w.9.h.9.w.h.[.h.w.gXw.w.[.h.[.8.w.gXw.].[.w.w.w.[.9.9.9.-.E U U U U U U { U T T R R V.T T B.R T R T T T R E 5.[.[.[.[.|.r.6.[.5.E E T T z c W m ! ! { Y _ ) ! ) Q Q _ ! _ ^ _ / { { ` / } ` ` X.X.} O.O.}  .| O.O.O.} } } O.O.X.X.X.O.O.X.X.O.+.D.D.^.^./.(.%X%X%X%X%X%X%X/.%X%X#X#XoX%X#X@X%X@X@X@X;X;X;X%X%X%X*X&X%X%X%X%XoX#X+X+X@X%X%X%X%X+X%X/.:X%X%X;X%X*X#X*X#X#X*X#X#X%X*X&X*X*X%X%X%X*X&X*X*X$X*X=X$X*X*X*X*X=X=X=XfX=X,XfX*X=X&X&X=X&X&X&X*X=X=X=X=X=X=X=X=X,XfX,X;X=X=XfX,X,XfX,XhX,X,XhX1X,X=X,X=X=X,X,X,XfX,X;X,X,X,X=X=X=X=X=X=X=X=XhX,X",
"j 6 M p p p p p p p y p p 6 p y y p y y i i i i a i i a d a k d z z z g z g z z z z z ~ L ! _ ! ! ! / / X.X.X.#.! a.a.m a.a.a.~ $.$.$.$./ / $.$./ ! / / / ( / ! ! ! a.~ / :.>.>.9.]./.].].].5.[.[.].].[.[.].].[.].5.].5.[.0.[.4.0.9.[.0.7.[.7.[.[.7.|.[.[.|.[.[.0.6.7.6.r.y.|.y.}.}.r.y.6.y.6.6.7.7.7.e.7.e.7.e.7.e.7.7.4.w.7.0.0.4.4.4.w.4.9.4.4.9.w.9.w.9.].9.w.h.8.w.h.kXw.w.j.w.[.kXw.w.w.w.w.h.[.w.w.0.w.w.4.9.9.E =.R R { { U { U R T B.' T ..{ R T T R T Z S %.9.9.0.q.[.}.}.}.[.[.E E E ^ ~ ~ W Q ) W _ _ Y _ _ _ _ _ ! { ` ` ` ` } ] X.` } ` } ` X. . .} X.` X.} O.O.O.] X.X.O.` X.X.X.+.O.#.X.O.o.@.!.!.!.^.^.oX%X%X%X%X#X#XoX#X#X%X*X&X$XoX%X@X%X@X@X%X%X&X@X%X&X$X$X%X#X&X&X#X#X#X&X%X#X#X%X%X%X%X%X%X#X#X%X#X*X*X#X#X*X*X$X*X*X*X*X*X#X*X#X*X*X*X*X$X$X*X$X*X=X*X$X=X*X*X=X=X*X=X*X*X=X$X$X&X=X=X*X=X=X$X=X=X*X=X=X=XfX=X=X=X=X=X=X=X=X=XfX,X,X,X,X=X=X1X=X1X=X1Xa.,X=X,X,X,X,X=X=X=X=X,X=X1X,X,X=X,X",
"i M M p p M p p p y y p 8 M 0 p p p y i i i a i a i h i a k l d g h z z g m z ~ ~ z z ~ P W Q { ! / / $.$.X.#.#.a.! a.a.! ! ~ a.$.$.$.$.$.$.$./ / / / / / / / ! ! ! ! ! <.,.>.>.].9.].4.].[.[.].4.[.[.].[.[.0.0.[.[.[.[.0.].[.[.[.0.0.0.[.[.[.4.7.[.7.[.7.[.|.7.q.q.q.6.r.y.|.y.y.|.}.y.}.6.r.6.t.7.7.7.7.7.7.7.7.7.7.e.7.7.7.7.4.w.w.4.4.w.4.w.0.9.4.w.w.w.0.w.[.w.w.w.w.w.w.h.w.w.w.w.h.w.w.kX[.[.w.w.w.q.w.w.9.9.E -.R R T R U U { U { U T R V.T T { V.R T R Z S D 9.9.0.[.[.}.[.[.[.].E R T ~ ~ ~ ! W Q { _ _ _ _ _ _ ! _ _ ` ` { { } `  .} } ] }  . .] } X.X./ X.X.O.} O. .O.O.O.` X.X.X.! #.o.#.X.o.#.:.!.!.!.^.^.+X#X%X#X#XoX/./.#X%X%X%X#X%X%X#X#XoX$X#X&X&X$X$X$X$X$X#X$X#X#X#X#X*X*X#X%X%X%X%X%X*X%X#X#X*X#X#X#X#X#X$X#Xs.#X#X#X#X*X#X*X%X/.%X/.*X;X*X$X*X$X*X=X$X$X*X*X*X=X*X*X=X*X=X&X&X*X=X=X*X=X*X&X*X*X=X&X=X*X=X,X=X=X=X=X=X=X=X=X,X,X=X=X,X=X=X=X1Xs.1X=X=X1X1X=X,X=X=X,X=XhX=X=X=X,Xs.=X=Xs.1X,X",
"i M M M M p p p p p p p M p p y p p y i i i i a a d i n i d k d z z h z z z ~ z J z z ~ L W ! W ! ! / $.$.$.$.#.! a.a.~ ! a.a.~ / $./ / / $./ $./ ! / ! / ( ! / ! ~ ! <.=.-.8.].].].9.[.[.].[.[.[.[.[.[.[.0.[.[.[.[.[.[.[.[.[.6.7.[.[.0.0.4.[.7.4.4.[.7.7.[.[.[.[.y.q.q.y.y.y.r.|.r.r.r.}.r.y.6.t.w.7.7.7.7.e.6.7.7.7.7.7.w.7.7.w.w.7.0.0.w.w.w.e.w.7.w.w.0.0.[.w.w.w.[.w.w.w.w.j.u.w.w.u.w.w.w.w.w.w.[.q.w.w.w.w.4.5.R R R U ..U U U { V.T T { R R T U T R R R R D D 9.9.[.[.[.}.[.[.5.5.E E T ~ ~ W ~ Q _ _ _ _ _ _ _ _ _ ! _ ` { ` ` `  .}  .`  .`  . .} ` } $.X.X.X.O.O.O.O. . .O.O.X.X.X.X.#.o.#.o.+.+.;.!.^.XXXX+X%X%XoX%X^.#X/.oX#X#X%X*X#X&X%X$X#X%X@X$X$X$X$X$X$X$X$X$X&X#X#X$X#X*X#X#X%X%X#X%X#X*X*X%X#X#X#X#X#X#X#X#X#X#X#X#X#X$X#X*X%X%X%X%X;X%X%X%X$X$X$X*X$X&X$X=X$X=X*X=X=X=X=X=X&X=X=X&X=X$X=X=X=X&X=X&X=X&X&X=X=X=X=X=X=X=X=X=X=X=X=X=X=X,X=X=X=X=X1X=X1Xa.a.1X,X=X,X=XhX,X,X,XhX=XhXhX1Xs.1X1X=X",
"i M M p p M p p p p p p p M 0 y p y p u i i a a a i d i k d d d g z z z g m z z z z z J P P P Q ~ / / $./ #.#.#.$.! ! a.! ~ ! ~ / $./ / $.$./ / ! / / / / / / / ! a.a.~ =.=.].].].].].].].[.[.[.[.[.[.[.[.[.[.[.[.|.|.[.[.[.[.q.[.[.0.[.0.[.4.[.7.[.4.[.[.[.|.[.[.q.}.y.y.|.|.}.y.}.r.}.r.}.}.r.w.t.t.7.7.t.t.7.7.7.7.6.7.7.6.7.6.6.w.6.6.7.w.6.7.w.7.w.[.0.w.w.w.q.w.w.w.w.w.u.e.u.w.w.q.q.{.w.w.[.w.q.w.q.w.w.w.9.-.E E T R R U T ' R T R V.T T V.B.R U ..{ R D D &.9.w.gX[.[.[.}.[.].E E T R K Q W W Q Q _ _ _ _ _ _ _ ! ` ` ` ` ` ` } ` ] O.} ` X.`  . .O. .$.! ` X.O. .O.O.O.O.X.X.O.X.$.$.o.o.#.o.+.+.!.!.!.^.^.oX^.+X#X#X#X/.#X/.#X%X&X*X%X#XoX#X#X@X%X#X&X@X$X@X&X$X$X%X#X#X$X#X#X#X#X#X#X%X*X%X%X%X#X*X*X#X#X$X#X#X$X#X#X#X#X#X#X*X*X$X*X*X*X%X%X%X%X%X#X$X$X$X&X$X&X$X=X$X=X*X=X=X=Xs.$X=X&X&X&X=X=X&X$X=X$X=X&X=X=X=X=X=X=X=X=X=X=X=X=X=X=X=X=X=X=X=X=X=X=X=X1X1X1Xs.,X,X=X,X=X=XhX=X=X=X=X=X1X1X1Xs.=X",
"h M 6 p p 6 p p p p p p p p p p p u p i i h a i k i a a a a k d h z g z z z z z z J J L L W Q P ~ / / / $.$.$.$.$.a.! ! ! a.~ a.! $.! / / $.! ! ! / / / / ! / / / / o.,.>./.].].].[.].].[.[.[.[.[.[.[.[.[.{.[.[.[.[.[.|.{.}.q.[.}.[.[.[.7.7.0.4.4.0.4.7.5.[.[.6.[.y.[.q.y.y.r.i.}.r.r.}.r.}.}.r.t.q.t.7.e.t.7.7.7.7.t.7.t.7.6.6.7.6.6.q.6.6.q.7.7.6.6.6.q.q.q.q.w.t.w.u.u.w.y.w.u.e.u.u.w.y.y.w.w.[.w.q.w.q.w.w.9.5.&.R R U ( ..R { U U ..U U { { { U ..{ R { R D R &.9.].[.[.[.[.}.}.].E T R T Q W ~ W W _ _ { { _ { _ _ ! ` ! } ! ` { } ` X.} } } } } ` O.X.} O.! ` $.X.O.O.O.O.O.O.O.X.X.X.X.o.$.o.#.+.+.D.!.!.~.XXXX%XoX#X#XoX#X#X/.#X%X*X%X%X#X#X&X@X#X%X%X$X$X$X@X#X$X$X&X#X&X#X$X#X#X$X#X$X#X*X$X*X$X*X$X*X#X#X#X$X$Xa.#X#X$X#X#X#X#X#X#X%X*X%X%X%X%X%X#X#XoX@X$X&X$X$X$X$X&X$X=X=X$X=X=X&X=X=X=X=X&X&X=X=X&X=X&X=X@X=X&X=X;X=X@X>X@X=X=X=X=X&X=X@X=X=X=X=X1X=X=Xa.a.1X=X,X,X,X,X=XhX,X=X1X1X=X=X1X=X=X1X=X",
"p M M p M p p i p p p p p p p p p p u i i i i a a a k a d k d d z z z g z z z z z z J L J L L Q ! ~ ! / $.$.$.a.$.$.$.$.! a.~ ! ~ ~ $.$./ ! ! ! / ! ! / ! $./ / / $.o.:.>.].].].].].[.[.[.[.[.{.[.[.{.}.[.u.{.{.[.|.[.[.{.{.{.y.[.|.[.|.[.[.0.7.9.4.0.0.4.[.7.[.[.q.y.}.}.}.|.}.r.}.r.}.r.}.r.}.t.y.y.t.t.7.t.7.t.7.t.7.7.7.t.7.t.w.t.6.6.q.r.6.w.t.t.w.6.6.y.q.u.w.t.w.y.q.w.y.w.t.u.w.y.w.y.u.q.w.q.w.q.q.w.w.4.9.E D R R R =.U ^ ..U ..U { { T U U U R U R R S D 9.9.].].[.{.NXNXNX[.E E T R Q Q W W Q _ _ _ _ _ _ ! Q ! ! ! ` ` ! ` ` ` } } `  .` O.}  . .X.O.$.O.$.O.O.O.S.O.@.O.X.O.X.O.X.o.o.o.o.#...!.:.!.^.^.XX^.#XoX#X#X^.oXoX#X#X%X*X$X%X#X#X#X#X%X$X$X@X$X%X$X&X*X#X$X$X*X#X*X#X*X*X*X*X$X$X#X*X$X*X$X$Xs.$X#Xs.$X$Xs.#X#X#X#X#X#X#X#X%X%X*X*X%X%X#X$XoX$X$X$X&X=X$X=X$X=X&X*X=X=X$X@X&X@X>X>X>X=X&X=X&X@X=X&X>X=X@X=X=X=X=X=X=X=X3X=X=X=X=X>X=X3X=X=Xa.1X1X1X1Xs.1X&X,X,X=X=X;X,X,Xs.s.1X1Xs.1X1Xs.=X",
"h q M p p M p p p p y p p p 0 p p p u u i a a a d a a a a k d d z h z h z z z z z J z J L L L J ~ ~ ! ! $.$.$.$.$.$.! $.! ! ! ! ! / ! ! / / ! ! $.! / / / / $./ $.,.=.=.8.].].[.].[.[.].[.[.{.[.{.{.{.[.[.}.[.u.[.y.|.[.{.u.u.}.|.}.[.[.[.[.4.].4.9.5.4.5.[.[.[.q.[.[.y.r.}.u.|.|.|.y.y.}.r.y.r.y.t.y.6.7.t.t.7.t.e.7.t.7.t.6.t.t.w.y.6.t.w.6.t.y.7.7.t.t.r.y.r.t.u.u.t.u.t.t.t.t.w.t.w.y.w.y.w.w.u.w.q.w.w.w.w.e.&.&.E R R =.R R ^ ( ..U U ..U U { { T { U { R E 8.].].NXkX}.BX}.BX}.].'.T B.T W _ _ Q Y W _ _ _ _ ` ! ! ! ! Q ! ` { ` { } } ` } ` } } O.}  .X.$.$.O.$.O.O.O.O.O.O.O.O.X.#.#.$.X.o.X.o.O.o.D.!.:.!.!.^.oX%XoXoX#XXX/.oX#X%X&X=X#X%X%X#X#X%X%X#X@X$X$X$X$X$X$X&X#X*X*X%X#X$X#X%X$X*X$X*X*X$X*X*X$X$X$X$Xs.#Xs.$X#X#X$X#X#X#X#X#X/.%X%X#X%X;X&X%XoXoX$X@X&X$X$X@X$X$X&X=X=X=X$X$X=X&X&X>X&X=X>X@X&X&X&X@X&X=X@X=X=X@X>X@X=X@X>X@X@X>X=X@X>X@X@X=X=X=X1Xa.s.1X1Xa.;X,X=X;X,X*XhX*X1X=X=X=X=X=Xs.1X&X",
"h M M M p M p p p p p p y p y p r u u u h a a j a k k a d d d k h z z g z g z z J z J W W J J J ~ ~ ~ ! ! ! $.$.$.$.! ! ! ! ! ! ! ~ ! ! $./ $.! <./ ! / / / / / $.$.:.-.9.9.].].[.].[.[.[.[.[.[.{.[.{.}.{.u.{.{.y.}.[.|.u.{.}.u.[.|.|.[.|.0.[.4.4.5.4.5.5.p.[.4.[.q.{.}.}.r.}.|.}.y.}.r.r.}.}.r.y.y.y.t.t.t.t.t.t.t.t.7.t.7.t.7.t.t.6.y.y.y.t.6.6.t.t.6.r.r.r.r.u.t.t.w.t.t.w.u.u.w.t.y.u.t.u.w.u.w.w.q.w.0.0.4.5.5.R &.=.=.U ( ..U ( U U ..R P U T U T R T R R &.8.kXkXkXNXBXBXJXNXDX[.5.E V.T Q _ P _ _ Y ) P _ _ _ ! Q ! ! Q ! ` / ` ` ` O.O.} } ` O.} } O.X.$.$.$.O.O.X.O.+.O.+.O.O.X.O.X.X.o.X.#.o.o.+.:.+.D.;.:.!.^.oX#XoXoXs.^.#X#X%X*X&X%X$X%X#X#X#X&X&XoX$X$X$X&X*X$X$X$X#X$X$X#X*X*X#X#X$X*X*X$X*X*X$X*X$Xs.$Xs.a.a.#X#X$Xs.#X#X#X#X#X/.%X#X#X*X%X*X%X$X@X$X$X$X=X=X=X$X$X&X&X&X=X$X=X@X&X&X=X>X&X&X=X@X=X&X=X=X&X>X;X@X>X@X=X=X@X@X>X>X@X=X>X=X@X>X>X=X=X1Xa.1X1Xa.1X*X=X=X;X*X,X=X;X=X=X=X=X=X=X1Xs.&X",
"p p M p p p M p p p p p p 0 p p y p u u a a d k k d k a l k d d z z g z h z h ~ l g l J W Q ! W ~ ! ! $.! a.! $.~ ~ ~ ! ! ! ! ! ! ~ ~ a.~ ! ~ ~ a.! ! a./ / / #.,.#.,.>.8.].[.].[.[.[.[.[.[.{.{.[.{.{.{.kX{.u.{.}.}.{.{.u.{.{.u.}.y.}.y.{.q.[.w.0.9.4.4.4.4.4.w.w.[.{.q.y.|.}.}.|.r.r.}.y.y.u.t.t.t.t.y.t.t.t.t.t.7.t.t.t.t.t.t.q.y.6.t.t.q.t.t.q.y.t.w.t.y.r.r.t.t.w.t.u.t.w.t.w.t.u.w.u.u.t.y.w.q.u.w.q.w.w.4.&.E &.R %.R ..R U %.( ( ..R { ....U U ..R ^ R R 8.gXMXUXBXJXJXBXJXNX].-.=.^ ( Q { _ _ { ` { ' ` _ ! _ Q ! ! ! ! { ` ` { } ` X.} X.} } } O.}  .} X.X.| X.....O. .O.O.O.O.+.#.X.X.$.$.o.o.#.+.D.@.;.!.^.;.oXoXs.^.#X#XoX#X#X#X%X%X#X%X#X#X%X#X#X#X$XoX$X$X$X%X$X&X#X*X$X#X#X*X#X#X*X*X$X*X$X$X$X#Xs.$Xs.$X$Xs.$Xs.oX#X#X$X#X$X#X#X#XoX%X#X&X%X%X%X@X@X@X&X@X=X&X&X=X=X=X=X=X=X&X=X&X>X&X>X=X;X;X&X&X;X&X;X;X,X;X,X>X>X>X@X>X>X@X3X>X>X>X>X>X>X>X@X3X1X=Xa.&X@X;X%X;X=X;X&X;X&X*X;X=X=X=X$X&X&X&X&X*X",
"p p M p p M p p p p p p p p p p p p p u i a a k d k d k k f l l h g z z g m z z z l z z J W c J g ~ ~ ~ ! ! ! ! a.! ! ! ! ! ! m a.~ ~ ~ a.! a.~ g <.<.g / ( ,.,.,.,.&.8.8.].].[.[.w.].[.[.q.{.{.{.{.{.}.}.u.kXw.}.}.{.u.{.u.u.{.y.}.}.{.{.[.[.[.0.0.9.5.9.4.9.4.0.w.q.{.q.}.|.|.}.}.r.y.y.y.y.t.t.y.y.t.t.w.7.t.t.6.t.7.7.t.t.6.t.q.t.w.q.t.y.6.t.t.t.t.t.r.t.y.y.y.t.u.t.y.t.u.u.u.u.t.t.w.w.u.w.u.w.u.u.w.w.4.5.3.D &.%.%.%.( ( U ..U ^ U ^ R ' R U U U R R U 8.kXUXBXJXIXIXIXBXkX8.%.R ( K Q Q ! W _ _ Y _ _ _ _ _ ! W ! ! ! / ` ! } ` } } ` ` } ` X.` O.O.X.X.X.X.X.O.O.O...O. .O...+.X.X.#.X.#.#.o.#.@.:.D.!.!.!.^.^.^.XX#X#X^.#X#X#X%X%X%X#X%X&X#X%X%X%X#X$XoX$X$X$X#X$X$X$X#X#X&X#X*X$X*X$X$X$X$X*X$X*X$X*X$X$X$X$Xs.$X#Xs.a.#X#X$X#X#X$X#X#X&X%X%X%X%X%XoX@X&X&X&X=X@X&X@X@X&X=X@X=X>X@X%X&X&X;X&X@X&X@X&X&X&X%X&X&X&X;X@X>X>X@X@X>X=X=X;X>X@X@X@X@X@X@Xa.a.a.1X@X%X&X@X&X%X%X%X%X%X%X%Xa.=X=X$X%X%X&X&X%X",
"h p p M p M p p p u p u p p p y p y y u i i a d a k f d l k l k h m z z ~ z z z W W W Q W Q W _ m ! ! ! ! $.a.m a.m z a.a.m ! $.$.! ! ! ! ! ~ ~ ! <.! a.| o.o.:.,.>.-.8.9.[.w.gX[.[.[.w.u.{.{.[.w.u.kX}.{.{.u.u.u.j.u.}.u.}.}.u.}.y.{.}.}.q.[.q.[.0.0.5.5.5.4.4.0.0.q.{.}.r.|.}.y.}.y.y.y.y.t.7.7.t.t.t.q.t.t.t.t.t.7.t.t.7.t.t.t.w.y.y.t.q.q.r.t.q.t.y.t.y.r.y.y.y.u.u.t.u.g.u.i.g.u.u.u.u.u.w.u.u.w.w.q.q.4.e.E F &.R R R | R %.^ ^ ( ( ( ( U U U U ( R ( %.R 8.kXNXNXBXUXJXUXNXjX-.U U ( Q / W Q _ _ _ _ Y _ _ _ _ ` ! ! ! ! ! ! ` ` } ` X.} ` } ! X.X.X.O.} } X.O.X.O.+.+.D... .O.+.+.o.+.#.o.X.o.o.+.:.@.:.:.!.^.!.^.oX;.#XoXoXoXoX#X#X$X&X#X*X*X%X*X#X%X%X$X$X$X@X#X$X$X$X*X%X$X*X&X#X#X*X*X#X*X#X&X*X*X*X#X$X$Xs.$X#X#X$XoX#X#X$X#X$X$X#X#X%X&X&X*X%X%X;X$X$X&X&X&X&X%X&X@X&X@X&X&X%X%X@X@X@X%X%X%X@X%X&X%X@X;X&X&X&X;X&X@X@X>X@X@X>X@X>X@X@X@X@X@X@XXX@X=Xa.>Xa.@X%X%X%X%XoX@X@X#X#X#X#XoX$X$X@X#X#X%X$X#X",
"h M M j p j M p u p p p p p u p p y y y i i i k k d k l k z z l z z z z z z z z g l c L W W ! ` ~ ! ! ! ! $.` $.! ! ! m ! a.a.$.X.$.! a.! a.<.a.! ~ ~ <.%.,.,.=.-.&.8.8.8.].[.[.[.[.q.kXkXw.{.u.kXu.u.j.{.}.j.u.u.u.kX}.j.}.}.{.y.}.y.}.{.{.[.q.[.0.0.4.e.4.5.3.0.w.q.q.y.}.}.y.}.r.y.y.y.6.t.7.7.t.7.t.t.t.y.t.t.t.t.t.t.t.t.t.t.y.t.q.q.y.t.y.y.t.t.q.t.y.y.y.y.y.u.t.u.t.i.t.u.u.t.u.u.u.t.u.u.q.u.u.q.w.9.5.5.E R %.%.%.%.( %.U | R U ..U ..U ..R ..=.U %.=.-.8.jXjXgXNXNXgX].].%.U U ^ / { Q W W ! W P _ W _ _ ! _ _ { ! ! ! _ ! { ` } X.` X.` } } } } } X.X.X.| X...+...D.O.O.+.+.+.+.+.#.o.#.+.#.+.+.@.+.:.D.;.;.^.;.#X;.oX#X/.oX#X#X%X$X%X*X%X&X%X*X*X&X$X$X$XoX$X$X#X#X#X$X$X#X#X*X#X#X$X*X*X*X*X&X*X*X*X*X$X*Xs.*X$X#X$X#X$X#X$X#X*X$X&X#X$X%X&X%X*X%X$XoX@X&X&X@X@X#X@X@X@X$X$X@X@X&X%X%X%X%X%X%X%X@X%X%X%X&X%X&X&X%X@X@X@X@X@X@X=X@X%X@X@X+X@X@X@XXX=X3Xa.=X@XoXoXoX^.#XoX^.oXoX^.#XoX@Xa.a.#XoXoXoXoX",
"j p M p p p M j y p y p p y p p y u p u u i i i k d d k l z z z z z z z k z z g z z z W z W W X.! m ! m m ! ! ! ~ ! $.a.a.a.a..Xa..Xa.>Xa.=Xa.a.a.<.( ( =.=.,.>.>.>.8.9.w.gX[.[.gXw.[.kXu.q.u.{.{.}.u.u.{.}.{.{.i.u.u.}.}.}.u.}.y.{.u.{.}.{.u.{.[.q.0.0.4.9.4.5.4.w.q.{.y.{.y.}.r.y.}.r.t.y.t.t.t.p.t.t.6.t.y.t.t.t.t.t.6.t.t.t.t.y.y.y.t.y.t.y.q.t.t.u.t.u.y.i.y.u.y.y.u.t.w.u.t.u.u.u.t.u.u.u.y.y.u.w.q.w.4.5.5.S %.%.%.( U %.( %.^ ( ( ..R ( U ^ U ..( ( =.R -.-.8.h.>.s.>.>./.=.R ^ ( P { ` Q Q Q Q _ _ _ _ _ _ _ { _ ! ` ! ` ! ! ` / } ` X.X.` } } } X.} X.| $.X.o.O.+.+.D.O.+.+.O.+.O.:.+.#.#.#.o.:.+.+.:.D.;.:.F.^.;.a.;.oXoX^.oXoX%X%X$X*X&X%X*X*X%X*X%X@X$X$X@X$X$X$X$X$X$X*X$X#X*X*X#X*X#X;X*X*X;X;X*X*X$X*X&X*X%X$X$X$X$X#X$X&X$X$X*X%X%X%X%X%X%X%X%X%X%X%X%X%X%X%X%X%X%X@X#XoX%X@X%X%X#X%X#XoX#X%X%X%X%X%X%X%X%X%X%X+X@XoX%X@X@X@X@X%X@X%XoX@X@Xa.a.a.a.a.a.a..X!.;.^.a.!.;.^.oX^.^.a.;.a.^.;.#X:.^.:.",
"M p h p h p p M q p p p p p p p u p p u i i a a d d k l k z z z g z z m z z z z c W m ~ ~ m W ! ! ! a.$.! $.! ! a.a.a..XXX3X3XpXvXbXnXvXbXnXlX1Xs.a.%.%.%.,.,.-.>.>.8.9.9.[.].[.kX[.w.u.u.kXkXq.{.}.j.kX{.j.{.{.kXu.j.}.}.}.k.{.{.q.{.u.{.}.{.[.{.q.0.0.4.4.4.3.4.4.q.q.[.y.|.|.}.|.r.}.u.t.7.7.p.t.e.p.7.t.q.t.t.7.t.7.t.6.t.6.t.y.t.y.y.y.u.t.t.y.t.u.t.u.y.y.u.u.y.u.u.w.t.u.u.t.t.u.t.u.t.u.y.y.y.u.u.w.4.5.&.E &.%.R %.%.| %.^ %.( ( ^ { ( ( ..R %.%.=.%.=.-.&.%.-.:.%.( %.{ U ( U ^ _ { Q _ ! ! ! ! _ _ { _ _ { ' ` ` { ` ! / ` / ` } ` / ` } X.} X.} X.X.} X.| | ..+.D...+.O...#.+.:.@.;.#.o.+.:.@.@.+.D.:.D.!.;./.;.;.#X;.^.s.oXoX#X$X%X%X*X*X%X*X*X*X*X$X$X$X@X$X$X$X$X*X#X%X$X#X#X$X#X&X*X*X*X*X*X*X,X*X*X*X*X*X*X*X*X*X$X$X$X$X#X$X&X#X%X$X$X%X%X%X%XoXoXoX@X#X%XoX@XoXoXoX#XoX#X^.oX#X#X^.oX^.#X^.#X@XoX/.oXoX#X#XoX^.oXXXXXa.XXXXXXoXoXoXoXa.a.a.a.a.a.a.a.#.X.:.;.;.:.:.:.:.:.;.:.;.:.:.;.:.:.:.:.;.",
"h M p p p p M p p i p p y y p i p u i u i a i d d k d l l k z z h m z z m z W z W W W W m ! ` ` a.a.a.a.a.@X@X@X=X1XpXnXbXSXAXHXGXGXHXHXHXGXGXUXnXlXs.:.-.=.>.>.8.8.9.9.].0.[.w.q.[.w.kXw.[.{.u.{.{.u.u.{.{.{.{.u.u.{.}.}.}.}.{.u.u.{.{.}.{.}.}.{.q.q.0.4.4.5.e.4.e.0.q.r.y.y.|.}.|.}.y.t.e.t.p.t.p.p.t.7.7.7.t.t.t.t.7.7.t.t.t.t.t.t.t.t.y.t.u.u.u.t.t.i.t.u.i.y.u.y.t.t.t.u.t.u.t.u.u.u.u.t.i.w.u.y.q.q.6.e.4.E &.%.%.%.( ( R ( | | ( ( %.R ..{ U ..( %.%.=.E -.-.-.,.>.=.%.$.U U U { ^ { _ _ ! ! Q ` ! _ _ _ ] { ` ` _ { { ` } } } ` / ` ! } ` } } X.] X.} X.X./ X.} O.+.+.D...D...+.+.+.;.@.@.;.:.@.+.@.:.+.:.D.@.:.^.;.;.a.a.oX;.#XoXoX#X%X*X%X*X%X%X%X*X%X$X$X$X$X$X$X&X&X$X#X$X$X*X#X*X*X*X*X;X*X:XfX:X;X=X*X*X*X*X*X=X=X$X*X$X$X$X&X$X*X@X#XoX%X%X@X%XoX^.#X/.+X#X^./.oX/.+XoX^.^.oXoX/.^.^.^.^.^./.^.#X^.^.^.^./.^.^.^.;.^.;.:.:.;.@.;.;.^.:.;.@.;.a.$.a.a.a.X.#.#.#.o.:.:.| :.:.=.o.| :.:.o.=.:.=.#.:.:.",
"j p p h p p p p p p i i p i y u u p y i i a k d d d k g k k x z z h z ~ m z W W ` ` X.O.XX@X3X@X=X3XpXpXpXnXZXSXGXGXHXHXHXKXKXKXKXKXKXHXKXKXKXIXGXMXhXh.>.,.-.>.8.8.9.8.w.kX[.kXkXu.kXq.kXu.u.kX{.kXkX{.{.{.{.{.kXu.}.{.}.}.{.{.{.{.{.{.{.}.}.}.}.[.q.w.0.4.5.5.3.4.7.q.q.y.y.}.r.u.y.}.t.t.t.t.t.p.t.p.p.7.t.e.7.t.7.t.7.t.6.r.q.y.y.y.y.y.u.t.u.t.u.u.u.y.u.u.u.y.u.u.u.u.t.u.t.u.u.t.u.t.u.u.t.u.y.u.q.w.9.5.5.&.R R %.%.%.U %.%.( ( | ( ..( ^ %.R ( ( =.=.=.,.&.=.%.%.$.( ( ( U U ..{ ` { ` ! ! Q ! ! / _ _ _ ` ` ` { ` ` ` ` ! ` / ` / ` ! X.! } ` X.} X.X./ } | X...O.....+.+.+.+.+.+.;.;.;.@.@.@.:.+.+.@.D.@.:.!.;.a.^.oX;.^.oX^.#X#X%X%X%X%X%X*X%X*X#X*X$XoX$X$X&X$X*X$X#X&X*X#X#X$X#X%X*X;X*X;X*X:X,XfX=XhX*X,X=X=XfX;X*X$X*X#X$X$X$X&X#X$X%X#X#XoXoX#XoXXX/.oXoXoX^.^.#X^./.#X;.^.oX^./.^.:.^.:.!.;./.^.:.^.^.^.:.^.:.;.:.+.#.+.+.#.o.O.:.+.o.X.X./ a.a.` m a.X.X.| | { $.| / { $.| | | | | | | $.| $.| ",
"h M p p p p i y q u y q u p p p i p i i i n a a n z x k c m ) ` W ! ` O..X.X.X@X3X3X3XqXbXZXZXSXHXHXHXHXHXHXHXKXKXHXKXKXKXKXKXKXKXKXKXKXKXKXKXPXKXJXmXjX#X>.>.>.8.w.9.gX].[.[.[.[.[.[.[.{.[.{.{.{.{.kX{.{.{.[.{.{.{.{.{.}.BX}.}.BX{.{.{.}.}.}.}.}.}.}.[.[.[.p.4.4.3.7.7.6.q.u.}.u.u.|.}.}.r.6.7.7.p.p.p.p.p.p.p.p.t.t.t.t.t.t.r.r.y.t.y.y.i.t.y.|.u.y.|.y.u.y.i.i.u.i.t.t.t.t.u.u.t.u.i.t.i.u.y.u.t.u.u.q.0.4.E 5.E E %.R %.U ( | ^ %.| | ( =.( ( U R ..{ R =.=.%.=.%.=.=.| | | U ^ P { { { V.{ _ ! ! ! ! W ` ! _ ) ! ` _ { { / / ! ! / ! / ! ! } } X.X.X.X.X.X.O.O.O.O.O.+.O.+.+.O.+.#.+.+.:.+.#.+.+.;.:.@.+.+.:.+.@.@.;.;.!.;.oX^.oXoX+X#X%X%X%X%X%X%X%X$X#X$X$X%X#X&X#X*X&X%X&X#X%X&X%X*X#X*X#X$X#X*X=X=X*X=X=X=XfX=X=X=X*X$X$X*X$X*X*X*X*X&X$X#XoX#Xa.;.a.s.;.a.;.s.a.;.;.:.s.^.^.:.^.:.:.:.;.:.#.:.:.:.:.:.:.:.:.:.#.:.o.o.$.$.$.$.$.$.$.$.$.$.$./ / ! $.! ! / ! ~ ! / ! <.( ( ( ( ^ ( / ( ^ ( / / / ( ( ^ / ",
"j q p p p p i q y y p p y i p i y y i i q i i a n ) S.OX0XrXqXwXwXwXpXvXsXAXZXSXGXGXGXHXHXKXKXKXHXKXHXKXKXKXKXKXKXKXKXKXKXKXKXKXKXKXKXKXKXKXKXKXKXIXGXMXhXfXfX>.8.8.8.w.w.w.kXkX{.[.[.{.[.{.[.{.{.[.[.{.{.{.{.{.{.{.{.{.}.}.}.}.}.}.{.{.|.BXBX}.}.}.[.}.[.[.[.7.e.4.e.7.w.y.u.u.y.y.y.y.|.r.t.7.t.7.p.p.t.p.p.p.p.t.p.t.t.p.6.t.r.r.y.y.t.y.y.i.r.y.y.y.|.y.u.u.u.t.u.u.i.t.v.t.t.u.t.t.u.u.t.i.t.w.y.w.w.7.4.5.5.R &.E %.R R %.%.( ^ ( ( ( ( ..U ..( ( =...=...=.=.=.%.%.| %.( { ^ { { U {  . .! ` ! _ ! ` ! ! ! ! Q ! / _ / ` / / ` / / ! { / / / / X.| } $.$.O.O.O.O...+.o.+.o...o.+.#.+.#.+.+.:.:.@.+.+.@.+.@.;.:.;.;.;.;.XX^.^.^.%X^.%X%X%X@X%XoX#X#X&X&X&X#X#X%X$X%X&X%X&X#X&X*X&X&X&X&X&X#X#X#X$X&X*X*X*X*X=X,X=XfX*X=X*X$X&X*X$X$X&X&X$Xs.a.a.;.;.>.;.a.;.;.:.;.;.:.:.:.:.:.o.:.=.+.:.=.=.:.o.| $.| o.X.X.| | $./ ( ^ / / / / $./ / / / ! ! ! ! ! ! ! ! ~ ! ~ ~ ~ ~ ~ ~ ~ ~ ~ ( ~ ( ( ~ ( ( ( ( ^ ( ~ ^ ^ ",
"i p p i y y u y 0 p p y y i i i y y y s s a a j l S.3XbXAXGXGXHXHXHXHXHXHXHXHXKXKXHXKXKXKXKXKXKXKXKXKXKXKXKXKXKXKXHXKXKXKXKXKXKXKXKXKXKXKXKXKXPXPXKXIXGXMXcXfX].8.8.9.9.].[.w.[.kX[.}.[.[.kX}.{.{.{.{.{.}.}.{.{.{.{.}.{.}.}.}.}.}.}.}.{.}.}.}.}.}.}.}.[.[.|.|.4.7.e.4.7.6.r.y.u.y.|.i.i.t.|.t.t.7.p.p.p.t.p.p.p.p.p.p.t.7.t.t.t.r.r.r.t.r.t.t.u.i.y.y.i.y.u.y.u.u.t.u.t.t.t.t.u.i.u.t.u.t.u.t.u.t.u.t.w.q.0.e.5.E E D R R R ( %.U | | U ^ U %.( ..( R ..( R R ..,.=.=.=.| =.=.( ^ { { { { { { { ` ! ` ! ` X.! ` ! Q ` / ` / } ! / ` / { } / / } } } / } X./ / { X...X.O.O.+.O.O.o.+.+.+.+.:.@.@.+.@.@.:.@.!.@.;.:.;.@.;.;.;.^.a.^.%X%X^.+X%XoXoX^.oXoXoX#X%X%X&X#X#X#X#X#X$X$X#X#X*X&X*X*X#X$X#XoX#X#X$X#X$X$X$X*X*X*X&X=X&X*X$X$X#X#X*XoX$X#X#Xa.:.a.#.:.;.#.:.:.,.:.:.:.o.#.o.| | %.| | | ..| X.| / / ( ( / ( ( ( ( ( ^ ( ~ K ~ ! ~ ~ ~ ~ ~ ~ ~ ~ ~ ~ ~ ! ~ ~ <.~ ~ ~ ~ ~ ~ ~ ~ C ~ K U Z ~ <.C C C K C ( K ~ C ",
"a p p i y y i u p p y y y q i i y y i i a a a a z  .-XbXHXHXHXKXKXKXKXKXKXKXKXHXKXKXKXKXKXKXKXKXKXKXKXKXKXHXKXKXKXKXKXKXKXKXKXKXKXKXKXKXKXKXKXKXPXKXKXJXJXMXhX].8.8.8.9.8.gXkXw.[.[.j.[.{.u.kX[.[.{.kXu.{.kX{.{.}.{.{.{.}.}.}.BX}.BX}.}.}.|.BX}.}.}.}.}.|.[.|.[.7.7.7.7.7.t.t.i.|.|.t.i.|.|.|.t.t.t.t.t.t.p.p.t.p.p.t.p.p.t.t.t.r.y.r.r.t.y.t.u.u.t.r.i.u.y.y.i.t.k.u.t.i.u.u.t.u.t.u.u.t.y.u.t.u.t.t.w.w.0.5.5.5.E E %.R D %.( ( ( ( ( ( ( ..U R ( U ....=...=.| =.=.| %.=...| ( ..{ U { { ] ..` ! / ` ! ! _ ! _ ! ^ ` / ` / } } / } / } / ` / } / X.} } } } | O...O.O.O.O.X.+.+.+.+.o.+.:.+.:.+.:.@.F.:.!.;.F.;.!.;.;.^.!.a.XXoX^.^.oX^.oX^.%X#XoX^.#XoX#X#X&X$X#X#X#X$X#X#X$X#X$X#X*X$X$X*X$X#X#X#X#X#X#X$X#XoX#X#XoX#X#X#Xa.#Xa.#X;.a.>.a.;.;.;.,.#.:.:.,.;.o.$.o.o.,.$.( ( / $.| ( | | ( ^ ( ( ( ( ^ ^ ^ ( ! ^ ! ( ( ~ ( ( ( J K ~ ~ ~ C ~ ~ <.~ ~ <.g C g g g C C C <.C C C C C C C C C C C C V C V C <.K ( ",
"a q 0 a i i i q y y i y i i q s u y i y i i a a i z ] <XZXHXHXKXKXKXKXKXKXKXHXKXHXKXKXKXKXKXKXKXHXKXKXKXKXKXKXKXKXKXKXHXKXKXKXKXKXKXKXKXKXKXKXKXKXKXKXIXJXGXNXjX8.8.8.8.h.kXw.].kXkXw.[.{.kX{.{.{.u.{.{.kXkXi.{.{.{.{.{.}.}.}.}.}.}.}.BX|.}.BX|.}.}.u.}.[.r.}.6.q.7.7.7.7.t.t.u.|.|.|.|.|.|.|.t.t.t.t.t.t.t.p.p.p.p.t.t.p.t.p.t.r.t.t.t.t.t.t.t.t.t.|.y.t.|.u.y.t.u.u.t.u.u.t.u.u.u.t.u.y.y.y.y.t.u.t.w.w.e.4.5.5.E R R R R %.( U %...( U ..%.{ { | ..U %.....%.| %.=...%.=.=.| | ( / ^ { { { { _ ! ` ! ` ! ` / ! ! ! _ / { / { { / { } { / { } } X. . . .X.| O. .X. .X.X.O.O.| ..+.+.+.o.:.:.+.:.+.:.@.:.D.;.:.@.;.;.;.a.;.^.oX^.^.oXoXoXoX#Xa.oXoX#XoX#XoX#X#X#X#X#X#Xs.oX#Xs.#X#X#Xs.s.$XoX$X#X#X#Xs.a.s.a.a.a.;.:.a.a.>.a.a.;.;.a.;.;.:.,.;.a.,./ ,.,./ #.#.$.,.( / ( / ( / ( ( ( / U ( ( ( ( C ( K ( ( ( ( ( K ( ( K K K ~ C ~ ~ ~ <.C C ~ ~ ~ C C C C C C C g g <.C C C C C C C C A C B A C C B B V C C C C ",
"d y y i i y s y p i 0 y y i i a a 0 i i i i a a p u l H.bXGXHXHXKXKXKXKXKXKXKXKXHXKXHXHXHXKXKXHXKXKXKXHXKXHXKXKXKXHXKXKXKXKXKXKXKXKXKXKXKXPXKXPXKXPXKXIXIXIXDXzXgXh.8.8.9.gXkX[.w.[.q.kX[.[.{.[.w.kX{.u.}.}.u.kX{.{.{.{.}.NX}.}.}.BX}.}.BX}.}.}.}.}.{.u.}.[.q.}.q.q.7.7.7.6.r.u.}.|.}.|.|.|.|.t.t.t.t.t.t.p.t.t.p.t.p.p.t.p.p.t.r.6.7.t.t.t.t.y.i.t.r.i.y.u.|.u.i.t.u.u.i.u.u.u.t.u.t.u.y.y.r.y.u.t.t.t.y.7.4.5.S E E S R ( R %.%.| ( | | %.{ %.^ U ( ( ( { ..=.| =.=...........| | { ^ ^ ^ ^ ! / ` ! ` ! ` ! _ ! ` / ` } { } } { ` ` } { ` ` } |  .| O.|  .O.| X. .X. .X...o.+.X.+.| :.+.+.+.+.:.+...:.@.@.@.:.:.:.+.;.;.;.;.;.!.!.^.^.^.^.a.a.#X^.oX;.;.^.;.a.a.;.>.a.a.a.;.a.;.a.a.;.a.a.a.:.a.;.;.;.a.a.:.:.:.:.:.:.#.#.:.#.:.,.#.=.:.o.$.o./ / ( / / / / <./ ( ( ( / ( ~ ( ( ( ^ Q ( ( ^ ( ( ~ ( K K K ~ ~ <.C K ~ C <.<.C C g <.C C ~ C C C C C C C g C C g <.C g V <.~ C C C C A C C C C C C B C C C C Z C ",
"a y y i y i i i i i y y y i y i y s s y s i i i i i a ` eXZXGXHXHXKXKXKXHXKXKXHXKXKXHXKXKXKXKXKXKXHXKXHXHXKXKXHXKXKXKXKXKXKXKXKXKXKXKXKXKXKXKXPXPXKXKXIXKXIXJXUXzXfX&.9.8.gX9.kXkX[.kXu.kX{.[.{.kX{.[.kXu.kXkX}.{.{.{.{.}.BXBX}.}.}.}.{.}.{.BX{.BXu.{.{.{.u.[.y.w.q.w.7.7.7.t.y.}.|.r.|.|.|.r.t.t.t.t.t.t.t.p.t.p.p.t.p.p.p.p.t.t.p.t.7.t.t.t.y.t.y.r.t.r.|.i.u.u.t.u.t.t.u.t.u.t.u.u.u.r.y.6.|.u.t.w.w.w.7.e.3.E E S R <.R U ( R ..( ( U %.^ ^ ^ | U ^ ^ ^ ..( { ( =.R =.| =.%.^ ( ^ ^ ^ ^ ^ _ _ ! ! _ ! _ _ ! ! { { / / { } / } { } { } }  .{ } { { { ` ..} } X. .}  . .X.O.X...+.+.+.+.+.:.:.+.+.+.+...+.+.:.+.+.+.:.;.@.;.;.:.!.:.;.:.;.:.;.:.:.:.:.:.:.:.:.#.:.;.:.:.#.:.,.#.:.:.:.#.,.,.o.$.,.=.o.,.$.o.o.,.( / / ,.$.,.o.o.$.,.$.$.$.( / / ~ ~ ( ~ <.! ! ~ ~ <.( <.~ ( ( ( C ( <.K U U U K <.<.K <.K <.C C <.C C C C Z C C <.C C C C ~ <.C C C ~ C C C C <.g <.C ~ C C <.<.C C <.C Z C Z C <.C C C Z C C C ",
"a u y i y i i 0 i i s y i y y y i i i i i i a i a i y c H.bXZXHXHXKXKXKXKXKXKXKXKXKXKXKXKXHXKXKXKXHXKXKXHXKXHXKXHXKXKXHXKXKXKXKXKXKXKXKXKXKXKXKXKXKXPXPXIXPXIXJXMXkX>.*.8.w.gX[.w.h.[.[.{.[.[.[.[.w.u.kX{.u.kX}.kX{.[.{.}.}.}.}.}.kXBX}.}.{.u.}.{.{.[.{.{.{.[.q.q.q.w.7.7.7.7.w.|.r.r.y.|.r.r.t.t.t.p.t.t.t.t.t.t.t.p.t.p.p.p.t.p.t.p.t.t.t.t.t.t.t.r.i.i.t.y.|.u.u.u.u.u.u.u.u.u.u.u.t.|.r.r.7.t.u.u.u.6.w.3.E 5.S E Z R U R Z U ( U { U U ( ^ ^ U ^ ^ ^ ..U { ^ =...........{ ( { ^ ^ Q Q ^ ^ Q ! ! ! ! ! ! Q { ! ! } ` / { } }  . . . .} {  .{ ` _ { _ ` { { } } X.O.| X.X.X.o...| O.=.+...+.+.+.| o.o.o.o.+.X.#.o.#.#.:.;.;.:.+.:.o.o.:.o.o.X.| X.o.o.| o.o.o.,./ $.,./ $./ ( $.,.$.o.$.$.,.( / / / / ( ( / / / / ,./ / / $./ ( / $.<.( ,./ ! <.( ( ~ ! <.( ( ( ~ K ~ <.K K C ( K ( Z ( Z ( Z C ( K <.Z Z C Z C C Z <.C C C C C C <.C <.C C <.C C <.C <.C ( <.<.~ C C <.Z Z C C Z C Z C Z C C C C <.C <.K <.Z ",
"s u a d u s u u 0 y y y y y u i s y s s y u s i u u u y d D.bXGXHXHXKXKXKXKXKXKXKXHXKXKXKXKXKXHXHXKXKXKXKXHXKXHXKXKXKXKXKXKXKXKXIXKXKXKXIXKXKXKXPXKXPXKXPXKXIXIXJXUXkX9.9.].kXw.[.].[.[.[.{.{.[.{.[.[.kX{.{.[.{.{.NX}.{.}.}.}.}.{.{.BX}.NX}.NX{.{.{.{.{.{.{.[.{.|.7.4.7.7.7.7.t.7.t.t.t.|.|.|.t.t.t.t.p.|.t.t.t.t.t.p.t.p.p.t.p.p.p.p.t.t.t.t.t.t.y.y.y.i.y.u.y.t.v.u.y.i.y.i.u.r.|.|.|.|.[.|.|.y.6.q.7.w.4.4.S S S R R T U U R U ( U ( K K U U U ( ^ P ^ Q U ^ U ....R ..=.{ { { { Q ~ K ^ K Q ! Q Q ! Q Q ! ! Q ! ^ { { { { { { { { _ ` { ` ` { ` W Q _ W _ { ! ! ! / } } { { } { | | | | | ..| { | / { | / | | | $.( $.$.( / <.$.! ! <.! ~ ~ ( ~ ~ ( ~ ^ ( ^ ~ <.~ ~ ( ! <./ <.! ! ! <.! ( / ~ / ( ~ / ! / ( ! / ( ! / ( / <.( ( / <./ <./ <.~ ! / ~ ~ ~ <.~ ( ( ~ ( ( K <.C K Z C <.K K <.Z K <.C C Z C Z ( C <.Z C C Z C Z <.C Z <.C C Z Z C Z Z K Z ( Z <.~ <.Z Z ( K <.<.Z <.Z Z U <.Z <.<.C <.Z ( <.( ( ( ",
"d u a s u r u r s r y r r s u s i y u y s i i a u a i u h ` <XZXGXHXKXHXKXKXKXKXKXKXKXHXHXKXKXKXKXHXKXHXHXKXKXHXHXHXKXKXKXKXKXKXHXKXKXKXKXKXPXKXKXKXKXPXKXPXKXIXIXJXMXgX].].].kXNX[.[.{.{.NX{.NX{.{.{.u.{.{.{.{.{.{.{.}.BX}.}.NXBX}.}.}.}.}.}.}.BX{.}.}.{.}.}.{.[.[.[.6.6.6.6.6.7.6.t.|.t.|.t.t.t.t.t.t.t.t.|.t.t.t.t.t.t.t.p.p.p.t.p.t.2.t.t.t.y.r.t.u.i.y.t.r.t.t.t.y.y.u.y.}.[.|.[.6.|.|.r.[.y.q.6.q.w.w.5.5.E S S R R U U U U U U U U U ( K Q U P Q P U { { ....{ ..{ ( ^ ^ ^ U ^ P K ~ K ~ Q ! W ! W Q Q ! ! ! ! ^ ! / / ^ { _ ` _ _ _ ! ! _ Q Q Q P P Q W ! ~ ! ! ! ! ^ ! Q ^ { { } { { ^ / ^ ^ ^ / ^ / / / / / / ( / / / ! ~ ~ ~ ~ ~ C ~ ~ ( ~ ~ ~ ~ ~ ~ ~ C <.~ ~ <.~ ! ( ~ ~ <.~ ~ ~ ( ~ ( ! <.( <.<.~ <.~ ~ <.<.~ ~ / ( ( / / / ~ / ( ! <.<.( ~ <.~ C C C C C C C K K K <.K Z Z ( K U Z Z Z Z Z <.Z Z Z ( Z Z ( <.<.K <.C ( Z <.Z <.( <.U ( <.( %.( %.<.( %.( ( D ( ( R ( ( <.%.( %.( ( D ( %.%.$.,.,.=.",
"f a s f a r s u y r y r r y s u u s u s y s i a a i d d d z D.1XAXHXHXKXKXKXKXKXKXKXHXKXKXKXKXHXKXKXKXKXKXKXHXKXKXKXKXKXKXKXKXKXKXKXIXKXKXPXKXPXPXKXKXPXPXPXPXPXIXIXJXBXkX].].[.].[.[.NX[.[.[.[.{.}.}.}.}.}.}.BX}.{.}.}.}.}.}.NX}.}.}.}.}.BX}.}.}.}.}.}.{.}.}.}.|.[.|.6.q.6.r.6.t.7.t.t.t.|.t.t.t.t.t.t.p.|.t.t.t.t.t.t.t.p.p.t.p.p.p.p.p.t.p.t.y.q.y.y.r.r.y.y.t.t.t.y.r.r.y.y.6.|.|.6.[.6.|.|.q.6.0.0.0.4.5.E S S R R U U U U K U U K ~ K U K U P U U P ^ U { U { { ..^ { { P P Q K K P J K Q J ~ W ~ ! W Q Q Q P Q ! ^ ! ^ W ! Q Q Q Q Q ~ W Q L J J J W J P ~ ~ ~ ~ Q ~ Q ! ~ Q Q Q ^ ^ P Q ^ ^ ^ ~ ~ ^ ~ ^ ~ ~ ~ ^ ( ~ ^ ^ ~ ~ ~ <.~ ~ C ~ ~ C ~ ~ ~ K ~ K C C <.~ ~ ~ ~ <.~ C K K ~ ~ <.~ <.<.~ ~ <.! ! / ! ( ! ! ! ! ( ! / / <.$./ ( ! <.~ ! ! ~ ~ ~ ~ ! ( K ( Z <.( ( %.( ( ( ( ( ( ( ( <.( %.( ( <.( %.<.( <.%.%.%.%.,.%.%.( %.%.%.%.%.%.%.%.,.&.,.,.-.=.,.,.,.,.&.,.&.,.,.,.,.,.-.=.>.,.>.>.:.:.>.>.:.>.",
"l s f g a a u r y y r y y u s y s u s s s i a s a s d d a d W @.wXZXHXKXKXKXKXKXKXKXKXKXHXKXKXKXKXKXKXKXKXKXKXHXHXKXHXKXKXHXKXKXKXKXKXKXKXKXKXKXKXKXKXKXKXKXKXKXIXIXJXJXMXgX9.gX[.].[.[.[.[.[.[.[.{.{.{.}.}.}.}.}.}.}.{.}.}.}.}.}.}.}.BX}.}.}.}.}.}.BX}.}.}.}.}.[.|.[.[.q.6.6.6.7.t.p.t.t.t.|.6.t.t.t.t.|.t.t.t.t.t.t.t.t.t.t.p.t.p.p.p.p.p.p.t.7.6.6.r.r.q.r.r.t.t.y.r.r.}.r.|.[.|.6.[.7.[.[.6.7.0.7.0.9.5.5.E S D U Z T U T U K U K K U K K U K P K P U P P P { U U { P U U P P K K K J K K K W J ~ ~ ~ ~ ~ Q P Q Q K Q P ~ ~ J ~ K J J J ~ ~ J J J J g V J J g z g C J C J J K K K K Q P P P Q ~ K J K K K ~ K K K C ~ ~ K K ~ <.g g ~ C ~ C C ~ C ~ K K K K ~ ~ ~ C <.C ~ ~ C ~ <.~ <.~ ~ ~ ~ ~ ~ ( ! ! <.( <.~ ( <.<.! ~ <.<.~ ( ! ! / <.! / <.~ ( <.~ ( <.( ( ( $.( %.,.:.=.%.( ,.,.:.>.,.=.-.,.>.,.>.,.%.-.,.:.,.>.>.s.>.>.>.>.,.>.>.*.-.-.-.>.>./.>.>.>.>.s.>.fX>.*Xs.>.>.>.s.s.>.h.fXs.*X>.s.#Xh.s.*XfXfX",
"f d f g s s t r r r r r t s u r s y s u u s a d a s u d a s g W !.xXSXHXKXKXKXKXKXKXKXKXKXKXKXKXKXKXKXHXKXKXKXKXKXKXKXKXKXKXKXKXKXKXKXKXKXKXPXKXKXKXKXKXKXKXPXKXPXIXIXIXJXNX[.kX[.[.cX[.].[.[.[.{.{.{.{.kX}.}.}.NX}.}.{.{.NX}.{.[.}.}.NX}.NX}.NX}.NXNX}.}.}.}.BX}.}.[.|.[.6.6.6.7.7.7.t.r.|.6.|.t.t.6.7.t.t.t.t.t.t.t.t.6.t.6.6.|.p.p.p.e.p.p.7.7.7.6.q.|.t.7.[.r.6.|.r.[.}.6.6.6.6.|.6.[.[.[.[.0.4.0.9.5.E E S S S T T T P T U K I K J K I K I K I K I I I P P U P U P P U P P P T P P K P P L Q ~ W Q W ~ ~ ~ J K K J J K K J J z ~ g ~ g ~ g C z g z J V g J g C g C V J J K J H K J P P P P K K K J J C J C g C C C C ~ ~ C <.g ~ ~ J ~ ~ C ~ C ~ J K Q K ~ ~ U C ~ ~ ~ K K K K C C ~ ~ ~ ( <.~ <.( ! <.! ! ! ( ~ ! <./ ( ( / ( / / ( ~ / ( <.! ~ <.! ( ! ~ ( ^ ( =.=.>.:.:.>.:.;.>.>.>.*Xs.s.*X8.s.h.*Xs.s.s.*X8.s.s.fXfXfXfXh.fXh./.].fXfXh.*XfXh.fXfXfXfXfXfXh.h.fXfXfXfXh.fXfXfXjXh.jXh.=Xh.fXs.fXfXfXfXfX",
"g s f l h s h u s r s u y r u r u s r u u s s h a r r h d a i f P ^.nXGXKXKXKXPXKXKXKXKXKXKXKXKXKXKXKXKXKXKXKXKXKXKXKXPXKXPXPXPXPXKXPXPXPXKXPXPXPXPXPXPXLXPXPXLXPXPXPXIXJXUXNXcX].[.[.].NX[.NX[.kX[.[.[.}.NXkXkX}.BX}.[.NX}.}.}.NXBXNX}.}.}.}.[.NX}.}.}.NX}.NX}.[.[.[.[.6.[.[.[.7.[.7.7.[.|.|.[.t.t.[.7.}.p.p.6.t.p.6.6.6.6.6.7.5.4.[.p.p.3.3.e.4.7.7.6.7.6.7.|.6.6.[.6.6.6.7.[.[.6.5.[.7.7.[.[.0.0.4.5.5.E S S T T R T T T T P H C V C V C H C I V I T T H T I { P P P P K P J J J I L K P K P Q ~ ~ J J J J J J J K J J J J J V C g g g g g ~ g g C g g g C g V g g g g C J J J K J K J I I K K K J C V C C J J J C C C C C ~ g ~ ~ C C C C J C ~ C ~ K K ~ K C C ~ C C ~ <.~ ( ~ ~ ( <.~ ( ~ ~ ~ ~ ~ ( ( / ~ <./ <./ / ! <.( / ~ ! <.<./ ! <.<.( ( ~ <.~ <.~ <.~ ( =.:.;.>.;.;.#X>.s.#X#X*XfXfX*XfXfXfXfXjXfXfXfXfXjXjXfXfXjXfXfXgXfXfXfXfXgXfXgXjXfXgXfXfXfXjXfXjXjXjXgXgXjXjXh.jXfXjXjXjXjXjXjXhXjXfXjXfXhXjX",
"f a d f s u s r u u u r t r r r y r r u r s s h s u i s a d d g l =.;XhXcXnXnXcXFXnXbXnXvXnXCXZXnXnXnXvXvXnXnXnXnXnXSXZXmXnXmXnXZXSXnXmXnXnXZXZXnXnXnXnXnXmXmXmXZXNXNXcXjX]./.E C.5.E 5./.].5.5.5.5.E E 5.5.5.5.].5.].5.[.5.].5.].3.4.e [.DXJXNX5.5.5.5.5.p.5.5.p.p.p.p.E E p.e e p.e p.p.p.p.p.4 p.kX}.NXp.e p.p.p.e e p.e p.p.5.5.4.4.3.p.p.p.p.3.4.7.3.7.[.7.7.7.[.7.7.[.7.7.7.5.7.5.p.].4.5.5.5.5.E E S S S e T T w B T Y H V V V V V V V H V H V V I V T H K I I C V H H J J H H H H L P J W ~ ~ z V z J V V z V V J C V J g J g J ~ g g g g ~ g C g J g g V g g V g V K C J J J I I P P P K K C H C J C J C J ~ C J C K ~ C C C ~ C ~ ~ C J ~ ~ ~ ~ ~ ~ ^ K ~ K ~ K ~ ~ Q K ~ ( ~ ~ ~ / ( ~ ( ~ ( / ! <./ ( ~ / ( / / ( $.<.<.! ( / <.! ( $.( ~ / ! ! C C C C ( ( ( ,.=.=.,.:.>.:.:.>.>.>.fXh.h.fXfXfXfXjXjXfXfXfXjXfXjXjXjXgXfXfXgXgXjXjXjXfXjXgXgXjXgXgXfXgXjXgXgXfXjXfXjXjXfXjXh.jXjXjXh.jXjXfXjXfXfXjXfX",
"d s f f s h u r t u t u u u r r s r y r u u s d r a h u u h f g H P s 7 6 7 7 8 8 8 > = > M 1.M > r = 1.= M > > M r > r > 8 8 8 r > > M 1.= 1.M M > > = > r 9 t 8 8 8 9 8 9 9 9 3 3 0 3 4 : 3 3 w w w 3 w w , 3 w 0 3 3 w 3 : 3 1 3 e 0 }.PXIX5.3 q 4 e q 3 w w e 3 q w w 3 3 3 0 3 3 : 4 3 w 3 4 4.PXPXNXe e q 3 3 w e q e q e e p.5.3.e 3.e e e e 3.3.3.p.p.p.5.p.5.p.p.4.5.5.5.5.E 3.5.e E E e E e S e T e S B B T T n T n H V g V V V V f V B V B B V B B T C H H V V V H H V V B V H V J J J g g C g g g g g g V V V J V V C g g g g g ~ ~ g g J g ~ g g J g g g g g J H J C I J J J J K J J K J C J C ~ K C ~ C C ~ ~ <.K ~ C ~ C C C C C K C K ~ K K ~ ~ ~ ~ ~ ^ ^ ^ / ^ ^ ^ ~ ~ ~ ^ ~ ( ~ ! ! <./ <.! ( / / <./ / / $.( / / / / / ( / / ! / <./ <.! C C N g A V Z K Z U ( %.$.=.,.=.:.>.>.s.*XfXfXfXfXfXh.fXfXgXh.jXh.fXfXgXfXgXfXjXgXjXgXgXgXjXjXfXgXjXh.jXfXjXgXjXjXh.h.fXfXh.fXfXfXjXfXfXfXfXs.fX*XfXfX",
"V s g V g u u t h u r r r h h r u r r u s u u s u u s s a s g d d J i = 6 M 0 u i 9 8 9 8 9 9 8 t t t s t t B r s u t 8 t t 9 9 1.> t t 8 t V > r t V > t > B B s r 8 s 8 t t , , : - w : : w : : < < , < < , , < < : 1 w : w 1 1 3 1 e IXPX].1 , < , : , , : w < < < 3 1 9 : 0 3 1 1 w < < 3 3 3 NXPXUX4 1 3 < 1 3 1 e 3 : 3 < e e e e e e e e e e e e e e e e e e e E e E E e S E e S e T e e e T S T e T w T B B B B T B n n T w B B B B f B f B s V B V V H V f V f V V f f g g s g B g V g g V g C g g g g B g g V g V g J g J H J H J f H J H J J l J H V g J V g J V J J J L J P K L K K K K ~ C C J ~ C C ~ ~ ~ ~ K C ~ ~ ( Z ~ ~ C ~ C C C C C ~ ( K C ( ~ ~ ~ ( ! ~ Q ^ / ^ ~ ~ ~ ^ ~ ~ ~ / ! ( ~ / ^ ( ! ! ~ ^ ( / | ( / / ( $.( ( $.,.( ( ( ( ~ C C g t t B B g N t C C Z K <.( ( ( %.,.;.#XfX*XfXfXs.fXfXfXfXfXfXfXfXfXfXfXfXjXfXjXjXfXgXjXfXfXjXfXfXfXfXfXfXfXfX*XfXfXfXfXfXh.].*XfX*X#XfXs.*XfX#X/.",
"V s g g s s u u 1.h r r r r 1.h u t t u u u i i u u u s s a s g s H u = 6 8 8 r 9 N , , : , & t > ; > : 9 9 > s > s f > s 9 9 w , t > , N t t 9 f 9 t 0 9 t > 9 0 s 8 r u > = 9 9 9 1 9 , 0 9 0 1 : : < : - - 1 1 1 9 w 9 1 w % 1 : 1 : w 3 - < % . : 1 : < 1 1 - < : 9 : : 1 : 0 w : 0 % , 1 % % 3 3 1 % < : o 3 3 : : w 3 1 3 q e e T e e q e w 3 e e w e w e e e S e e e B e e w e w e T w w w w w B 9 w B w B B B n T q B T B n n B n B B s B B B s V s l B f B V f s V f f B s g g s g V g g g g g g g C t s g g g V g g H z g H J z H H z J J H H H l l J f J z J J J l J J J Q J L K L ~ ~ K C ~ ~ g J ~ ~ J K ~ K ~ ~ J ~ C ~ ~ U ~ K K K K ~ ~ ~ C ~ U ~ ~ ~ ( ~ ~ / ~ ^ Q Q ^ / Q ! ^ ~ ( ( ( / / ( / / ( ( / / ( $.( ( ( ,.( ( ,./ %./ ( $.( ~ <.K <.N g N t B B C C A C C U ^ ( ( ( %.o.>.#X/.s.*X*X#Xs.s.#X#X*Xs.*X*XfXfXfXfXfXfXfX].fXfXfXfXfX].fXfX=XfX*XfX/.*X]./.*X*X*X/.*X/././.%X/.#X#X/.s.#X/.",
"V s V V g t g r t r r r r h 1.r t t u r y u y u u u h t s s s s s V r = 6 6 0 r > B fXJXJXJXDXJXUXvXfXU : & B B > t > ~ JXJXGXUXJXGXUXUXJXDXGX*X> 8 *XJXJXJXU > s y a r u = > ; /.UXDXDXT * * (.JXJXUXUXMXUXUXUXNXU : : w : : ^.JXUXUXJXUXUXUXJXJXJXJX=.% 1 =.DXmXjX> : : , 0 : : 1 : 0 9 mXJXDXUXUXUXUXDXUXJXJX].: : 1 : : 1 9 : w q e e 0 w w w 3 e w w w w w 3 w w w w w w e e w w w w w w w w w w w w w w q s 9 9 s B s B n n s B s s B s n f s s s s B s f f s V B f f s B g g h s g f f g s s g C t g g g s g f g f f f f f V l z J f f H V l f J H H f f l g J V C z V J J J J J J ~ J J J ~ C J C J ~ K C ~ ~ K K ~ K K K K ~ K K ~ ( C K U K K ~ K ~ ~ K ~ ~ ~ ~ ~ ~ ~ ! ~ / Q ! ^ ^ / ~ ! ^ ^ / ( / ( / $./ / / $./ | $.$.( o.$.%.( | ( $.( / ( ( ^ K C C C C C K K I C Z ( ( ( ( ( =...=.=.:.:.>.#X*X>.;.>.#X#Xs.#Xs./.%X%X#X*X*X*X*X/.%X#X#X*X/./.#X*X#X/./././.]./.>././.>./.;.>./.^.>././.>.^.;.^./.",
"V s V V g h g u h h r t r r u r r r r r t t y y r u h t r s s t s C r = 6 8 8 r t : cXLXPXLXLXLXPXLXLXKXDXI % 9 8 r > :.LXLXLXLXLXLXLXLXLXLXLXo.t 9 jXLXPXLXcX8 s 8 r r r 1.r = MXLXLXLXR : 1 ].LXPXLXLXLXLXLXLXLXLXMX9 1 9 X jXPXPXPXPXPXLXLXLXLXPXLX].: , jXLXLXDX, : 9 0 w * q : 0 3 , PXLXLXPXLXLXLXPXLXLXLXIX* 3 0 : : : * 1 w w q w w w w w 0 : w w w w w w 3 w w 9 w w w w w w 0 w 9 9 9 w w 0 w 9 9 s w 9 s 0 t q B q B 0 B s s s s s s s t s s s s s B s f s f s s d s s g s g s s a s s g h t g g g s f g s g f f f f f f f V f J f f f J f z f J J H V V g J z V z C C J C J J J J C C V C J ~ ~ C ~ ~ J C ~ ~ C ~ C K C K U K U ~ ~ ~ K ^ ( K ( U ^ ( ~ ~ ~ ^ ~ / Q ~ / Q ^ ^ ! / { ( ! ( | / / / $.( ( / / $.( | | o.( $.%.$.$.| | ,.$.o.( / / ( | ~ ( ~ C U ^ =.=./ / | o.=.o.:.:.=.:.:.:.:.;.;.>.;.>.;.:.>.;.>.^./.^./.(./././.%X/.^././.(././.%X/./././././.^./././.^././././.;.-.^.^.=.^./././.^.",
"V s g V g g g t h t h h t r r u r r r r r r u r r h t h h t h 1.t g M = 6 r 6 8 B & cXLXLXLXPXLXLXPXLXPXLXKXR : & r > :.LXLXLXPXLXPXLXLXPXLXLX/.: * /.LXPXLXJX* 8 8 8 8 r r ; C PXPXPXPXB 9 : /.LXPXLXIXPXPXLXLXPXLXLXcX1 9 % jXPXPXLXLXLXLXPXPXLXLXLX*X% X /.LXPXDX- : : : 8 : : : : : 8 PXLXLXLXPXLXPXPXLXLXLXDX% q : * : : % : w 0 w w 0 3 9 9 w 9 w 0 3 w 0 9 , 9 9 9 9 9 9 0 w 9 9 9 s 9 9 r 9 9 r s s 9 s r t y s s s n f g s s s s s s s s s s s s f s g s g s s s s s s s h s s s h h s t g t g g g g g f s f f s f f f g f g f V V z f f g f V g l z C g z g z C C z J g J C z J J J V V V C C C J K K K K K C U K K K K K K K ~ K Q ~ ~ Q K K P K P ( ~ ~ ^ ^ ^ ( ^ ^ Q ^ ^ ^ ^ / / | ^ / | | | | ....o.=.| | +.| | | o.o.| | o.| =.| | o.| =...=.+...:.o.....%...=.:.=...D.=.:.:.^.^.D.:.=.!.:.D.^.:.:.:.:.:.!.:.;.:.;.!.^.oXXXoX^.oX~.^.#X^./.(.%X/./.^./.^./.^./.^.^./.^././.^./.:./.^.^.^./.^.^.^.^.",
"V B s V g t g g h t h t h u t t t r r 1.r r p u h r h r 1.h t h t u r * = 6 = > > - jXLXLXmXB ( X.*XGXLXPXLXPX^ > r & :.PXLXIXU A A B A Z s ( > : % jXLXLXLXLXU % i 8 * r = % cXLXLXLXLXw : * /.LXLXJXT w A B R UXLXPXPX9 % % ].LXLXUXe N A N T N B Z 9 : , hXLXLXJX- : : : 8 : 0 : : 0 9 LXLXLXE 9 N B t t t V T 1 0 % : 6 * * : 0 3 0 0 3 0 w 0 9 : 9 3 0 0 w 9 9 9 9 9 9 9 t s 0 t 9 9 9 9 t 0 9 r 9 0 s t 0 t r 0 s 9 s s s s s s s s s s s r s s s s s s s s s s s s s s s s s s s g s s s g t g g g g g g f f d s f d s f g f g z f g g V g g V g g C g V J C J C z J J J J V z ~ J C J J V C J K K ~ ~ ~ ~ K ~ U ~ ~ ~ P ~ Q ^ ^ ( ^ ^ ^ ^ ^ ^ ~ ^ ^ ^ U ( / / / / / / | ^ / ^ ^ { { { | | ..| | :.| :...o.#.+.=.| :.+...=.o.=.o.....X.o.o.| o.O.+.:.:.!.:.:.D.=...:.^.:.D.D.=.=.+.:.D.:.=.D.D.=.=.:.+.:.:.:.:.:.:.+.:.:.!.D.!.!.~.!.+X!.OX~.^.+X^.^.^.%X^.^.^.^.^.^.^.^.^.^.^.^.!.:.^.^.^.^.D./.^.^.^.^.^.",
"V g g V g g g h g g g t t h u t r 1.r r r r r r h r r t h t t t t g = = = = 6 > > - cXLXLXMXX * & & . ,XKXLXLXJX1.& * /.LXLXJX. + - % & - % > , : % hXLXLXPXLXcX& 8 > = 1.& r IXLXPXLXLXw : % '.PXLXUX< 1 , % o < LXLXPX9 1 7 ].PXLXJX1 X 1 : : % : > > : % /.LXLXGX& : 8 9 6 * 1 : % % 9 PXLXLXg X % & & ; % % % * : % 7 * * * : : 0 : 0 : 0 9 9 0 8 : : 0 w 0 9 9 8 , 9 8 8 t 9 r 9 r 0 0 t t 9 0 8 t 9 r 0 t 0 t y t y s n s s s s s s y s s t s s u s s s s s s g s s s s s h s s u u s s d g h h g g g g s f f f s s n l f s g g g g g g J g z g g J g V z C z C z ~ J ~ g J J J J ~ J J K J K K ~ K Q ~ ( Q K ^ K ~ ( ^ ^ ^ { { ^ { { { | { { ^ ^ { ^ ..{ / ( X.| o.| | | | o.........o.:...:.:.+.+.:.^.=.+.=.D.+.:...:.:.:.+.O.+.=.O.....+.=.:.O.=.+.:.:.o.:.D.=.D.=.D.D.:...V.=.D.=.D.:.^.......S.D.D.+.D.D.D.+.D.+.D.D.D.F.F.F.!.~.~.!.!.~.~.^.^.~.^.^.^.!.J.^.D.^.D.^.^.C.^.^.J.^.D.=.^.^.^.^.J.D.!.D.D.",
"V s g B g s g g g g h g h t t t t h r r r r p r r h r h t h t g t g r * 6 8 6 = t . jXLXLXcX. > > & * & jXLXPXLX>.= % /.PXLXPX. - & - , & ; , & 9 - ].LXLXLXLXPX9 & 8 8 = % =.LXLXPXLXPXT 0 % ].LXLXJX1 1 : . % w PXPXJX1 8 & /.LXPXJX1 1 : , 1 : , . : 9 - *XLXLXJX& : : * & 8 * 0 7 % 9 IXLXLXN X , - % & : 1 * 7 * 7 7 % 7 * : q 3 0 3 0 : 0 9 8 8 0 9 0 3 0 8 9 8 8 8 8 8 9 0 9 0 y y r 0 r 8 r 8 r 0 r 0 8 y 9 8 8 t 0 9 s s s s s s u s t u r t s s s s a s s s t s s u s t s u h t g s g g s s g s g s g f f d f d f s l g g g g V J g g g C z J g J z V z ~ z J J J W ~ W J ~ ~ W ~ L K J ~ P ^ ^ ^ U ~ ^ Q U ~ Q ^ ^ { { ..{ | ..} ......| .. .....V.=.$.o.:.o.o.:.X.o.+.:.+.:.!.+.!.:.:.D.!.:.^.!.^.=.:.!.!.:.!.!.:.O.+.+.+.+.D.+.+.D.D.D.+.O.D...V.D.+.:.D.D.D.D.=.D.D.D.=.D.D.D.^.D.D.D.D.D.J.D.D.D.D.D.S.D.V.V.D.D.D.D.F.F.F.H.H.H.J.F.D.H.J.^.(.^.D.!.^.D.^.C.^.C.^.D.D.D.D.D.D.S.V.C...V.D.C.D.V.D.",
"B B g s s g s g g h g s s s s t r 1.h r r r r h r r r r t r t 1.1.t r = * = 6 = : . jXLXLXMX% > = = 1.& 9 JXLXLXnX; + =.LXLXJX3 : , , 9 t , > : , & fXLXLXLXPXLX/.* 8 9 t & GXLXLXLXLXPX9 : % :XLXLXUXT A Z A B DXPXLXcXX , % ].LXLXUXw w 9 w 8 9 , 9 1 : % hXPXLXGX- & : : : 6 6 > * * 8 PXLXLX<.> 9 1 9 8 : 9 * 7 : % 7 8 * 7 * 9 8 8 8 8 8 8 : 0 9 8 8 8 0 9 8 r 8 8 8 8 8 8 8 r 8 r y 0 0 y 0 8 r 9 0 0 9 9 r 9 y 9 9 0 w s s s r u s r y r r r r s t i s t s s s s s i s i y s y s u s h h g g f f g f f a f s d n s l l l f g l l l z f f J J K L K J J P z J J P P P P W { ! _ { { { { ..^ { | { { { ..............=.....:.+.D...D.=.C.V...V.....V.=.D.D.....O...+.+.:.D.!.D.^.=.^.D.^.D.^.D.D.^.D.D.^.D.^.D.=.D.D.:...!.D.D.^.D.D.D.D.D.D.O.D.D.....O.O.D.D.^.D.D.D...D.^...D...D.=.V.D.O.V.D.V.D.V. .S.O.S.O.S.S.S.G.S.G.G.D.S.J.J.J.~.J.D.J.D.D.J.D.C.D.G.D.J.S.G.S.S.C.V.D.J.J.S.V.V.] ]  . .V.V.V.V.C.",
"V V s V B g g s g s s g g s s g t r 1.r r r u r u r r r r u h g g g 1.= * 6 * * : & cXLXLXMX. : ; % = & % mXLXLXmX, & %.LXPXLXJXPXPXIXIXIXPXcX& : % fXLXLXIXPXLXJX: : : . ( PXLXIXPXLXLXw : * /.LXLXLXIXPXPXPXLXLXLXfX- : > % cXLXLXLXJXIXIXIXIXIXIXcX* : . hXLXLXDX- & 8 = 6 * * 6 : & , LXLXLXPXIXIXJXIXIXIXJXn % 7 : % 7 * * : : 8 9 8 8 9 8 8 0 7 9 8 8 9 0 > r 8 9 8 r 8 8 8 8 8 0 8 9 r 8 r r r 0 9 0 8 0 0 t 9 0 0 9 9 s t r u r r s t y r s r y u s s u s s s u s i s s s u s u i a a s s g g f g g l d f l f f l l l V H J L K P P Q L Q W W Q _ Q _ _ ! ! `  .{ { V..... .........D.V.{ O...O...{ ..+.:...+.O.V.=...D.O.D.D.D.D.D.D.=.V.=.D.D.V.=.D.D.+.+.+.:.!.!.D.!.D.!.D.D.J.D.D.D.D.^.^.D.D.^.D.^.V.D.D.D.D.D.D.D.D.J.J.D.D.D.C.D.S.D.D.S.D.C.S.O.V...V...V...V.D.D.V.C.=.V.D.V.D.G.V.C.V.V.V.V.Z.m.m.m.m.m.m.V.Z.S.V.V.G.J.S.J.C.S.G.C.C.C.D.C.C.V.S.G.S.G.S.V.S.V.V.V.V.V.V.V. .m.] m.m.m.m.S.m.V.",
"B s V s g s s s g t g s g s f f t t h r t r r r u r r u t t g t t s M = * 6 6 : : 1 cXLXLXMX1 : > = & > & NXLXPXJX; X #.LXLXLXLXLXPXLXLXLXLXDX- > % ].LXLXDXUXLXLXT * : & UXLXPXNXIXLXLX9 * % :XPXPXLXLXLXLXLXLXPXIXfX< : 9 X fXLXPXLXLXLXPXLXLXPXLXSX% 9 % *XLXLXUX& - : * * = * * * & 8 PXLXLXLXLXLXLXLXPXLXKXT % : : % 8 * * : 0 8 8 8 9 8 9 8 8 8 : 8 8 8 8 8 8 8 r 8 8 8 r 8 r r 9 9 0 0 8 t 0 9 0 0 9 0 9 9 0 9 0 0 9 9 9 r s r s t u y t r r r s y t s r s u r s s s i s t u u s a s d d l g g k l l l z z H L c H b L L ) Q _ ` ] {  .{  .{ { } ] { { .... . .D.D.^.V.^.D.O.S.D.C.^.D.^...D.!.+...D...O.D.D.D.D.^.V.D.D.D.D.D.D.V.=.V.D.D.D.D.D.D.D.D.D.D.+.D.D.D.D.!.H...D.D.D.D.D.^.V.J.D.D.S.C.D.D.D.D.V.D.D.D.D.D.S.J.J.D.J.S.D.C.D.G.S.G.S.V.S.V.V...V...V...V. . .V.V.V.V.V.V.V.V.V.V.C.C.V.V.m.V.m.m.m.m.m.m.m.S.m.] V.V.V.C.C.C.V.V.C.V.C.V.C.V.m.[ m.m.V.m.V.m.' V.B.B.m.m.m.B.] m.m.m.m.m.S.V.Z.",
"V B g B g s g d g g g g V f B V g g g h y u y u r u r r u t t s h s r = = * 6 : : 1 jXLXLXMX% > = 8 & & % NXLXLXGX& . ,.PXLXLXIXPXIXIXKXPXKXcX& 9 & *XLXLXNX8.LXLXnX% % 9 KXPXLXR JXLXLXw * % /.LXLXPXDXDXJXJXJXPXLXLXmX: - % fXLXLXLXIXIXPXPXIXPXPXNX: 9 X :.LXLXmX: & > * = > * = = & > LXLXLXPXIXPXIXIXIXPXIXB % * 8 * 7 * % 0 : 9 8 > 8 r 8 8 8 8 8 8 8 8 0 8 8 8 8 8 r 9 8 9 0 8 8 0 y 9 8 0 r 9 0 9 8 8 9 0 9 0 9 9 0 n s t r r r y r s y r r r r u t y s r u r s i s s s a a d d g l H l z g z W L L P W _ _ P _ _ _ _ _ ` `  .{  . .D.+. .O.V.O.D...C.D.V.D.S.D.V.D.D.D.S.O.G.D.D.C.^.C.S.C.^.D.D.D.J.D.D.D.D.D.D.D.D.D.V.V.D...D.D.D.C.C.V.D...V...D.D.D.O.O.D.D.D.D.D.S.S.D.V.V.V.D.V.S.S.J.G.D.C.J.C.C.D.C.D.C.C.D.G.C.S.C.S.C.C.J.C.S.V.V.V.V.V.V.V.V.V.V.V.C...V.V.V...V...C.=.V.V.S.V.V.C.V.m.V.N.m.m.m.S.Z.A.Z.m.m.m.m.m.m.m.V.V.V.V.V.m.C.V.V.V.m.m.] m.V.m.m.Z.B.V.' V.] m.V.m.A.S.A.A.G.Z.Z.Z.G.",
"s B g f s B f f s g g J J C K H ~ C f f f s a a u u r u t a s f t C r * = 6 6 : * % NXLXLXMX% : > = y : . mXLXLXUX. X :.LXLXJX1 t 9 > > t B t * 8 * ].LXLXNX9 PXLXIX9 % /.LXLXUX- IXLXPXN : % ;XLXLXmX- < : ; > t JXLXLX/.% : /.LXPXUX< 9 8 w 9 : 9 8 : 9 & *XLXLXUX: : 8 > 6 = > * = % 8 PXLXLXT : w : 9 w : 0 7 & * 8 : 7 : * : 8 8 : 8 8 r 8 8 > 8 8 8 r 8 8 8 r 8 > 8 > 8 6 8 8 8 8 0 r 8 0 9 0 8 8 8 9 8 8 8 9 0 9 0 w 0 9 r r r r t s s r s s s s s s s d s i s s a n n d f g H L L L W W W Q _ _ _ ` {  .V. ... .V. . .D. . .V. .V.O.D.V.G.O.D.D.D.D.J.D.S.S.D.C.D.V.D.D.D.S.J.D.C.D.D.D.J.D.S.S.D.S.D.D.C.D.D.V.D.D.D.C.V.=.D.V.D.D.V.=.D.V.V.V.V.=.C.V. . .V. .S.O.V.O. .S.V.V.V.C.V.V.C.G.V.S.G.C.C.G.V.C.D.C.S.C.S.C.S.m.m.S.V.V.C.S.V.m.S.S.m.V.m.V.V.V.V.V.V.V.V.V.V.C.C.C.V.V.V.V.C.C.C.C.C.N.N.N.Z.Z.m.Z.N.Z.M.Z.m.m.m.O.m.m.Z.m.m.A.m.S.m.m.m.m.m.m.n.m.m.Z.m.S.m.m.m.m.N.N.G.G.G.P.G.G.Z.G.Z.Z.Z.",
"B V B f V g V g g g V J J P K P ~ ~ P J J z f n h u u s s s f f g g r 6 * 7 6 6 : % cXLXLXNX% : * = 8 X U LXPXLXjX& . >.LXLXIXw X * : & * : - : : % hXLXLXMXX JXLXLX-.1 DXLXLXZ o LXLXPXB : % (.LXLXmX- , - - , - mXPXLXMX% : ].LXLXJX1 9 1 : % : : : : & % *XPXLXUX: : > : : 8 6 > : & : LXLXLXw . 0 % * : % : 1 8 % * 8 % 7 : : 0 8 9 > 8 8 > r 8 r 6 8 0 r r r = 6 r 6 8 8 8 6 8 8 6 8 8 r r r 8 8 8 8 8 8 8 9 0 9 s 0 n i 9 t y s s s s s s s f s f f V f H H f l H H J L H L L W W _ ` ] ` ` ` ` }  . . .O.O.S.V.O.V.D.V.D.V.V.V. .V.V.S...S.D.V.D.C.D.D.C.!.J.D.V.C.D.C.C.C.D.V.D.D.C.D.D.C.S.D.G.S.C.G.V.V.V.V.V.V.C.V. .V.C.V.V.V.V.C.C.V...V...V.V.=.V.V.]  .V. .m.V.m.V.V.V.V.V.D.V.C.m.V.V.V.V.V.G.G.C.C.C.C.C.G.C.Z.m.V.G.m.C.C.V.N.m.V.m.m.V.m.V.m.C.V.V.V.V.m.V.' D.J.C.G.V.C.C.J.C.C.C.C.G.C.C.C.Z.m.N.m.M.Z.Z.N.Z.A.A.A.m.Z.m.Z.S.A.Z.m.m.m.m.m.m.m.m.m.m.m.Z.Z.S.Z.Z.Z.Z.S.G.Z.G.Z.P.S.G.Z.Z.Z.G.",
"V B g V V V V V C g ~ Q ^ ^ ^ Q ~ Q P L L z z l h a s a s s f f B V r = 7 7 * : : % cXLXLXMX% * % = % % MXLXPXLXA & X %.LXLXIX% > > * % : 8 > 8 : X jXLXLXUXX /.LXLXDX<.IXLXIX: 1 LXLXPXB : % %XLXLXDX< > > : ; X fXLXLXDX- % /.LXPXUX1 : : 9 9 : : > > , : hXLXLXUX: - : * * * * * * & : PXLXLXR * 0 : : 0 * : * 8 * * : * * 7 : 8 : 8 8 > > r 6 r 8 r 8 r r p r r r r r r r r 6 8 8 r 0 u 0 0 r 8 r r 0 9 s y 0 s s 0 B s n n V f V I H I H J K K P P P P ^ P P _ Y _ _ { _ { ` { { ]  . . .O. . .{  . . . .V.O.O. . . . .V. .D.V.V. ...V.C.V.C.V.D.V.C.V.D.D.C.C.D.C.V.V.C.J.C.D.C.V.C.C.D.C.C.C.C.V.C.C.V.V.V.V.V.B.V.V.V.V.V.V.V.V.....V.{ ....V.V.V.' V.V.S.] m.V.] S.m.m.Z.] m.V.m.V.V.m.m.N.N.C.N.S.N.G.Z.C.C.G.L.C.G.C.G.Z.G.G.G.G.G.G.C.N.S.Z.G.Z.G.C.C.C.V.C.C.C.C.C.C.J.C.J.J.C.J.C.G.C.J.C.G.G.C.G.N.N.Z.Z.Z.Z.A.Z.A.S.P.A.A.S.A.m.A.m.m.m.A.A.m.m.m.n.n.m.m.m.Z.m.Z.m.m.m.m.Z.Z.Z.Z.Z.Z.Z.Z.A.Z.Z.L.",
"B V B V C H J J C ~ Q Q ^ { { / Q Q Q K J H l l d a a s f f f f g V r = * = 8 * : % cXLXLXNXX * & r f GXLXIXLXcX1 , & ( LXLXIX1 & & * : * . % 7 : % jXLXLXUXX : IXLXLXmXLXLX].X < PXLXLX9 : * ^.LXLXmX- + . : + : PXPXLXcX% * ].LXLXJX: 1 : % % & % & % > X #XLXLXmX1 % : * * & & * * & 9 LXLXLXw % % % 1 * % % : * : * : 7 * * : > > 8 > 8 M > r 6 8 M r p 6 r p r p r p u u r r p y u s s n s i s s s d f n f n f f H H Y T I P P P Y Q { { { { { { { { { ...... .O... .V.D. .G.O.S. . . .V. . .] ] ] `  .V. .V.V.V.V.V.V.V.V.V.V.V.V.V.V.C.S.V.V.V.C.C.D.C.C.V.V.C.V.V.C.D.V.C.V.C.V.C.C.C.C.V.V.V.V.V.V.V.m.V.V.V.V.V.V.B.V.V...V. .C.V.V.V.C.V.V.' V.V.V.V.V.V.Z.S.V.Z.S.V.m.V.C.m.C.V.C.m.C.m.N.M.C.Z.C.Z.C.T.C.Q.C.Z.C.Z.G.G.G.Z.G.G.T.G.G.Z.G.G.G.G.G.G.G.C.C.C.G.C.C.C.C.C.J.C.C.J.C.C.T.J.T.G.T.G.T.G.T.T.T.T.T.Z.P.A.A.P.A.A.A.A.A.A.A.A.A.A.A.m.M.M.[ n.n.[ n.n.] M.m.A.m.M.m.m.N.m.n.n.A.A.A.m.Z.Z.L.",
"H B V I P H I I P P P P P Q { { ^ Q Q P W P J J l a s s n l l H H L s 8 6 > * = * % cXPXLXIXcXSXSXJXLXLXPXLXDX9 1 : % =.LXLXPXcXcXjXcXcXnXjXnXU & - hXLXLXDXo . >.LXLXLXLXIXZ X > PXPXLXB < % /.LXPXJXMXjXNXMXcXPXKXLXPXI : : jXLXLXIXcXcXnXNXnXcXcXMXU . - /.LXLXIXmXcXnXMXmXmXMXDXt . t PXLXLXnXcXvXcXcXcXvXcX^.> : & 0 8 6 : * , 8 r 8 8 u 8 r r r r u i s s y r s i s a n a n n n n n v v H l l l I I P Y T I Y T Y Y T B.U ' { U V.B.R =.V.' { {  . .O.O.] V.V.V.V.V.V.V.' m.V.] V.V.V.V.V.m.] V.] ] S.m.S. .' V.B.B.B.C.m.C.m.m.C.m.m.C.V.C.C.C.C.C.C.C.C.V.V.m.V.m.V.V.V.C.C.C.C.C.C.C.C.B.C.N.C.C.N.V.N.N.m.C.C.C.C.C.C.V.V.V.] C.m.C.^.V.C.V.C.V.B.C.C.m.m.m.m.C.C.N.C.C.C.C.N.C.C.Q.C.C.N.Q.T.Q.C.T.N.T.T.T.T.T.T.T.T.G.T.T.T.G.T.J.T.T.G.J.T.W.T.W.W.T.T.T.T.T.W.W.W.T.T.J.T.T.W.T.T.R.R.E.W.W._.(._.'.W.W.T.T.E.E.'.W.R.R.P.T.Z.Z.Z.N.G.L.Z.N.n.N.m.m.] b.A.b.A.b.A.b.A.K.K.b.K.K.K.K.b.b.b.K.A.K.M.Z.",
"B f V I I I H P P P U Q ^ ^ Q { Q Q ~ Q Q ^ Y P L H l l l H L J H J y 8 8 6 : > 8 % cXLXLXLXLXLXPXLXLXLXLXmXw % : 8 & =.PXPXLXLXLXLXLXLXLXLXLX].% . fXLXLXmX- : t IXPXKXLXlXX - : IXLXLXB & % /.LXLXLXLXLXLXLXLXPXLXLXfX: > X /.PXLXLXLXLXLXPXPXPXLXLXhX: & #XLXLXLXLXLXLXLXLXLXLXLX| X 9 PXLXPXLXLXLXLXLXLXLXLXIX: : * & * 8 * * r > r y r a r r r r u s f H n n l k c c L H Y Y b H Y Y Y Y Y Y L Y P Y Y Y T ' Y V.{ C.' V.V.' B.V.T V.V.C.=.V. .V. . .m.] m.V.C.C.V.V.B.C.V.m.V.V.V.V.C.V.m.m.m.] m.m. .m.m.V.V.B.C.C.C.B.m.B.N.C.m.C.C.N.N.C.Q.C.N.C.N.C.N.m. .m.m.m.m.m.N.m.C.m.C.C.N.N.C.C.C.C.N.N.N.N.N.Q.N.N.Q.Q.C.C.C.m.V.m.m.C.C.C.C.m.C.C.C.C.C.C.C.N.C.N.C.C.J.C.T.Q.C.T.J.C.T.T.G.T.J.T.T.T.T.T.W.T.T.T.W.'.(.W.T.W.W.W.W.W.T.T.R.W.W.E.W.W.W.W.W.W.E.E.W.'.(._.W._.W._.(._.W.W._.4X X_. X_._._.'._.0X_._.0X5X_._.W. X XW.R.E.E.R.T.T.T.T.G.M.N.M.n.A.A.b.b.A.A.b.A.b.b.A.K.K.K.K.K.b.A.K.A.K.K.M.L.",
"H B V I I I H I P U Q P P P { P K Q P Q { { _ _ P P H n l H Y Y L P s * * 8 * 8 > % nXLXPXLXLXPXLXPXIXcXT % % : 8 : - =.LXLXPXLXLXPXLXLXPXLXLX*X% & fXLXLXmX: - X lXLXLXPX( . 8 9 IXLXPXB % > *XLXLXLXLXLXLXLXLXLXMXZ % & > . hXLXLXLXLXLXLXLXLXPXLXLXfX% % /.LXLXLXLXLXLXLXLXLXLXLX%.. B PXLXLXLXLXLXLXLXLXLXLXJX& : 8 * * : * > s d d s n c l h d g z H T Y Y Y Y ) ' ' ] V.] ] B.B.V.V.' m.m.] { ..V.V.V.=.C.V.V.V...C...B.{ { V.C.V...V.^.V.V...V. .V.m.m.S.V.V.V.V.V.V.C.V.C.V.C.C.V.C.C.V.m.m.] m.] m.] ] B.] m.m.C.B.m.N.C.C.C.m.C.C.C.C.C.m.C.m.N.N.N.V.N.V.m.m.m.m.N.C.N.m.N.C.N.N.C.Q.N.Q.Q.C.Q.C.T.Z.Q.G.Q.C.T.T.'.C.C.N.C.N.C.C.(.C.G.T.'.C.C.C.'.'.'.T.T.G.'.'.'.(.W.J.W.'.W.W.W.'.'._._._._.'._.'._.'._.'._._._.'._.(.W.W.W.E. X-X(.0X0X(.0X(.0XW._.0X0X0X_.0XtX_.0X0X0X0X0X0XtX0X7X8XqX9X0X0X0X0XtXtXtXqX0X0X8X8X0X0X X5XW.3X X5X(.'._.'.E.T.T.T.A.m A..XA.b.A.b.A.A.A.b.K.M.K.A.K.A.b.b.A.Z.A.M.Z.",
"B n B V H H I H P P U P P P U P P Q ! { { { { { ..' Y L H Y Y P P Y s 6 * = : 8 * * T /.=.^ | ( U B 8 * % : 8 : 1 : : 8 /./.| =.^.=.=.:.=.=.*Xs > : s =.%.K & 9 , t =.| U > > & : ^ | +., 8 > 9 =.>.=.:.=.%.| | I > & > 9 8 : V :.| | | ..( ( | =.:.| s = 9 V =.-.=.,.:.:.>.:.%.=./.> % > -.%.=.:.:.:.:.:.:.-.:.%.& : : 8 9 * : r Q ! L Y Y Y Y c W W _ ' B.V.C.m.]  .] V.V.V.V.C.V.V.V.V.V.V.V.D.C.V.D.C.D.V.C.' V.V.V.C.V.C.T { B.T V.V.V.C.C.C.C.V.V.V.V.V.V.V.V.' V.V.V...V.V.C.C.S.V.V.V.V.m.] N.] m.] ] m.V.V.B.C.B.C.m.N.C.m.C.m.C.C.C.C.C.C.C.C.C.C.C.C.N.m.N.C.N.C.C.T.C.Q.C.Q.C.T.C.T.Q.Q.Q.T.T.I.I.T.I.T.I.'.T.'.'.'.T.C.T.G.G.T.'.'.'.'.(.'.'.'.'.'.T.W.W.T.'.(.'.'.'._.'.(.'.(._.'._._._._.0X0X0X0X0X0X0X0X_.<XtXtX0X0X0X0X0X0X0X0X0X0X0XqX0X0X0X0X0X0X0X0XtXtXuXtXyXuXtXyXuXyXyXqXyXqXyX8XyXqXtXqXqXeXtXyXqXyXqXqXtXqX0XqX0X0X0X0X0XtXeX_.0X X0XW..X.X.X.X.X.XA.A.A.A.A.Y.K.K.K.K.K.K.K.A.K.K.A.A.K.",
"I B B n H n B H I J P I L P P P Q Q { } .. .] ]  . .' Y Y Y Y _ Y { s 7 * 8 : 8 > 8 : : > - & > : : 9 9 9 8 : : 7 8 9 * * * : > * : & * & % : > > > , > > 9 * > * 8 : * 8 9 8 * : > % : 8 9 9 : & & : > > : * : % : 8 8 * & 9 > & & : : * & * & * & & & > t : % 1 . % % : - % . 1 : - : : 9 , : : - & & - & - - : , : & 9 8 : 6 r O...' ] ' ] V. .'  ...C.C.C.C.m.m.V.S. .Z.V.V.C.S.G.V.G.V.C.V.C.V.V.C.C.C.C.C.C.V.C.C.C.C.C.V.C.V.B.C.C.C.C.C.C.C.C.C.C.C.V.V.V.V.V.V.C.C.C.V.V.V.V.V.C.V.V.V.V.m.N.V.m.m.m.] [ m.V.m.N.V.N.C.C.N.C.Q.C.T.C.C.C.C.C.C.G.C.C.C.G.Z.G.G.T.T.T.T.T.G.'.T.T.E.T.W.'.T.'.Q.E.E.E.W._._._.W._._._._.T.W.W.W.(.(._._.(._.(._.'.'.tX'._.(.'.'._._._._.]._.tX_.tX(.0X_.8X_.tXtXtXtXtXtXtXtXtXtXtXtXyXtXtXqXtXtXtXqXqXtXqXtXeXtXtX8XtXtXyXtXuXtXuXtX_.FXuXuXuXaXyXuXtXuXyXyXyXyXdX8XdX8XtXtXyXyXyXyXyXyXyXtXyXqXyXqXtXyXtXuXtXeXtXtXxXtX7X3XqX9X X X9X.XP.I.L.L.Y.K.K.K.K.A.A.A.A.Z.K.M.M.",
"B n 9 B B B T T H H H I I P P P Q {  ..... .{ .. . . .] ] Y Y Y Y ..f * 6 * 6 > * * > , 8 , : : 8 * * = * : 0 8 8 & 8 8 > 8 8 : * 9 8 > 8 * > 8 8 8 * * * 8 > r & 9 8 : * : : s 8 8 9 8 * 7 : 8 8 > : * * > > 8 8 > 8 > 8 8 & 8 8 8 8 = * > 8 > > 8 8 = & = > 8 B 9 , > : : 9 9 9 > 8 9 1 : > & > > > : > , 8 , : > > : > > 8 = u +.D.' m.V.B.C.C. .V.V.C.C.C.C.G.S.S.m.Z. .m.Z.C.C.G.m.G.V.G.C.C.C.C.C.C.C.C.C.C.C.C.C.C.Q.C.C.C.C.C.C.C.C.C.C.C.C.C.C.N.C.G.N.V.C.B.V.C.C.C.C.V.V.V.C.C.C.C.V.C.Z.G.Z.N.S.G.G.N.m.N.N.N.G.C.Q.C.'.C.T.J.T.T.T.T.'.T.T.W.T.W.T.T.T.R.E.W.W.W.E.E.E.E.E._._._._.'._._._._._._.6X_.0X6X_._.tX_._.W._.(._._._.xX_.0X0X0X0XtX'.'.tXtXtXuX_._.bXFX_.aXtX_.xXtX0XtXtX8XtXaX_.tXtXtXtXyXtXyXyXtXeXtXtXqXtXqXeXtXtXtXqXtXyXtXyXtXdXaXaXyXyXtXyXuXaXaXtX_.tXtXyXtXtXtXtXyX8XyXyX8XdX8X8XqXtX8XyXqXyXyXyXyXeXyXyXyXqXyXyXxXtXuXtXbXFX_._.qXqXqXqXqX3X7X9X4X X4X XU.U.`.U.P.K.K.A.Z.L.Z.Z.A.",
"B B n B B n n B I V V V T H I L P { { O... .V...]  .V. .' Y ' Y {  .l 6 6 8 = > y : 8 8 * 8 : : & y 8 * B 0 % 8 9 8 8 8 * * 8 8 = 8 8 > 8 8 8 > > 8 8 8 8 8 0 t : 8 8 8 8 8 8 : 6 6 7 7 8 8 7 8 * 6 > 8 8 8 8 8 * r 8 & : y * y 8 = 8 8 8 8 8 = 8 8 8 8 8 8 8 = & : 9 8 9 > > 8 % : 8 9 8 9 9 : * : : : : , > > > * 8 9 8 8 6 = y S.S.' C.C.m.C.V.' V.V.C.C.C.C.G.G.m.S.V.S.Z.S.V.Z.V.G.N.S.N.V.C.C.C.C.C.C.C.C.C.B.C.C.C.C.C.'.C.C.C.C.C.'.C.C.C.C.C.C.C.Z.N.G.Q.C.C.C.C.C.G.C.C.C.C.C.C.C.C.C.G.T.T.L.L.T.T.T.T.Z.T.T.T.I.I.T.E.W.W.W.W.W.W.W.W.W.W.W.(.W.'._.E.E.E.W.W.5X_._._.0X_._._._._._._._._._.5X6X6X6X6X6X6X0X_._._._._.0X0X_._.tX_.eXtX(.0X_.'.tXtX_.0XtXtXtXFXtXtXbXtXtXtX_._.tXeX_.8X8XtXtXtXaXtXtXtXtXtXtXyXtXaXtXtXtXtXtXtXtXtXtXtXqXtXtXtXyXdXtXuXuXaXtXaXaXtXaXaXaXtXtXtXtXtXtX8XdX8XdXdX9X8XdXtXtXtXyXyXyXyXyXqXyXyXqXyXyXyXyXtXuXtXaXaX_.tXaXyXyXqXyXqX8XqXqX0XrX7X7X7X5X5X4X X.XP.R.E.E.R.T.R.",
"n n B 0 s s B H B n B H n B H H P { { ..O.......V.D.V.V.V.' ' Y Y { V 7 : 6 6 7 > > 8 = > 8 * 9 t * : r 7 % 8 7 7 0 * 7 8 8 8 6 0 = * 8 : 6 8 8 > 0 * * 8 * 8 8 8 8 8 6 8 8 8 * 8 8 8 : 7 8 * 0 8 8 8 * * 6 8 > 6 0 % r 0 * * > 8 * 8 8 * = 8 8 8 = * * 8 * 8 = 8 8 6 : : 6 : 8 0 8 8 : 8 * 7 0 7 8 8 8 8 8 8 > : > 8 = * 8 * M y J.J.m.G.C.C.C.m.V.C.C.C.C.C.'.G.S.G.Z.V.Z.S.J.m.V.N.V.m.G.C.Z.C.C.C.J.Q.C.C.C.C.C.C.C.C.C.T.T.Q.'.C.'.T.T.Q.Q.N.B.C.C.G.N.Z.Z.G.C.C.C.T.C.T.T.C.T.C.C.'.J.T.T.T.I.R.I.E.U.E.E.E.E.E.E.E.E.E.E._._._._.5X_._.5X_.5X_.0X0X_._._.W.E.5X6X5X0X0X6X0X_.0X0X8X8X8X_.tX_._.tXrX7X8X8X6X6X6X_.tX_.tXtX0X_.0XtX_.xX_.tX_.tXtXtXtXtXtXtXtX0XtXxXtXtXtX_._.tXtX_.xXtXtXtXtX8XtXtXtXtXtX8XtXyXtXyXtXtX_.aXtXqXtXqXtXtXtXqXtXtXtXtXyXtX8XdXtXtXtXaX_.aXtXtXaX_.yXyXyXtXyXtXdX8X8X8XdX8X8XdXyXyXyXqXrXrXyXyXyXtXtXyXtXtXtXeXtXuX_._.aXFXFXtXqXqXqX8X8XqXqXyXyXqXyXqX0XrX7X7X0X7X X5X X5X5X0X X",
"9 9 s s 9 s B f s V B s s B B I { { ....:.D... .D. .V.V. .] '  .{ J.H 7 7 8 7 : : 8 8 8 8 : : 6 8 * 8 8 8 8 0 0 8 8 6 7 8 8 8 8 6 6 8 6 8 8 8 8 6 6 8 : 8 6 8 8 8 8 8 8 8 8 8 7 8 7 0 0 7 6 0 0 8 8 8 8 8 8 6 6 7 7 : 8 8 8 8 8 8 6 8 8 8 8 8 8 6 * * 6 8 8 8 6 8 8 6 > 6 7 8 7 0 8 7 0 7 8 0 0 8 7 6 6 7 8 8 0 * : 6 8 6 6 0 6 n [ J.G.C.C.'.C.V.V.S.V.V.N.C.C.G.Z.G.Z.C.N.m.m.Z.S.S.Z.G.G.J.R.C.G.Z.G.G.G.T.T.T.T.T.T.W.W.E.W.'.T.W.R.R.P.P.G.G.P.Z.A.R.R.T.T.I.T.T.T.T.T.W.E.T.T.T.W.I.W.W.E.U.`.).E.).4X7X4X4X9X4X4X4X). X9X_.5X5X5X0X6X0XrX_._.aX_._.tX_._.7X6X7XrX0XrX0XrX8X8X_.8X_.8X8X8XtX_.tX_.tX8X8X8X6X6X9X6X8X_.8X8X0X_.0X0X_.0X_.tX8X8XtX8XtXtXtXtXtXtXtX8X8X8X8X8XtXtXtX8XtX_.tXtX8X8X8X8X8X8X8XdXtX8X8XdX8XtXtX8XtX0XtX8X8X8X8X8X8X8X8XtXdX8X8X8XtXtXdXtXdX8XyXtXtXtXtXtXtXtXtX8X8X8XdX8X8X8X8X8X8XdX8X8X8X8X8X8XtXrXtXtXtXtXtXtXrXrXyXrXtXtXtXtXyXqXqXrXqXrXqXtXtXqXrXqXrXyXyXrXqXqXtXqXqXyXqXqXqX",
"s s 9 t s s s s t B f B s t B H U P { ........ ...D.V... .V.'  .{ V.f * * 8 8 0 7 6 * * * * : * * = : 7 * * = 6 7 6 7 * * 7 = 7 * = 7 8 6 6 7 6 8 6 6 6 7 6 6 6 7 7 6 7 7 7 7 0 7 7 7 0 8 8 7 0 7 * 7 7 7 7 * * * * * * 7 7 : 7 = 7 * 8 * 6 7 6 6 6 7 8 = 6 6 6 6 7 7 7 7 8 6 8 7 7 7 7 7 7 7 7 7 7 * 7 7 8 7 : 7 6 6 6 6 7 6 7 i ) C.C.N.C.J.C.S.G.C.J.J.T.T.T.G.J.G.J.G.G.G.G.S.Z.G.S.S.G.S.G.C.T.G.R.G.R.R.T.N.N.C.T.T.T.T.T.T.T.Z.R.P.G.P.A.P.G.G.P.P.G.R.E.W.E.E._.E.E._.W.W._._.E.W._.E.E.4X4X4X7X6X7X8X8X4X4X4X4X4X4X9X4XE.E.E.)._._.5X5XtX_._._._._.tXtX4X5X7X7X7X0X8X7X6X8X8X_.8X_._.8X_.tX8X_._.8X6X_.6X6X6X6X_.8X_._.0X0X_.tXtX_._.tX_.8X_.tXtX_.8XtX8X8XtXtX8X8X8X8X_.tX8X8X8X8X8XtX8X8X8X8X8X8X8X8X8X8X8X8X8X8XtX8XtXtXrX8X8X8X8X8X8X8X8X8X8X8XdX8XtXtX8XdX8XtXtXyXtXtXtXtXtX8XdXtX8X8X8X8X8XdX8X8X8X8X8X8X8X8X8X8XtXqXqXyXtXtXtXtXrXyXtXrXtXtXtXtX8XqX8XqX8XqXrXqXqXrXrXqXrXqXqXrXyXyXyXyXyXyXyXyXyX",
"9 t t r 9 s 9 s t g g B N B B V I J K P {  ...{ V... . .]  .] ' C.V.T 0 0 q 0 8 9 0 0 9 8 8 9 0 r 8 y 8 y 0 0 y 0 0 i 0 y 0 i y 0 y 0 i y y y y y y 0 y 0 0 0 u 0 s 9 0 9 0 0 0 9 0 q 9 0 0 q 0 n 0 0 i 0 s i 0 0 0 q s 0 s s 0 0 y 0 0 0 y 0 y 8 0 0 0 0 0 0 0 q i p 0 0 q i q 0 n 0 s i i 0 n n q q y s q 0 0 s q y y i p 0 p v [ C.C.C.C.G.J.J.S.C.S.J.J.J.T.J.G.G.S.J.J.G.G.G.S.S.Z.Z.S.S.Z.T.R.T.T.R.W.W.R.G.T.T.T.T.W._.W.W.W.W.W.W. X.X.XE.T.W.T.R.W.W.W.W._.W._.(._.W._._.W.0X'._._.W.T.E.E.U.E.).).4X4X5X7X5X7X5X5X5X X5X7X6X6X0X0X0X0X_._._._._._._._.4X5X5X7X7X7X7X7X6X6X8X8X_.8X`.8XtXtX_.tX6X6X8X6X6X6X6X6X8X_.8XaX_.tXtXtXtX_.tX_._.8X6X8X_._.tXtX8X8X8X8X8X8X8X8XtX8X_._.8X8X_.tX8X9X8X8X8X8X8X8X8XtX8X8X8X8X8X8X8X8X6X8X8X8X8X8X8X8X8X8X8X8X8X8XdX8X8X8X8XtX8XrXtXaX8X8X8X8X8X8X8X8X8X8X8XdX8X8X8X8X8X8X8X8X8X8X8XrX8XyXtXtXtXtXrXrXrXrXtXtXtXtXrX0XqX0X8XrX0XtXrX8XqX8XrXqX8X8X0XqX0XqXqXyX0XqX0X",
"0 t 8 t t 9 s B g N t t s 9 t B B B I I U U { { U ..' ] ' { '  .{ V.C.V.D.^.D...C.^.D.V.D.D.^.J.^.^.^.^.^.^.C.^.J.J.~.J.J.~.J.~.J.D.D.J.D.J.H.J.J.J.~.J.~.J.J.!.~.^.(.J.~.^.(.^.^.(.^.(.^.(.^.~.(.~.(.~.~.(.(.~.(.~.~.~.^.(.(.~.~.D.J.J.D.J.J.~.D.J.D.J.J.J.D.!.(.J.(.~.(.~.~.J.~.J.'.(.(.'.'.J.'.(.'.(.(.(.(.(.(.^.~.(.H.H.R.J.S.H.(.(.'.W.C.(.J.D.D.S.J.J.W.J.R.J.R.R.T.J.T.H.H.T.J.H.J.R.F..XJ.J.J.W.H.W.J.W.(.J.'.T.W.W.'.-XW.(.W. X(..X.X XOX.X XW.OXW.-XW.'.'.'.(._.(._.'._.-X'.W.'.(.'.0X6X0X7XrXrX0XrX8X0X0X7X8X8X0X0XqX-XW.-X5X0X_.0X0XtXtXtX_.FXaX_.tX5X4X5X9X5X5X5X7X6X8X`.`._.8X8X`._._.tX_.6X8X6X6X6X6X6X6X_.8X8X_.tX_._._._.tX_.tX8X_.8X8XtX8X8X_.8X_.8X8X8X8X8X8X_.8X8X8X_.8X8X_.8X9X8X8X8X8X8X8X8X8X8X8X8X8X8X8X6X6X6X6X9X8X8X9X8X8X8X8X8X8X8X8X8X8X8X8XtX8X8X8XtX_._.tX8X8X8X8X8X8X8X8X8X8X8X8X8X8X8X8X8X8X8X8XyXrX8X8X8XtX8X8XrXrX8XrXtX8XtX8X8X7X7X0X7X8X7XrX8XqX8X8X7X7X7X8X7X7XrX7X0X0XrX0XrX",
"t r 8 r t t s B B t B g t N s N s N B B I I I P P P { P { _ { ] P ' ] Y ] { ] P L L Y H Y P { { P { { Q Y Y Y { _ Y _ _ [ [ ] [ ' _ ' ] [  .V.S.V.m.O.m.V.G.S.D.} ..D.D.D.D. ...V.......] ..V...' V. .m.] ' ' ]  .' { { ' ..{ ] ]  .V. . .V. .V. .V.{ ] ..] V.'  . .V... ...V. .Y ' V.V. .] ' ' V.C.V.V.B.R ..{ { .. . .S. . .O.S.[ A.J.G.V.m. .S. .` O.C.] m.m.K.m.A.m.m.m.Z.Z.m.[ m.] [ ] A.] ] V. . .V.m.C.V.V.V.V.V.N.C.C.J.V.V.V.V.V.m.m.S.] V.V. .V.C.C.C.V.V.C.C.J.C.J.C.V.m.C.V.G.C.G.G.M.M.n.n.n.Z.Z.Z.K.M.B.b.n.A.] ] m. .V.m.C.V.G.C.C.B.C.B.'.'.B.'.5X7X5X5X7X7X7X6X8X_.6X6X_._._.8X_.6X6X_.`.6X`.6X6X6X4X6XrX_.rX_.6X6X6X6X0X_.8X_.`.8X6X_.8X8X8X8X_.8X8X8X8X8X8X8X8X9X8X`._.`.8X8X8X9X8X9X9X8X8X9X8X8X8X9X9X8X8X9X6X6X8X`.8X8X8X8X8X9X9X8X8X8X8X8X8X8X8X8X8X8X8X8X8X8X8X8XtX8X8XtX8X8X8X8X8X8X8X8X8X8X8X8X8X8X8X8X8X8X8X8X8XdX8XtX_.8X_.8X8X8X8X8X7X0X7X7X7X0X7X7X7XrX8X7X7X7X5X7X7X7XrX7X6X0X0XrX6X",
", r , 1.r t N t s N t N t t t s N t t s B B V I I P P P P _ { ..'  .l 7 7 8 7 7 7 * * 7 7 * 7 = 8 = : = 8 : 6 7 6 6 6 7 6 6 6 6 6 7 6 6 6 6 6 0 6 6 6 6 6 8 6 8 6 8 8 8 8 8 8 8 0 0 0 7 8 8 7 7 0 7 6 6 0 7 6 7 7 8 * 6 7 7 * 7 7 8 7 7 6 6 8 7 8 7 8 6 6 8 7 6 6 8 8 6 8 6 8 8 0 8 8 0 8 6 0 8 7 0 7 0 0 0 8 7 6 8 8 = 6 8 6 6 = 6 = 6 7 6 7 6 6 = 6 = 6 6 6 6 7 7 6 6 6 6 6 6 6 6 6 6 6 6 6 M 7 7 7 6 6 8 6 0 7 0 7 0 0 0 0 0 7 6 7 8 6 6 6 6 7 7 6 7 7 : 7 * 7 7 7 7 0 7 7 7 7 7 7 7 7 6 0 0 6 6 6 6 7 q q 6 M 6 q 6 6 6 M 6 6 6 6 6 7 0 0 0 q q q q q q q B.0X5X7X5X5X5X5X6X6X8X_._.`.8X`._._._._._._.6X).9X4X6X6X4X_.8X_.0X6X6X4X6X_.rX_.8X6X8X8X6X`.8X`.8X8X_.8X`.`.8X8X`.`.8X`.8X8X8X8X`.`.8X`.8X9X8X9X8X8X8X8X8X8X9X9X8X7X6X9X9X8X9X9X8X8X`.8X8X8X9X8X8X8X8X8X8X8X8X9X8X8X8X8X8X8X8X8X8X8X8X8X8X8X9X8X8X8X9X8X8X8X8X8X8X8X8X8X8X8X_.tX8X8X8XaX_.tX_.8X8X8X7X7X6X7X7X6X0X7X7X5X5X5X7X7X5X8X8X6X5X6X_.6X8X5X",
"1.r > t r t t t t t t N N t t N t t 9 9 t t t B B V H J P P { ' V.C.i 7 7 6 8 0 6 8 8 7 6 7 6 6 > = 8 8 6 8 8 8 6 6 6 6 6 6 6 6 6 6 7 7 6 6 7 7 6 6 6 6 6 6 7 6 = 8 * 7 6 : 8 6 6 6 7 : 6 6 8 6 0 6 0 6 8 0 6 8 0 8 6 7 : 8 6 8 6 7 7 6 7 7 7 6 7 7 6 6 7 7 7 * = > > = : 7 > = 8 8 8 : 8 8 > M 0 0 0 0 7 0 8 , : > = > = = 6 = 6 = 6 6 7 q 8 6 6 6 M = = 6 6 6 M 6 6 7 6 6 6 6 6 6 6 6 6 M 6 8 7 : 7 7 7 8 7 8 7 7 7 7 7 7 7 7 8 7 8 7 7 6 6 6 7 0 8 8 7 0 9 8 7 : 8 8 0 7 8 8 8 6 8 8 8 8 8 6 7 6 7 7 6 6 6 6 7 6 6 6 6 = * = > = = 8 6 8 6 0 0 7 7 7 q q 7 B._.5X5X4X4X5X5X4X6X`.6X_._.8X8X_.6X6X6X4X6X6X6X6X5X4X5X_._._.6X6X6X6X6X6X6X6X6X6X8X`.8X`.8X6X8X`.`.8X`.8X8X9X8X9X8X`.8X`.8X`.`.8X9X8X8X`.8X9X8X9X9X8X9X8X8X8X8X8X7X8X9X8X9X8X8X`.9X`.8X`.`.9X8X9X9X8X9X8X6X6X9X8X9X8X9X8X8X8X8X8X8X8X8X8X8X`.8X8X8X9X9X8X`.8X8X8X8X8X8X8X8X8X8X8X8XtX8XtX8X8X6X_.0X6X6X6X5X5X5X0X7X6X7X7X5X6X0X5X6X6X6X_._._.6X_._.",
"r > r > 1.1.t t 9 9 t t t t t t N N 9 8 9 > 9 9 t B s s V L P P { ^.x = 6 8 7 6 7 6 8 > > - & & : : * > : > > < ; = 6 6 6 6 7 7 6 6 6 : > & ; : 8 8 0 0 6 6 6 8 8 8 ; ; ; > 8 8 : : ; ; ; > 6 = * & * * : 7 8 0 8 8 8 : : ; : 8 : > > - ; > 6 7 0 8 6 8 ; > > : * ; ; - < - ; - - # - - # ; = ; : 8 : : : < 1 - - - - ; ; ; ; > = 6 6 7 8 8 > ; ; ; 1.; ; = = r 6 q M 6 M 6 6 6 6 = = = & ; ; ; ; ; < ; ; ; > > 8 8 8 0 8 0 > : ; < 8 0 8 8 6 6 7 : - - - 1 < - - - # # < , : 8 8 : : : - - ; - ; & ; ; > 8 8 0 0 0 8 > > ; - # - ; ; ; - ; ; = 0 : q 7 7 7 7 Y _._.).).E.).).4X_._._.`.`.`.`.`.)._._.).).).`.`.4X4X_.6X_.6X_.4X6X6X8X6X).6X6X6X8X`.8X8X8X`.8X`.`.`.8X`.9X8X9X8X`.8X9X8X`.8X8X`.`.8X`.8X9X8X8X8X9X8X9X9X`.8X9X9X9X8X8X9X8X`.9X8X`.8X9X8X9X8X`.8X8X9X8X`.6X9X6X9X8X9X8X9X9X8X8X8X8X`.8X`.8X8X8X8X9X8X8X8X8X8X8X`.8X8X8X8X8X8X8X_.8X_._.8X8X_.6X6X6X5X6X6X6X6X6X7X6X6X5X5X5X7X5X6X6X6X6X6X_._._._._.",
"t r r , 1.h 1.u 1.1.8 9 r 9 t 9 t 9 , > , > , 9 8 9 8 t s V U ^ I D.z * = M 7 6 6 M < ; $ <.G G 1.; 1.> ; # $ e.f.5 1.M 7 q 7 7 8 = 9 - G 2.e.A < : 7 7 7 8 = r > # 5 e.G <.= = % <.5 g.1.- > > <.<.j.1.. N = = = > ; G G G , > > 1.F G <.; ; 8 7 0 t # G G F 1.@ <.G 5 G 2.2.5 5 2.2.G e.G 5 1.> r ; ; 4 5 5 g.j.j.d.f.5 $ $ 1.; = 0 q 0 : 3 5 e.g.j.j.d.G ; @ = = 6 p 6 6 s 9 : , F G G e.G 2.G G 2.5 G f.f.1.; M 6 0 0 : 3 G G 5 , 0 9 6 p 7 6 = 1.g.5 2.G G G 5 5 2.2 @ + r r & 5 e.5 2.G G G 5 5 $ $ @ 9 9 q q q : e.G 2.e.2.2.F F G 5 d.g 1.M 6 8 = > 6 m 0X'.W.E._._._.`._._._.`.8X`.`.8X_._.6X`.4X4X).4X).4X`.4X4X`.6X6X8X`.8X`.8X`.8X`.8X`.`.8X8X`.`.8X8X9X`.6X9X6X9X`.8X`.8X`.9X8X8X`.8X9X`.8X9X`.8X`.6X9X9X6X9X8X`.8X6X`.9X6X9X6X6X`.`.9X9X6X9X9X9X6X`.8X9X8X8X9X6X6X6X6X9X6X6X8X9X6X6X6X6X6X6X6X8X`.8X8X8X8X8X8X8X8X6X9X6X8X6X6X6X6X6X6X8X6X6X4X6X6X5X5X6X5X7X7X5X6X5X7X5X5X4X7X7X5X4X5X_.).).).5X4X4X",
"> , > > M 1.1.1., r 1.> > 1.r , 1.1., , < > > > , 8 9 9 t f V K H ] h = = M 6 = = =     5 k.x.VXh.# & - - 2 e.z.c.z.5 = 7 7 7 7 6 * > 4 j.VXVXz.w < : 8 0 7 = > + 2 z.VXx.j.+ = ; kXVXx.e.$ ; 1.zXVXz.z.2 # 1.= , 1.1.zXz.VX5 # + F VXx.j.$ & r 0 6 & ; k.VXVXG @ j.VXz.x.VXx.c.VXx.VXx.k.VXzX1.& ; @ $ 2.k.x.x.z.z.x.z.VXj.$ 2 ; 1.8 0 : 3 2.k.x.x.z.VXVXz.c.1.> p r = 6 6 7 8   A VXVXz.x.x.c.l.l.x.x.x.z.z.5 # = : 0 7 1 j.VXz.z.A < : : p 6 6 = f.VXk.x.VXx.z.VXx.v.k.j.1.# = ; G VXx.x.VXx.VXz.z.j.f.2 $ ; 0 7 * w VXx.x.x.z.BXz.VXVXz.VXd.@ 1.> > > M 6 Y (.'.E._._._.`.)._.`.`.8X_.`._.`.).).6X`.4X`.`.4XU.9X4X4X4X6X6X`.`.8X`.8X8X`.`.8X`.8X8X`.`.8X8X`.9X`.9X9X9X`.9X6X).`.`.8X8X`.9X`.8X9X8X9X9X8X`.8X6X9X`.6X9X`.8X`.9X9X6X9X6X9X6X9X8X9X6X`.6X6X6X9X8X`.8X`.6X).9X).6X9X6X6X8X9X6X6X9X6X9X6X9X6X9X8X8X`.8X`.`.8X8X8X6X6X9X6X9X8X9X7X8X7X4X7X6X6X6X6X7X5X7X4X5X5X4X5X7X4X5X6X5X5X4X5X6X4X5X4X4X4X4X_.4X",
"> ; > ; 1.; = 1.> 1.> 1., 1.> , , , ; , : : - : > > > > 8 t B V s T i * = 6 = > & $ G j.z.x.v.x.e.$ < S e.j.VXl.l.c.2 = 8 0 > 8 6 = > < j.x.x.x.2.# 1.M 0 7 = > # G x.z.c.j.@ M - j.x.x.f.$ ; 1.z.z.c.c.j.@ h 1.> ; $ j.VXz.5 O @ f.x.z.j.< > 9 6 8 * $ k.x.x.G $ k.VXz.x.l.l.l.v.v.l.VXz.VXVX$ 1.@ 5 k.VXz.z.k.z.z.l.x.k.VXBX2 $ ; r > ; h.z.VXx.x.VXz.z.c.x.z.1.= = = r r : , $ G VXVXz.c.c.v.v.l.l.x.z.VXVXG + 8 t 0 > 3 k.l.v.z.e.O 3 - 8 6 r @ G l.v.l.x.l.z.z.x.x.x.c.j.$ $ $ 5 x.l.v.l.z.z.z.z.z.x.z.5 $ ; 1.1 3 k.l.l.v.l.c.x.x.c.c.VXj.; = M = 7 q 7 b._._.E._.`._.`._.8X`.`.`.8X`.`.6X`.`.`.`.`.).U.).).4X9X`.`.6X).6X`.).`.8X`.8X`.`.8X`.`.8X`.).8X`.`.9X`.6X6X`.`.6X`.8X`.8X`.`.8X8X`.8X`.8X8X`.9X9X6X4X9X4X`.8X`.9X6X9X).6X`.6X9X6X6X9X6X9X6X9X6X6X9X8X8X`.6X9X6X9X9X6X6X9X9X6X9X6X4X9X6X9X6X8X`.6X8X`.8X`.8X8X`.8X9X8X8X9X6X8X9X7X7X6X7X6X6X6X6X4X5X5X5X7X4X6X5X7X5X5X4X5X4X4X5X4X4X4X).4X).5X4X4X).",
"; ; & ; ; ; ; ; ; ; ; ; > ; > ; ; , ; ; ; ; ; & - * & > > , t s w B 0 * * > : : + <.VXVXz.l.l.l.g.O $ zXVXVXx.l.v.l.2 ; 9 8 , , = 8 , $ j.l.c.z.j.$ 1.; 7 0 * 9 @ j.x.l.c.g.$ ; # j.x.x.G $ $ $ k.c.v.v.k.5 @ @ # ; 1.k.z.c.5 O $ f.x.x.j.$ - > 8 8 & @ g.l.l.5 O G 2.g.j.2.g.l.v.v.2.2.2.g.G 3   ; j.z.z.c.v.2.5 5 5 j.VXz.x.k.$ ; 1.@ 2 z.x.v.g.5 2 5 f.j.c.z.h.; = u = > : - 1.$ f.f.f.2.g.v.v.v.g.e.g.f.j.5 + 8 9 1 < g.c.v.l.l.k.4 $ < : t 1.@ g.x.v.v.2.2.f.g.2.g.c.l.x.G $ $ 5 l.l.g.g.g.g.g.j.z.z.x.z.5 $ ; $ 2 x.l.l.g.2.g.5 2.2.5 f.G ; 1.M M 7 7 7 B._.'.T.I._.`.`.`.`.`.`.`.`.`.`.`.`.).).`.9XU.4XU.4XU.).4X8X`.6X`.8X`.8X`.8X`.`.8X`.8X`.`.8X`.`.`.8X`.6X`.9X6X`.9X`.8X`.`.`.8X`.9X`.`.`.`.`.8X`.`.`.6X`.4X8X`.9X6X6X`.9X6X`.9X6X).8X`.9X6X6X).9X7X`.8X`.9X9X6X`.4X).6X9X6X6X6X6X9X4X6X`.4X`.6X8X`.8X8X`.8X`.8X8X8X`.9X`.9X6X9X8X7X4X6X7X6X6X4X6X4X4X6X4X5X5X5X4X5X5X4X5X4X4X5X_.4X_.4X4X).).).).).).",
"> ; ; ; ; ; ; ; ; ; @ ; ; ; ; ; ; ; ; ; ; ; = + & & = ; > > 1.8 0 w > : : : * ; # 3 VXVXk.v.v.v.2.2 2 j.VXx.k.v.v.l.2 $ 1.- < ; 8 8 < $ k.x.v.l.c.2 2 1.0 q r ; 2.l.v.v.c.g.$ $ O j.l.x.g.$ $ $ k.v.v.v.c.j.1.1.; ; 2 k.l.x.5 O $ g.x.l.j.$ ; ; M 1.; @ c.l.x.5 4 $ O $ O O g.v.v.v.2 O 2 O o 1 o 8.z.z.c.2.2 O 2 2 $ O 2.k.x.VXf.; 1.@ 5 c.c.c.2 2 O O $ 5 x.VXzX1.= M = 6 = 8 : . # $ $ $ 2 k.l.l.5 O 2   $ @ > : 3 1 2 k.v.v.v.l.x.5 O < : : *   G x.l.g.4 O   $ 4 4 g.l.VXj.$ O 5 l.c.k.$ @ O O 2 j.k.c.l.k.2 $ $ 2 c.l.l.2 $ $ O O $ O O @ 8 0 0 q q 7 7 B._.(.W._._.`.`.).`.`.`.`.8X`.6X`._.8X`.`.`.6X`.9X`.`.`.6X`.`.`.8X).8X`.`.`.6X9X`.`.8X`.`.8X`.).8X).).4X).`.6X`.9X`._.8X8X8X`.`.6X`.9X`.6X`.9X`.8X`.).4X4X4X4X4X4X`.9X).6X`.9X).9X`.6X9X6X6X`.8X7X6X`.6X9X`.6X).6X6X6X9X6X9X6X6X9X).6X`.6X6X`.6X6X`.`.8X`.8X8X8X`.6X9X`.8X7X9X6X6X9X6X6X6X6X)._.4X5X4X4X5X4X5X4X5X4X5XE.5X4X4X4X).E.).). X X4XE.).).",
"; ; # # @ ; ; ; @ ; ; ; # ; # ; ; ; ; ; # ; + = ; & & & = ; > 8 9 0 : * * : > & < 3 j.2.2 v.l.v.2.@ $ G j.5 5 l.v.l.2 $ , : > > 0 8 < O g.v.v.v.c.g.@ ; 9 6 > @ g.l.v.v.l.g.$ @ 2 j.l.l.2.$ $ 2 l.v.v.v.c.z.j.@ ; ; 2 j.c.c.5 2 $ G c.c.j.2 1.; = ; 1.$ g.c.l.2.$ < , , $ $ g.c.v.2.O 2 $ 3 3 1 5 k.c.c.2.2 4 A , # $ 2 $ 2.x.l.VX5 $ @ 5 c.c.c.2 O O 4 $ 2 f.e.1.; = = M M 8 t 9 8 > ; $ $ 2 VXl.l.2 $ 4 $ ; ; > 8 w # 5 x.v.v.2.k.x.k.2 < 9 6 , ; 2.z.x.v.4 4 1.2 2 4 2.l.x.j.< O 2.l.l.c.2 2 4 3 O O 2.z.v.x.f.$ $ 2 c.l.l.2 2 2 2 4 5 $ # , : 0 q q 7 8 7 b _.W.E.E._.`.`.`.`.`.`.`.`.`.`.`.`.`.`.8X9X`.4X).`.9X`.).`.8X`.`.`.6X`.8X6X_.).6X`.`.8X`.`.`.`.`.`.9X`.).`.).`.`.`.8X`.`.`.`.6X`.).).`.`.`.`.`.`.9X4X`.4X9X`.9X4X6X`.`.`.6X).6X`.6X`.9X`.9X7X`.4X`.6X`.6X6X`.4X).`.).).6X_.6X6X`.4X4X6X).4X6X`._.`.8X`.8X8X`.8X`.`.8X`.6X4X6X6X6X).6X).6X6X6X6X4X).5X4X4X4X4X4X).4X5X4X4XE.4X). X4X4X).).).).).E.E.",
"; # & ; ; ; @ ; @ ; @ ; ; # ; & ; # ; ; ; & ; @ + ; & ; ; ; > > 8 : : = & = * * > . < $ O g.x.x.j.$ ; $ 2 $ 2 l.l.l.2 $ 9 9 8 8 7 = ; $ v.v.v.v.l.v.2 o 9 0 ; $ c.c.v.v.v.g.$ 1.2 j.l.l.f.$ $ $ k.v.v.g.c.z.VX5 $ < 2 k.l.v.5 $ O 2.x.x.j.$ $ > > ; # $ c.l.x.5 o , r = # $ g.x.l.g.2 3 - 8 w : 5 x.x.c.2 2 e : 0 9 - 1.$ 2 c.c.z.d.$ $ 1.z.c.c.v.5 2 $ $ O 2 2 O ; ; = 8 6 7 7 * * = > , $ 2 z.l.c.5 $ 1.; 1.= > 8 : . h.x.l.2.2 k.z.z.5 # 9 q 8 + j.z.x.v.O 4 $ O 2 4 2.l.VXj.$ $ 2.l.c.k.@ $ : : w 3 O j.l.l.j.$ @ 2 x.x.k.2.O $ 2 1 $ 3 $ < 0 q 7 0 M = * c '.E.T.E._.I.`.).8X`.`.`.`.`.`.`.`.).`.`.`.`.`.`.9X`.).`.9X`.8X`.6X`.`.6X`.`.`.4X).`.`.`.8X`.`.`.9X`.`.9X`.9X9X`.`.`.`.8X`.8X`.6X`.`.9X`.`.`.8X`.4X`.`.).`.).4X`.`.9X6X`.9X`.`.9X9X`.`.).4X`.6X`.6X6X`.`.`.`.`.`.6X`.`.6X).9X).6X).4X).4X4X6X4X6X`.8X6X`.`.`.8X8X`.6X6X6X6X4X6X4X6X`.6X6X6X)._.).).4X5X).).5X).5X4X).).4X4X).4X).E.).).4X4XE.E.U.U.",
"+ # + + @ ; ; @ = @ ; # # # ; ; ; ; # + ; @ @ = & + # & & ; ; ; : : & & & = 6 * * 7 : $ 2 j.x.z.2.O 1.; # $ 5 z.l.c.2 ; 8 0 7 : 0 * # $ v.l.v.v.l.l.5 O : 9 + G c.v.v.v.v.g.$ $ 2 j.l.c.g.$ 1.2 v.v.v.2.g.z.z.j.$ $ $ k.l.c.5 ; 2 g.x.z.j.$ 1.1.8 = $ @ k.l.l.g.- 8 M 6 r @ g.z.l.g.$ 1.6 7 0 1 e.x.l.g.O 3 : q q 0 ; 1.$ $ g.x.z.j.@ $ $ f.z.c.x.x.j.g.G 2 4 O $ $ ; M 6 6 0 6 0 8 8 > ; < 1.k.c.c.5 @ # ; = = p 8 # < VXz.l.5 4 j.x.z.g.$ : 6 > @ f.z.l.g.2 5 5 5 2 2.v.l.VX2.O $ 5 c.c.k.2 ; 3 : 0 w O 2.x.x.z.2 $ 2 z.x.x.j.j.e.j.h.8.h.F , : 0 8 > > = & z (.W.I.I.E._.).).`.`.8X`.`.`.`.`.`.`.).`.`.`.`.9X4XU.9X`.`.`.8X`.`.`.9X`.`.6X4X4X8X`.8X`.`.`.8X`.U.).).`.).).`.`.6X`.`.`.`.`.6X`.`.6X`.`.6X9X`.9X`.4X).9X).`.U.`.9X`.`.9X`.6X).`.`.`.6X`.4X`.`.6X).).6X`.).6X).6X`.6X6X).6X6X6X`.4X4X4X4X6X`.4X4X8X`.`.8X8X8X8X`.6X).9X9X`.6X4X6X`.6X6X).6X6X4X_._. XE.4X4XE.4X).4XE.4X).). XE.4X`.E.`. X).4X).E.E.",
"& + & @ @ & @ @ @ ; ; @ = ; ; ; ; @ ; ; @ ; = @ @ = & @ # = ; ; 1.; = & & = * 7 7 7 * < O j.z.z.d.@ ; 1.; @ 2 z.c.c.2 - 7 0 7 7 6 8 ; $ g.v.l.g.v.l.w.2 3 # $ k.z.c.g.v.v.v.$ $ $ j.x.x.2.$ $ 2 k.k.l.4 4 k.x.x.g.2 O v.v.z.5 # $ 2.k.x.j.O < 0 p 0 + $ g.l.x.2.$ > 6 M = @ 2.x.l.g.$ ; = 6 > o g.x.c.g.$ $ 9 8 = = 1.1.@ @ f.c.x.c.@ 1.# $ 2.v.x.c.x.z.z.z.j.2 $ < 1.6 7 q q q 6 6 6 > ; # 2 z.c.c.5 - ; ; 7 7 6 > ; G z.VXk.2 2 2 l.c.z.< ; > 1.@ f.x.v.v.x.c.k.x.l.l.l.z.j.$ @ 2 5 l.l.c.O < - 8 0 : 3 5 l.x.z.2 4 5 l.v.l.l.z.z.VXz.z.VXz.1.- 9 7 > = = = W W.E.W.E._.).)._.).`.).`.).`.).`.`.`.`.`.`.9XU.9XU.U.U.`.9X9X`.).`.9XU.`.4X`.`.`.).`.9X`.9XU.`.`.4XE.9XU.).).).).).).).`._.`._._.`.4X`.4X4XE.4X4X`.4XU.4X`.).`.4X`.).`.).).).`.)._.`._.).).).).`.)._.`._._.`._.`.).).).).).`.)._._.4X4X4X4X).).)._.`._.`._.8X).6X6X`.6X`.).6X`.)._.)._.6X)._._.).).E.4XE.`.).).E.4X`.4X).).E.4XE.E.U.E.U.U.E.U.U.U.",
"+ & @ & # @ = & ; @ @ ; ; @ = @ ; @ ; @ = @ @ ; ; @ & = ; @ ; = = = @ = & % * * * 7 : < O j.x.VXe.@ ; > ; @ 2 z.c.c.2 1 : 0 7 7 7 = $ O k.l.v.2.v.k.k.5 4 $ 5 z.z.v.g.v.v.g.$ $ $ j.x.l.f.$ $ 1.k.l.l.5 2 2.x.x.x.5 4 k.v.k.5 $ 2 G z.x.j.1 , 0 7 0 - $ k.x.l.2.O > M 6 = # g.l.l.g.@ 1.M = ; @ g.x.c.g.$ $ - 8 = M = ; 1.@ f.z.z.j.$ @ N O 2 5 2.k.z.z.x.x.z.VXG $ * 8 p q 7 M 6 6 6 6 ; # 2 VXc.z.2 - & 6 7 q 0 . 2 k.z.c.2.O 2 2 v.v.l.G # < ; $ g.l.v.v.l.x.x.l.v.v.x.g.2 ; $ $ 5 z.l.c.4 3 t * * 9 2 5 x.c.VX2 O 2 l.v.l.v.c.c.c.c.z.z.j.$ - 8 : 8 > = = W (.E.T._.).E.I.).`.).`.`.`.).U.`.`.U.U.U.U.U.U..XU..XY.9XU.`.).`.`.E.).`.`.4X4X`.4X9X).`.`.`.4X`.).).).).`.`.I.).).`.`.).`.`.`.`.`.`.`.4X4X`.).).4XE.`.). X`.E.`.`.).).).`.).).`.`.`.).).).).).)._.).).`.`._.`._.).6X).6X_.6X6X_.).).).4X4X).).).`._.`.8X`.`._._.`.6X6X`.6X`.6X)._._.).)._.)._.).).).E.4X X).E.4X). XE.4X4XE.U.4X XU.`. XE.U.E.U.U.",
"& @ & @ & @ & @ @ @ ; = ; # + ; @ = @ ; @ @ & @ @ + ; @ @ = ; ; ; & & + & & : 7 7 * * < O g.x.x.j.@ ; > ; @ 2 z.l.c.2 4 : 0 7 7 6 > ; $ j.l.v.2.2.x.VXg.O O j.x.l.2.2.v.l.g.$ ; $ j.x.x.5 2 ; 2 k.l.k.5 2 O k.z.l.g.2 g.l.c.5 @ $ G x.x.j.< 9 7 q q 9 $ g.l.l.5 $ ; > 6 = $ g.x.x.g.$ ; ; 1.; $ g.l.x.v.O 3 , 8 = M @ # 1.@ f.z.x.j.$ $ + # $ $ 2 2 2 5 g.c.x.k.k.5 - 8 7 6 6 p 6 6 6 8 > ; 2 BXc.x.5 - > 6 7 q 8   5 l.v.l.v.2.g.g.v.v.l.j.$ < ; $ 2.l.v.v.g.g.k.z.v.v.2.2 $ 1.1.@ f.x.k.k.4 1 : 6 > 1.O 2.l.c.k.2 O 2 l.v.v.2.5 5 5 5 5 G 5 1.: 8 7 7 r = = m W.W.T.E.E.E.`._.`.`.`.`.`.`.`.`.U.Y.U.U.U.U.Y.P.Y.U.U.U.U.`.`.`.`.`.`.9X9X`.4X).4X4X4X4X4X).`.4X).E.U.).`._._.`.`.`.).`.`._._.`.).4X).).4X4XE.4X4X4X4XE.).).).).).).`.`.).).).`._.`.`._.).).`.`.`.)._._._.`._.`.)._.6X)._._.`._.`.E.).).E.E.U.).`.`.`._.6X`.).).6X6X`.6X6X).).).`.)._._._._.)._.4XE.).).E.).).E.E.).). X).).).E.E.U.E.E.U.E.U.4XE.",
"+ & & @ @ & + + @ = @ @ @ & & @ ; @ ; @ @ ; @ ; + + + + # # @ ; ; ; ; # & & * * * 7 & - 2 e.x.x.e.O - : # @ 2 x.l.c.4 4 : : : * * = $ O k.l.l.2.4 z.z.k.2 2 k.x.k.5 2.l.c.g.$ ; 3 k.x.l.g.$ ; 1.k.x.k.5 O   5 k.l.l.2.v.l.c.5 @ @ g.x.x.j.O 3 8 0 9 1 4 v.l.x.2.$ > > = ; # g.z.x.g.O ; ; = < $ 5 l.x.z.2 # , > 1.M M 1.@ $ j.c.x.g.$ ; 1.d.j.2 2 2 $ 2 2 5 l.x.VX5 ; > = = M = = 6 0 6 > ; 2 z.c.l.2 - : 8 q 0 3 4 g.v.v.v.l.l.l.l.v.v.v.z.5 $ 4 O 2.l.v.v.2 2 5 k.l.v.2.2 < * = @ 5 x.x.k.4 3 8 & 1.; O j.x.l.j.2 4 4 k.l.l.5 $ $ $ $ @ @ ; ; 8 0 0 0 = M = m W.W.I.E.E.I.I.`.`.`.`.I.`.I.I.U.I.I.Y.U.U.Y.P.P.U..XU.U.U.U.`.`.`.`.`.`.`.).9X).4X`.4X`.4X`.`.9X`.`.).U.`.`.I.`.`.`.).`.`.`.`.`.U.`.`.).E.`.4X`.`.E.`.4X).).U.).).`.).).`.`.).).`.`.`.`.`.).).).).).`._.`._.`._.).).`.).).).).9XE.).E.E.E.).).U.`._.`._.`._._.).6X`.9X`.`.6X).)._.`._.`.).)._.`.).).`. X4XE.).).).E.).`.`. X).4XE.E.9XE. XU.E.E.P.",
"& + + @ % @ + + @ + @ & @ & @ & @ & @ & @ = & + @ & @ & & & ; ; = & # # - - & * 7 * : $ O 2.x.x.e.@ ; : ; @ 2 z.l.v.4 O : : : 7 7 * # $ j.l.x.5 4 j.VXl.2.5 l.x.j.2 2.l.l.2.$ # $ j.x.l.2.2 $ 2 c.x.l.2 O 3 O 5 x.c.l.v.c.l.2 $ $ 5 c.x.z.$ o 3 > N & 2 c.l.l.5 - 9 8 8 > # g.x.x.w.2 4 > > > # $ z.k.z.j.O # < * * 1.@ O e.VXx.z.5 $ $ j.VXGX5 $ $ 4 < 2 2 g.x.z.G $ ; ; = M ; = = 6 6 > # 2 z.l.l.2 $ : 0 0 8 $ 5 v.l.l.l.k.k.l.l.v.v.c.x.g.O 3 O e.x.l.j.2 2 O 2.x.l.l.2 2 < > ; 5 x.l.k.O 4 w 9 # O 2.z.k.x.g.2 $ 2 k.x.x.5 1.1.< w 1.; ; 1.7 q q 0 8 6 = m -XT.I.T.E.I.I.`.`.Y.`.I.I.I.I.I.I.Y.I.U.Y.9XP.Y.P.Y.U.U.`.9XU.`.U.U.Y.U.U.).U.9X`.`.9XU.U.`.U.U.E.`.E.`.`.E._.I.`.`.`.`.`.'.'.`.U.).).).E.).4XE.E.E.).E.`.E.).U.`.`.`.`.).).).`.`.'.`.`.`.`.'.`._._._._.`._.`._.`._._._._.).).).E.E._.E._.E.).I.)._.).`._._.)._._._.).).).).).)._._._._._._._._.U.4X).).E.).E.).U.).).E.).E.).E.E.). XU.).U.E.U.U.",
"@ @ X @ @ X @ + @ @ + @ + + & @ @ = & @ @ @ @ & & @ @ @ @ & @ = & ; & ; * % * * * 7 : < O g.l.x.g.@ : > - # 2 z.l.v.2 4 : : * * 7 * # $ g.l.l.2.O 2.x.x.2.v.l.x.5 O 2.x.l.j.$ $ 2 j.x.l.2.2 ; 2 k.l.x.5 < < 3 $ g.l.l.v.v.c.5 O $ 2 l.l.z.g.O $ $ $ $ 2.c.l.x.2 - 9 8 : > + j.x.x.g.O < > > 8 - $ g.z.z.VXG 2 O < > $ @ 5 k.x.x.g.$ $ @ j.IXz.j.2 $ < 3 O 2 v.x.x.5   # 1.= 1.= ; = 6 8 > $ 2 k.l.l.5 $ : 7 6 < $ e.x.l.v.5 4 5 5 2 2 g.v.c.z.5 4 O e.x.l.j.O 3 2 2 k.x.l.g.2 , , < 2.l.l.v.2 O O - O 5 k.x.x.x.2 $ $ 2 z.l.x.2 $ $ $ < ; @ ; @ : 0 7 0 8 M 6 b _.T.T.T.E.I.I.I.I.`.`.I.`.I.I.U.`.`.U.`.U.U.U.P.U.9XU.U.U.U.`.U.U.Y.U.U.U.U.`.U.`.U.U.U.U.U.U.Y.U.E.).U.U.`.`.`.`.I.I.`.`.`.`.`.U.E.U.).`.E.U.).E.`.E.).E.U.E.U.'.I.`.'.`.`.`.`.`.`.`.I.'.`.`._.`.`.`.`.'.`._.`._.'.`.`.`._.).)._.).)._._.)._._.).)._._.I._._._.).).).`.`.).).).I._.`._._.I._.I.E.U.U.E.E.U.).U.E.U.U.).U.4XE.4XE.U.U. XU.E.U..XU.",
"+ X @ @ @ @ @ @ @ & @ + @ & @ @ @ @ & @ @ & @ @ & @ & @ & @ @ = = & & + % * % * 7 7 7 ; O g.x.VXe.@ : 7 = @ 2 z.l.c.2 $ : : * * 7 * . O k.c.x.2.O 4 v.l.v.v.l.v.2 O 2.x.l.g.$ < 2 j.x.l.2.2 $ $ v.c.x.5 3 : N $ 2 k.l.v.v.l.5 4 $ $ k.v.c.z.5 5 5 2 e.x.l.l.j.4 > 8 6 M = $ f.x.c.j.$ < ; = 8 8 # 2 k.z.z.z.g.5 ; 2 5 2.z.x.l.k.5 4 < O 5 z.c.z.j.5 $ - 5 2.l.l.z.5 - 9 6 q 6 > = 8 6 8 : $ 2 z.c.c.2 ; 8 0 = ; $ k.x.l.2.2 4 4 3 $ @ 5 g.c.x.f.2 O g.l.x.k.$ < ; O 2.x.l.l.5 O 9 1 5 x.v.v.2.5 g.2.j.x.k.k.k.5 $ $ 1.2 c.c.v.2.5 5 5 5 5 5 5 1.- 8 = 8 = 6 7 c W.W.T.E.E.I.I.`.`.I.Y.`.U.I.I.I.I.U.U.Y.U.U..XY.U.P.P.U.U.U.U.Y.U.U.U.U.`.9XU.4XU.`.U.U.U.U.U.U.).).U.).`.I.`.I.I._.I.I.`.I.`.`.U.U.E.E.E.U.E.E.U.U.E.U.U.U.U.U.`.I.`.`.`.I.I.`.'.`.`.`.`.`._.`.`.'._.`.'.`.`.`.`.`.'.`.'.`.).).E.E._.E.E.)._._._.`.`.`.`._.).).).`.I._._.`.`.`._.`._.`.I._.E._.E.U.E.U.U.U.E.E.U.U.E.U.U.4XU.U.U.U.E.P.U.P.U.U.P.",
"+ @ @ X @ @ @ @ @ @ @ @ @ + @ + & + @ @ & @ & @ @ @ & @ @ + + @ @ = @ = % * 7 7 7 7 * ; O e.VXx.h.+ : > = + 1.z.x.c.2 O 1 7 * 7 7 * . $ j.c.x.5 O O 5 l.v.v.x.2.O O e.x.x.j.$ $ $ j.x.x.2.$ $ 2 k.x.x.4 < 8 > ; 2 2.x.l.v.x.5 - 3 O 5 z.c.l.l.z.c.x.x.x.x.k.2 4 > 6 M = ; $ g.x.x.g.$ 2 = > 0 7 < 2 2 z.x.k.z.z.k.VXk.z.x.x.v.5 O < 3 $ 2 g.c.c.z.VXk.j.z.x.l.x.2.O 9 0 7 q 6 7 M 6 6 8 > # 2 VXz.z.5 # 6 6 > ; 5 z.l.k.2 2 3 4 ; ; ; @ g.c.VXg.$ O g.x.c.j.$ ; , 3 2 j.x.x.j.3 3 o 5 x.v.c.l.l.x.x.x.v.VXBXe.2 3 1.$ 2 z.c.c.c.x.z.z.VXz.VXVXj.# ; = 8 6 6 7 b W.T.T.T.E.I.I.`.Y.I.`.I.I.I.I.I.Y.I.Y.I.P.Y.Y.P.P.U.U.Y.U.U.Y.U.Y.U.U.U.U.U.U.9X4XE.`.9X).U.`.E.U.U.U.U.I.`.I._.I.I.'.`.`.I.`.I.`.E.`.E.U.4X).U.U.U.U.U.U.U.U.U.I.`.'.I.I.I.`.I.`.`.I.'.I.`.`.`.I.`.`.'.`.I.'.'.`.'.I.`.`.`.'.`.I.I.I.E.E.I.E.I.`.I.'.`._.I.).).).)._.`.I.`.`.`._._.I._._.I._.).U.I.U.U.U.U.U.I.U.U.U.E.E.E.4XE.U..XP.U.P.E.P.R.P.",
"X X X X X X @ X @       @   @ X % + + X + X % % @ + % @ % @ & + & & & & & = * * 7 * % % $ h.VXVXh.  % : : - $ VXVXz.1.# ; = 7 : : . # @ j.VXVX5 O O 2 k.VXVXk.2 $ @ G VXVXj.$ $ O j.z.z.2.$ 2 O k.VXz.1.# , : , $ 2 j.x.x.VXe O 3 # $ 5 j.x.x.c.x.c.x.x.j.5 $ $ = 7 6 1.@ @ G VXVXj.$ # > > 0 6 9 1 O 2 j.c.x.x.x.x.x.z.k.j.5 $ - < < < $ 2 2.k.z.x.x.x.x.VXVX2.$ ; > 6 6 6 M q 7 8 8 8 , # 1.BXVXz.5 + 1.& > ; j.VXVXg.2 , , , > > <   5 z.VXz.G O g.VXVXj.$ ; ; $ $ 5 z.z.VX2.$ @ 5 z.z.c.x.c.z.c.c.k.j.5 $ < < < $ 2 VXx.c.x.x.x.x.VXx.VXVXj.$ 1.= > 6 6 7 j .XR.L.L.I.I.I.`.`.I.`.Y.I.Q.I.L.P.Y.P.U.P.P.P.P.U.P.Y.P.P.Y.P.Y.P.U.Y.P.U.U.U.U.P.U.U.P.U.E.U.I.`.I.`.'.I.`.Y.`.I.I.I.I.`.I.`.`.U.`.U.I.U.I.U.I.U.I.U.I.U.I.U.I.I.I.Y.I.I.I.I.I._.I.E.I._.E._.I.I.`.I.`.`.I.I.I.`.I.`.`.I.`.`.I.I.P.U.U.U.U.U.P.U.U.U.U.U.U.E.U.U.U.U.I.U.I.U.I.U.I.E.E.U.E.E.I.I.P.I.P.P.U.I.P.I.P.I.P.I.P.U.U.U.P.U.P.P.P.P.U.P.",
"+ + @ X @ X X @ X @ @ X X @ X @ @ @ @ % @ & @ + @ % @ % @ % + X + % & & & & * * * % & & # 5 g.F 5 @ - : 1 1 $ G f.d.@ # : ; : : : - ; + d.d.f.2 $ $ # G 2.2.G 2 $   5 h.j.5 $ 2 $ G h.h.A ; 1.2 5 e.j.2 # 1.& < ; O 5 2.2.e.5 < , > $ O 5 5 g.c.j.v.g.5 2 $ $ 1.r 6 6 > ; ; 5 h.j.5 $ 1.> : y 0 8 , < $ $ 5 2.j.g.c.k.g.5 $ $ ; , > : ; ; $ 2 5 g.g.v.j.j.2.2.O ; ; ; > 8 6 6 6 7 8 6 ; , ; $ 8.j.j.2 # r ; 1.; G j.e.5 $ < , > > > 9 $ 1.e.f.j.5 $ 5 j.g.<.$ ; ; 1.@ $ G f.j.G 2 $ 5 d.g.2.g.2.g.2.5 5 $ @ # , - - 3 2 e.g.g.g.g.2.2.g.2.j.j.G $ ; ; 8 8 6 7 c .XR.L.R.E.I.I.`.`.I.I.I.I.Q.L.L.L.P.P.Y.U.P.P.P.P.P.L.P.A.P.P.P.Y.P.P.Y.P.U.U.P.I.E.U.E.E.I.E.I.I.I.I.I.I.I.I.I.Q.I.I.`.I.I.I.'.I.I.U.`.U.`.U.U.I.U.I.`.Y.U.I.U.I.I.I.I.I.I.I.I.I.I._.I.E.I.E._._.I._.I.I.I.'.`.I.I.Q.`.I.I.I.I.L.U.U.P.U.U.U.U.U.U.U.U.P.U.U.U.U.I.I.U.I.E.U.I.U.U.U.I.U.U.).I.I.P.P.R.P.P.P.P.P.L.P.P.R.P.P.P.P.P.P.P.U.U.P.P.L.",
"% @ + % X @ @ X     X @   X @ @ X + @ % + X % @ % @ % + + X + + @ & + & & & * * * * % : . @ @ O @ ; & - & - ; @ $ $ @ + : : * : * & ; + ; $ $ @ # - o # $ $ O $ $   ; - $ $ o < O < $ # ; - < 1 $ $ 3 ; = M 6 8 > < $ $ 2 $ N : * 8 9 1.$ $ $ $ $ 2 2 $ $ < t t 6 6 = > ; ; ; $ # < ; 1.: * 9 0 7 0 8 < ; $ 2 2 2 $ $ $ $ $ ; ; > 6 8 8 > ; 1 O @ $ $ 2 2 4 $ < ; ; = > 6 M 6 6 6 0 8 * > < - 3 # 3 # - > > > < # < O # # , 8 0 6 7 r ; ; < ; $ $ 2 $ < < ; 1.; = > > # 1.$ $ @ # 1.; @ $ 2 O 2 O $ $ $ @ : , > 8 : > ; $ @ $ $ 2 O 2 O $ $ @ # - > > 8 6 6 7 c .XT.Z.R.I.I.I.`.I.`.I.I.L.L.L.L.L.P.P.P.P.P.U.P.P.P.P.K.P.Y.P.L.P.P.Y.P.P.P.P.U.P.U.P.E.E.R.I.E.Q.I.I.I.I.I.I.I.I.Q.I.I.I.I.I.`.U.`.U.U.U.I.U.U.`.I.U.I.U.I.U.I.I.I.I.I.I.I.I.I.I.`.E.I._.E._.I.`.`.I.I.`.I.I.I.I.Q.Y.Q.I.I.I.I.Y.L.U.P.P.U.U.P.Y.P.P.P.P.Y.U.P.L.I.I.I.U.I.I.E.I.U.I.U.U.U.U.I.I.R.L.P.I.I.I.I.I.I.I.P.I.I.L.I.P.L.P.L.L.P.P.P.P.",
"X X X X X X X @     X     @ X X X + @ X @ % @ % @ % @ X X % + X & + + & = = * 7 * * * * - # @ o @ & = 8 8 : ; @ @ @ # ; & * 7 : 7 : = & ; @ o 1 < < - # - ; 1 1 ; & > & + ; - < - # - & : : 8 : 1.; ; ; = 6 7 7 0 , - < $ + > 6 q 8 * : ; ; 2 $ $ $ ; ; : > : * = M = = ; ; ; ; # ; > 1.8 : 0 7 7 q 0 8 ; ; @ $ $ $ $ ; 1.; = = = 6 6 6 6 6 : < ; ; $ $ < $ - > > > > > = 8 8 6 6 6 0 * ; > > < # - , 1.8 0 8 , : - ; : > 8 8 0 0 8 0 8 > < # # $ 1.- ; < : 9 r 8 = > ; ; < < , ; 1.= ; - < O O @ ; ; ; > p 0 0 6 = 8 > & # $ $ $ $ $ $ $ $ ; ; > 8 6 8 8 p 6 x (.T.L.L.I.`.Y.I.`.I.I.I.L.L.L.L.L.P.Y.P.P.P.P.Y.L.P.P.Y.K.P.K.P.Y.L.L.P.Y.U.P.Y.U.I.E.I.I.E.E.T.I.Q.I.I.I.Q.Q.Y.Q.Y.Q.I.I.I.I.`.I.I.U.I.I.`.U.I.I.Y.I.I.U.I.I.U.I.I.I.I.I.I.I.I.I.I.'._.I.I.I.I.I.'.I.I.I.I.`.I.I.I.Y.`.I.I.I.I.P.L.Y.U.U.P.P.U.L.P.P.Y.P.L.Y.U.I.L.I.U.I.I.U.U.I.U.U.U.U.U.U.I.I.I.I.P.I.I.L.I.L.L.L.I.P.I.I.I.P.L.P.L.L.L.P.K.L.",
"% X X X X X X         X @ X X + % @ X % @ % X @ X % & X X X + X + % + & & & * = * 7 7 % 7 * : : & & * 7 8 * & ; ; + ; = % * * 7 7 7 * 1 : : : : ; * 8 8 : : 1 1 = * 0 8 > : : 8 8 : : : 8 0 * 7 = = = = = 7 M q 7 7 : 9 1.> M 6 7 7 0 y 8 8 > ; > ; = = 8 6 q y = = M = 6 : 8 8 8 9 8 8 8 8 8 7 q q q 0 6 8 > t - : > : : * 0 q 6 M M 7 7 q q 0 > > : * r t > 8 > = > M 8 6 6 6 8 8 8 8 * > 9 : 8 = r 8 8 0 8 0 6 M 8 8 8 8 0 q q 0 6 q p 8 6 r > > > 6 8 9 0 0 M 6 6 8 : 9 0 s r 6 M q p 9 9 9 1.> r 6 6 6 q q q q 7 6 > r > t > ; = = 1.> > > 6 6 0 6 0 7 7 b W.T.T.P.R.I.I.I.I.I.I.I.I.L.L.L.P.L.P.P.P.Y.K.P.P.K.A.P.K.Y.A.P.P.Y.Y.P.P.P.U.L.P.U.U.E.E.T.I.I.I.I.I.I.Y.Q.Y.Q.Q.Q.Y.Q.I.I.Y.`.U.I.I.U.I.I.I.U.I.I.I.I.U.I.I.L.I.K.K.I.I.I.K.I.I.I.E.I.'.I._.I.I.I.I.I.I.I.I.I.I.I.I.`.I.`.I.I.U.P.K.P.L.P.L.P.L.Y.P.L.K.P.P.K.I.L.L.I.P.E.I.E.U.I.U.I.I.U.U.U.I.I.L.I.I.K.I.L.I.L.I.I.I.I.L.L.K.P.K.L.P.K.K.P.L.",
"@ X X X X @ X X X   X   X X X @ @ X X + @ @ % + + + @ @ @ % @ X + X % & & & * * * * 7 % % % % % & + = * * * % ; & + = & * * * * * 7 7 * % 1 * % & % 7 : * * 7 : * * * 7 * & * : : * : 7 7 7 % * * = = = = M M 7 q 7 0 : = M = 6 q q 0 6 8 = = = = = 6 M 6 0 7 7 = = > r 8 8 0 0 7 0 0 0 8 0 0 0 q q 7 7 0 0 6 * 0 0 8 7 7 0 0 * M = M 7 q q q q q s 0 6 7 0 7 0 6 = = 6 6 8 8 6 p 6 7 8 8 8 0 * 6 = 6 6 7 7 7 7 6 7 6 = 7 0 0 0 7 7 7 7 6 6 = = 8 8 0 * 6 0 7 0 6 6 6 0 q 7 * 8 0 6 7 M 7 7 0 7 7 = 6 M 6 7 7 6 7 p 7 7 8 6 = 8 p 6 = M r r 8 6 6 q 7 q 0 8 7 c W.T.Z.L.I.L.Y.I.Y.Y.I.I.I.K.L.L.A.P.P.K.P.P.P.P.Y.P.P.L.P.A.Y.K.A.L.K.Y.P.Y.Y.P.I.U.I.P.I.I.L.I.Q.I.L.L.Y.Q.Q.I.Q.Y.Y.Q.Q.Y.I.I.I.I.I.I.U.U.U.L.I.U.I.U.I.U.I.U.Y.I.I.I.I.I.I.I.I.I.T.I.I.T.I.E.I.I.I.I.I.I.I.I.'.I.`.`.'.`.I.`.Y.U.U.K.I.Y.P.P.K.L.Y.K.K.K.K.Y.K.I.I.U.I.I.I.I.L.I.K.U.I.I.I.L.L.L.L.I.I.I.I.I.L.I.L.L.I.I.I.I.L.K.P.K.K.P.P.K.L.",
"% X X @ X         X X X X X X X X X % @ + + % @ + % % X X + % X + % % + & & & = % % 7 % 7 * : 1 & & * & & * & * & + * % 7 % = 7 7 q : : % 7 7 * * : : q 7 7 6 8 * * * * > * : : 8 : : : 6 6 8 * = 6 = = = = 7 7 q : 8 * > = = = 8 6 * 6 8 8 6 = 6 M 6 = 7 7 0 p = M 6 6 6 0 6 7 7 7 0 0 7 8 8 0 q 7 0 7 7 7 8 0 * 7 8 0 0 7 8 8 = = 6 6 q q q 7 7 * 0 0 6 0 7 0 6 6 M 6 6 6 8 6 8 8 7 8 7 7 0 7 6 6 6 M 8 8 > 6 p M M 6 0 6 8 8 7 6 6 M 6 6 6 6 6 0 6 7 7 0 0 0 * 6 7 7 7 7 q q 6 6 M 6 7 7 q 0 6 6 7 7 7 7 6 M * 7 8 7 0 6 8 q 0 7 q 7 7 6 M 7 7 q q 7 7 q 7 c W.T.L.L.I.I.I.I.I.I.I.Y.Y.L.L.L.L.Y.P.L.P.Y.P.P.L.L.L.Y.K.Y.P.P.Y.K.K.P.K.U.L.P.L.I.L.L.L.L.Q.Q.K.K.K.L.Y.Y.Q.Y.Y.b.Y.Q.Q.I.I.`.I.L.I.L.I.L.P.L.L.P.I.L.L.L.L.P.L.L.K.I.I.K.Q.L.I.T.T.I.I.T.T.I.I.I.I.I.I.I.I.I.`.I.I.I.`.'.I.I.U.K.P.Y.K.Y.U.Y.P.K.K.L.Y.K.P.K.U.I.I.L.I.I.L.I.I.I.I.I.L.U.I.U.L.I.I.I.I.K.K.I.I.K.L.I.I.I.I.I.K.P.K.L.L.K.U.K.K.",
"% X X @ X X X @ X X X X X @ X X X @ @ X X + @ % & @ @ % + X @ X X % X % + & & & * * * * : % : % = ; & : 7 * * * = > * & * * = = * : : % : : : 0 % : * * 0 7 & & & * * & & * : & * : & % & * 8 * = = & & = * = 7 : : 8 : 8 & ; = * > 6 = 6 6 6 M M = 6 6 6 * = = = > 6 * = 6 6 6 q 7 0 7 8 7 : 0 6 * : 8 7 7 0 7 0 7 0 0 0 0 8 7 = = 6 6 7 7 7 q q * 7 8 7 0 7 0 6 6 6 6 6 6 : 8 7 8 7 7 = 7 q 7 q M 6 6 8 = 6 6 7 7 7 6 6 * = > 6 = = 6 M 6 M 6 6 6 6 0 6 7 0 0 8 6 * 7 q 7 7 7 6 6 6 = 8 7 7 q 7 q 6 0 6 6 7 7 6 7 0 7 7 7 q 7 q 7 q M 7 7 q 7 7 q 7 q 7 7 7 b W.R.L.T.T.I.K.U.I.I.K.I.L.I.L.I.P.K.L.L.P.P.A.P.Z.L.K.A.A.K.A.K.A.Y.L.L.Y.K.U.L.L.I.L.L.L.L.Y.Q.K.M.K.K.b.Q.Q.Q.b.Y.Q.Q.Y.Q.I.I.L.P.L.I.L.L.I.I.L.L.L.I.U.L.L.Y.L.K.L.K.L.K.L.L.I.I.T.I.T.I.T.I.Q.I.I.I.I.I.I.Q.I.Q.Q.Y.Q.I.I.I.P.L.L.K.L.L.K.I.K.P.U.Y.P.L.K.U.I.I.I.I.L.I.L.I.L.I.L.I.L.I.I.I.I.I.L.Y.I.I.I.I.I.I.L.Y.K.I.I.I.I.K.L.K.L.K.K.L.L.",
"+ + X X X + X X X X X X % X X @ X @ @ X @ % % @ @ X % @ X X + + % X % . . . . . % % % & & & & & @ & & & & & * & : : & & & & & & 1 1 - # ; = : & - ; * : 7 7 : ; * & & = - ; * > : ; : : : & : = * * = - ; & ; - : 8 : : : : ; ; ; ; > ; * 6 = 7 6 = 7 7 8 > 8 > 8 8 6 8 8 6 M M M 6 0 0 0 q 0 7 : : > 8 7 8 7 7 q 0 0 7 7 8 8 8 r 6 0 0 0 0 0 8 M 8 r r 6 p p p M M p p 0 p 0 y 0 0 0 0 q p q q M M q M 8 8 8 8 0 6 q M 0 0 6 8 = 6 M r M M M 0 M M q 8 0 0 0 8 7 7 q 0 q 0 0 0 M M M M M p p q q p M q 0 y y 8 8 8 0 0 q q q q q q q 7 6 q 6 q 6 q q q q 7 q i G.T.N.L.K.I.Y.U.Y.I.K.I.I.I.Q.I.L.A.P.K.P.K.P.Y.Y.K.P.A.K.K.A.Y.K.K.Y.P.K.K.Y.Y.K.K.K.K.K.K.M.Q.M.M.K.K.b.K.K.K.M.Y.Q.Q.Q.Y.I.Q.I.L.L.L.L.L.P.L.P.Y.A.Y..XA.L.Z.L.P.K.P.L.L.L.L.L.T.L.L.T.T.T.I.Q.I.K.Y.Q.I.I.Q.Q.Y.I.Q.Y.I.I.I.L.L.P.L.P.Y.L.P.K.L.K.U.L.Y.L.P.K.I.K.I.I.K.I.U.I.I.L.I.I.I.I.I.I.K.Q.Y.Q.Y.Q.Y.Q.I.I.I.Y.K.Y.Q.I.K.K.K.Q.K.K.K.L.",
"& @ @ X X X @ X @ X @ X X X X % X % X X X X @ @ + + + X % @ % X . % X . . . . . X . % + + + + @ & + & # - & 1 : & 1 - - & ; ; & : 1 # # # - ; - # ; - : : : : > : > ; ; ; > ; > > > > > > > > 8 > , , > > , , , 9 9 q w 9 9 t 1.1.9 t t t 9 y i i i s s s V V g T Y P Y ) ` ` ! ! _ ] ' V.T B.R ( ( ^ ^ { ] V.V.B.Y Y ' { { U U _ [ Y B.Y ' { ^ ` ` X.` ] ] A.G.A.Y.L.J..XH.H.H.J.J.J.(.W._.'.'.Y.Y.P.A.C.^.J.W.R.R.U.U.J.J.D.O.@.O.O.+.S.Z.Z.C.L.K.J.J.G.G.J.G.C.Q.C.C.C.Z.C.C.` O.! ] O.m.C.G.Y.K.L.L.G.G.V.D.D.D.V.C.Q.Q.Q.Q.Y.I.Z.K.S.m.Z.Z.K.N.L.Z.N.B.m.R.Z.T.L.L.L.L.L.K.Q.I.I.I.K.Y.Q.I.Y.A.L.P.Y.P.A.Y.A.K.K.Y.Y.A.P.K.Y.A.K.K.A.Y.A.K.K.K.K.A.K.K.K.M.M.M.b.K.Y.M.M.K.Y.K.K.Y.Q.Y.I.Y.I.Z.L.L.Z.L.L.Z.A.P..XA.P.A.P.P.K.L.L.K.L.L.Z.L.L.Z.L.L.L.T.Q.L.I.I.I.Q.Q.Y.Q.Y.Q.I.Y.Q.Q.Y.Q.I.L.Y.Y.L.P.L.Y.P.U.P.Y.K.P.P.K.Y.I.K.K.K.K.I.I.I.Y.L.I.L.L.I.L.I.I.I.I.I.I.K.Y.Q.Y.I.I.K.I.K.I.I.L.K.K.K.K.K.K.I.Y.",
"@ % % X X @     @ X X X X X X X @ X @ X @ % @ % % @ % @ @ X X X X % + X X X . . X X + .   @ @ @ + # @ # # # - 1 - - - + # + & - 1 o # $ # - - - ; ; ; < < > > ; > > < > > > , , , , 9 8 , , t 9 t t r t t t t t w B T q s t N t B N N B t B n H l I H I P T ~ U Y T P P ! ! ! ! ` } { V.V.C.C.C.| } ..O.C.C.C.T.Q.Q.C.C.G.G.V.m.B.B.b.B.] A.` ` O.O.N.n.m.A.A.A.K.A. X3X0X<X0X:X0X:X-X0X0X0X_.0X_._.5X0X_.-X-X0X_._.6X_.'.'.(.W..XOXW.W..X XE.W._._._.'._.'.(.W.'.'.'.'.E.W.'.(.H.G.J.H.J.W.H.W.`.`.`.). XW.W.W.W.R.W.W.`._._._.E.(.J.J.J.J.J.W.T.W.W.E.W.T.T.T.T.L.L.L.L.L.I.I.Y.I.I.I.I.Q.I.I.L.L.K.L.A.P.A.K.A.Y.L.A.A.A.Y.A.A.Y.K.A.K.K.K.K.Y.M.K.A.Q.K.K.K.M.Y.b.b.K.M.Y.M.K.K.Y.K.Q.Q.Y.Q.Z.Z.L.Z.Z.Z.Z.Z.P.A.A.A.A.A.L.A.Z.Z.Z.L.Z.Z.Z.Z.N.L.C.L.L.Z.Z.L.I.K.K.I.Y.Q.Y.Q.Y.Y.Q.Q.Q.Q.I.I.L.K.Y.Y.Y.P.P.P.K.Y.K.P.K.P.U.K.K.I.I.K.I.I.I.I.I.I.K.I.I.I.L.I.I.I.K.K.Y.K.Q.Q.I.Q.Y.K.Q.I.I.K.K.K.K.K.K.K.K.K.L.",
"% + X @   @     X X @ % X % X X X X X X @ X % @ + % @ % + % X @ % X X X X X X X X X .         @ + & # @ # + - - 1 - # # # # ; + 1 1 # # ; # # # $ # # ; < < < < < > > < 9 9 > , , , 8 9 > , 9 t > r 8 r 9 t t r 0 w q w s y t t N t s 9 t s 9 B f n n B B V I H H H H H V ~ ~ ~ ~ ~ T ' V.R V.C._ `  .m.C.C.T.Q.N.Q.Q.Q.Z.m.[ n.b.M.M.b.b.m m m m m m b.m A.b.b.b.A.Z.R.W.W. X-XW.-XW.-X(._.(._._._._.T.W.E._.4X'.'._._.'._.T.L.P.G.T.T.T.E.I.'.I.T.E.E.'.W.T._.'.'.'.`.W.T.T.W.R.R.W.W.W.R.W.R.`.`.`.`.U.U.U.U.I.E.E.U.`.`.`.`.T.G.T.G.Z.S.G.G.T.T.T.I.T.Q.C.Q.T.T.L.L.I.L.Y.U.I.K.K.Y.I.I.I.I.Y.A.P.P.K.K.K.K.A.A.A.A.Y.K.A.K.Y.A.A.Y.K.K.K.A.M.K.K.K.Q.Q.M.M.K.b.K.K.b.M.Y.M.M.K.M.K.Y.Q.Q.Y.L.Z.K.Z.L.K.Z.L.A.P.A..XA.L.A.L.K.A.K.A.K.K.N.Z.Z.N.Z.N.C.L.N.L.I.Q.Y.Q.Q.Y.Q.Y.Q.Q.I.Y.Y.Y.Q.I.L.K.P.P.P.Y.K.K.L.P.U.K.L.Y.K.L.I.I.K.I.K.Q.I.I.K.K.I.I.K.I.I.I.I.L.I.I.Q.K.K.K.K.K.L.K.Y.Q.K.I.K.K.K.K.Q.K.K.K.K.",
"X @ . @ .   .   @ X X . . X X % @ X % @ X % @ % + + + @ % X + X X @ X X X X X X X X X @     @ @ & + @ @ + @ o # & o # # $ # # - # # # # # # # ; # # - - ; # ; ; ; 1.; ; > , > , > > > > , , 9 9 , > 9 0 9 0 > 1.t r r s y s 9 t t 9 s 9 9 s 0 s H 9 n s n w n B H n H H n H B H J J K P P { { Y ' ] B.B.C.Q.Q.'.G.T.Z.N.M.M.n.M.Y.Y.K.A.A.A.A.m B.M.M.M.M.M.M.M.M.B.B.B.N.G.W. X.X.X X X-X_.-X_._._._.5X_.4X9X5X_._._._._._.9X`. X`.U.E.E._._._._.I._.)._._._.'._.6X_.'.W.R._.'.W._._._._._.I.E.`.`.`.`.9X`.`.`.).).).).`.`.`.`._.T.I.T.T.G.R.R.E._.'.`.'.Q.T.C.L.T.T.Q.L.L.L.K.I.K.I.Y.I.I.Q.I.L.A.P.A.P.A.K.K.L.K.Y.A.K.K.K.A.b.Y.b.Y.b.Y.K.Y.Y.K.K.M.K.Q.K.K.K.K.b.A.K.K.K.b.K.K.K.K.K.K.K.K.L.Z.L.L.Z.Z.Z.P.A.A.A.A.A.A.A..XA.K.M.A.M.Z.Z.M.N.Z.N.Z.N.Z.T.N.I.K.K.L.Y.M.K.K.K.Q.Y.K.Q.K.Q.Y.K.Y.L.K.Y.L.P.K.Y.K.P.K.P.K.U.P.I.K.I.K.K.I.I.I.I.K.I.I.K.I.I.I.L.U.P.K.Y.K.Q.K.M.K.K.K.K.K.K.K.K.Q.Y.Q.K.K.I.K.L.",
"+ X   . + @ @   @ + . @ X + . . + X X @ + X X + + X % % X + + X X X X X X X X X X . X X X @ @   & + @ @ @ @ # # 1 # # @ # + ; # # # # # # # $ # # # # # $ - < ; ; ; ; ; : 8 > ; ; > , > ; ; , 1.1.r s 0 0 s t t 1.t u s 9 s s t s s s s t r s s s s B a s n n n s 9 0 s 9 s n B f d f H l H H H Y Y Y B.B.B.B.B.C.T.L.C.Z.Z.M.L.K.K.A.A.A.m A.A.B.B.b.b.b.M.b.B.n.M.B.b.n.M.A.P.A.P.G.P.T.T.W.W.(.(._.E.`.9X9X X_._.(._._.tXY.9X`.U.`.U.U.).I._._._.`.E._.E.I.`.`._._.`.P.L.L.I.E.`.`.'.'.`.T.I.Y.Y.I.`.Y.`.`.I.I.I.I.I.`.`.`.I.I.I.Y.Y.K.K.Z.I.I.T.Q.I.Q.Q.Q.Q.T.I.I.I.L.U.U.P.Y.I.L.L.I.L.I.I.L.Y.K.Y.K.A.Y.A.A.K.K.A.K.A.A.Y.K.b.Y.b.Y.A.K.K.K.K.K.K.K.K.K.K.A.b.Y.A.K.b.K.Y.M.Y.b.Y.K.K.K.K.L.P.A.G.P.K.L.Z..XA.A.A.A.A.A.A.M.A.Z.M.K.N.M.A.N.N.Z.Z.Z.Z.N.L.Q.K.K.Q.M.Y.K.K.K.K.Q.K.M.Q.Q.Y.L.L.L.L.L.L.Y.P.L.P.K.P.K.P.K.Y.K.I.Q.Y.Y.K.K.I.K.I.K.I.K.I.K.I.L.K.L.L.Q.Q.K.K.K.K.K.K.K.L.K.K.Y.I.K.Q.I.K.Y.K.K.",
"+ + @ + + @ .   + + + X + + . + % @ % @ + + @ % + % % @ + + + X @ @ @ X     X X X X X X X   @ X % % @ @ @ @ @ o + # # # @ @ # & # # ; & & # + # - & - # # # - > ; ; $ ; ; > ; ; ; 1.; 1.1.; , 1.1.1.9 t B s t 1.1.1.r u s 0 B s y t 0 t r 1.r t 9 s s s s n n 9 s s q B n n T n n B n s f B V H n Y n Y T Y Y Y V.V.C.G.J.T.T.T.N.Z.A.m.] A.A.A.B.Q.B.Q.Q.N.m.B.N.n.M.b.b.A.A.L.A.b.n.N.Z.G.C.G.(.'.'.E.9X9X9X9X(.(.(.(.(.6X`.Y.9XU.U.`.U.).).W.W._.).E.U.9X`.`.`.`.Y.A..X.XI.'.`._._.`.).`.U.P.U.I.I.I.`.I.I.U.`.I.I.I.I.Q.I.Q.`.`.Y.Y.K.K.U.L.Q.'.'.Q.'.Q.'.Q.T.T.T.I.I.L.Y.P.L.L.Y.I.I.Q.I.K.L.A.P.K.P.Y.Y.A.A.Y.Y.A.L.L.K.K.Y.b.Y.Y.b.A.Y.Y.K.K.K.M.Q.K.Q.K.A.A.b.K.b.K.b.K.K.b.K.M.K.K.K.K.Z.Z.A.P.A.Z.Z.Z.A.A.A.A.A.A.A.A.Z.A.A.A.N.A.N.N.Z.M.Z.M.Z.N.Z.N.Q.K.K.K.K.M.K.K.M.K.K.K.Q.M.Q.K.K.K.L.L.P.K.L.K.K.L.Y.P.Y.L.Y.P.I.I.K.K.Q.Q.K.I.I.K.I.K.I.I.K.I.L.P.P.K.K.K.M.Y.K.K.K.A.K.K.K.K.Q.I.K.I.L.I.Q.I.P.",
"+ + + @ + + @ . + @ . + . . . . @ X @ % @ % X + @ X + + X % @ & X @   @ X @ X X % X % X X @ X @ X + X @ @ @ # # - . @ # # # - + @ # & - & + # + & + + # # # - & ; # ; ; ; ; ; ; ; 1.; ; ; 1.1.1.1.1.1.w 9 9 9 1.1.1.r 1.9 9 w N t r r t r r 1.t t 9 9 s 9 B 0 n t s B s s T n T q n B s s s s s s n H H T Y T Y n I Y m.[ m.V.S.Z.S.S.] m.m.m.A.Q.Q.Q.N.C.N.V.m.B.B.M.M.b.b.b.b.b.b.A.A.Z.Z.N.T.^.C.C.Z.Y..XY.9X(.0X(.-X0X(.9X9X9X9XU.U.U.E.W._._.W. X XE.U.U.U.Y.9X9XY.a..XQ.`.`.`._._.).`.U..XE.E.W.E.`.`._.I.`._.E.E.'._.W._.Y.Y.Y.Y.Y.Y.Y.I.Q.`.`.`.Q.'.'.I.I.I.T.L.L.L.P.P.U.K.K.I.I.I.I.I.L.Y.K.P.P.A.K.P.L.K.A.P.A.K.L.K.A.K.K.b.Y.K.K.K.K.M.K.K.M.K.K.M.Y.b.K.A.K.b.K.K.M.M.K.M.K.K.K.K.A.A.G.A.A.A.Z.A.A.A.A.A..XA.A.A.A.A.A.A.A.A.A.A.Z.K.Z.Z.Z.Z.Z.Z.K.K.K.K.K.M.K.K.K.K.K.K.M.K.K.Y.L.Y.K.Y.K.P.Y.K.U.L.Y.L.K.P.L.P.I.K.I.Q.K.Y.K.I.Q.I.K.I.K.I.I.K.K.K.K.K.K.K.K.K.A.K.A.K.K.K.K.K.K.K.I.L.L.Y.K.Q.Z.",
"# @ . # @ @ + @ + + # + + o . - + X + % . + + + . % . . . . . + X + X @ X X X @ X X @ % X X @ X X       @ @ @ + o # # # # # # # # # # + @ # o # o @ # # @ # # # # # ; ; ; ; ; ; # ; ; > ; ; 1.1., , , 1., , , 1., 1.9 t t 9 9 t t t 8 t t t t r t t s 9 s s s 9 t s s g t s s t s s s s s s s B 0 n s n B n f f l l c L b Y Y Y ' m.S.m.V.m.V.C.N.C.G.C.C.C.C.G.m.Q.N.N.B.M.N.m.B.B.M.M.M.M.M.M.b.] A.A.A.P.P.U.R.R.W.0X_._._._.Y. X). XE.E.W.E._.5X X5X5X).4XE.E.E. XE..XR.P..X4XE.E.).E.E.E.P.P.P.U.U.U.U.E.E.U.U.P.U.E.E. XU.U.`.U.`.U.U.U.I.I.I.I.I.I.I.I.I.I.I.T.L.L.L.P.A.P.U.U.L.U.I.I.I.U.L.P.P.U.P.P.Y.K.K.K.Y.K.P.K.Y.K.K.K.K.K.K.L.K.K.Q.K.Q.K.M.Q.K.b.A.b.K.K.b.K.A.b.K.b.Y.K.K.K.K.A.A.A.A.A.A.A.A.A.A.A.b.A.m A.A.b.A.b.A.A.A.A.A.A.A.K.K.A.K.A.K.K.K.K.L.K.K.K.K.K.K.K.M.Y.b.K.K.K.K.K.b.K.K.P.A.K.K.Y.A.A.P.P.A.L.L.L.L.L.L.L.L.Q.Q.L.I.L.L.L.K.I.K.K.K.A.A.K.P.A.A.A.A.Y.A.A.Y.A.P.S.P.P.A.A.Z.Z.",
"@   @ @ o . # o . o + . & + + + + + + @ + . . + . + - . & . 1 % + X X X X X X % X X X X % @ X @     @ @ .   . . @ + @ # # + # # + # # # # # @ # @ # @ # # # # # & # & # # & ; ; ; ; ; ; < ; ; < ; ; , , 1., t 1.9 1.9 t 9 t 9 9 t 9 t t 9 t 9 t t 9 9 s 9 s B s s t t t t s g t t t s t s s 9 n s s s s s n s d n a n n v v v l c Y ) _ B.Y [ ' [ C.C.C.J.C.C.G.C.T.C.C.Q.C.Q.Q.N.M.M.B.M.b.b.B.A.b.n.A.A.A.Z.Q.N.L.T.I._.`._._..XW.W.E.E.3X0X0X-X0X6X5X5X5X6X5X5X X5XE.E. XE.E.E.E.R.I.E.E.W.U.U.U.U.U.U.U..XU.P.U.U.U.U.U.U.U.Y.U.U.U.U.U.U.Y.U.U.U.P.P.U.P.U.I.T.L.L.P.Z.P.P.P.P.U.L.I.L.I.I.P.Y.K.Y.I.K.L.L.L.L.K.L.Y.K.P.P.K.K.K.K.K.Q.Q.K.K.K.M.Q.Q.Q.Q.M.K.K.A.A.b.A.b.K.A.A.A.Y.A.A.A.A.A.m A.A.A.A.A.b.b.A.A.X.A.A.A.A.b.A.A.A.A.b.A.A.A.A.A.K.A.A.K.K.K.K.K.K.K.K.K.K.K.M.K.M.M.Y.K.K.M.A.K.K.A.K.A.Y.K.L.A.P.K.K.K.K.Q.L.I.I.L.L.Q.Q.L.Q.L.L.L.L.L.Q.K.P.L.K.Y.K.K.K.A.Y.A.Y..XA.A..XP.Z.P.Z.P.G.P.S.P.",
"  @ @     # # + # + + - o + - + + + + + . + . # - # 1 . % + . & + X . X X X X @ X X X X X X X @   @         @ @ . @ # . . # # # + @ @ # @ # # # # # @ # # # # @ + & & # & # ; ; ; ; ; ; < 1.; ; ; , ; , , 1.1.w > 1.9 9 1.8 9 t t t 9 t 9 t 9 t 9 s 9 9 s w 9 s t s s s t t s s y s t y 0 s 9 s 9 s 9 i i 9 s y 0 a s a a a n a n n v c v H b Y Y Y m.C.V.C.C.J.C.J.T.G.T.J.T.G.N.N.M.M.B.b.b.b.b.b.b.n.n.A.M.B.M.M.M.Q.Q.I.Q.Q.R.R.W.R. X X3X5X6X6X0X0X0X7X0X7X5X0X5X X5X X XW.4XW.E.W.E.E.E.E.E. XU. X9XU.U.U.U..XU.U.P.U.U.U.U.U.U.U.U.U.U.P.U.U.U.U.E.U.U.U.P.I.I.L.P.P.P.P.P.P.P.I.I.L.I.I.L.L.L.Y.K.L.K.L.L.K.L.K.K.U.Y.P.K.K.K.M.Q.K.Q.K.M.K.Q.Q.Q.Q.Q.K.K.A.A.A.b.K.A.A.A.A.A.b.A.A.A.A.A.A.A.A.b.A.b.A.A.A.A.A.A.A.A.A.A.b.b.A.m A.A.b.b.A.A.b.A.K.A.A.K.K.K.K.K.K.K.K.M.M.K.K.K.K.K.K.A.A.K.K.K.K.K.K.K.K.A.L.K.K.K.A.L.L.L.L.I.L.L.L.Q.L.L.L.I.Q.L.L.Y.K.K.K.K.A.A.A.A.Y.A.A.A.A.A..XS.P.P.P.P.S.P.P.P.",
"@     @ . @ @ @ . # # + # . . + + + + + # + + . . + . & 1 1 + . X + X . @ X X X X X X X X X X X X         @   @ @ . @ . + @ + # + + @ @ # @ # # # # # # @ # # # # + + + # ; & ; ; ; ; ; ; ; ; ; ; ; , ; , , , 1., 9 1.t , t t , 9 9 t t N t t t t 9 9 s 9 s 9 B t r t t g t t s s 9 s t i 9 i s s 0 s s 0 i y s y r y y i i i i i i a n n n n v v Y Y Y Y Y ' C.' C.C.G.C.'.J.T.N.N.N.n.M.M.B.B.[ b.[ b.n.b.M.n.B.b.b.B.B.B.Q.B.m.A.Z.Z.P.P..X.X5X3X X0X0X0XqX0X0X0X0X5X5X5X5X4X5X5X5X4X X). XW.E.9XU.4X.XE.U.9XU.U..XU.U.U.U.U.U.U.U.U.U.U.U.U.U.U.U.U.U.U.U.E.U.L.P.P.Z.P.P.A.P.P.P.P.I.I.I.I.Y.K.L.K.Y.L.Y.L.K.L.Y.P.K.P.L.K.K.K.K.K.K.M.K.K.K.Q.K.Q.M.K.K.N.K.A.A.A.A.A.M.M.b.K.A.A.b.A.A.b.A.A.m b.A.A.A.` b.b.A.b.A.m A.A.A.A.A.b.A.A.b.A.A.A.M.A.A.M.A.A.K.K.K.L.K.K.M.K.K.K.K.K.K.M.K.K.M.K.A.K.K.A.K.A.Y.K.K.A.K.K.A.K.L.Q.Q.L.L.L.L.Q.Q.L.L.L.I.L.L.L.P.P.K.L.K.K.P.K..XA..XK..X.XY.A.P.P.G.G.J.P.P.Z.S.",
"O   @   . @ + # + @ # . + + - # + + # . # . # . # . . . . . % . . . . X X X   X X @ X X X X X @             @   . @ . @ @ # + @ @ # # @ o @ @ # # # # # # # # # # # + & # ; - ; - ; ; ; ; ; ; ; ; ; ; < ; 1.< , , 1.t 9 t t 1.t t t t t t N t t t 9 t t n B 9 s t s t t t s t s t s r s 9 y y t 9 0 s s s t 9 0 t y y s y i s u y s s i n s s a n l n n I l Y Y Y ) ' m.V.J.C.N.G.G.N.Q.C.L.G.T.n.M.n.n.B.B.N.n.B.b.B.b.B.B.b B.[ m A.m A.A.P.A..X.X.X X X7X7X0X0X0X0X0X0X5X0X0X0X0X0X X5XW.5X X4X4X4X X X X4X4XU.U.U.U.U.E.U.E.U.P.U.P.U.P.E.P.U.E.`.E.E.I.).I.U.I.I.P.L.L.P.P.P.L.I.L.I.I.I.I.L.K.I.L.L.L.L.L.P.Y.K.P.L.L.K.L.K.K.K.K.Q.Q.K.M.Q.K.Q.Q.Q.M.K.K.b.K.K.K.A.M.A.K.K.A.A.M.K.K.b.A.A.m A.A.A.A.A.m.A.b.A.A.b.A.A.m b.A.b.A.A.n.A.A.b.A.A.A.M.M.K.M.L.Q.K.L.Q.K.K.Q.Q.Q.K.M.M.K.K.M.K.M.K.M.A.K.K.M.A.A.Z.M.K.M.K.M.L.Q.K.L.L.L.L.L.L.K.L.L.I.T.L.L.A.L.K.P.K.P.Z.P.P.P.P..XA..XA..XS.P.P.P.G.P.R.G.P.",
"    . @ @ @ + . . # . # . + . + + + + # + # & . . . # & . + . + + . + . . @ X X X X @ X X X X X X   X X               .   @ . # @ + @ @ @ # # # # @ # @ # # @ # # # # # + # # # # # # ; # ; ; ; ; # ; ; ; < 1.; > 1.9 1., t 9 t t , t N t t 9 t 9 9 t 9 w s 9 B t t t s t t s s s t t s t t 9 s i 9 t t s 0 y r s 0 y 9 9 r y y y y i s i 0 y y 0 0 s n n n n n n l Y P ) ' ' [ V.N.C.C.G.T.T.T.Z.Z.G.N.N.B.B.N.M.B.B.b.B.B.B.B.n.[ m A.b.] m A.A.A.L.L..X.X X X X0X0X0X0X0X0X0XqX0X0X5X5X6X X5X5X5X5X5X7X X4X XU. XE.4XE.U.4X.X.XU.U..XU.U.U.E.U.U.).U.`.I._.U.E.P.P.P.P.G.P.P.P.P.I.I.K.I.I.K.I.U.U.L.P.L.I.I.L.L.P.Y.I.Y.P.K.I.K.K.K.K.M.M.K.K.M.Q.K.Q.Q.Q.M.b.K.M.A.M.K.M.A.M.M.K.M.A.b.A.A.b.A.A.A.n.A.n.A.b.A.A.m A.m A.A.A.b.b.A.n.A.A.n.A.A.A.b.M.M.M.K.K.Q.N.K.L.M.K.M.K.M.M.K.K.K.M.K.Z.M.M.L.M.M.K.K.K.P.A.K.K.L.K.M.Q.L.Q.L.Q.L.L.L.L.L.L.L.L.L.L.L.A.P.L.K.A.K.P.Z.P.P.A.S..XY.K..XP.R.G..X.XR.R.R..X",
"  @   @       . @ . . + + % . + + + + + . . # # & . + . + . + 1 . + + + + X X X X X X X + @ X X                       @ + + + + + # . . # # # # @ # # # # # # # # # + # # + # + # # # # ; ; # # ; # $ ; ; ; ; ; ; > > 1.1.1.8 1.9 9 t t , 9 N t 9 t t t t t B s s s 9 B s s s t t t s 9 s y t t t 9 s s t s s 9 t r 8 r s r 0 t 9 r r y 0 y 0 y 0 s s i 0 i 9 n u a f d z L b L Y ) [ B.m.C.G.G.G.T.T.G.C.T.C.C.N.B.B.M.B.Q.Q.B.n.n.m m m m A.n.m M.M.M.A.K.P.P.P.I.E.W. X3X0X0X5X0X0X0X3X-X6X5X0X0X7X7X5X5X5X5X4X X X4X X9X X X.XE..XU.P..XE.U.E.U.E.`._.`.).I.U.I.P.I.P.K.P.P.Z.P.I.L.I.Y.I.I.P.L.L.P.P.P.P.P.L.L.P.P.P.L.Z.K.K.L.K.K.M.K.K.Z.K.M.M.Q.M.Q.N.M.K.M.A.M.A.A.M.K.A.A.K.A.K.M.A.A.A.n.] A.A.A.A.A.A.m A.A.A.b.A.m A.` b.A.n.b.b.A.n.A.A.M.M.M.M.K.Q.K.K.K.K.Z.M.K.b.Q.M.K.M.K.K.M.K.A.M.K.K.M.M.A.A.K.Z.K.Z.K.Z.Z.Z.Q.M.L.Q.L.Q.L.T.Q.Q.L.T.Q.T.L.P.L.Z.P.P.Z.R.R.A.P.P.P.P..X.XP.R.Z..XG.R.R.R.R.P.",
"                . . + . . + + + + + + . + # + . # # . 1 # & . + & + . + . +   . X @ @ X X X X X   X   X       @     . .   . + + + @ @ # o @ . @ @ o o # @ # # # @ + + @ + + + @ # # + # $ # # ; # # # ; ; ; ; ; ; < ; > ; > > 1.1.9 1.t t t 1.9 9 t 9 N t N s N 9 s s t s t t s s t t s 9 s s t s s N t s s 9 8 s t r t 0 r t r 0 y 8 r t r r 9 y r s 0 s s 0 s s u a i s n l l x v b Y Y B.m.m.T.T.J.T.'.G.'.'.Q.'.Q.C.C.Q.C.B.n.m A.[ A.A.b.b.b.b.b.b.b.M.M.M.n.M.N.L.T.I. X5X X0X3X5X_.5X0X0X0X0X7X0X5X9X5X X4X5X5X X4X X X.X X.X.XP.P.R.E.9XE.4XE.).).).).).U.E.P.P.P.P.A.P.P.P.I.I.Q.K.I.K.I.L.P.P.L.L.L.P.L.P.P.P.I.P.L.K.L.K.K.K.Z.K.M.M.K.K.K.M.L.M.K.K.b.A.b.A.M.M.A.M.A.K.K.M.A.A.A.A.n.A.A.A.A.A.A.Z.A.A.A.A.A.A.A.A.A.b.A.b.n.A.A.n.A.A.M.K.Q.M.K.M.K.M.K.Z.M.K.Q.M.b.K.M.K.K.M.M.M.M.Z.A.A.M.A.M.A.Z.A.A.Z.Z.L.K.Z.Q.L.Q.M.N.L.T.T.L.L.L.L.L.L.L.L.P.L.P.Z.L.P.P.L.Z.P.P.P.A.A.P..XR.Z.P.R.R.R.R..XR.",
"    X X   X   X X X @ @ . + + + . + . + + # . # . . . # . . + . . # . + + . . . X @       X X X X X     X @ X X X @ X @   @ @ . o # # @ . @ @ . # # . # # # # # o @ # @ o @ # # # # # # # # # # # # # # ; ; ; # ; ; ; ; ; = 1.> 9 > > 9 9 t 9 1.9 t t t N N t N t s t t s t 9 s 9 s s s B s B 0 t s 9 s t t t s s 9 0 9 y 9 t r 9 y r t 8 r r 0 9 0 9 0 y r s 0 8 r r r r i s a n n n n n n b Y Y B.V.C.C.C.C.'.C.'.'.'.C.'.C.C.m.n.m.N.N.N.N.N.b.b.B.B.M.M.M.b.M.M.M.M.M.L.L.N.T.I.R.E. X5X6X0X0X0X0X0X0X0X0X5X0X0X X0X X0X5X0X5X.X X X X X XE.E.E.I.E.E.).).).U.U.E.P.P.U.P.U.P.P.P.I.I.I.I.I.I.L.L.Z.L.L.I.L.L.P.L.L.Z.L.Z.L.P.K.L.L.A.K.K.Z.M.M.K.N.L.M.N.Q.M.M.M.M.M.M.M.M.M.M.M.M.Z.M.Z.M.n.m.A.A.n.A.m.A.m.n.A.n.M.A.n.M.b.b.A.b.A.A.A.m M.M.M.M.M.M.M.Q.Q.Q.M.M.b.Q.Q.b.K.M.Q.M.M.Q.b.Q.M.n.A.M.M.M.M.M.n.M.M.K.N.Z.L.M.M.M.Q.M.Q.Q.K.N.Q.Z.L.Q.L.Q.Q.L.G.L.L.G.L.P.Z.Z.P.Z.R.P.G.G..XR.P.P.G.P.P.S.P.P.G.",
"                X @ X X X . . . . . + # . . + . . + & . + + . # # . - . + . . . . X X .     X     X X X   X X X X       @   . +   @     .   # @ @ . # @ @ # # . @ # @ # # # $ # @ $ # # # # # # # @ # # # # # # ; ; & ; ; ; ; ; > 1., 1., > 9 t , , t t t 9 t t t t t s s t s t s s w n 9 s s 9 t t B t s t s 9 s 9 t t r 0 t 0 y 9 r 0 r 9 r 8 r r r y 8 r 0 t r r r r r r y u 9 0 n n n n n n Y Y B.B.B.V.C.C.B.C.C.C.C.C.C.C.N.N.N.N.N.N.Q.N.Q.M.B.Q.M.M.Q.b.M.b.b.M.M.n.M.M.M.N.Z.L.P.W.W.W. X X0X0X0X7X0XqX0X0XqX7X5X0X5X0X7X X X X X5X X5X X X_.).E.).E.E. XE.P.P.P.P..XU.R.P.U.U.U.I.I.U.U.P.R.I.I.R.I.T.L.L.T.P.L.L.L.L.L.K.L.A.L.K.K.K.M.K.M.L.Z.Q.K.Q.Z.M.M.M.Z.Z.M.Z.M.M.M.Z.M.M.M.M.M.n.A.n.A.A.A.M.A.M.A.M.m.n.A.A.b.b.m A.m A.A.A.M.M.M.M.M.M.M.M.b.b.M.Q.Q.Q.b.Q.M.M.M.M.M.M.Q.b.M.M.M.M.M.M.M.A.n.n.M.M.M.M.M.M.M.M.M.Q.M.K.Q.L.L.N.N.L.Z.L.L.L.L.Z.L.Z.Z.Z.Z.Z.Z.Z.Z.Z.P.P.P.Z.Z.P.P.J.P.P.S.P.P.",
"@ X   X       X   X X X . @ X @   + @ . # . + + # . + # # . + + + & + . # # . . . . .       X X X X X X X     X X   X @ X X @ . @ . . @ @ @ + # . . @ @ @ # # @ # @ # # # # # # ; @ # # # @ @ # @ + # # @ ; + # & # & # ; ; ; & ; > ; , > , 1., > > t 9 t 1.9 9 t t t t t s t t s 9 n w s s w n t s t s s 9 s 9 9 s 0 9 t 0 s y 8 r 9 y t y 0 t r 0 0 0 9 r r r r t r r 8 y 0 r 0 y s n q n n n n I Y n Y B.T B.B.B.V.V.C.C.C.C.C.N.C.N.C.C.T.Q.Q.Q.N.N.Q.Q.Q.b.B.B.b.B.b.m B.b.n.B.n.n.M.Z.Z.L..XP. X X X5X0X0X0X0X0X0XqX0X0X3X5X X X XW.3X5X5X X6X5X X_._.E.E.U.4XP.E..XU.U..XR..XU.U.E.U.E.).R.R.E.P.R.L.R.P.R.L.L.Z.L.Z.P.Z.A.A.K.A.A.Z.A.Z.Z.M.Z.Z.L.N.Z.Z.M.M.M.Z.M.M.M.M.Z.N.M.M.M.M.Z.M.n.A.M.n.M.A.m.Z.A.Z.A.A.A.A.A.n.b.b.X.b.m A.A.A.M.B.M.M.M.M.M.M.M.M.M.M.b.Q.Q.b.b.b.Q.M.M.M.b.M.M.n.A.M.n.n.n.n.b.b.n.n.M.n.n.n.M.M.N.N.N.N.Z.Z.N.T.Z.N.Z.G.Q.C.Z.N.Z.Z.G.Z.Z.Z.A.A.S.Z.Z.S.S.S.S.P.P.A.A.Z.Z.P.Z.",
". .   X       X   X   @ X . .       . . . + + o . # # . . + - . o . # - . . . . . . .   . X . X     @ X   X X   X X X X X @ X @     @   . . . @ @ # # o # . # # # @   @ @ # # # # # # # # # # # + # # # # @ & + # & # ; ; & = ; ; ; > ; > ; > , 1.9 , 1., , t 1.1.9 t t t t t t s s 9 s s 9 n w 9 s t t s N s s s s s s r 9 t 9 y t y t y t s s 9 i s 9 0 0 t 0 8 t 8 8 8 9 8 r 0 0 0 9 0 0 9 n q 0 n n q n T n Y x T Y T C.C.C.C.C.N.T.C.T.G.T.T.Q.T.Q.Q.Q.Q.Q.n.n.n.B.B.B.M.n.n.B.b.[ B.B.B.B.A.A.L.L.W. X X X5X X0X0X0X0X0X0X0X3X0X5X7X0X0X6X0X5X0X5X5X5X_.5X). XE.9XU..X.X.X.XU.).U.E.E.).).E.E.R.R.R.R.R.R.P.T.R.Z.P.L.Z.L.K.A.A.K.K.K.Z.A.K.Z.L.Z.Z.L.L.N.M.Z.M.M.Z.M.M.M.M.M.Z.M.M.Z.M.M.A.n.A.A.A.N.A.A.Z.A.m.A.A.M.A.A.A.b.A.b.A.A.A.m M.M.b.M.M.b.M.B.Q.b.B.M.M.b.M.B.b.Q.b.Q.M.B.M.M.b.n.n.n.A.n.M.n.b.n.b.n.b.n.b.M.n.M.n.N.Z.Z.N.L.L.N.Z.L.N.L.Z.L.N.Z.Z.M.Z.Z.N.Z.Z.m.Z.A.A.A.A.A.A.m.A.A.A.S.A.A.Z.",
"+ X X X     X X X @ X     X           . + + @ + + . . # # # . # + . # . # . # . + . . . . . .   @ X @ X X X X X X           X         @ @   @ . @ . @ # + # @ # # . @ o @ # # # ; $ # # # # + # & # # @ # + # + & # & & ; & & ; ; ; - ; : , ; ; , 1., , , , 1.r 9 r 1.t t t s t 9 B s 9 w B q 0 s 9 s 9 s w s s B s 9 0 0 n s 0 s s t s s s i 0 i s 9 y u r 0 t 0 r 0 r 8 8 0 9 9 0 9 0 q s 9 0 0 i 0 s n n s n n n s n n T Y Y [ ' m.V.C.C.C.G.C.G.G.'.'.'.Q.'.Z.N.M.Z.n.M.N.N.n.n.[ n.b.m B.b.b.b.b.M.K.L.P.P.T.E. X X7X0X0X0XqX0X0X0XtXtXqX0X0X0X0X5X0X5X5X5X4X4X X X X X X9X XU.E.E.).E.).).R.E.R.R.R.R.R.R.P.R.Z.R.Z.R.Z.Z.K.A.A.L.Z.Z.L.Z.Z.Z.L.T.Z.L.L.N.M.Z.M.M.Z.M.M.M.M.M.M.M.Z.K.N.M.A.A.M.A.A.A.A.M.m.A.Z.A.A.M.M.m.n.b.b.n.A.n.b.A.b.M.M.M.B.b.B.b.b.b.M.b.b.Q.b.Q.b.M.B.M.b.M.M.B.n.A.n.A.n.n.n.b.n.b.n.b.M.b.B.b.M.B.B.M.N.Q.N.Z.N.N.Q.N.N.L.N.Q.N.N.Z.N.N.m.m.Z.m.A.m.A.A.A.A.S.n.A.n.n.n.A.A.A.A.",
"+ + X X @ X @ X   X X X       X   .       . . + . # @ . + + # . 1 + 1 + . - . . . + . + @ . . . . + X X @ X X @ X                             @ . # . @ # . # . @ # # @ + # # # # # # # # # # @ @ @ # ; & # + & # + & # & ; & ; : - ; ; ; > > , > , > , , , , , 1.t r t t t t 9 s 0 0 n q s B s s s s s s s s s 0 s s s B 9 s 9 s 0 y s s 0 9 i 9 0 i 0 0 y 0 r 9 y 9 0 r r 0 8 0 y 0 y s 0 0 n 0 0 s y 0 0 0 0 0 i q s n n n H l b L Y Y ' [ ' C.m.C.C.Q.Q.C.C.R.G.G.Z.Z.Z.m.M.M.M.M.n.B.B.b.b.b.b.b.b.n.n.M.n.L.M.I.R.W.W. X0X0X X0X0XqXqXtXqX0XqXqX0X0X7X5X5X5X7X5X5X X X X X X X XE.).).).4XE.E.R.P.I.P.L.L.R.L.R.L.L.L.P.L.P.P.P.A.P.Z.Z.P.L.Z.L.Z.L.Z.Z.L.Z.M.K.N.M.M.N.M.M.Z.M.Z.M.M.N.M.m.M.m.A.A.m.n.A.A.Z.A.A.A.n.M.M.n.n.n.A.b.n.A.m b.b.b.B.b.Q.b.Q.B.M.b.Q.b.Q.B.b.B.b.M.M.M.b.M.b.b.n.n.b.b.n.M.n.b.n.n.b.b.B.b.B.b.b.M.M.n.N.M.N.M.N.M.N.N.N.N.N.M.Z.N.N.N.A.A.A.A.m.A.A.m.m.m.A.A.n.n.A.n.n.b.n.n.",
"+ . X + . . . X X       X @ X . . X .     +   . . @ . # . + . + # o - . # . . - # + . + . . . . + . @ X     X   X   X X       X X X       @ @     @ @ o @ # . @ + . + @ @ + + # + # @ ; # # + # # # # + @ ; + # # & + & & & & & - & & - - ; ; : ; ; > > ; > > , 1.8 r 1.t t 9 s 0 s w n 0 B s n s s s s B s 0 B B 9 s 9 B 0 n s s i s s s s s 0 i i s s y y s y y 0 t 0 9 0 0 r 9 0 8 9 t 9 9 9 0 r r 0 0 0 0 0 0 t 0 s q s n s u a i a l l l z Y Y B.Y Y B.C.C.Z.Z.Z.Z.G.G.G.Z.Z.Z.Z.M.M.m.M.B.B.B.b.b.n.n.n.b.M.M.n.n.Z.L.I.E. XW.W.6X0X0X0X0X0X0XqX0X0X0X0X3X0X7X7X5X5X5X5X X4X X4X4X).4X).4XE.E.E.T.T.R.T.R.R.I.T.L.L.R.P.P.P.A.P.L.Z.L.L.Z.Z.L.Z.L.Z.Q.Z.Z.Z.M.M.M.M.M.M.M.Z.M.M.M.M.M.K.M.M.A.M.A.M.m.A.M.Z.M.M.m.n.A.b.A.b.b.n.m b.b.b.b.B.Q.b.M.Q.b.B.b.b.b.B.b.M.b.b.b.M.b.M.b.M.M.b.M.b.n.b.A.M.n.b.n.n.b.b.m b.b.b.B.B.b.M.B.n.n.n.M.M.M.N.n.M.M.n.N.N.n.m.n.M.m.m.A.m.m.A.[ A.m.m.A.n.n.A.b.n.n.n.n.b.",
". + . X . X @ X X   X . X X . @ X @         . @ . . @ . # + o @ . # . # . - # - . . + . . . + . + +   @   X X @ X @ X @ X       X                   . @ . . @ . @ . @ + @ + @ # # + @ @ + @ # @ & @ # @ & # + & & # & ; & + & & + + - & - ; - ; - - - - ; ; > > > 1., , t t s 9 B 9 9 0 n w q B s s s s s s s s 0 n s B n B 9 s s s s s s s s s s 0 0 i 9 0 n 9 9 s s r t 0 0 9 0 8 8 8 0 0 0 8 8 8 8 r 0 9 0 s 8 0 0 0 0 0 0 0 8 r 0 r y i i a n n x b I Y Y B.[ N.Z.G.R.P.T.T.Z.Z.R.G.Z.L.N.M.Q.M.M.b.M.M.M.M.M.M.b.b.n.M.Q.Q.I.R.T.E.W.0X X0X0X0X3X0X0XqX0XqX0X0X0X5X7X X5X5X7X5X5X5X5X4X5X4XE.W.R.R.R.T.L.R.T.R.T.R.T.P.Z.P.P.P.G.L.P.P.A.K.L.Z.L.Z.L.Z.Z.K.N.Z.M.Z.M.M.M.M.M.M.M.K.N.Z.M.M.A.A.m.M.A.A.M.A.m.A.A.A.A.n.n.A.b.[ b.n.b.b.m b.b.B.b.B.b.b.b.b.Q.b.Q.B.b.M.B.Q.b.B.b.M.B.b.B.b.n.b.n.n.n.b.n.n.b.b.B.b.b b.b.b.b.B.b.B.M.B.n.n.n.n.n.N.n.n.n.N.B.n.m.n.n.n.n.n.n.m.m.n.[ A.[ [ b.n.n.[ n.b.n.A.m ",
". . X X X . . X + X X @ X @ X X @ X X X   X + @ . X + + X + @ + . + + + + + . + . + + . + . # + # .   . @ .         +                     @     @   @ . + . @ . + . @ . + + # @ # # @ # # + + + + + # @ # + # # & # & & - + & & + + & & ; & ; ; + - ; & ; ; > > ; > 1., 1.8 8 t t t t s 9 n s n s s s t B t s s s s s s B s s n B s s B n s B s n 0 B s s s q 9 H 0 s s 9 0 s 0 s 0 t 0 9 0 t 0 8 r 8 8 8 8 8 r 8 8 0 9 0 r 8 0 r 8 8 r r r y p y y i n n k v v b b Y B.n.N.N.T.L.G.P.G.Z.P.G.P.Z.Z.N.M.M.M.M.M.b.b.M.b.b.M.M.Q.Z.L.T.R.W.E. X5X X5X0X0X0X0X0X0X0XqX0X0X0X0X5X0X5X5X7X X0X X7X5X5X X X.XE..XE. XE.E.R.P.R.P.P.I.G.P.A.P.P.G.P.A.P.P.Z.G.P.Z.P.Z.Z.Z.Z.Z.Z.Z.Z.Z.A.A.Z.K.Z.K.Z.Z.Z.Z.A.K.Z.Z.Z.M.M.K.Z.M.M.M.N.Z.n.n.b.n.b.n.M.b.M.b.M.M.M.M.M.M.M.b.M.M.M.M.M.B.M.B.M.M.M.B.M.B.M.M.M.b.M.M.B.M.b.M.b.b.b.B.b.b.B.b.b.B.M.M.B.M.B.M.B.B.M.M.B.M.B.B.B.n.B.B.N.n.B.n.n.n.n.B.b.n.m n.b.n.b.n.b.b.n."
};
