/* XPM */
static char *rdj_west[] = {
/* columns rows colors chars-per-pixel */
"484 484 256 2 ",
"   c #040203",
".  c #0C0203",
"X  c #0C030C",
"o  c #09080B",
"O  c #130303",
"+  c #1B0302",
"@  c #12040B",
"#  c #140B0C",
"$  c #1A0A08",
"%  c #17130D",
"&  c #0C0512",
"*  c #0C0A14",
"=  c #0B0A18",
"-  c #130C14",
";  c #1A0D14",
":  c #140C1A",
">  c #1B0D1B",
",  c #140514",
"<  c #0E121A",
"1  c #141214",
"2  c #1C1314",
"3  c #14131B",
"4  c #1C131B",
"5  c #1A1A18",
"6  c #0D120B",
"7  c #230401",
"8  c #240B03",
"9  c #2B0C03",
"0  c #280A08",
"q  c #330C03",
"w  c #360C07",
"e  c #2C130C",
"r  c #291309",
"t  c #341303",
"y  c #3B1404",
"u  c #3C1A05",
"i  c #34140B",
"p  c #3B140B",
"a  c #3C1B0C",
"s  c #341A0A",
"d  c #230D17",
"f  c #22151B",
"g  c #241B1C",
"h  c #281716",
"j  c #341B13",
"k  c #3C1C13",
"l  c #371817",
"z  c #330E12",
"x  c #1D2319",
"c  c #3C220B",
"v  c #2A221E",
"b  c #24241C",
"n  c #3D2214",
"m  c #3D231B",
"M  c #37241A",
"N  c #2C2C18",
"B  c #1A1523",
"V  c #170D22",
"C  c #251C22",
"Z  c #2A1E22",
"A  c #261827",
"S  c #341D27",
"D  c #29162C",
"F  c #2C2324",
"G  c #2D242A",
"H  c #292826",
"J  c #332424",
"K  c #322A26",
"L  c #32262A",
"P  c #342B2C",
"I  c #3B2928",
"U  c #3A312E",
"Y  c #34322C",
"T  c #352B32",
"R  c #3A2E33",
"E  c #372837",
"W  c #3C3333",
"Q  c #3D343A",
"!  c #393738",
"~  c #2B2B2E",
"^  c #1E2422",
"/  c #431D0B",
"(  c #461907",
")  c #431D13",
"_  c #481C16",
"`  c #50170E",
"'  c #44220D",
"]  c #4B230D",
"[  c #482509",
"{  c #54270C",
"}  c #442314",
"|  c #4B2413",
" . c #4C2A15",
".. c #44251B",
"X. c #4B241B",
"o. c #442A1C",
"O. c #4C2B1C",
"+. c #452A14",
"@. c #532514",
"#. c #542A14",
"$. c #5A2B15",
"%. c #532C1B",
"&. c #5B2C1B",
"*. c #562519",
"=. c #4C321B",
"-. c #54321D",
";. c #5B331C",
":. c #593519",
">. c #5A310E",
",. c #632C1C",
"<. c #642A19",
"1. c #62331C",
"2. c #66381B",
"3. c #693615",
"4. c #442B23",
"5. c #4C2C22",
"6. c #472826",
"7. c #532C23",
"8. c #572B25",
"9. c #4C3224",
"0. c #4A342A",
"q. c #543323",
"w. c #5B3423",
"e. c #5C3A24",
"r. c #53342A",
"t. c #5C3C2B",
"y. c #57382A",
"u. c #42353B",
"i. c #433A3C",
"p. c #473736",
"a. c #563B35",
"s. c #462C35",
"d. c #672D23",
"f. c #633423",
"g. c #643B24",
"h. c #633C2B",
"j. c #6A3826",
"k. c #74382A",
"l. c #663C34",
"z. c #763932",
"x. c #481D24",
"c. c #5B4338",
"v. c #544231",
"b. c #64422C",
"n. c #6C432C",
"m. c #694427",
"M. c #73442C",
"N. c #76482A",
"B. c #6B4532",
"V. c #674737",
"C. c #744B34",
"Z. c #7B4C34",
"A. c #744C3A",
"S. c #764737",
"D. c #79523A",
"F. c #705237",
"G. c #6C421D",
"H. c #3C3542",
"J. c #473B44",
"K. c #523A47",
"L. c #6A3E47",
"P. c #4C4344",
"I. c #4B464A",
"U. c #51464B",
"Y. c #564849",
"T. c #4D4A53",
"R. c #544C53",
"E. c #584B56",
"W. c #5B545B",
"Q. c #575357",
"!. c #515250",
"~. c #664B45",
"^. c #774B44",
"/. c #6A5349",
"(. c #795746",
"). c #65585A",
"_. c #765B55",
"`. c #674B56",
"'. c #7A6359",
"]. c #756253",
"[. c #5D5963",
"{. c #594D61",
"}. c #645B63",
"|. c #675B67",
" X c #735B68",
".X c #6B636C",
"XX c #676369",
"oX c #76676A",
"OX c #6B6672",
"+X c #766A77",
"@X c #7A7379",
"#X c #7A726B",
"$X c #3A4138",
"%X c #844A3A",
"&X c #83543C",
"*X c #87583A",
"=X c #895535",
"-X c #8F623D",
";X c #874B45",
":X c #885946",
">X c #94594B",
",X c #885A54",
"<X c #975B54",
"1X c #924D4A",
"2X c #8A6249",
"3X c #946449",
"4X c #886757",
"5X c #986557",
"6X c #92715C",
"7X c #A5675B",
"8X c #AC6F59",
"9X c #866A67",
"0X c #996965",
"qX c #977668",
"wX c #887679",
"eX c #957A78",
"rX c #88716D",
"tX c #A76B65",
"yX c #A97369",
"uX c #B6766A",
"iX c #B87A74",
"pX c #AD746F",
"aX c #9F5B58",
"sX c #C67C74",
"dX c #C7786D",
"fX c #843C3C",
"gX c #98837A",
"hX c #AE8677",
"jX c #C88479",
"kX c #D18579",
"lX c #7C7282",
"zX c #877985",
"xX c #927C85",
"cX c #AF7C82",
"vX c #C87F86",
"bX c #978688",
"nX c #93888F",
"mX c #A99697",
"MX c #AC918F",
"NX c #B7A49A",
"BX c #AF9BA4",
"VX c #B9A6A7",
"CX c #B6A8AF",
"ZX c #9B93A5",
"AX c #D18E88",
"SX c #C3ABAA",
"DX c #CAB6B6",
"FX c #CCB6B3",
"GX c #DBA29B",
"HX c #D7C3BB",
"JX c #F0C7B9",
"KX c #D2BCC3",
"LX c #DAC6C6",
"PX c #D5C7CC",
"IX c #E7D0CF",
"UX c #F8E4E2",
/* pixels */
". . . O + + + 7 7 9 7 9 7 7 7 9 0 7 7 7 9 7 7 7 q 9 7 7 7 7 9 7 7 7 + 7 7 7 7 7 7 + 7 7 7 7 7 7 + + + + O + + + + + 7 + + + + + $ 8 9 8 O O % 2 . . o & = X X X X     o * * = = = = = = = & @ o &     X X X X X X X , : & - =     X   X ; X X - >   & > , & & X X X X . X # ,     .     .         o     = o o = =   6 6 = o o = o = = = = < 3 X & X o = = X   &   & & & & & & = X :   4 & 2 6 6   o < - * * X X   - x o   o o o       o 6 # o o o & o o 6 6 o o o o < < 6 o       6     6 6 o 5 6 = o   < 6 6 6 o o o = = * o   o       o o o       = o = = V = = & X & & & o X   o   o     6 o                                   o         o   o o                 o o     o   o       o   o       o   o     o o     o 6 =     o   o                                   X X X X . @ @ + @ + 7 @ O . . . # . o # X . X X X X X X & & & &   & & & & & = & d & , , , > , > , O @ ; O O O + + . O 8 $ + + + + 7 7 0 7 7 + 7 0 9 9 7 + 7 7 + 0 8 7 7 7 + 8 0 7 7 8 + 7 + 7 8 0 7 + 7 + 7 7 + + + $ 7 + 7 7 7 ",
"p.p.p.c.Y.a.a.V.l.l.l.l.l.h.b.h.l.B.S.~.^.^.^.^.^.~.~.S.~.^.S.L.~.~.^.~.~.~.V.~.V.~.l.a.l.a.r.r.r.r.r.r.r.r.r.r.l.~.Y.V.V.~.V.~.v.F.~./.Y.a.U U % % ; 4 > : , , 4 # & 1 1 = o = < = = = , , , - 4 * X = > - X , > , X     B H.T.G G 4 # , . . 4 C & : A V & : V : d D f ; X : C g 5 1 - 2 g g b ! H.H.J.T.$XT.T.! H.T.[.XXXXXXOXXXT.H.^ < * =   * & B E I.{.|.OXlXOXT.H.B = &   & * A T.wXZXZXCXnXOXT.P.J.R.W.}.nXZXZXlX+X@XlX@X@X@XXX!.! b 4 1 ~ T.XXnXnXZXnXnXnXXX~ < o ^ I.[.OXOXXX#X@X[.$XT.= < ~ Q.lXZXZXnXlX[.H.B < < < 3 1 1 5 3 < 5 B H = * = B < B < = V = > > > ; : 3 * * * o 6 * < 6 5 5 x x x x x x x x 5 5 5 5 5 1 5 5 5 3 B ~ H ^ B 5 B 5 5 x 5 5 ^ B ^ < B < < ^ < ^ ^ < < x x < B < 3 x < x ^ < ^ 5 x < ^ < B x 5 5 3 5 5 1 5 1 x 5 5 x 5 x x x 5 B 3 B B B f C > A A d d D D d ; # % % 2 4 # . 4 4 B C B A A B V : V B B V B B & & V : D V D D , & , > , @ @ @ J J v I I M Y U v.V.~.~.~.a.5.X.a.l.l.l.8.r.r.l.(.~.5.j m 9.a././.r.5.4.6.a.c.a.r.5.7.a.a.r.a.a.a.V.~.~.~.V.~.V.a.a.c.c.",
"0.Y 0.Y.V.v.a.V.l.B.B.B.B.B.V.V.h.t.h.b.l.A.A.A.B.V.l.l.B.B.l.B.l.~.^.V.L.~.l.l./.^.~.V.l.a.r.r.0.6.6.0.0.4.9.9.a.r.a.a.a.c.a.V.v.v.v.v.Y.v.v h 5 f 5 4 f f ; - g 2 1 3 3 = = = < < = V : - > G : < = : 4 > , , , , , , * B ! T.G G 4 # - X X C B , > A : & V D > > A A 4 , ; 4 C 3 # # % 5 F ~ ~ H.I.T.!.[.[.!.T.[.XXOXlXnXnXlXOXT.~ < o o 3 ^ A H G Q I.E.W.{.OX{.H.D B B V 4 G 4 T I.nXnXZXnXZX@XQ.R.R.R.W.|.BXCXCXZXzXnXZXnX@XgX@XXXI.U H F < I.OXnXnXZXZXZXlXXX$X^ B ^ ~ ~ I.T.I.!.XX!.$X~ ! ~ H.[.lXlXlX[.I.H.< < * < < 5 o o 6 o * * 3 5 < < < B B B < V B A B B 3 4 4 3 5 3 3 1 1 3 5 5 6 % 6 6 % 6 5 6 6 * 6 6 6 * o * o o * 6 1 ^ ^ 5 5 5 < 6 6 * * * = 6 = 6 6 = < 6 < 6 6 < < < 6 < < 6 < < 6 < < 6 = 6 = = < < < < ^ H F H ^ H ^ H 5 1 1 6 6 1 < 5 < = < < : 3 : : , ; , @ @ , d $ 2 g J L E i.L X X X & , , , , :   & & & = & &   = & B : E D D D , & , , d ; @ @ g h N K 4.I 0.v.a.V.~._._.V.a.7.r.l.L.r._ p x.l.~.V...9 i n 5.c.~.4.i e k a.c.8...) k ) 5.r.a.l.a.a.a.V.~.V.c.r.5.7.r.r.",
"c.v.V.].'.A.^.4XB.B.B.B.B.B.M.n.D.(.^.(.;X(.(.(.:X(.;XD.^.(.:X(.:X(.(.,X,X(.(.(.^.A.^.V.l.l.h.t.V.V.V.V.V.V.V.c.~.V.~.V.~.~.~.^.].F.].].].~.p.K h 2 h 2 4 f ; X 4 % 1 4 B < < < V = = < B : f E 3 ~ G B > B A , @ , > 4 3 B B H - ; # # 4 4 , 4 4 X , : , = V V B X . - A C - . G 4 4 5 b H ~ ! T.T.[.OXOXlXlXlXOXlXlXlXlXnXZXZXlXT.~ ~ 3 * < B G B D ! T.E.W.}.{.J.H.D A A V 4 * X A U.ZXCXDXCXnX@XOX+XXXR.[.@XzXnXnXlX[.XX@XzXnXbXbX@XW.W 4 o B $X[.!.[.OX@XOXlXXXT.~ B B ^ ~ $X~ ! P.!.!.$X~ B < ~ T.OXlXlXlX$XH.~ ~ ~ ~ B B 3 3 5 3 5 < < * 1 = * = B V < < : V V > : : 3 ; 4 3 1 3 5 5 < 1 x 6 % 5 < 1 x < 5 3 3 < 3 5 < < o 6 * * 5 ^ F B ^ ^ B 5 1 1 1 * * < 6 < < 6 < < < < < < < < < 5 < < < < < < < x < < 6 < < < x < B 3 B B B B B B B ^ B 3 6 * 1 5 3 B 3 B B 4 V 4 V d > , , d d , - F R Q R.}.U.A : > , : V : V V & & & = = = = & &   : X D V D V D > & , > ; @ + I M m 0.v.c.c.F.a.V.V.^.^.~.V.l.^.(._.^.w.8.a.^.^./.c.5.r.r.a.^.(.t.O.r.V.(._.~.a.8.7.a.V.~.^.^.~.^.(.(._.,X/.V.V.V.V.V.",
"v.+.N m.b.:.w.B.C.C.N.F.F.C.N.F.M.B.n.n.j.b.h.m.S.B.B.n.B.M.M.B.B.B.C.C.M.V.l.n.F.A.A.C.B.B.h.b.r.r.y.y.y.-.v.:.e.b.v.e.e.t.t.t.v.G.v.v.v.$X+.N % % % $ % r $ . % # % 2 5 3 B ^ V < B ~ E A 4 G G I.T.~ V A D f d > - , & B T H.4 f 2 4 G C X - > X & V B D D V A & X , G C 4 X B 2 1 5 C b H ~ ~ H.H.T.[.[.[.T.[.lXlXlXlXnXZXnXlXQ.H.~ B * * 4   & - B G T E Q J.J.H.E G B > 4 B 4 4 L Q.).}.|.XXP.G G G C R E.W.|.|.).!.T.R.Q.W u.i.P.J.Y g % B ! H.! ! T.{.{.T.H.^ =   o < ~ B 3 5 ^ ^ 5 5 < < B B ^ ~ ~ ^ ~ ~ ~ = = = * o * ^ 4 5 ^ H B < o 3 * = & B = V V X V V V : V 3 3 B 5 < 1 5 5 < 1 5 5 < x 5 < < B ^ ^ B B B B ^ B < 1 1 1 4 B ^ 5 B ^ ^ 4 4 5 5 5 < < < < < < < < < < x < < < B < < x < < < x < < < < < < < x ^ 3 < = < < < < 3 3 H ^ ^ B B < 3 4 B B B B B B B B B A B : > > D > X g L Q E.|.U.D D A V V V V V V V V = V B ~ H.H.H.E H.H.{.K.{.J.E f & @ , d d ; m j j M I =.N =.V.V.V.V.V.h.h.t.w.l.l.f.X.` X.w.S.l.} 9 t a q.~.l.O.| X.7.h.V.t.%._ ) %.h.l.t.y.l.l.h.l.V.A.B.r.7.r.w.h.",
"v.v.v.m.b.e.m.N.M.m.N.N.N.N.m.N.Z.A.A.Z.D.D.Z.Z.D.D.Z.Z.&XD.&XD.A.D.D.D.D.D.D.D.C.N.n.b.g.;.;.-.B.n.b.b.b.F.b.F.F.F.m.F.C.B.B.V.F.F.F.F.F.G.N N % r % $ % h d . $ O # % 3 * = B V B H.T.T.Q C > ~ T.E.~ > > d , B ; , , # B ! J.G C - - A f - 4 B X & E J.{.T.E > A Q , B X A A ; o X 4 5 1 1 5 ~ ~ H.J.T.Q.T.T.~ H.H.T.[.XX[.!.T.~ 3 3 * & - V ~ B A G G A A A V A B > : 4 B A f f - Z R J.I.).W.T ; 4 G G G T G E Q R ~ G Z F U.i.Q P F Z 3 & * 3 C B ^ ~ ~ ^ ^ ~ ~ H.~ ~ ~ ~ ^ < B ~ H H B 3 * < ^ H.T.H.$XT.H.H.^ ^ H B B H 1 o * 1 3 3 * * B ~ ~ < H.~ B V = B E ~ E E E G B 5 3 3 5 B 5 < * * * < < 6 < < V V < < < B = < o * * o * 3 3 = * * * * < 3 3 3 6 < < < < < 6 < 6 = = 6 < < = < 6 = = 6 = 6 = 6 < 6 o = 6 < < = : < V 3 V B 5 B ^ B B B 3 < : * < = < = = = = : V V > , , > , , X > A G J.T.H.V B V , , : : : & = = V V H.T.{.[.J.H.H.H.{.T.{.K.J.D , , d d J I Y.v.0.0.v.=.v.e.q.t.V.S.B.f.&.%.h.B.S.n.d.8.f.j.(.^.w.( ( | h.:X(.b.w.q.-.h.A.B.h.8.%.j.S.S.z.l.B.B.B.B.^.(.S.n.;.w.h.h.",
"=.e.m.e.:.m.m.j.Z.Z.Z.Z.Z.F.D.D.N.M.M.M.Z.Z.Z.Z.Z.M.M.M.Z.Z.Z.D.M.C.N.F.Z.Z.C.A.D.D.D.C.n.m.2.m.m.b.b.m.m.m.m.m.b.B.F.m.N.N.N.F.m.v.v.F.m.v.N N % r % $ r M h O O O O # X   o = V ^ H.T.T.H.D ; D T Q G > , , @ , @ > > : V H G B 5 # & ; ; ; A A X - J.lXnXlXH.A J.OXD A   G C A 4 4 C C 4 3 C B < ^ ~ H.H.~ ~ ~ $XH.T.T.T.$X$XT.! ~ B - & - - & X X : B C 4 > E D A 4 4 ; > 4 A f - 4 4 g g L R G G R Q T A 4 C G R Q J.i.R E h h 4 2 5 Z G T H G H ~ H.~ D ~ ~ ~ ^ ^ ! $XH.I.T B B ^ G ~ ! ~ ~ ~ H.Q.OXOXOXlXOX[.Q.T.I.~ = o 3 5 4 5 1 1 B ~ ! XX[.T.OX[.H.~ A J.{.{.{.{.T.H.F 3 < < B B 5 < 5 ^ B B B B ^ B B B B B B B B < 3 B 5 1 5 ^ B 5 5 5 5 3 3 5 B ^ ^ 3 < ^ ^ < ^ ^ < < < < < < < < < < < < < < < < < < < ^ < x < < < V < V B B B B ~ ~ H.~ H B V B < B B B V : 3 V D B V V V D V V > : > B E ~ D & D D V V V V V V V = V ~ T.{.|.|.|.{.[.{.lXlX{.{.J.D , , ; h I p.a.Y N c c c c =.;.b.A.D.A.C.n.b.j.B.M.f.$.*.d.h.S.A.f.] | @.&.S.:Xj.&.#.%.h.S.S.z.:.#.:.n.S.n.j.j.B.B.B.C.S.B.j.| #.&.w.",
"[ e.b.e.e.m.n.j.M.N.Z.N.N.Z.Z.Z.Z.Z.Z.N.Z.Z.N.C.Z.Z.Z.Z.Z.D.Z.Z.N.N.N.F.Z.D.D.Z.D.Z.C.N.M.m.m.m.m.m.G.m.m.e.m.e.F.N.N.F.F.F.F.F.F.m.G.F.F.=.=.N % r r $ r J j + $ $ ; 2 2 X < B < V V A ~ Q ~ 4 V 3 V A A f > ; , , > - & : ~ ! 4 F g 4 ; X & Z C X & U.nXCXlXH.J.{.nXH.J.> J.B 4 - o 1 4 o . * < = = < ^ ^ B B B < V ^ ^ ^ ^ $XB 4 3 3 & 1 : - A : : A E D A C A > , - A A 4 ; 4 ; ; f F g f g C i.W.E.u.T R u.i.J.P.W.XXoXXX).Q.).E.U.i.W Q u.! A B ~ ~ ~ H.H.{.H.H.{.OXlXOXXXXXE ^ ~ ~ H.!.! H.~ ~ [.lXzXnXzXlXlXXX[.Q.H.B B < B 5 *     5 E I.nXnXnXlXnXH.H.H.{.lXlX+XlX.X[.B 3 * * 5 3 < < < B < 5 B 5 B B V < < < V V < = 3 3 3 < 3 B 5 1 B 4 3 < * * * 6 < < < < = = 6 = 6 = < = 6 < < < = 6 < = < = 6 = < < < < < < < < = : < < B < B B D D ~ D B : : - < < < : < = < = V V V V : V V = B , , 4 B D V & B V = V V V V V = = V ~ H.H.T.H.H.H.H.H.J.K.{.{.H.D , @ @ d Z 4.v.M c N =.e.v.b.:.e.m.j.h.f.f.f.j.M.z.1.] ` ,.M.&XD.f.( ( ( &.Z.B.&.@.*.&.M.D.z.M.<.` @.j.k.M.M.k.M.Z.&XD.D.M.m.:.:.g.g.",
" .h.h.-.B.h.g.;Xj.k.l.M.k.M.C.A.Z.N.m.N.N.N.N.N.C.=XZ.N.N.=XZ.m.M.m.N.D.G.m.D.-XF.D.D.N.m.2.2.:.e.G.m.N.e.2.G.G.:.G.G.m.F.F.N.m.m.:.m.F.m.v.N N s % r s M m o.r m N j h F . B   3 B B ~ ~ B V 4 G : - A E S d D d > , , , - G ! 2 - # # X . - Z : B D E ZXCXzXE H.OXlX|.B ~ H.D ~ C 3 # - 1 3 - B 3 3 : 3 B B F ^ < B ~ B D ~ A B B 4 3 : : : 4 - ; > B A D L D B A C A A f A Z . @ @ @ . . f J i.).oXoX.XY.u.J.E.). XwXnXnXbX#X@X.XR.Y.U.Y.R.R.I.G 3 F ~ E H.T.[.[.OXlXlXzXzXlX[.H.^ = B H.Q.T.T.H.H.T.OXlXlXnX@XXXXX[.T.~ B B B - # 5 4 o 4 ! {.lXlXnXZXlXH.E H.[.lXlXlXlXlX{.D ~ V V B ^ < < : < = < < V B < V V V B V V V V = < : : 3 3 3 B 3 3 3 3 3 3 : 3 < < < = < < < V < < < < < < < < < < < < < < < < < < < B < < < B = = = < < V B B D ~ Q E A > > > B 3 3 3 : : : : = V V V & & : D V : V V V V , & : = & : V V V = V - * V ~ H.H.~ G A V D E H.E L V > , d d h l e 0.4.M c =.=.=.:.;.g.N.Z.j.$.#.2.j.M.3.k.m.1.<.M.M.Z.f.( { ( *.:XZ.$.{ 1.1.j.S.S.1.1.{ $.N.z.k.N.2.M.M.N.M.C.M.j.:.2.j.m.",
"/ -.%.%.j.j.f.S.j.j.j.j.f.h.h.b.n.j.2.m.k.m.j.2.2.j.M.m.j.M.m.2.:.:.G.G.:.2.N.D.G.G.G.G.2.>.:.>.:.G.F.N.2.:.:.:.:.F.G.e.m.m.G.m.F.:.:.v.v.G.G.N c s N M o.9.5.n 9.I 0.p.p.2 Y 3 3 V ~ H.H.G 4 V D 4 - > D > d > > d d , , > ~ E 4 - # - - X - 4 V B A E |.zX|.~ J.K.{.K.G D E ~ D B - & - 1 ; - 4 4 4 3 4 4 B B V < B B 3 3 B 3 C C B 4 4 4 4 B : > > f S G D D > f ; ; f ; , f - f C g h g Z P P.)..XoXoXE.P.R.XXXX#XzXnXnXzX+XoX).Y.i.P.U.U.I.H.~ 4 A ~ ~ Q T.T.T.{.[.OXlXlXOXT.~ ^ B C ~ H.P.! ~ A H.T.J.J.T.T.T.J.H.H.B 3 3 5 - - 3 4 2 3 F H.OXOX[.lX[.E ~ H.J.{.lXlXlXT.H.D B V < B B < < - * * < < < B V V < V B V < V < < = < - 3 3 3 3 3 3 3 : < 3 3 < < < < < < < < < < < = < < < V < < < < < < < < < < < < < < ^ < < < < < B < V V B : B A A B : , - < 1 3 4 4 4 B B , , , : > V V V B 4 > > > V : & V : , , V V V & V 3 : : : : V < B V : V D D D > V > , X @ $ d ; M o.n +.-.=.=.:.:.g.N.C.M.2.:.g.2.j.k.j.3.<.<.M.S.Z.&.( ` ( { *X%X,.{ $.$.j.M.M.j.<.{ $.k.N.k.m.k.N.M.Z.Z.Z.Z.j.1.1.m.M.",
"a -.%.%.l.l.j.z.j.d.8.*.*.X.%.&.f.2.2.;.2.;.$.[ >.$.2.g.2.2.:.$.[ [  .:.[ :.F.N.2.>. .[ >. .>.[ :.m.F.N.e.:.[ [ G.F.m.>.=.>.=.G.F.:.=.[ =.v.G.=.e.N =.v.q.v.c.O.o.0.c.!.Y.f T 3 B B H.{.[.E A B B G f > > d d > @ d D d - B ~ ~ 4 - # ; 4 ; & X - B = E H.{.H.E E D H.D A V D G B 3 - - ; 3 1 - 4 4 3 > 4 B A A B B ~ ~ : 4 A - B 4 B 4 3 > 4 : 4 > > A A A A f A f ; ; d ; ; ; ; f h S g h g g u.Y.E.).).P.a.E._. X|.rX@XrXoX).E.a.s.R W s.Q R Q G B H D ~ ~ Q H.H.H.H.J.{.T.U.~ V V C B 4 C A ~ G ~ H.H.! E ! H.! ~ A A C A C 4 2 ; 1 4 5 4 3 B H.T.H.{.H.D A D H.H.{.{.{.H.~ ~ B < < < ^ B B 3 < = * < V 3 < < V V V B V V V < < = < < : : : * : : < = : < = < < < < < B B < < < < < < B B < V < < V < = V < 3 < B B B < ^ B B ^ B < < < V 4 : , ; , ; ; > ; - # - ; > f 4 C > , & V V D V V A > : , : > : , V V V V V V : & : V B : = & = V = = , : , , , , D f , X @ $ d 8 i M n ..w.q. .#.:.e.M.D.C.g.2.j.&.M.M.m.<.{ { k.*X&X` ( { ( <.*X:Xf.{ ] { j.Z.M.k.3.` { k.N.j.m.k.N.Z.S.Z.%XZ.n.$.2.j.n.",
"/  .#.O.w.k.B.z.8.*._ ( / / } | -.;.;.#.{ ] ] ( ] ] :.h.b.;.{  .u u [ [ [ :.m.B.:.[ ' [ [ #.[ [ :.F.F.F.e.>.[ [ :.m.m. .[ [ [ e.N.=.[ [ N G.v.v.=.+.+.9.w.b.b.y.o.9.Y./.Y.2 F - ^ B H.{.[.H.C A - A D > , D d d @ d D , , D E E A 1 ; 2 4 ; , X - : = D D H.A D D = V V A , : V > - & - 3 1 1 * 4 : 4 4 4 B C A V B D B 3 B G 3 > 3 > 3 - - , - > ; > > f A d > > d , , A f ; f $ $ # f h h ; $ Z R T R s.J L u.i.J.i.P.U.Y.i.u.T J g h C Z g f E A C A V : V A D ~ D ~ E H.E ~ D : : ~ A - - 3 : : B B G B C D = B V   X : 4 3 1 3 4 2 4 B 4 - = ~ E < H.B B V V D D E H.H.H.V B B < B B B B < 3 < < < < < 3 3 B < < V < V < V V : < V < = < * < * < * < : < < B < B < B B < B < V = < B < B < V < V < V < < < < B < < B B B B B B < * = & = 4 4 : @ , ; > 4 d $ $ # # # - ; - A > > V D D > , A 4 > - - , > : V > d V A V V , : V V = & & = B = = V , & & , , f > , @ @ @ $ $ r j } ..e.w.O.-.-.2.N.Z.C.g.;.2.$.M.C.j.1.{ { j.:X%X{ w { ( { %X>X2.` ` { j.S.B.3.>.` <.Z.N.j.k.j.M.z.N.Z.&XZ.k.;.g.h.n.",
"u / ' / ( w.l.l.*.( q ( p i p } w.f.-.| ( ' ] ( ( / #.m.B.-.] | u u [ ' ( >.B.m.m. .u u [ [ ] ' >.F.D.F.m. .u u =.b.b.>.[ c >.:.B.=.[ c c =.b.v.=.c c =.=.b.V.q.O.9././.Y.% F : B < B H.I.~ V B X B G > d d D , , D d , X A Q E G 4 4 4 2 , - 4 ; , & C D A V A D B V V D D V = - - ; : 3 ; : - : 4 > 4 4 C B A ; 4 : , > C 4 : V 4 4 B 4 : : , > V d A A D d , , ; ; ; A f d d ; d $ d h % 0 # h Z h f Z f ; F h g g Z Z v g h f h ; ; f h 4 ; g 4 4 4 > & - 4 V V V V A A A V ! V V T G V > > & , - - - , - 4 - C f , * C A 4 # 4 C 4 2 4 4 4 3 C V - B A V > V D V V D D V V B B < B < V < B 3 1 < * < 3 3 3 < V < V V V < V V < V < : : = < = < = : < < : < < B < B B < B < < V < < V < < B < < B < B < B B < B < B < B < ^ 5 3 5 < * - 3 5 A 4 ; $ 2 h f 0 # 0 % $ $ $ # @ f f f D > V > > > : 4 > ; - - - 4 : > 4 V A > : : : = &   & & & X & : & , X , , & @ @ X O O O + e M ....w.w.%.t.;.;.B.F.C.g.:.;.;.M.M.j.f.$.{ j.;XD.@.( @.*.$.M.:X&.`  .&.j.S.j.j.<.` { S.Z.k.M.j.m.M.M.S.Z.S.h.&.e.g.n.",
"c u ' u y w.S.j.*.( q q p t i ) w.t.w./ y / ' / u q / h.B.q.` ' ( u c u t =.b.b.b. .u u c [ ' u +.D.].m.m. .t u [ m.m. .+.>.=.:.F.:.+.c c v.F.=.=.c c =.b.F.b.-.+.9.Y./.Y.% F 1 B < : B A V V B & C A A > d d , d d d , , A Q Q Z f 2 4 - - - C 4 & , , D , & = D H.D V D D : : - : : : 1 : 1 - > : 4 > 4 4 > B > 4 - X > : ; A ~ T E E E T D D L L E E E J.S E J E L S S g $ @ d 2 d % 2 r % $ h h h f g h ; j d f h h d d d f h f f f f f f f , & - ; > - : 4 V < , V V V V , D - , B A D B 4 V > 4 > ; : 4 B 4 B A B B A A f ; 4 g 4 > ; 4 A 4 B > > , B V B V V V V V V V V B V B V B < < < 3 1 < 1 3 < 3 < < < < < < < V < < B < B V < : : : : < V B < V B < < B < < B B < V < V < B V B < < V < B < < B < B < B B B B B < < < 3 5 3 3 4 4 f 4 ; ; d d d ; r $ $ $ 0 d 0 2 $ d f d d d d D , ; 4 4 4 ; - - - ; : 4 > > > ; V , & X & & & &   & , & & X , , X X @ @ @ @ O + h _ ) ..r.y.w.h.e.e.m.D.C.t.;.;.;.C.B.g.j.:.&.f.S.M.$.( &.&.*.S.D.&.@.%.f.h.S.j.,.,.{ $.M.z.j.S.j.k.n.j.S.D.M.f.-.;.h.b.",
"[ u ] ' ( g.S.f._ w q q s t t a 8.h.w.} u / } p / 9 y t.A.w./ c c u u t t =.F.V.=. .c u c ' ' a [ -X-Xm.b.:.t u  .m.b.[ [  .=.e.F.v.c c c v.F.=.=.s s =.b.F.m.c s n v./.~.h Z ; B B < : V A B V : f A > > D D d d , d ; > A E Q C 1 o - ; ; : 4 - - : , V , , > D H.E V D D = V : : : : : : 3 4 > 3 : > > : > - > A > 3 A , 4 J.W.[.}.}.}.{.E.E.K.E.W.|.|.`.`.E.`.|.E.J.E A d @ ; ; 0 ; ; $ $ $ g g d d l f d g d d h g h r d d 2 0 d d f A f C - # - ; 4 B 4 > V V , : V > V > : & X , , : B > - , & X X , , , , X X - - & - 3 Z 4 4 C 4 - 3 C 4 : > B = > B A V V V V V V V V V V < V V B < < 5 < 1 6 1 5 3 < B < < < < V < < < B B B B < B < : < 3 V B B B B B B V B B B B B < < < < < B < V V < < V B V V B < V B < B B B < < x 5 5 5 1 2 5 ; 2 ; d 0 ; d $ $ $ r r r d r d ; d d d d d d d - ; 2 f 2 - - ; - - ; ; - - - , V : & & = = = = & & & & & & @ , @ , - - $ + $ 0 e k 6.X.r.w.8.l.-.t.B.D.D.B.w.w.-.Z.S.h.w.&.f.M.B.S.%.` &.&.&.(.;Xf.*.%.w.f.B.j.f.f.$.&.j.j.g.B.M.M.B.B.S.D.B.w.-.e.h.b.",
"c t ' / u w.S.| @.y 9 t s 9 t s 5.t.t.} a ) ) t | q t h.(.t.} [ ' c a t t =.F.V.=.=.' u ' ' +.+.c (.].m.b.:.t ' -.F.b.+.[ +.>.e.F.b.+.c c m.F.v.=.c s +.b.F.e.c t c c._./.Z P 4 : V V < B ~ ^ = , X X @ , d d d d , , > A D L E f @ . . 4 4 ; & X > : : > > V D H.T.H.D D ^ V D > > 4 : - ; : 4 ; ; : ; ; - - - X 4 > > C X B }.zXzXzXzXzXzXwX+X+XoX+XwXzXzXwX+X+XrXoX`.i.J h h + % 2 h d % $ $ ; r $ d g h $ h # r h d 2 $ $ % $ O $ ; % d h f f 4 > ; 4 4 ; , B V , : V A A > B D A > & , > , 4 > > - - : - X C : : A C C A E Q 4 - 4 C ; ; A ; , > A , : D D V V D V V V V = V < V < < V B B 5 5 1 1 1 3 3 < < < V < < < < < B B < < V B < B V < B B B B B B < < < B B < < V V < < V B B V < < V < < < B < B < < < V < < < < < 1 1 5 3 % - - $ # d d d d 0 d 8 8 8 8 0 0 d r d e d $ , , > , - 2 4 2 ; - ; 2 - ; 4 ; @ @ X o : : = = = = & = = , = & & , , X , X @ O O . + $ 0 l 6.6.w.y.8.h.;.:.V.D.D.B.h.g.%.D.:Xn.&.&.f.D.B.B.%.( %.%.w.:X(.g.%.&.*.j.B.B.f.j.,.f.h.j.f.M.C.M.S.S.D.:XS.j.%.;.e.b.",
"u u ( u ' -.h.h.%.w q p a t e ) 5.l.r._ ) ) p k t t ' e.V.b.=.t [ t u t t =.b.V.b.c  .u +.t +.u +.D.(.D.t.%.t / | n.B.w. .' | -.b.w. .a y  .F.V.-.c ' :.e.m.e.c c M /.'.Y.Z d f = = V V V V V V & , , , V > > > , , D d , D E D d X % f 1 # 1 - * - - , , > V D H.E D f A G D A D A ; > ; @ , > - , # - ; % 2 ; f $ ; d A d L K.wXbXbXnXnXbXwXwX#XwXwXbXzXwXwX#XoX@X}.c.p.K $ $ % O O % % $ $ ; d $ # d h h $ % h # ; h h h g j 2 O . % h % $ % O g F ; ; f f , > > f D > , , A > , > > d D D & X > A > , V f 4 > = X , , , A Q ~ D A B B < - 4 3 4 > 4 f A > A : > > V V B B B V 3 3 V > : : : < < * * 1 6 < * 1 < 1 1 < 1 1 3 3 3 : 3 > 3 : 3 : 3 3 3 > 3 : 3 < B < < < B < B < < < < < < < V < < V V B V B B B B B < < < B < 6 x 6 x 6 1 3 ; X ; d f $ + + 0 + + 8 0 e e e z j z 0 0 d @ O @ . f Z g 4 ; X > V ; , > . , @ @ : : = & = = = = & & & & & & & , , , @ , d + + h h x.l _ 8.8.r.a.b.b.B.D.A.b.h.h.e.h.B.B.j.&.2.z.D.C.-.' #.#.g.D.:XB. .B.w.h.S.S.j.$.] { n.n.j.j.z.B.B.z.S.^.S.h.-.;.e.m.",
"u u u u ' ;.h.h.X.w 9 w j w i ) 7.a.r.) k ) p p 9 t c q.V.b.+.t c u t t t =.V.b.t.'  .a [ t [ t [ D.F.(.g.%.y / O.B.b.%.| ' | w.n.e.#./ u :.V.b.=.' [ =.e.v.v.c c n Y.'.c.l A g = V V V V V V V & , : , , > > > > > d V d D s.S f O . 2 % 1 5 1 4 3 3 > > , > d A D D V V A L D A d d d d d d d # - - # ; ; d % $ . ; d d d D J.|.oX#XrX#XoX|._.).).'.|._.).).).Y.!.v.U U F h % r % O % % h h h h h h h v g h d $ . O $ % # # $ f r h h h % h h ; g h 2 # # ; , , , > f > > > D A > > > > A D , , : : : > V D D Q D A D A : D H.H.~ ~ D A V ; 3 > 2 4 4 V f A 4 V > V 3 B V B B 3 V > : : : > : 1 < 1 < < * 1 6 < 1 1 < 1 < < 3 3 - 3 3 3 3 ; 3 3 - : 3 : 3 3 : B < B < B < B B < = < = V < B 3 V < V < < V B B B B < ^ ^ < < x 6 x < 6 1 1 ; 4 > f h S l S I s.m I 4.6.5.5.5.6.4.6.J 6.s.L d A f F f ; - @ @ A d V > d @ , ; ; : , & & , = = = & & &   & & , , , > $ @ d @ + d z I k ) y.y.w.h.h.g.B.A.A.n.g.g.g.h.B.M.d.&.,.n.;XC.&./ ] | ;.(.:Xb.( f. .f.C.n.2.1.` $.k.j.f.n.B.M.l.S.S.^.S.j.;.w.g.h.",
"u u u y / w.h.j.*.y q w p i i ) 5.l.8.) ) k a / t t c w.V.b.=.u c u u t t =.V.b.b.c +.c +.t +.u ' (.(.D.t.-.t ' %.B.h.O.+.` | e.C.h.#./ u -.B.m. .c +.=.e.F.e.c c N V.'.Y.M A A V = V V V V V < : , , : , , , > V d d D > D S S Z . . 1 1 1 5 3 : - : > V > , , & V A A d A D S Z d d d d , , $ - - ; ; ; ; ; d A d d d D d S J.a.Y.Y.E.Y.K.p.p.p.p.i.p.p.p.6.s.M U v f v v h 2 % O . O % % % h % $ # ; ; $ O O ; $ O h h h d 2 $ % d $ O # 2 h J J F S S h f d d , , , d > > d d , d f > D E S L B d G H.J.K.E.).E.J.H.Z > A E H.D B A A C 1 ; 4 > > > f B > A > > 4 V V B B B V 3 V 3 : V : : 3 1 < - 1 * < * 1 < 1 < < 1 < 1 3 3 3 3 1 3 3 3 3 3 1 3 3 3 3 3 < ^ < ^ < B < < < < < V < B B < 3 : V < < B < B B B < < 5 1 < x % 6 6 x 1 1 3 1 ; > d S 6.s.a.a.c.c.~.V.~.~.V.^.V.L.K.Y.`.p.S D F Z - X ; X & D V V V V ; , , - : = = = = = * & & & & & & & , , , , @ @ d @ + z l k l 6.8.a.8.h.f.g.n.F.C.b.g.e.g.h.M.B.f.$.&.j.(.Z.;.( ( ( ;.:X:Xn.y %.] f.C.C.f.1.] $.n.n.1.j.z.M.B.B.Z.;XS.j.-.;.g.g.",
"u u u u | w.h.h._ y q y p i i k 7.l.r._ ) ) p / 9 t ' w.V.b.+.t [ t c t t  .b.V.b.' +.y [ t [ t | A.F.(.g.-.y ' -.n.b.%.| ' ' -.F.m. .' u :.B.b.#.[ +.=.v.m.e.c c c V.'.Y.J g d V V V V V V V V , : V , > V > > d > V D d V D D Z @ . 2 1 1 3 * o X & = f D d V > A A A V B D E S A d d d d 7 d ; ; ; ; ; ; ; ; ; @ @ ; @ @ , d R I s.R I J J J h F S h g h C Z g K h % h h d 2 g f h h h h g I I I I J h J J p.W I p.s.s.P I I Y p.U M P v.Y.P.P.u.s.Y.J.p.L T D d , , d > > > > , A D Z s.E.E.K.E E E. X+XOXlX+XOX|.K.E 4 4 D E V , : B B 4 > ; 4 ; 4 > > B 4 > V V 3 V B B B V 3 3 V : : : : 3 < 1 < < < 1 < < 1 < 3 1 < 1 < < 3 3 * 3 : 3 3 3 3 3 3 3 1 3 < < < < < B < < B < = < < V < V 3 : 3 < B B < B < < ^ B < 1 5 1 % 6 x % % 5 1 2 2 d d 0 d S 6.s.s.L.V.V.~.~.A.~.^.~.~.l.a.`.p.d d f 2 @ ; C , X C V V V V L D > > , : & & = = = o & & & & & & & @ , , @ @ d @ + h l S l _ y.8.r.h.w.g.B.A.A.n.w.g.f.h.B.n.f.@.&.f.D.A.;./ ( y %.D.4Xn.y #.| g.D.C.2.:.] $.M.j.g.k.B.M.z.S.Z.^.S.j.;.;.g.b.",
"u u y y ' w.h.g._ y q w p w p p 8.l.y.....) p a t t ' q.V.V. .t c u a t t +.b.b.t.' +.u ' 9 [ t ' D.D.(.e.w.t ] %.B.n.-.%.] '  .C.e.#./ u w.F.b.:.c c  .-.b.v.c c n V.'.Y.J d ; , : V V V < V V V , V , V , > V D > D S D D E E F # 1 4 1 1 * o = o X & > d D d D A V V D D S E J.s.S D z d d A > > > d > > d ; S E K.K.J.s.E E S L I S S Z d h f h d r ; d h S I p.J g S j h g h h h h 0 f L P.W s.T h $ 0 F s.I p.I I h d h I I s.I J I Y._.).|.Y.E.).).K.Q s.u.S B f A h d d d d S E E K. XoX}.u.E E. XoXoXwX+XoX X`.u.g d A C , & , B f 4 > 4 > > > 4 > V B 4 4 V 3 B 3 B < 3 3 : 3 : 3 : : < 5 1 < 1 < 1 * 1 < 1 < 5 1 3 3 < < 5 3 < < 3 < 1 < 3 < 1 < 1 < B < B < < < < < < < < < 3 : 3 3 4 ; : 3 3 V < B B < < 5 5 1 2 % % x % % 3 2 4 2 A h z h S x.s.8.r.a.l.t.l.h.l.l.l.l.r.s.a.x., @ f 4 - 4 D > , B V V D D {.H.E V = = & & = = o = & & & & X & @ , , , @ @ d @ + d l m _ S r.y.8.h.w.g.n.A.D.b.w.w.j.h.B.n.,.*.$.f.S.S.g.@.` ( #.S.D.f.q #.] f.B.k.j.;.{ #.M.b.2.n.B.B.z.M.S.;XA.h.;.:.t.g.",
"u u y t | w.h.f._ ( q q p p p ) 8.l.y.) ) ) p / 9 t ' r.V.b.O.t c u c u t +.b.B.b.c  .u ' t c t ' (.A.(.g.q.y |  .b.h.-.-.| / } C.e. ./ / q.C.b.-.[ +.[ =.V.F.=.c M F.'.~.S d @ : V V : V : < : : V , > , V > , > , D D D E K.H.Z - 1 5 1 o < 6 B 3 & X , > V V A , , > d D s.J.K.u.S S A D f D ; > > > > > d , d D K.K.`.K.S S I S S S h d g f d d d d d h Z L s.i.u.I E I L I h f d ; ; f p.`._._.E.W F I i.Y.).E.).P.s.I p.E.Y.Y.P.P.Q.oXwXwXrX.X). X|.E.s.u.S d ; d A d f d A d G s.s.J.E.).|.u.L R U.K.U.W.K.U.I.J.E A d f A > & > f f > 4 2 > 4 > 4 > > V V 3 4 V < B < B < 3 < : : : : - 3 1 3 1 1 < < 1 3 < 3 1 < < 1 < 3 < < < < 3 < 3 < < < < < < < < < < < < 3 < ^ < = V = < : 3 3 3 1 3 4 3 3 B B < < B 3 3 1 5 2 2 % x % 5 2 2 ; r d d h z l k 8.a.r.r.h.a.l.j.l.y.w.8.8.8.K.x.z d Z Z A ; C > , A V V D E {.H.E V = & & & & & = & & & &   & & , , @ d @ , d $ @ z l l _ ) 8.y.8.l.w.w.B.D.A.n.e.g.b.h.S.B.f.#.&.j.S.S.h.*. .' %.S.D.j.( ;.{ w.B.B.j.2.{ $.M.j.f.j.M.S.B.S.D.(.C.h.w.;.g.m.",
"u u t y | t.h.f._ y w w w ( w ) r.B.t.X.} ) u a t t c q.V.b. .t a u ' u t ' b.B.b.) +.s ' 9 c t ' A.(.D.h.w.y ] %.b.b.-.%.| / ] A.e. .u u :.B.m.=.[ c +.=.V.b.n c c c.#XY.J d @ , > V , V < : : : V > : : V V , , , V > D D J.E Z - 1 3 o o 3 5 B B : , V > V d > , > V A S J.E.K.K.s.E D z d d d V d d d d , d D K.`.zX X`.K.s.I L S Z z d d z d d d d d d Z S S i.p.s.R J Z s.I I J S S s.K.).Y.Y.p.l d h I I p.I J J h h h I 0.I R 6.I s.U.).oX`.Y.K.K.K.s.E d ; $ d h f d f h d g I S I s.p.K.E S P s.R I s.L L S g h f f d S A > > d > ; f 4 4 > 4 > > > > 4 3 3 3 3 3 3 3 < 3 V < - 3 : 3 3 3 3 < < 1 1 < < 1 < 3 < 1 5 < < < < < 5 < < < < < < < < < < < < < < < 3 < < B < : V < 3 3 3 1 1 4 3 3 3 B < B B < 5 1 2 h % 2 5 % 2 % 2 2 d d 0 0 z d z l 6.y.l.l.l.j.l.l.l.z.d.l.l.L.L.r.S S h E S - ; > V V V V V E D H.D V , & & & & & o & & & & & & & , , , d $ , , + + h l S l ..8.y.8.t.f.g.B.D.D.n.g.e.h.M.C.S.j.&.,.k.Z.A.f.@.#.@.&.S.D.B.] j.@.f.C.S.g.2.[ :.M.m.1.n.M.n.M.S.S.;XS.j.;.e.g.b.",
"c u t q | f.h.w.` ( ( w w p ) w r.l.t.} ) / p a 9 t +.y.V.b.O.s ' a c y 9 n b.V.t.'  .u ' 9 ' 9 / D.A.(.t.w.y | %.B.t.%. .| /  .A.g. .u u :.b.-. .+.[ +.=.F.b.c s M c.].~.6.d , > : > V : : : - : : V V , , V , > > D > > E K.E Z ; - 3     B ~ ~ D B V > > d > , > D D D D E E.`.K.K.K.K.x.D D > > d V > d d d S K.`. X X`.K.x.x.S S d d d d h h d d d d 8 d l h s.s.S S d z I Z d ; d h l S J p.u.I h h S I J 6.J S S I J J I J L I P j d I `.K.s.S g S E E L h d d h S h h l Z d h s.I J R I Z l S 6.p.L l f I S j d d h h d g f d f > ; ; f > ; > > : V V : V B 4 3 5 3 < < 3 < < 3 < : 1 < 1 3 < 5 3 1 < 1 < 5 1 1 3 < < < 3 < < < < < < 3 < < 1 < < < < < < < ^ < < < < < = = < < : 3 : 3 : 2 1 3 3 B B < ^ B 3 5 2 % 2 2 r % 5 h 2 d d d d l l z p _ 7.y.l.l.l.S.S.S.M.z.L.^.L.^.`.8.x.x.@ S A , ; A > , V V D H.V D V V : & & & & = = & & & X & X & , , @ , , @ d @ + z l k S _ 8.r.r.l.w.h.B.(.(.B.h.e.b.B.C.C.j.1.d.l.:XD.;.@.$.#.f.D.A.z.` f./ $.M.D.j.:.{ >.n.b.2.n.B.B.S.B.D.(.S.h.;.:.e.h.",
"u [ t u y h.n.f._ y y ( ( w w ( *.b.h.X./ a t a q s a w.^.V.o.c c u y s 9 +.h.B.t.-.' a ' ' u t q (.D.A.n.e.q  .w.V.B.-. .( a | B.e. .y y -.B.b.=.>.+.[ =.c.F.c M c v._.Y.J d $ ; > , > : 3 * & & = : : : : V V , , G , D V K.E A > ; - X o 3 ~ H.H.B & D D > D , , > > d D K.K.K.{. X`.s.E x.D E D D D D d d d l s.L.`.`.K.s.s.d d z d d 0 d h d h h d d d z Z 6.I S h d d h h ; d d h z h S d l J J l ; $ 0 h h h h I R I l h J S l g h d I p.p.i.p.E I s.E l l h h h h h h h j p.p.l I Y.Y.I l T a.Y.).`.i.6.l h g I Z $ $ l d > @ O d f h - ; > ; X = A D V B 1 * 3 4 3 3 3 ^ < 3 B B 5 B 4 5 5 < 3 5 < < < 5 5 < B 5 5 < 5 B < 3 3 B < 3 < < < < 3 3 < < 3 < < < < < < < 6 3 1 3 1 3 : 1 4 2 1 * 1 3 < < < < < 3 2 ; d d % % % % d d r e d 0 S x.p p X.7.&.l.l.B.z.S.S.S.S.S.z.l.l.L.a.s.z l f d f d > > > , V D B V V D V : & = : = = V = = & & & & , , , , @ @ $ @ @ + + e m x.k r.y.8.l.h.h.B.A.D.B.h.g.j.C.D.S.&.1.k.h.S.S.d.$.&.$.f.:X:Xf.;.` ,.&.Z.S.m.2. .>.F.m.e.m.m.m.n.M.C.D.D.B.-.;.e.m.",
"u [ y c y h.j.f.` ( q ( ( w ( ` O.l.h.O.} y w a q u / r.~.V.o.} / s u u t ' b.V.t.O.' a c ' y t t A.(.(.B.w.t #.w.C.B.-. ./ y ' C.e.| t t #.F.b.=.[ +.=.:.F.b.c M s a._.~.J d d f d d V f 4 3 1 , : : V V : : > > = D , D d J.E 4 - - 3 3 3 B ~ B ~ D G E D d , d > V d D D s.`.s.K.`.`.K.L.`.s.D d d d d d d z z l S I 6.S S x.h l l Z l l l S l z S l z l S 6.s.s.s.6.J l l S z S S 4.s.I S I S v S l l Z I I I h h l I 6.p.p.c.c.a.p.I 6.a.).~.`.`.~.`.oX X`.~.P.c.Y.c.p.0.p.I Y.)./._.#X'.Y.Y.Y._.9XrXrX_.Y.~.s.l J 6.l h J l h d d h h h h d A C > B G G : B 3 - 3 5 < 5 < 3 3 ^ < 3 B 5 4 3 3 3 3 B < 5 3 B < < 5 < B B < 3 5 3 B 3 < B 5 < 3 < 3 3 3 3 < < < 6 < < < x < 1 3 - 3 4 1 3 ; ; 6 1 * 3 3 3 : B < 2 1 2 % 0 r $ r r % d ; d d 0 l ) w w _ %.%.j.j.j.j.f.1.,.d.,.&.f.l.l.8.8.x.S S S Z g d d > , : A V V V V V V & = : = < V < = = & & & & , , , , , @ $ $ , 7 z J x...8.y.w.y.h.g.b.A.D.B.b.g.f.n.D.S.,.w.z.k.S.S.1.@.*.@.f.;X;X1.f.@.&.&.A.S.N.g.>.:.N.G.2.m.;.m.n.B.D.D.C.b.e.e.t.g.",
"c [ u / q g.h.f.( ( ( ( ( ( ( ( O.l.t. ./ / t y t i k r.^.V.5.k ) u p a s +.t.V.h.q.} a } n u t y A.(.D.h.e.y  .w.C.C.q.| / y ] A.g.] t t #.F.b.+.[ +.=.v.F.b.c c c a._.~.S 0 ; A Z A A A C B 4 : : V 3 : : : , V , D V d V E H.A ; - A A B B D D V D B V > d d , > d V d D s.K.K.K.L.{.`.`.`.K.x.D S S S s.s.x.s.s.a.a.a.a.a.K.0.s.0.6.s.0.s.s.s.0.5.0.a.a.c.P.~.~.L.P.K.s.a.a.s.a.p.a.a.K.a.p.Y.c.p.r.p.c.c.P.Y.p.s.a.Y././.oX'.)._././.).].'.rX9X X_.rXwXrX X_.)._.)./.Q.~.`.v.).'.9XrXeX#X)._.oXrXwXeXrX9X_.oX~.0.r.r.s.6.p.p.6.R 6.s.p.s.U U p.Q R J.J.H.B g 1 - 1 3 1 < 1 5 5 B 5 5 5 3 4 5 < 5 3 < 5 5 < < 5 5 < 5 < < 5 3 B 3 ^ 5 B 3 B 3 3 3 3 3 3 3 3 < < < < < 5 3 < 3 1 3 1 ; 1 3 3 1 1 1 1 1 < 3 < < 3 2 2 d % d r % % % 2 r 0 0 e 0 _ ) w q ( *.*.B.h.j.f.d.<.,.&.@.*.d.8.x.8.8.S l L S z d $ d ; > > V D D V V V : & & : < B ^ < = &   & & , , , @ @ , , , $ z 7 e x.x.J r.8.y.h.g.g.b.D.A.B.h.h.-.g.A.S.&.1.n.j.S.S.<.] ` @.,.Z.:X;.f.` f.*.Z.S.N.e.>.>.m.G.e.G.:.b.m.F.D.D.C.g.:.:.m.b.",
"u ' t ' y t.f.j.` ( ( ( ` ( ( ( #.b.h. .} / t t 9 u / r.~.V...} c s / } y ' t.V.t.q.+.a / } p t a C.D.(.h.w.y ' -.V.V.w.| / u  .A.g. .u t #.B.b.=.+.c +.e.F.V.c n n y.'.~.6.d d d A Z G L G g 4 V 3 : V 3 V V : V & : V V V E H.S A > V C V 3 V V , V V , d S D > > > d D D E E H.s.K.K.K.`.`.E S D S s.s.s.6.s.s.L.L.^.`.L.l.l.a.a.p.a.c.Y.V.a.~.a.a.Y.~.)._./.)./.`./.~.~.~.~.Y.~.~.~.~.~.~.~.'./.Q./.~.~.)./._./.)._.oX'._.].'././._.'.'.'.#XrX9XoX_._.'.oX/._.~././././.~./././.)._.'._._._./././._.'.'.)./.V.Y.~./.Y.0.a.~.~.Y.a.P.c.Y.c.U.P.P.P.J.T.E.H.~ C > - 1 1 6 * < 3 B 5 4 5 B B 4 3 B < 5 5 B < B B < 5 B < 5 B 3 5 3 B < V 4 3 4 4 3 4 3 3 > 3 3 B < < < 3 1 1 1 1 3 ; 3 3 ; ; 1 % * * # < 3 < 1 3 3 2 2 % d 0 % r d 0 0 0 d d 0 z z ) w q ( @.$.g.j.f.f.j.2.d.2.<.w.f.w.x.8.r.x.d l h 0 @ r d d f ; > D E V V V : & & V V D ~ B = & & & X & , & , , , $ d d d d 0 6..._ 8.a.w.l.h.h.n.A.D.b.g.e.%.f.A.C.,.&.j.f.D.M.&.` { @.&.M.:X&.,.] ,.&.S.Z.m.G.[ >.F.m.:.e.m.m.B.m.F.D.F.b.t.b.b.m.",
"u c t ' t ;.h.j.` ( ( ( ( ( ( ( %.h.t. . ./ t q t s ) r.^.c.X.k } y / } s a w.V.t.q.} / a } u 9 / C.A.(.e.w.u / | b.B.w. ./ / %.C.e. .' u #.b.b.e.[ c +.-.F.V.+.} k a._.~.I h d ; d Z S L Z 4 # 3 = , : V B : : > X : V > A H.H.E D > > > , , , V = D S d V D D D d V D D D S E x.D s.K.`.`.L.K.x.S K.L.`.~.a.r.r.a.~.~.^.l.l.r.c.y.a.a.V.V.~.c.c.V.a.c.~./.~.~./.(.(.~.~.~.~.~.~.~.~.~.~./.~.~.c.~.~.~.~.~././.~.c.Y././.c.v.v.c.c.v.V././././.Y.~././.Y.~.~.Y./.v.9.v.~.~.~.c./.c.v.v.c.v.c.c.r.r.a.a.a.c.a.v.0.r.V.~.a.9.r.a.a.a.p.r.a.0.v.v.a.i.u.i.J.J.! G C 1 1 3 3 - - 1 5 4 5 5 4 5 g 4 3 5 3 3 ^ < < 5 5 < B < 5 3 5 3 V 3 4 4 4 > > 4 3 4 > 4 : 4 : 4 3 < 6 1 1 1 1 < ; 1 1 ; 2 1 2 - 1 1 - * < 1 3 1 3 ; ; % r d r 8 r 0 ; r h z z z x.l _ w ( ` #.$.;.;.;.;.1.2.j.2.1.1.f.r.8.a.l.r.l k l h l l h d d O @ d G B : V V & = : B G ~ < = & & & & & , , , @ , d d d z d z J x...8.a.8.h.B.h.C.A.A.b.;.;.%.e.S.S.&.&.f.&.S.S.d.` { ` $.M.&X1.,.] &.&.Z.M.G.:.+.>.G.m.G.m.m.m.m.m.C.F.F.b.;.b.b.m.",
"t c t ' t w.f.B.` ( w ( ( ` ( ( &.b.t.#. ./ q q 9 y k r.~.V.4.) ' t a } t u w.V.b.q.} a ' a u t / b.A.:Xw.w./ u / b.B.-.#./ / -.C.w. .] [ =.b.:.m.+.c [ =.F.F.+.+.k c.,X`.6.l d 0 ; f Z Z g # o - * = = V 3 V = , X V & V D J.E D A > V > V V V A V D > > d D d d > > D D x.s.s.s.E K.L.`.`.`.s.K.x.s.`.`.Y.a.a.a.a.l.V.a.a.h.a.0.r.9.y.a.v.a.a.a.a.a.a.a.r.y.0.a.a.c.v.a.a.a.t.c.c.a.V.V.c.v.c.a.a.c.c.v.v.v.v.r.0.0.0.0.0.0.0.v.0.=.v.v.=.=.=.o.9.y.r.0.0.0.a.v.m M I r.p.0.0.0.9.Y o.4.4.4.I ..4.4.0.0.r.r.r.a.4.4.o.5.4.4.4.9.4.4.4.m Y M U 0.U W U Q T ~ A 4 2 2 4 5 1 1 1 4 4 4 4 4 4 4 4 5 B 3 5 5 < 5 < < 5 < 5 < B 3 3 3 4 > > V 4 4 > V > 4 > 4 V 4 4 3 1 1 < 1 1 1 6 1 3 2 1 1 - 2 1 % 6 1 6 1 < 1 < 1 2 ; d d 8 0 r h r r d l l z z ) x._ ` @.$.1.j.m.m.j.m.j.2.2.j.j.g.f.f.8.a.l.a.5.6.4.0.6.l e $ d d ; > D D > > = & = B V B D B = & &   & & @ , , , , , d $ d 0 e m ..) 8.y.y.t.j.B.n.A.A.h.;.-.&.g.A.C.&.&.,.&.S.S.j.*.@.` @.z.;X&.1.` ,.$.%XZ.G.>.[ >.m.m.G.m.F.N.m.m.m.Z.D.m.e.e.b.m.",
"u t t ' y -.f.j.*.( w ( ` ` ` ` %.b.t. . .' q 9 q t k 8.^.l.4.k } t a ' t t q.V.V.7.+.' } a u 9 } h.F.(.-.w./ t / h.B.e.| / u %.D.e. .' ' #.b.b.b.[ c [ v.F.V.O...k l.oX/.R l d ; ; ; ; 2 ; $ o : = & = 3 3 : & & & D & V D J.D D > > D V > > D D A , , d D > V V D D K.H.s.K.`.K.K.L. X X`.`.s.S z z s.a.6.k m X.O.X.O.X.O.7.r.9.9.9.9.0.o.5.9.r.r.r.q.5.+.o.o.5.5.r.0.5.5.5.9.r.9.9.9.5.5.q.0.r.v.0.v.p.0.0.9.0.4.I =.9.I 9.p.=.=.=.=.I +.n Y m M o.M n n M m M n M m 9.+.=.I n m o.M M o.m n 4.4.9.9.9.9.9.r.r.4.m M m 4.4.9.9.9.=.I 4.I m 4.U 0.W W T H C B 4 2 2 4 F 4 1 1 5 5 4 4 f 5 4 5 < x 3 B B < B B B 5 < 5 x 5 < 5 4 > d B > > f f 4 > 4 > > > d > 3 1 6 1 1 1 1 1 ; 1 1 : ; 2 1 2 % 1 6 1 1 1 1 < * 1 # % d 0 r 0 h e 0 e S m S ) 6.x.X.*.f.d.M.M.Z.D.Z.Z.C.N.N.Z.M.k.h.l.l.V.~.r.V.a.l.V.0.e 8 j M 6.L d V A B V = & : B B B B = = & & & & & , , @ , 7 , , 7 7 7 z m k 6.8.y.r.h.h.h.n.F.C.b.e.;.%.g.S.S.&.&.d.1.M.Z.z.,.*.( ] S.;X,.,.] 3.$.D.F.m.>.+.>.m.m.:.m.m.m.m.m.m.F.F.m.:.b.e.m.",
"c c t +.t #.f.j.d.` ( ( ( ( ( ( %.b.t. . .a 9 9 q s a r.~.V...) } 9 s c 9 9 q.A.b.q.} k a } i q | t.F.:X-.-.( q / b.B.w.| u u  .D.;. .' '  .b.b.b.c c +.b.F.b. .n n a._./.6.l f d ; @ @ @ # # , 3 * & = : : = X & : G & A D J.A , , d d > & , > , A D D K.s.d d D s. X X{.{.L.K.K.K.`. X9X X`.s.s.A l s.a.5.6.9...X.%.q.q.w.t.t.q.y.y.q.o.} +.o.c } o.+.n a k } o.4.o.5.o.o.O.o.o.+...} n n n n 4.M n M r.v.v.0.9.4.=.0.0.M n =.9.=.I =.+.M =.=.n n c M 4.0.9.9.M o.4.v.v.I 9.v.0.v.0.o.M 0.9.M 9.9.9.5.4.4.4.4.+.0.a.r.o.m r.V.9.9.0.o.=.o.I =.Y I p.u.P g ; ; 4 ; 4 B F 4 3 2 B 4 5 4 4 4 4 3 B < 5 < < x < x < 5 B < < 3 B 3 > 4 4 > f > > > d 4 > f f > 4 4 5 1 < 1 1 1 1 * 1 1 2 2 1 ; ; 2 - 6 # 1 < 1 3 : 1 ; ; d % d r d l h z h x.6.I _ _ _ *.d.j.k.Z.Z.Z.D.D.&XZ.Z.Z.=XD.C.M.V.A.^.A.a._.~./.^.r.9 e p.I p.R ; , > V V : & V B < V < < & & & & & & , & , , , , , @ d @ z S 6._ 8.y.w.t.f.g.b.A.A.b.g.e.%.f.B.M.&.&.j.f.k.Z.Z.,.{ ` @.M.:X&.,.` :.>.D.F.m.:.+.=.m.G.e.G.m.F.m.m.C.F.F.m.:.:.e.e.",
"s s 9 ' y #.w.M.` ( q ( ( y ( [ =.b.v.=.+.c t r 9 t } l.~.l.6.k k 9 a 9 a t 7.V.V.5.) p i / / 9 p w.A.A.B.w.y y ( -.:Xw.#.y ] | m.e. ./ u #.b.B.e.[ ' ' -.F.F.O.+.j 9._./.4.r g ; h h 2 , @ @ , , : : : V V & & D & V D D D E D D V , d D D D D D D D D zXs.D D E zX X X X X X XL.{.L.{. X X XK.J.S S a.~.s.4.t...7.y.t.8.*.8.w.t.-. .+.[ n =.m.O.-.e.y.-.-.=.-.e.v.e.=.v.m.v.e.v.e.=.e.e.y.q.=.v.=.=.v.v.v.9.v.v.0.a.v.c.0.9.9. .v.b.9.o.=.0.=.9.=.+.=.9.9.9.=.M 9.0.v.0.0.0.r.r.c.v.4.M 0.0.0.a.q.0.0.y.v.y.0.9.v.y.y.v.r.9.c.n v.v.=.9.9.9.v.K v.F u.J.d D > > > 4 3 4 4 3 3 B 5 B B 5 3 5 B x < x < < 5 < 5 5 < 5 3 3 5 4 3 5 B 4 4 B 4 g B 4 4 4 B 4 C 5 B 5 5 5 3 1 1 1 1 1 1 2 : 2 ; 2 ; ; % 2 ; 1 3 3 : 4 V f d d d d l z z l l 6.7.s.x.5.l.l.B.Z.:X:XM.=X%X=X%X%X%XZ.Z.j.l.S.;X:X_.:X(.2X].].2XF.c N F._._.K.z > > > V V < < B V V V V = = & & & , , , , @ X X @ @ + + j k l m w.h.w.-.e.t.M.F.D.V.g.%.%.h.A.S.&.8.k.h.S.Z.z.f.;.@.@.M.:Xh.@.@.f.k.M.A.n.2.:.>.n.C.m.m.m.m.t.C.F.N.N.b.:.:.b.b.",
"s c t ' t %.&.M.$.( ( y y y u c =.b.v.+.n c t t t t ) a.^.l.7.k k t a 9 k q q.a.l.7.X.k w p ) q ( j.A.A.S.q.( y ( w.(.w.&.y ] ] b.t.-.u ( =.b.F.e.' ' ] w.F.S.O.} k 9._._.U r b % 2 2 > ; - ; ; V B V : f V V , A & , d V D E D D V , V D D D E K.K.K.s.`.D D x.K.xXzXzXlX XaX{.K.`. X`. XlX X{.|.`.`.9X9X/.a.r.O.%.%.*.8.7.*.*._  .-.-.-.=.=. .-.-.w.-.v.:.v.b.v.b.m.v.m.v.F.e.m.v.v.v.b.c.v.b.m.v.m.v.m.-.y.y.t.r.t.b.c.r.y.a.=.v.v.9.=.0.q.9.y.y.9.9.q.0.9.0.n 9.a.y.a.0.y.v.m a.c.a.r.y.r.o.y.0.9.=.9.o.m a 9.q.4.9.y.m n 9.c =.=.=.v.0.=.v.=.0.v p.K.S E A > 4 3 4 3 3 3 4 B 5 B 5 3 B 4 3 < 6 < 5 < 5 < 3 5 5 1 3 4 5 4 1 g 5 4 g 5 4 5 5 4 C 5 5 4 5 4 5 5 3 5 3 1 1 1 2 1 ; 1 ; ; 4 > 2 % ; ; 2 4 ; > : V B A d d > z S S x.S 6.7.r.r.r.8.l.^.^.,X0X0X:XfX=X%X=X:X=X=X%X:X:X;X:X:X:X,X^.2X(.2X].].v.b.].'.oXK.A d d V V = < B V < V V V = = = = & & , , & X X . @ O @ $ e m k ) w.t.e.-.g.m.M.F.F.B.t.%.%.f.^.S.w.&.n.j.D.D.B.1.%.` *.S.:Xj.@.@.w.j.S.D.n.g.;.:.m.N.m.;.m.2.g.N.F.C.C.m.e.e.g.m.",
"s c 9 ' y  .$.n.<.[ ( y ( y u u =.b.m.+.+.c r t t t ) t.~.l.7.l k t k 9 k q 7.V.l.5.X.p i k ) 9 p h.S.^.S.w.( ( / &.C.&.&.( #.' b.h. ./ u  .m.B.e.[ ' ' ;.F.F. .} a 9._.).0.h b 2 2 ; 2 4 f d > A B V , : V V = A > V V D D H.D V , , V D D E {. X{.K.D K.D D s.L.xX X X X`.{.L.K.{. X X`.{.`.{.oXoXrXxXbXqX^.l.l.q.X.@.w.j.8.*.' [ -.-.-.-.-.=.-.:.-.:.-.-.:.b.e.v.b.v.v.v.m.v.F.v.G.v.b.b.b.h.b.v.b.y.=.=.q.q.=.q.t.a.t.q.r.t.q.v.c.-.o.=.q.=.9.9.O.o.+.=.O.q.o.0.y.r.9.0.r.v.5.r.0.o.M 9.0.o.0.y.q.=.4.o.n c 9.9.O.=.y.=.n 9.=.N =.e.v.9.M M m 0.I a.K.E E A 4 3 > : 3 V 4 3 B B B 4 B 3 B 3 < x 5 < 5 < 3 5 5 3 3 5 5 4 4 1 4 4 5 4 5 4 4 4 4 5 4 5 4 5 4 4 5 2 3 2 3 2 3 4 ; ; 2 2 ; 4 2 ; 2 % 2 2 > 3 > 3 : > > d d z S S S I ..4.6.5.r.t.V.^.,X4X6XyXyX6X=X>X-X8X7X3X3X3X3X>X:XD.(.:X:X:X4X4X2X6X6X6X].].'.9XY.h d V > >   o < V V B B V = = = = & , , & & & X X @ O + 7 i m k n r.t.;.-.e.m.B.F.A.F.h.7.w.h.^.S.,.w.j.j.S.;XB.;.#.] #.D.:Xh.{ @.&.g.M.D.M.m.:.e.g.m.m.;.B.m.b.N.D.F.N.C.2.e.m.m.",
"c s 9 ' y -.&.n.,.[ ( y u u u u =.c.v.=.+.c s t t t ) t.~.l.7.) k q k 9 j 9 0.l.V.8.) ) w ) ) 9 ( j.^.B.B.w.( y / %.B.%.;.' %.] m.b.:.u c #.b.F.e.| ' ' -.A.F.O.} l r./.].0.h h h 2 ; 2 A C A V A E D A f V V V D H.K.D D J.K.E > , , > > d s.lXzX XK.D E x.D K. XlX XL.K.{.L.K.K.L.`.`.L.K.K.`. XoXrXeXgXeX'.b.V.8.| | 8.d.8.*.%.=.-. . .-.:.-.=.=.=.=.=.>.=. .+.:.v.-.e.=.=.e.:.=.:.:.-.q.%.%.:.=.-.=.-.=.-.r.O.9.q.y.9.} ..5.q.e.y.=. .=.=.O.O.=. .c s c o.=.y.y.o.o.O.O.o.o.9.q.5.+.n O.O.o.q.q.q.O. .=.q.-.r.e.O.O.t.v.y.b.v.c c v.b.=.c M 0.4.4.p.s.S l ; > 3 3 4 4 4 : 4 3 B 5 B 3 4 3 5 < < < 5 < 5 1 1 3 5 3 5 4 5 f 4 4 4 4 4 5 4 5 4 5 4 4 5 4 4 5 4 1 3 5 3 2 3 2 4 ; 1 2 > 4 2 ; f ; % ; 2 2 > 4 > > > A d d z S S ) k ) ..) ..7.l.^.^.2X5X6XyXyX8X-X>X8X8X7X5X5X3X>X:X&X(.:X:X4X3X3X6X4X2X4X6X2X2X4XrX~.z d D > ; X = < < < B B V V = = = = , , , & X , X @ @ @ + d ..k ) w.t.w.;.:.m.B.F.A.C.g.%.&.h.D.A.w.w.j.n.S.D.M.&.@.` $.D.:Xj.*.] %.w.M.;Xn.;.;.2.b.m.2.m.m.2.g.C.Z.Z.C.m.e.m.m.B.",
"s c 8 c t #.-.M.:.] ( ( u ( c [ =.c.b.=.+.c t t t r u q.~.l.7.k k t n q p 9 7.l.V.7._ p w p ) 9 ( t.A.A.S.w./ ( ` %.B.%.-.] &.] m.b.=.' '  .b.B.e.' ' ' :.A.F.O.o.+.y././.p.h % d % ; 4 A A A A D J.T.H.D B B D G K.{.H.D E E E D V d d > d K.zXlX{.K.D D x.s.s. X XL.K.K.{.K.K.L.L.`.`.K.K.K.K.`. XoXoX9X'.~.r.r.O./ ( ) _ x.*.e.e.:.' +.%.-.-./ '  .:.b.:. .+.+. .w.y.=. . .-.+.=. . .@.|  . . . .=. .w.e.h.g.%. .5.7.5._ ..%.r.y.e.-.O.O.O. .=.9.O.+./ +.O.t.V.q.' +.=.r.O.c +.=.h.V.V.c.-.c  .=.=.' a  .q.t.b.b. .c =.w.e.b.=.N N v.G.$XG.v.0.n 0.v.P J f @ > 4 > 3 3 4 3 : 3 4 V 3 4 3 3 4 5 < 5 5 3 1 1 3 4 4 2 > f C f V 5 B 4 4 4 4 5 4 B 4 4 4 4 B 4 5 * 1 5 3 4 4 4 4 ; > 4 2 f 4 d 4 % d d 2 > > A V > > d d d d z l k k n k k s O.h.C.(.2X2X3X5X3X3X8X-X-X-X-X3X-X-X2X2X:X2X3X3X4X3X2X4X2XF.D.].D.].'.rX/.h f g d , - 3 * o < B B B V = = = , , , & & X X X X O O $ e k m k q.e.;.w.t.m.m.F.D.C.g.%.w.h.^.A.&.&.j.h.j.^.C.;.*.] #.S.:Xh.#.] $.&.B.&Xm.:.#.:.m.j.m.m.n.g.m.C.D.D.m.F.G.e.m.m.",
"n n 9 a t %.%.b.;.] ( y ( ' ' [ =.b.c.=.c c t c t 9 i q.V.L.7.k k i m q p 9 5.V.l.r.6.j w ) ) q ( f.A.S.A.f./ ( | &.B.%.;./ #./ F.b.-./ '  .b.F.e.| ' ' -.F.C. . .m a.(.].p.r $ 2 % 2 2 f f A d ~ H.J.H.~ B B H.E {.{.J.E E E H.K.J.E D d d E `.L.s.s.D x.S D D L.{.{.K.{.L.L.K.`.`.`.L.K.s.D D u.K.a.K.a.c.y.5.7.X.| ( ( _ *.d.e.b.w.#. .-.-.] y u +.-.b.b.w.:. .=.q.e.-.|  .q.:.:.w.%.*.*.&.%.#.#.#.-.t.b.h.7.%.|  .7.8.8.8.7.h.t.t.y.w.q.O.O.e.q.O.| | O.w.h.C.q.'  .e.b.w. .+.-.h.V.C.B.-.|  .:.q.[ u ' :.b.F.F.e.[ #.:.-.b.e.N c G.v.G.v.v.v.c v.c.I 6.l d > : 4 3 > : : 4 4 3 4 3 5 B 3 3 5 3 3 3 3 ; ; ; 4 4 ; 4 f f f f 4 4 4 4 4 4 B 4 4 4 5 4 4 4 4 4 * 1 4 4 B 4 4 4 4 2 > > d 4 > f d f 2 d f V d d > > d d d z z z ..k a +.a (  .t.D.D.:X2X3X3X2X-X-X8X-X=X-X-X-X-X3X3X3X2X2X2X2X*X2X2X2XD.D.D.-X].].4XV.N 0 h d ; 2 4 1 & V B B V V V = = & & & & , & X X O @ @ 7 e m ....7.e.w.e.:.b.B.D.F.F.h.7.%.f.A.S.&.&.j.f.j.Z.S.f.@.] &.S.&Xn.#.@.*.&.n.D.M.:.[ #.m.n.m.n.m.m.m.M.Z.F.N.N.e.G.F.m.",
"M c 9 c t #.&.b.f.@.( ( / / ' ' =.V.b.=.+.c t c y 9 s 5.V.l.8.) j t ..q p 9 X.V.l.7.X.p p ) ) 9 p h.A.^.A.f._ / | ;.S.w.:.( ' ( B.b.#.' ( =.b.b.:.' ' ] -.A.F.O...o.a._.].p.x $ ; h f 4 ; > d B V H.H.H.D B V V D T.K.H.H.E H.K.K.{.K.D d D D x.x.D s.D D d x.d {.L.{.K.K.L.K.K.`.`.`.`.K.S D z S I s.a.a.0.r.q.q.%.X.| @.*.d.l.h.b.e. . .:.-.' / ' | -.b.b.b.=.O.-.e.e.O.' X.f.-.f.j.f.&.&.d.d.#.#.#.#.f.M.h.@.f.X.@.8.y.f.w.w.b.b.h.b.h.w.-.O.w.%. .| O.q.e.l.B.w. .#.e.b.e.%.-.:.:.t.b.g.:.-. .m.m.:.[ #.e.b.A.D.b.:.-.:.:.b.F.N N F.G.v.F.=.=.r v.c.0.p.I f 4 > > ; > 4 : > 4 : 3 4 B 3 4 B 4 3 3 4 > ; , ; > 4 > > d D D > 4 4 4 4 B 4 4 4 4 4 B 4 4 4 4 4 * - 3 4 B 5 g 4 ; 4 > A f > f d d d d f d 4 > V , d d d l z S z ..a u +.' u [ m.C.D.*X2X3X*X-X-X8X-X=X=X-X-X-X=X-X3X*X*X*X*XD.D.2X2X2X(.2X].-X].F.'./.j $ d d 2 # 1 - o < D V = V = = = & , & & X & X X @ O + 7 0 m ....q.w.-.e.:.b.m.F.A.V.h.%.%.f.A.S.%.#.f.f.g.D.C.&.] ] &.S.&Xh.&.*.@.$.h.D.Z.#.( #.m.m.j.m.N.m.m.Z.F.D.Z.F.:.G.m.m.",
"n n 8 s t O.%.h.g.#.[ u ' u u a M c.F.=.+.c t c s 9 t %.V.L.r.) p i } i s 7 6.l.B.7...) w k ) q p j.A.A.S.y._ ( ' -.D.-.#.y ' ( C.b.:.' c #.b.F.e. .' ' -.D.F.O...) y./.].v.N $ % 2 f f ; - > > D H.H.V D ~ D D E H.H.D E H.H.{.K.K.s.D D D D D D D s.D D d E D {. X XL.K.L.K.L.L.`. X9X`.K.x.E J.K.Y.`.Y.r.9.y.7.O./ _ *.8.l.l.b.n.w.' ] -.;. . . . .:.g.m.e. . .-.-.q.#./  .f.;.g.j.f.d.f.f.f.$.#.| ;.B.D.B.&.h.%.*.%.t.f.8.8.l.h.h.B.b.w.%. .h.q.#.O.w.h.b.b.b.e.;.-.:.;. .#.#.#.g.C.F.B.:. .[ ;.b.:.[ :.2.m.B.D.C.:.:.:.:.e.G.N =.F.=.G.].v.v.r v.F.6.p.J d ; 4 4 > > : ; 3 : > : 3 3 3 3 4 4 4 4 2 - > ; - f d ; d d D d D f 4 B 5 5 4 4 4 B 4 4 4 4 3 4 4 # - 4 4 g B B f > > 4 4 d A d f f d d d d d > d > , d d D l S _ ) t t c ' u ] :.N.D.-X3X-X-X*X-X=X=X=X=X-X-X=X=X3X-X*X*X*X*X*X*X2X-XD.2X2X(.F.(.V.'./.s + r h d . # 1 & V ~ V = V V = = & , & X & X X X @ @ @ $ 0 m ..} -.w.-.e.t.m.B.F.F.C.e.%.*.h.S.B.$.*.f.w.g.;XC.$.( ` &.D.A.k.&.#.@.#.j.Z.*X:.( { m.m.g.m.B.m.m.N.D.Z.N.N.e.e.m.b.",
"n M 9 s u -. .B.g. .( / / / a c =.b.v.=.c c r c t t s O.l.V.8.l k i ) 9 p 9 7.l.l.8.7.w ) p ) q y h.S.B.(.f.( y @.w.M.B.%.( / ] b.b.e. .' :.b.C.b.| ' [ q.F.F.w.) k r./.].p.h % % 2 2 # X @ > A < V B B B B B B : A D V B E K.{.H.{.K.D d V D d D D z D D z D s. X X X{.K.s.K.`.`. XcXlX XL.L.{. XoX`. X_.4.y.o.y.%.| ( *.8.l.l.h.g.b.] #.] w.#.[ #.w.h.n.C.b.e. . .O.w.w.-.%.f.S.l.j.S.*.j.j.d.1.#.` :.Z.D.j.S.l.f.` j.w.d.*.j.h.V.(.m.A.e.w.%.h.e.%.+.#.h.A.F.C.g.#.#.n.g.#.[ #.:.*X2X2Xn.m.]  .g.:. .[ :.m.C.F.*XN.:.:.:.;.m.=.c G.m.F.F.F.F.=.c 0.y.r.a.l , d > > > d > > : 4 : : : < : * , : > > > > ; , , V d D D d d d d - : - > > 4 B C > : > > B 4 > - , : C B V V V V > - , > d > d d d d d d d d > d A d h h h z l j t c t u [ [ [ :.m.-X2X=X-X-X-X-X-X-X-X-X-X-X-X-XZ.*X-X*X=XD.D.2X(.D.(.-X-XF.(.gX(.].b.M r % $ ; @ . # 4 B B < : = = = = = & & & & X , X @ @ + + 0 l o.O.-.r.e.w.b.:.b.C.F.B.h.&.8.f.A.B.f.&.j.f.B.D.B.,.#.@.&.Z.:Xj.| &.@.*.S.D.N.;. .:.2.m.g.g.n.g.g.N.D.Z.F.F.e.m.G.v.",
"r n 8 s s -. .b.g. ./ / ' ' ' c =.c.F.=.+.c s c t 9 s O.l.l.r.k ) i } 9 k 9 q.V.V.0.5.w k p X.9 y h.S.V.D.h.u ( ' f.B.l.%.( / ] B.b.-.[ ' -.b.B.t. .u ] ;.F.F.w.n k 9._./.p.h % h % 2 ; , , ; > V B B B B V V V , > V B B D D E D E E D d d D d z D D d d D D s.xXcX X{.`.L.K.`.L. XlX XL.`.L.{. XwXoX9X/.0.a.r.r.%.) / *.w.z.l.C.b.h.] -.#.w. .] #.h.b.C.F.B.h.%.|  .w.;.%.q.f.S.z.j.S.*.j.d.f.f.$.] :.Z.S.B.C.j.&.] h.8.t.X.f.B.D.(.b.D.w.e.w.b.e.%.| %.B.A.F.D.m. .{ g.g.#.#.:.:.:XD.:Xn.M. .>.;.2.>.[ :.m.N.D.D.m.:.:.:.;.m.:.+.v.G.F.m.F.F.=.c 0.y.p.s.l $ ; ; > A A A A ; > - - - < < * = - > > : ; , , , V V d d > > d > , - : , - - - > V V > > C 4 > - - - : 4 > : V V > ; > > d > d D D z d d d d d d d d d d e p z p u c u u ' [ [ 2.N.-X-X-X3X3X-X-X-X=X-X-X-X-X=X=X*X-X-X-X*X*X-X*X(.-X-X-X].-XD.D.D.].b.M r r $ 0 2 $ - 4 G B < = = = = = &     X & & @ X @ @ + + 0 l ..o.%.y.g.;.:.b.b.B.A.B.h.-.7.h.A.S.w.&.f.f.j.D.z.:.@.@.;.S.:Xn.@.&.@.*.Z.D.C.:.{ #.g.g.m.m.n.m.m.C.D.Z.N.F.G.e.e.m.",
"r M $ s a O.| h.g.%./ / } c k k =.F.b.=.c c t c t t p %.V.~.8.k k i k q k q 7.V.V.7.7.i k p _ 9 y l.V.S.^.h.( / | w.M.B.;.( ( [ B.m.e.' ' -.b.V.e.[ ' ' q.F.F.q.} a 9._._.0.h r 2 2 2 ; ; ; , , < < B < V : < : V : V A G B B A V > d > d D d > d V d d > d D s.lXlX{.L.`. X`.L.L.`. X X`.K.K.{.). X`._.~.4.5.7.7.X./ _ *.l.z.^.;XB.h.( -.#.w.]  .;.b.M.S.A.S.b.%.| #.-.-.%.;.n.S.S.k.S.` ,.,.&.1.$.] ;.D.D.M.D.h.&.| j.f.f.X.f.S.D.(.b.D.g.g.e.m.e.-. .-.M.F.D.D.n.] [ ;.;.#.e.b.m.D.D.2XF.F.:.#.:.g.#. .:.F.F.D.(.F.:.:.:.;.m.:.>.m.b.F.F.F.F.e.c r.a.a.0.l , , , d A D V > > : : 3 4 ^ B < < 4 V A V f B > > D V D D > d D D 4 : B : : = , > V V V D V B > : > 4 V > > : D D D f > > d A D d z z D D d d d > $ d d z z z z t t c u u ' ( [ 2.m.D.=XD.3X-X=X=X=X=X=X-X8X-X-X-X*X=XD.=X-X-X*X*XD.D.F.F.-X].].F.(.(.c.m e d $ f d O # 2 B B = & < < = < V B B = & & & X @ @ O + r j ..X.%.w.w.e.b.g.b.C.F.C.h.7.w.h.(.C.f.&.h.f.z.D.M.&.] ] &.S.D.j.#.1.#.$.^.&XC.:.{ :.g.m.m.m.n.g.m.N.D.D.F.N.e.m.m.m.",
"s M 8 s i } } b.h.%.' ' ' ' c c =.c.c.=.c c r c s t a 5.~.l.r.) a i n 9 p 9 5.a.l.r.7.w ) p _ q y j.S.S.^.j./ ( ` e.C.B.$./ /  .B.b.-.] ' %.m.B.t. .u ] q.C.F.w.n n r./.].0.b % h ; $ - f > ; X = V V < : = = V B : = D E E D D D d V D D V > > > > > > , > D K.lXlXlX X XxXzX X`.`.`.`.K.K.s.E s.i.s.p.6.6.o.5.7.%._ _ 8.j.S.^.:XB.h.( -.#.f.' #.f.B.C.D.C.C.B.%. . .-.%.%.e.S.A.S.B.S.@.&.&.:.;.:.{ g.&XD.A.;Xh.&.] h.&.w.%.g.A.(.2XB.(.n.b.w.m.b.-.+.w.B.(.D.(.n.' [ -.:.-.:.C.m.(.F.2XD.D.#.=.b.e. . .G.F.D.D.2XN.=.:.:.b.b.v.:.b.b.].F.-XF.=.c r.a.a.p.z d d > f d d A f f A A ~ E H.H.H.$XG ~ E E E E E Q E E E D D D S E E E E E D A A E D D D D A A A A G D D D D L H.K.J.E S D D D D D D z z D D z d d l S 6.s.6._ p p u ( t u ' ' [ ;.C.-X-X-X8X-X=XN.3.G.=X=X=X=X=X=XG.G.G.F.D.-X2X*XN.F.G.G.G.-X-XF.(.].V.k e 0 $ 0 ; O . 2 G B = = < B B H.H.H.~ B @ X , X @ @ O + 0 z o.O.-.w.e.;.g.e.b.C.F.C.h.%.f.h.;XA.f.w.j.f.h.D.S.&.] ` &.C.;XB.&.f.#.*.Z.D.C.:.#.#.g.2.g.m.N.m.b.C.D.D.Z.F.m.e.m.e.",
"N n 8 e 9 a } V.h.%.' ' n c c c =.V.V.=.+.c r c t t s 7.l.~.r.k k i } 9 p 9 7.V.~.8.8.i ) p X.q y j.A.S.D.j.( ( | w.B.B.-./ / #.b.b.-.' '  .b.B.g.[ a ' -.C.F.q.) k 9._.].0.h h % # # - f f > , & = : < < = : V V & X : D D D ~ D V > V d > , V , > V D > > D H. XcXZX X XlX`.L.`.K.K.E.K.s.D D I S S s.I r.+.7.q.O.| X.d.l.S.^.D.B.h.( #.] ;.@.&.f.B.D.D.S.C.V.%. . .%.#.O.e.A.A.A.B.^.] *.@.&.:.:.>.e.D.D.F.D.n.e./ e.#.w.%.n.F.D.-XF.2XB.t. .m.e.:.>.G.F.(.D.D.B. .} -.;.#.w.V.n.(.(.4XD.D.=.:.:.b.=.=.b.F.F.(.-XB.:.-.:.e.b.v.>.F.F.4XF.D.V.=.c 0.c.a.8.S z d d D D D S E E J.I.T.[..XOXXXXX{.[.{.[.|.[.OX|.{.{.{.{.{.H.H.{.{.{.lX{.T.K.T.{.{.H.H.H.H.H.E E H.H.H.H.K.{.{. X X{.K.s.s.E E E s.x.E s.s.D E E K.`.`.`.~.r.x.p u u u u [ u [ 2.m.N.=X=X-X-X=X3.3.=X=X=X=X-X=XZ.G.:.>.M.*X2X*X&XM.n.;.#.m.2X2XF.(.4XV.M 0 d 0 d h # # g G B B < = = ^ H.T.T.T C & & & @ @ @ O + r l ....7.w.e.w.m.e.m.F.A.F.h.w.f.B.^.S.w.w.j.f.h.D.S.&.] ( %.S.D.n.&.f.$.@.Z.D.N.:.{ :.f.g.m.n.C.m.m.C.D.D.F.N.m.m.m.m.",
"s n $ t 8 u } (.h.%./ a c c t c N V.V.=.c c t t t t s O.l.l.8.p j t k 9 p 9 q.a.B.r.7.i ) k | q y l.A.A.(.h./ / ` w.S.n.;.] ] #.C.b.:.+.'  .b.b.e.] u ' -.F.A.-.n k 0._.).v.N 2 # # @ # f A A , & = < < < : < V V = & : B H.~ B D > > > > V > D > > > D A A D D {.ZXZXlXlX`.K.K.K.K.K.K.K.D D D s.S J s.6.r.m 5.r.%.| *.8.j.z.^.A.n.n.' @./ ;.#.&.f.B.Z.A.C.B.C. . .X.%.O.#.t.D.A.D.C.D.'  .O.%.:.:. .e.D.Z.F.D.C.e./ -. .w.q.B.F.F.2XF.2XF.b.#.e.e.=.:.e.F.D.(.A.b. . .w.q. .-.V.V.:X(.4X2X(. .=.-.:. .=.b.F.F.(.].b.=.=.-.-.b.:.=.F.F.6X(.(.F.=.c r.c.K.a.z D d D E E s.K.`.{.}.|.+XnXnXZXZXZXlXzXlXZXzXZXxXZXZXZXlXOX{.{.lXlXlXlXlXlX+XOXOXlXlXlX{.|.{.{.{.{.J.K.T.K.{.{.lXlXzXzX X{.L.{.{.L.{.L.L.`.`.L.`.`. XrXeXeX,Xl.7.) t ' y y ( u ( ;.=X3X-X-XhX-X=X=Xk.=X=X=X3X3X-XN.M.3.1.N.*X2X&X:Xn.w.{ ] m.(.-X].(.4X~.M z d 7 d d $ ; 4 B < &   & = B H.H.J.~ 4 & X & @ @ O O + 0 l o.X.O.e.e.e.b.e.m.F.A.F.h.q.w.j.^.A.&.&.f.&.j.S.S.1.] ( @.C.D.j.$.w.@.] S.D.n.;.#.:.2.2.m.B.C.n.m.F.D.Z.C.C.e.G.v.m.",
"j M 8 s 9 s } (.h.O./ c a s t s =.F.c.=.c t r t 9 9 i X.l.l.7.p p i k 9 s 9 7.l.V.r.r.w ) j X.q ( l.A.S.;Xb.( / ' w.S.B.-.' ' #.B.b.-.[ '  .e.n.g.' u ] -.V.C.q.) j r.(.].v.v h % $ # - > 4 d ; = < B < : V : < = B V = B H.E A V B V : , V > V V > > V V A f D {.xXZXZXzX XK.`.J.E s.J.E A D x.T Z K.p.p.r.k 5.5.*.} | 8.l.z.S.S.M.M.' ] / w.&.%.w.B.D.S.B.h.C. . .%.-.%. .t.A.A.A.V.S.' %. .%.:.:.>.:.C.F.M.D.B.-.' w. .w.-.V.F.D.(.F.].m.:. .e.e.=.>.:.F.(.D.F.b.o.+.q.-.O.e.V.V.2X(.].(.(. .=.v.y.=.=.b.F.F.(.(.c. .:.=.=.b.:.+.F.F.2XF.(.D.7.s r.Y.a.s.z D d S s.K.K.E.`.|.|.OXzXZXBXCXCXZXZXZXZXZXZXZXZXZXZXZXzXzXlXzXzXxXxXZXZXZXzXzXzXzXZXxXlXlXlXlXlXlX|.{.OXlXlXlXzXzXZXzX X X X X XzX XaXaX XzX XlX9XxXxXMXMXrX~.7.p u / u y / ( ( ;.2.M.%XN.=X=X3.>.3.3.3.N.=X>X=X3.m.3.2.N.:X*X:X2Xj.*.[ #.m.D.(.(._.4X~.4.e d , d + $ # h ; &   & & = B ~ H.~ A 3 & & & X @ @ + + r l o.O.%.q.e.;.b.b.m.F.A.F.h.q.w.h.A.S.&.&.f.&.f.D.C.d.{ ( @.j.D.n.#.&.] ] C.D.n.:.#.:.e.;.m.M.C.N.n.Z.D.D.N.C.G.m.m.m.",
"j M 8 n 9 s a A.e. .a a a a c r =.b.b.=.c t r t 9 9 q 4.l.a.5.p k t k 9 a 9 O.V.l.r.8.p ) a X.q y l.A.V.(.h./ / ' e.C.B.-.` | #.b.b.:.[ c  .t.m.t.' u ' -.C.F.;.} a 9._.].p.v h % ; ; ; ; ; > : V V B V < = = = & B B = = ~ ! D 4 D A V : A V , V , , > V > V D {.lXZXZXlX{.E S J.S S I Z , > D J l `.Y.a.r...a.7.| ) *.8.l.^.A.A.S.C.| @.] w.&.#.;.h.D.D.n.h.B. . .%.-.O. .y.D.V.F.V.F.' %. .-.:.:. .e.N.F.B.F.m.:.' e.%.w.-.b.F.D.(.m.*Xm.g. .G.:.=.=.:.F.D.D.(.B.O.' -.O.O.t.B.F.'.F.(.D.(.=.=.:.=.+.=.b.F.F.].(.b.=.+.=.=.v.=.[ v.F.4XF.].(.r.j r.~.a.s.D l D E K.K.{.E.{.|.{. XlXnXZXCXZXCXCXCXZXCXZXZXZXCXCXCXZXZXzXzXxXZXZXCXCXZXZXzXxXxXxXzXzXlX|.lXlXlXlXlXlXlXlXzXzXZXzXzXlX XlXzXzXxXxXxXxXxXzX0X9X0XxXbXAXMXqX~.X.p p / u y ' ( ( ;.A.>X>X-X3X=X=X=X3.3.k.N.*X8X>XZ.2.$.$.C.:X*X:X3Xj.*. .m.D.D.(.].(.4X~...d 8 7 0 $ $ f g 4 = = < & = < B < B - X & @ @ X @ @ + + 0 j o...q.w.e.w.;.b.m.C.D.S.h.w.7.j.A.B.*.#.&.$.f.S.Z.1.] ( @.j.Z.j.#.&.( ` C.%Xm.2.>.:.2.g.m.M.C.m.m.D.*XD.F.C.G.v.m.m.",
"n c r 8 s t c b.v. .' a ' u y a } B.V.q.O.a q i 9 q ..j l.a.l.j n s c 9 c r O.b.A.9.} } u u a t t -.^.V.].e.[ q u -.b.B.%./ / #.F.v.:.c =.>.=.F.m.[ c u %.B.F.q.} t 9.].).v.M % # # # - ; - ; - < - : - : : : : : ; * & - B G ~ : = : : : V > , , V V V > > , V {.lXlXlXH.T.E D > V D d , , > d s.6.J 6.6.r.6.x.8.x.` *.w.l.S.B.A.C.m. .] { -.#.' :.n.B.B.F.F.t. . . .-. . .e.C.V.F.V.b.q.'  .e.-.g.:.:.B.D.C.A.C.;.#.-.;.%.#.e.m.F.D.D.D.F.>.+.:.:.=.[ e.(.2XD.2Xb.+.[ =.e.=.+.F.].-X].].].F.:.[ b.v.[ =.m.F.F.].F.v.:.=.y.y.w.m.N N ].gXF.F.].=.N =.v.K.a.I S D S s.K.K.`.E.`.K.{.|.lXzXxXZXZXZXZXZXZXZXZXlXZXZXZXlXZXlXlXZXZXZXZXKXZXZXZXZXZXlXlXlXlXlX{.lXzXzXzXzXzXxXzXzXzXOXOX XoXwXxXxXxXxXzXrX9X X_.9X,X,XxXcXeX_.L.6.p p a ) / y ( ] { C.3X5X3X3X-Xm.3.>.<.%XN.-X-X>X%X2.j.3.j.*X3X>X3Xn.$.{ &.:.5X:X(.:X].~.m 7 7 7 + $ $ % K P g < - * o & = & X , & @ @ @ @ @ + + + 0 j +.O.q.e.t.:.m.b.m.C.(.(.h.7.y.w.B.B.8.,.2.,.2.Z.M.f.( { >.j.C.2.1.{ { ( M.M.N.>.{ $.2.m.j.m.C.m.m.C.D.(.D.F.:.G.m.m.",
"s s r 8 r t n V.:.+.a u u u t u  .B.V.q.X.a q p q q _ ) V.l.y.w s s n 9 n 9 =.v.F.O.c ' t u ' u q =.(.F.(.e.+.t u -.B.B.%.} )  .F.b.=.c c =.=.m.v.[ u c #.B.A.q.o.s 9.].].a.v % % # # 2 - ; @ # - : - : - : - - : : - ; : > B A V : = V V 3 V : , V > > V > > D D {.lXT.H.E D D , V > > > > d D g h d l k 6.6.*.l.8.X.*.8.l.l.l.V.C.b.:.'  .=.:.' e.B.M.m.F.M.e. . .%.q.%.O.w.F.C.F.C.B.-.+. .t.=.b. .=.V.D.C.V.C.-./ ' #. . .;.F.F.F.F.D.m.=.>.e.:.>.[ :.F.F.m.b.;.=.=.=.:.=.>.v.F.F.F.F.F.F.=.[ =.:.c c =.F.b.F.F.b.9.=.e.b.v.F.+.>.F.-XF.].F.=.N I a.L.K.6.D A S S 6.s.E J.J.H.K.{.|.lXzXzXzXnXnXlXnXlXlXlXlXlXlXlXlXlXOXlXZXZXZXZXZXlX{.lX{.lXlXlXlX{.lX{.|.lXlXlXlXlXlXOXlX|.[.|.{. X X9X9X X X`.~.~.L.L.L.6.L.l.a.6._ i 9 q y ( y q y /  .B.:X3X2X2X-Xm.2.{ { N.%X>X=X:XZ.3.1.1.j.*X3X-X3Xk.$.] 1.:.5X,X(._.:XV.n 9 8 9 + $ 6 r N I 5 - * & * & & , , @ @ @ @ @ @ + @ + + 0 j o.O.%.e.h.e.m.m.b.F.(.F.h.q.8.t.z.A.f.<.j.<.2.Z.M.j.( { $.j.Z.j.<.] { ( Z.Z.N.:.{ 3.G.m.m.m.m.B.m.C.D.D.D.D.e.e.v.b.",
"c s 9 8 s s +.V.v.=.a a a u u '  .b.V.e.O.a q p 9 q ) ) ~.l.y.q s s n r c 9 o.b.~.q.' c u u a t t =.(.F.(.=.c u u q.B.B.&.' ' #.F.F.:.c c c e.F.h.] y / %.V.A.q.} s 0.]./.v.M 2 # # # ; ; # - , - : : - * - : - : : : : : - - = < = = : : 3 : : : : > , > V V , V D H.D D D V V , , > , , , d > $ $ + 8 z l _ x.8._ _ _ *.f.V.A.b.n.b.#.[ [  .#. .g.n.b.m.n.m.-. .%.-.-.%. .q.B.b.B.B.b.-.| O.e.%.:. .#.b.F.C.C.F.-.' [  .#.:.e.b.m.F.N.F.G.+.[ :.:.=.c [ 2.m.m.:.e.e.-.=. .=.=.+.e.F.v.F.F.v.=.c :.=.c c :.v.F.c.b.v.=.+.O.9.-.=.=.=.F.v.m.F.v.o.m I 0.K.s.x.S S z S D D S S E D D H.J.K.{.{.{.[.[.lX{.{.{.{.{.lX{.T.{.{.{.{.OXlXlXlXlXOX{.{.H.{.{.{.{.{.T.T.H.K.{.{.{.{.{.{.{.J.K.J.J.K.K.`.`.K.p.p.s.s.x.S 6.l.r.8.r.r...) p q q t q q y ( { b.*X2X2X3X*XN.G.{ <.k.N.>X=X-X%X3.<.$.2.*X3X:X5Xk.$.{ <.>.5X2X(.4X2XV.9.n m m s r r M Y I h o - X & & & , @ , @ @ @ $ $ , 7 + 7 9 a | O.q.e.h.;.g.m.M.F.(.C.h.w.w.w.A.Z.j.<.3.<.j.D.N.M.( >.$.m.*Xm.:.{ >.( &XD.N.3.>.:.j.m.m.m.m.m.m.B.D.D.D.F.:.G.G.m.",
"t t r 9 s c +.V.b.-.' c / / / +.| b.B.w.%.p 9 p w 9 ) k l.l.y.p s s n 8 c t O.b.^.=.+.c u u u t t =./.V.(.-.c u u %.B.V.q./ } %.F.F.=.c c >.=.F.b.' u u  .B.A.w.+.a 0.].).v.J % $ 2 1 ; ; ; ; - - ; = - : - - - - - 3 > ; , & X V : : : 3 V : : V , , , & , V = V V V = V D V V & , , , , @ , d @ 7 + 7 7 0 ) _ x.` ) ) *.t.l.S.-.e.g. ./ ' [ ] [ :.;.e.e.e.:.-.' |  . . . . .q.e.b.t.-. ./ | #. .:. . .m.b.b.b.B.%.u '  .-. .-.>.e.:.:.m.:.c [ +.>.[ [ c  .b.:.-.-.:.:.=.[ c =.N =.=.=.:.v.=.[ c +.=.[ +.v.m.m.v.m.v.[ c n +.+.>.N :.=.=.=.v.=...m 6.6.a.s.S D d D D z D D E S D D D D D E H.H.H.H.H.H.H.D H.H.V V V D H.E H.H.{.H.H.H.H.H.H.H.H.H.H.H.H.H.H.H.E E E K.H.H.E E E E S L S E E x.S x.S l l l ) ) x.w z p X.w 9 9 s ( y y y y ]  .g.D.*X*X2X-XN.2.{ { G.N.:X=X:XN.<.<.{ 2.*X>X*X3XG.>.{ $.:.2X2X(.5X4X^.b.t.V.c.r.=.=.v.v.p.b 2 2 @ & X X @ @ @ , @ @ , @ + @ + 7 9 j ..O.q.w.e.e.g.g.F.A.A.V.l.t.7.h.^.D.f.<.j.,.j.:XZ.M.( >.$.k.&Xj.1.$.>.( &X&Xm.2.>.3.G.k.m.N.n.m.m.m.D.D.F.C.:.v.G.F.",
"c s r 8 u s n V.b.q.' ' ' / ' |  .m.b.y.O.p q p p q p p V.a.y.k j s n 9 a 9 =.v.(.-.c ' u u / t c +.F.V.].e.[ c u -.B.B.w.' | %.F.F.=.c c c =.F.t.' u (  .B.A.q.} a r.].].v.K % # # 2 2 ; ; - - - - = - : - - : < - - - = & & & : < = : < : V : V & , , & V H.V ~ D & & = V V D , , , , @ X , @ $ $ $ + + 7 p x.*.X.x.*.O.8.7.w.| -.:.] u u ' ' ] ]  . . .;.%. .a '  . .' } |  .O.-. .| / u a ' ' #.[ u #.e.-.-.#.' u u ] | ' ' [ :.+.+.:.[ u u c [ [ c ( [ [ >. .[ ' +.>.c =.=.>.+.=.+.=.=.+.c c c +.c +.=.=.c 9.q.9.+.n +.o.+.c +.>.=.n :.v.=.n n 4.6.p.s.S l d d d d d D A D V V V D A A D D D D D D ~ B D D D D D D D D D D H.D D D D D D D D D D D D H.~ E D D D D D D D D Z A f d d D D d l h h h z k x.6.a.8.8.L.(.V.V.C.w.q.-.-.#.#.%.;.m.D.:X&X3X*Xm.3.{ { k.k.-X&X>XZ.3.<.{ 3.*X:X=X>X2.>.{ >.{ -X-X(.3X].].F.(.(.].D.F.F././.Y.0.g 2 @ X @ @ @ @ @ @ @ , , 0 @ + + + 9 s o.O.q.e.t.;.g.g.B.F.A.B.h.t.t.h.^.Z.1.<.3.j.j.*XD.M.( { $.M.Z.j.j.:.1.] &XZ.N.3.$.2.j.2.m.N.m.g.m.n.C.D.F.C.e.m.m.m.",
"c c t 8 t t c b.v.O.' a / u a '  .t.b.e.%.y q k ) 9 w p l.h.t.) a s c 8 c t O.b./.-.c ' u u u t c =.b.b.].e.c c u -.F.B.-.| | %.b.F.=.c c c =.F.b.| y / %.B.S.-.} n 0._.).v.Y % % ; 2 ; 2 ; ; ; - * - - * - * : - - & & & - - 1 V = : = V V : : , & > V , E {.{.{.H.V & = V V B : : , & , , X X O O + + + 7 p x.x.X.*.8.*.*.| X.'  . .' ( ' [ ' / / ' ]  . . .] ' |  . . . . .' | | | u y y u u ' [ u t ' #.| ' ] [ ' ' [  .] ' +.>.[ [ >.[ ( c c c ' ' u u ' c [ u t y c +.=.>.+.+.+.+.=.+.+.N c c +.c [ [ c N c +.+.' +.o.=.+.>.N =.=.=.e.v.=.n 4.4.s.s.s.S d , d z A D f d d d d > > V f A D B B D B D B D D D D H.D D D D D H.H.H.H.H.D H.H.D D V V V V D B V d B V D V V V A B > > d d d d d r d d h l _ x.x.*.8.l.^.^._.,X(.A.C.B.b.g.g.g.n.&X*X*X3X*X2.>.{ { 2.j.*X=X:XZ.3.<.{ <.*X*X=X3X3.>.{ { { 3X*X(.2X-XD.D.(.4X4X(.2X(.].]._.c.I 2 O @ O @ @ $ + , , d d d ; + + + 0 j } O.%.e.g.w.g.g.n.F.C.V.l.y.y.h.^.S.&.{ 3.d.j.:X&XM.( { $.m.N.j.2.1.2.{ &XN.m.3.>.2.2.2.2.m.n.m.m.n.D.D.F.C.:.e.m.m.",
"N s 9 9 s t n V.t.O.a a / a u /  .b.b.t.7.s q / ) q w p V.h.y.) s s n 9 a 9 O.t.(.q.' ' u / u q c +.F.V.(.=.+.c a -.B.B.e.'  .#.b.F.:.c [ c  .m.t.+.u /  .F.V.w.} c v._.].c.I ; % ; ; 2 1 ; ; - - 1 * < * * - - < - * - < * 3 < : < = < : V V = : & : V : J.lXlXlX[.D : V = = : : , , , & , , @ O O + + 7 0 k x._ 5._ X._ X.X.O.| | ' a '  .] ' | ' / / ] | } / '  .-.%. .-. .' +. .] u u a ' u c  .u y  .#. .[ '  .=.#.[  . . .[  .[ ' =. .' [ [ c [ c [ ' ' [ [ ' u u c +.+.+.=.[ N >.+.=.+.c +.+.>.>.=.=.c c c =.=.+.c +.o.+.=.[ =.=.=.=.v.=.o.9.r.a.s.s.s.z d A D A D d > d d V > , : V B B B B D D D D ~ D H.H.H.{.H.D H.H.D D D D D H.H.H.V V V V V V V V V d > : 3 V V V 4 4 > d h A z d ; $ 8 0 z l l ) _ x.8.a.l.(.:X_.(.:X(.D.D.B.m.g.n.&XD.*X3X*Xk.>.{ ` j.2.*X=X>X=X3.{ ( 2.>X:X*X3XG.>.{ >.{ -X*X-X-X(.D.(.(.2X2X2X2X].].2X'.~.U r O $ @ @ @ + + $ d d A h d $ + + 0 a  .O.q.e.e.e.m.m.m.B.A.F.a.w.w.j.^.A.<.{ ,.d.j.*XZ.M.( { $.j.M.j.2.$.<.{ %XZ.m.3.>.:.2.>.2.m.n.m.m.B.D.D.F.F.e.e.G.m.",
"i s 8 9 r c +.c.t.O.} } ' / / c #.e.g.t.%.y 9 ) ) 7 w p V.a.w.p s t n 9 c 9 O.t.(.q.} / u u ( 9 u +.F.V.(.>.c [ / -.F.B.;.]  .:.b.F.e.[ c c +.V.g.' y / %.B.A.w.} c v././.c.I % # % ; 1 4 ; ; ; & * * - - < * * - < 3 : 3 1 - * : : = < V < V = : & B A , K.zXzXlX[.H.D B & & V , , & & , , , @ @ $ + @ 0 z l _ x.7.x.) _ ) X.%. .] / ( | %.%.' %. .' ' +.] ' a ' %.-.O.#.O.| /  .%. .' c ] ' ' ]  .' u -.e.-. .u  .#. .' '  .#.[  .' [  .+.' ] { [ c [ [  .=.:.e. .#. .>.+.c c +.c +.+.=.=.=.+.+.[ c N N >.=.=.+.y.v.q.o.+.o.O.[ +.=.e.=.=.e.=.4.a.a.i.a.a.s.A d d d d d > f A V V , , , V B A D B D ~ ~ D H.H.{.OXlXZXlX{.{.{.H.H.H.D D {.{.H.H.D D D V V D B V V > V : V V V A B > V f z A d d r d e d p z z z *.X.8.f.:X:X(.D.D.D.D.D.N.b.2.m.D.*X*X2X:Xm.1.{ { 3.j.&X=X:XN.<.{ ( 3.*X3X*X3Xk.>.{ >.{ -XD.-X(.-X-X(.2X2X2X(.2X-X(.].4X].0.r O O O $ + @ @ $ d Z E S f 0 + + 9 j ..O.7.e.g.-.n.j.e.n.A.F.l.q.8.y.^.Z.d.{ <.3.2.*X&Xk.( ( { j.C.2.1.#.$.] Z.Z.2.1.>.<.2.:.:.m.n.n.m.m.F.D.D.C.e.G.m.b.",
"c c 9 8 t s +./.B.O.u u a ' a u [ b.m.b.=.t 9 / p t p t l.t.t.} k s t t 9 q } t.(.w.( a y u ' ( N G.m.F.(.m.c c u  .C.m.e.t ]  .F.F.=.=.N [ +.m.B.' u /  .V.D.e.=.a 9./.].Y.Y % d % 2 - 2 2 ; ; - < - < : < 1 * < : < : < < - < V < < < V < V < : = , = V {.ZXZXZXOX~ V V = = = : , & & & , , , O O O O $ z z x.6.8.x.X.6.X._ ) O.' / | -.e.w.%.-.| %.w. . .%. . .%.-.e.-.%.O.%. .e.-. .-.%. .w.-.>.{  .=.[ c c '  .+. .+. .:.=. .-.e.e.:.-.#.=.-.O. .=.e.e.w.-. .e.m.e.w.e.b.:.=.=.+.=.+.+.=.=.[  .=.=.:.=.v.b.b.v.O.q.y.t.9.+.v.>.=.=.=.v.v.v.5.r.s.r.a.K.s.D d d f f > @ , > , > B V > , V A D D D D H.H.H.H.{.lXZXlXlXZXlX{.{.H.H.H.{.{.lXlX[.~ : G E A : 4 f D > V 3 V B 3 3 : 4 4 f d A h h h h l z e z ) w z ` ` A.^.D.(.F.Z.D.2X].F.G.F.F.F.D.D.*X>XC.>.<.{ >.N.*X3X>XN.2.$.` 3.*X3X2X3XG.>.>.{ { -X-XZ.-X(.-XD.-XgX-X-XD.D.D.].4XF.m e . O O O + , ; 0 A E u.s.z h d + 8 k n c %.w.w.m.g.m.n.A.(.^.V.h.8.w.A.A.,.{ <.` 1.Z.Z.1.( ( { 2.N.k.>.[ ( 1.n.N.N.>.( >.2.3.2.m.m.g.m.F.D.D.(.F.e.g.e.m.",
"e s r 9 s s o.V.V.9.a a / ) a a =.G.b.e. .t q } p w a y h.h.w.} a s 9 t t t +.t.(.%./ / u ( ' u N e.v.F.(.m.c [ ' [ F.;.e.u [ #.m.m.=.=.c +.=.b.B.+.( /  .B.^.w.5.a 9._.].c.K % 2 2 # 2 ; ; 2 : - - < 3 * - < 3 < - 1 3 1 : < 1 = < = V < V V < : < V = V T.nXZXZXlXH.B = & & & V : , X X , , X . O + @ 7 0 l x.6.X.8.8.7.r.7.7.%.O. . .w.w.w.q.w.O.w.e.%.%.w.%.O.-.-.w.w.-.-. .-.t.-.#.e.-.O.e.-.=.=.=.:.:.=.=. .-.-.e.b.=.=.:.n.t.-. . . . . .e.:.#.#.#.-. . .] -.-.#.=.-.y.=.=.:.=.=.=.:.=.:.:.=.=.:.:. .=.-.=.+.+.} =.y.q.=.:.=.=.+.N >.e.c m 6.a.p.s.s.S z > ; > d d , ; A , : V > , : V B D D H.H.H.H.H.{.{.ZXZXZXlXZXZXlXH.H.H.H.{.lXlXOX{.D = B B : - A V V d V B B 3 B 3 4 4 > d A d A f h l h e z z ) ( ( ) *.D.D.S.;XD.F.F.D.F.G.G.G.N.F.Z.-X2X*XN.{ >.` >.%X=X2X2XN.:.{ { 1.*X3X:X3XN.>.>.{ >.*X-X*XF.-XD.F.D.-X-XF.(.-X(.-X].F.o.% O O O O @ $ $ d d I u.L S h z 8 0 k a a %.q.w.b.g.h.n.F.D.^.B.y.8.t.^.S.f.{ <.$.j.Z.&X2.{ ( :.2.N.m.<.` { $.M.N.M.>.[ <.2.2.:.m.B.m.M.D.F.D.D.C.:.:.G.m.",
"r s 9 r s k o.V.V.q.c a / } / / =.e.m.e.=.y t } s q a t l.t.t.} a s q t q t } t.(.%./ / ( u ' ' r >.F.F.F.m.[ c ' [ N.b.2.u [ #.v.F.=.+.c =.=.F.C.+.u /  .B.^.w.O.c 9./.].~.I % 2 % # 2 2 ; ; ; 1 * : * 1 < < * * - < * : * - < V < < < < V < < = : V : < H.OXlXlXT.~ V &   & = V : & & X & X X . O O + @ 0 z _ x.6.6.8.7.7.r.7.O.%.%.%.%.q.%.%.q.X.q.w.%.7.w.%.%.-.-.-.e.e.-. .-.e.%.O.w.-. .-.=.+. .+.=.=.e.e.+. .-.m.v.:.+.' e. .' / | O.-. .-. . .| ' ' ' ' ' ' ' ' +.=.=.+.c c c c =.=.=.[ =.+.[  .=.c a a [ a a n | 9.-.q.e.=.c r N [ =.r c o.6.p.r.s.D d , @ @ d f ; A A & , : V : : V A D D H.H.{.H.H.H.{.lXZXZXlXZXZXOX{.H.T.{.OXZXZXlX{.E V V B V B D V B V B B V B B 3 : 4 d d f d f h h Z h z z w w ( w ( ` S.;XS.D.D.F.m.m.G.>.>.v.G.F.-X-X3X:XM.>.3.( { Z.*X3X2XN.$.>.{ 3.:X3X*X3XN.>.>.{ >.2X2X&X-XD.=X*X*XZ.F.D.*X2X*X(.]./.I $ O . . @ @ + , , d D I S Z l l 0 8 k a a O.-.w.g.g.m.B.F.A.F.l.q.7.f.A.^.,.{ <.<.j.Z.*Xj.{ { 1.M.Z.M.1.] ( 3.n.Z.N.3.[ >.2.2.2.m.N.m.N.F.D.D.D.m.G.;.m.m.",
"s s 9 9 s s o.~.V.r.} ) } ) / / [ e.b.:. .' t / u q p t V.h.t.| ) s q t q t | t.(.-._ / y ( ` / c +.v.F.F.m.c c ' [ F.m.b.' [  .m.F.=.>.c c [ m.V.| a (  .B.A.w.O.s 0./.].c.I % 2 2 ; # ; 4 ; ; * 3 * < - < 1 * : < - < * < - < = < < = < = = V & = V = = ~ T.{.H.H.B V & & = : : , , & & , & X X O @ O + d l x.8.x.8.6.X.6.) ) ) | O.X.} | | O.%.| O.%.| O.%.' O. . .-.e.e.O.| %.%.+.' -. .| O.+. .+.c c [ [ =.[ c +.=.:.+.c u u u y a ]  .' / | ' ' ' u a / ' ' u u u [ :.=.[ c c c c c c c N [ c ' [ +.+.u u ' +. . . . .%.=.=.c c r r +.=.s s m 6.6.6.S l z d @ @ > A A A C : > V V : V V B D D H.D H.H.H.H.{.{.{.lX{.lXlX{.H.H.H.H.{.lXOX{.J.H.B B V : B ~ > V > V 3 V < < 3 3 4 4 f d A f h h h h z w z z z ( ( *.Z.%X%X&XF.N.m.G.v.G.G.G.G.F.-X-X:X*XM.1.<.( $.N.*X2X>XN.$.{ ] 2.*X:X*X3Xm.<.:.[ >.D.-X&X-XD.D.-XD.G.G.D.*X2X(.F.(./.9.$ . O O X @ , @ @ , d D d d d d 8 8 a k s O.-.-.g.2.g.n.F.A.V.t.%.w.t.A.S.,.<.3.<.m.&X*Xj.{ { :.k.Z.N.j.{ { :.M.Z.Z.3.>.1.2.2.2.m.B.m.C.D.C.D.(.B.G.;.e.m.",
"n n 9 8 i i +.V.V.r...k } / ) ' [ e.m.e.-./ t y y t u y b.h.t.X.a i q q t t | t.^.w.%.| ( y ( u c +.m.F.F.m.c s c >.m.e.G.u [  .e.].:.c u +.c B.B.| u /  .B.A.q.o.s 9./.].c.Y % d % # - 2 ; ; - 1 * < - < 1 < 1 * < < < < * * < < < = < = < = < & & : V & = A A B B V = V = & = = & & & & = , & X . O O @ 0 l S x.6.8.x.) k k p / ) | | ) / ) X.%./ | X.} | O./  .| ' #.q.-. .'  . .' +.%.| ' %.=.=.+.c c =.=.+.=.[ [ =.=.=.[ [ u / ' / / u y y +.| +./ / ' +.|  .[ u u +.:.=.' c +.c c c c c c [ [ +.=.;. . . .|  .%.q.7.O.X. .c c c s c =.=.t m m I 4.6.S S D d , @ ; A Z A C B B V B V V V V D V D V H.D H.D H.H.H.{.{.{.{.H.D H.V D H.T.H.H.H.D V V = : : B V > 3 V 3 V 3 B 3 3 4 > 2 d d d d f h r z j z ( ` ( ( ` fX%XZ.=XN.m.G.G.G.m.m.G.G.F.*X2X*X*XZ.2.>.( { M.=X3X>XN.$.{ { 3.*X*X&X2XM.$.1.{ $.:X3X&X&XZ.D.&XN.3.2.N.Z.2XD.F.(./.0.$ O X X X X X X X @ , d $ $ $ + + 7 s a u  .-.-.e.;.g.m.F.S.V.w.O.8.f.^.S.d.<.2.,.n.*X:Xm.{ [ <.j.Z.Z.j.{ { $.M.=X&XG.1.1.:.2.:.2.m.g.m.F.D.D.(.N.e.2.g.b.",
"m n t 9 e i ..V.V.y.| } ) a a / c 2.m.e.e.' t t t q p y b.b.b.O.a t t t q t | h.(.w.%.@.u y ( u [ [ G.].F.:.>.s [ [ F.b.b.c [ >.:.2X:.c c +.t b.F. ./ /  .b.A.w.O.s =.].].Y.U 2 2 2 # 2 ; 2 ; - - < * < * < * < < * * * - < * < = < < = = = < = = = < B & & : = < V = = = = & & & &   & , = , & X O O @ @ 0 z l x.6.7.x.6._ _ O.} |  .} ) / | %.%.} } %.| %.%./ | +.' +. .%. .| -.-.#.-.q. .+.w. . .[ c c =.e.=.=.c c +.=.=.+.+.+.| +./ a a '  .-.-.O. .}  . .%.e. .] ' +.:.-.+.+.=.=.c c +.+.c =.>.>.:.#. . .%.' O.%.7.%.O.X.O.=.c c =.c -.v.n 9.m ) J 6.S S h f ; @ > f A A B B B B V V V V V D V D V H.D D D H.H.H.H.H.H.H.H.D D D D D H.H.H.V = < = : 3 4 V > V V 3 V 3 < B 3 4 3 4 4 > d f ; d $ d z z p p ` w ( <.%X%XZ.D.N.N.G.G.G.m.G.>.G.F.2X*X:X:XZ.m.3.( >.%X*X2X2XN.3.$.( $.*X:X*X3XM.$.1.( $.*X2X&X&X&X&X&XN.G.m.N.C.D.F.F._./.I 0 . . X X X X & X , @ ; d ; 0 + + 7 s s i | #.-.e.;.g.b.C.(.B.r. .r.h.A.A.f.$.d.,.k.*X&Xj.{ ( $.2.C.Z.j.#.{ $.m.%XZ.m.3.$.>.1.2.j.n.;.m.D.D.D.2XF.;.2.2.j.",
"n n r 9 s s o.V.V.a. .} / a a / [ e.m.e.;.' y t y q a y B.h.h. .k t q y q t | h.(.w.%.@.( y [ c [ c F.].F.=.[ c [ [ N.m.m.[ [  .=.].:.c u +.u F.C. ./ /  .B.F.q.o.s 9./.].c.U % 2 # # - ; ; ; - 1 < < < < * * < * 6 * * * * * * < = < = < = = < < & = : & & V = V = = = & & & & & & X & & = , X . X O O + d z l x.x.7.5.k 6.5.a.7.%.X.| } } X.O.X./ _ O.%.y.t.X.| ' ' |  . . .%.h.b.e.t.e.' ' e.+.c c c [ m.b.+.b.+.c +.=.+.[ +. .+.| | %.-.-.w.e.%.| | %.-.q.-.t.e.-.'  .=.=.+.c =.v.=.+.=.=.+.[  .=.#. ./ | q.&.%.%.%.%.%.&.%.:.c =.e.=.e.v.b.a.5.J 6.s.I z d f - , 4 A B 4 A V V = V V V V V V D D V H.D D D D D D H.D H.H.H.V V V V V V B B V B : : V A B : > : V V 3 V < 3 3 3 4 > > d > ; f 2 ; r e z i w w w ( ` %X%X%X%XF.N.G.G.G.G.v.>.G.Z.*X2X2X*XZ.j.$.( >.N.*X3X2XN.2.>.( >.*X2X:X:XM.&.:.] $.:X,X&X&X:X:X&XZ.Z.Z.M.D.D.F.F.(.c.I % X X X X & & & X @ , , d d 0 + + 7 i s t } %.%.;.:.2.b.C.D.B.t.X.7.f.A.D.f.$.3.<.m.&X*Xj.( ( $.2.Z.Z.j.{ ( >.m.Z.N.G.3.>.>.:.m.m.n.2.n.D.F.(.(.D.w.2.g.m.",
"s s t r k j ..V.V.y...) / a p ' c b.b.-.-.[ t y t t u y V.b.b.O.a y q t t t X.t.^.w. .@.( y [ c c N F.-Xm.+.>.[ [ =.m.e.m.[  .{ >.].:.u c +.u F.V. .u '  .B.A.-. .t 9./.].Y.U r 2 % 1 - ; 2 ; % * * * < < * < < = < < * < * < < < < < < = = = = V & & & & & V , < = = = & & = = = & & & , & X X X O O O + 7 z l 6.8.6.x._ ..7.a.y.%.X.) / ) | | } y ) %.7.t.l.w.|  . .| } | %.-.B.V.b.h.w./ u e.=.>.c c =.v.m.+.F.=.[ =.e.:.+.+.-. .-.e.t.e. .u O.' u '  .w.e.e.g.e.-.[ +.>. .+.c =.m.b.:.e.b.t.[ #.:.:.#.] &.B.h.w.7.%.%.%.7.-.c c c =.=.c w.c.V.6.4.6.s.x.d @ > ; ; f f C C A V = = V V V V V V V D V D D D D H.D D H.D D H.D D V V D E V V D B B V = : B 3 & : V 3 : 3 < V < 3 3 3 4 2 ; ; d d r 0 d z j w w ( ( ( ` M.=XZ.=XD.F.G.G.G.m.G.G.G.C.*X*X2X3XD.2.>.( >.Z.:X3X3XN.M.$.( ` &X3X:X3XM.$.2.` :.:X:X*XZ.:X*XN.N.Z.%Xm.F.D.A._.].v.v ; . X   & X X X @ @ @ @ ; d d + + + i p s } %.%.w.-.e.n.A.(.B.w.O.%.y.S.D.f.$.<.<.k.D.&X3.{ { :.j.M.M.m.{ ( >.k.%Xm.2.:.$.>.2.m.N.n.e.N.Z.D.D.D.C.2.2.2.j.",
"M 7 0 s e e 5.V.c.a...k O.} s } ] -.b.e.=.[ u t u t y q g.t.m. .' y p / t y %.e.A.e.| | / q q / u / F.A.D. . .u u { F.m.e.' #. .:.F.v.[ c c [ b.V.+.s / ] B.F.-.+.u +.]./.!.K 5 % % # # 1 % ; 1 1 < - * 1 < < - = = * = = = = = < < < < = = = = = & & = & & = = = = = = = = = = & & & & & & & @ . O O + + 7 0 ) 6.x.x._ p X.l.l.t.q.X./ ) } } / %.X.X.q.b.l.a.t.q.] @.%._ _ &.w.l.S.f.l.w.f.| w.=.=.' -.b.t.w.b.b.=./ ' O. . . .-.:.F.-.A.#. .[  . .[ -.u e.e.m.v.:.-.=. .+.[ [ [ =.w.b.b.e.+.e.>.=.:.:.-.-.=.b.b.b.e.q.w.g.w.-.c c :.m.b.e.F.c.e.n 4.v.8.s.x.D d , , ; D D A V : < = V : V V V : : V V V V V V V V V D V V D D D V V = V V V V V D V V V : : : : : V < < V V < V 3 3 3 ; 2 d ; % d r d z z z w ( w ( @.n.&X:X&X=XN.G.G.G.G.G.G.G.Z.*X-X2X*XN.2.>.{ >.N.*X=X-XZ.2.1.( { *X2X*X3Xg.f.$.] @.:XD.3XD.D.*XD.D.N.N.Z.F.D.(.F././.K . . 2 -   X @ X X @ @ @ O $ O + + 8 w k ) X.@.w.h.%.j.B.A.:XF.7.%.w.w.S.(.h.&.&.@.j.Z.D.j.{ ` >.2.C.M.:.[ ( 3.M.N.D.:.>.1.>.2.M.j.N.j.n.C.N.:XD.n.1.;.2.;.",
"4.e s j i i 5.a.V.t.} )  .} s } +.-.e.v.=.[ c t u t y t g.h.g. .' t ( ' y y %.w.A.w.|  ./ q y ' u ( S.A.(.-.#.t u  .C.m.g.[  .>.G.F.G.c c c ' b.B.} u a +.V.F.q.+.c +.].F.!.K h % % * # 1 1 % - 1 1 < 1 1 * * : = * = < = V = = < < < < < = = = = = = & & = , , = = = = = = = & & & & & & , & X O O O + + + w z x._ *.5.) *.a.t.h.e.7.| ) | X./ O.} | w.B.V.B.b.%.` _ *.] @.w.f.l.D.h.B.8.w._ f.:. .| -.B.b.t.B.m.=.+.%.-.-. . .-.e.F.b.(.b.m. .+.[ '  .[ m.b.B.b.b.w.=. . . .+. .-.b.V.F.b.-.b.=.[ { =.>.#.:.m.F.B.t.e.w.q.q.-.[ c =.F.v.b.F.F.=.M 4.a.K.s.x.D d > , > d A B 4 : : : : : V V V : > > > 4 > > V V V D V D D D B V V V V V V V V B V V V V : V : = < = = = < < < < 3 : : 1 ; % ; 0 % d e z p w p w ( w @.B.;X&XD.=X=XG.G.G.N.G.3.G.N.*X*X*X-XZ.3.>.[ >.N.-XD.*XF.G.$.( { :X2X:X6Xm.j.{ { { :XZ.3X*X*X*X*X*XN.N.D.F.*X(.(.].F.Y O . 2 -   @ @ . O X # @ @ @ O + + 7 w k _ _ *.w.j.%.h.b.S.(.S.w.%.w.w.D.:Xj.w.-.&.f.Z.&Xf.] [ :.f.N.M.1.{ ( >.N.Z.Z.2.>.:.1.2.n.n.n.m.M.N.C.D.:XM.1.;.1.2.",
"o.j s k i j 5.V.V.a...) X.} p ' [ =.b.:.=.[ c t u t u t g.h.h. .| y / | u u %.w.A.w.| } ' y y | u u B.(.D.-. .u u  .C.b.m.' [ +.e.F.e.c u u +.V.b.+.u u +.V.D.w.+.c +.(././.Y 2 % # # # # ; ; 2 1 1 1 < * 1 * < = = = = = = : = < < < = = = = = = & & & & & , = = = = = = = = = & & & & , X , X . + O + + + z w _ _ *._ ) 8.l.y.l.h.t. ./ | | ' X.| X.e.A.A.A.S.%.( ] %.| #.h.h.B.(.S.(.&.%.| h.-.%. .-.C.V.t.F.b.-.%.%.e.%. .#.:.b.F.C.2XC.b.[ [  .( #. .D.C.F.F.b.t.;.-.#. .' ' e.C.D.F.B.b.m.:.>.:.:.:.e.B.D.D.A.C.b.w.O. .%.[ c =.F.F.F.].F.r.k 4.p.s.s.x.d d , d > ; > > 3 : : : : V V V V > : > > > V V V V V A D V D V D V V V V D V V V V V V V 4 : : : : : V < V < < < V < < 3 ; 2 2 % % % d e h w w w ( w y @.B.;X:XZ.=XN.N.N.G.N.N.2.G.N.*X2X3X*XZ.2.{ [ [ N.-XD.2XN.j.2.( [ &X2X*X5Xj.g.#.] { 2XZ.-X*XD.*X*X*XN.N.N.F.(.(.F././.I . . 2 # . @ @ . @ @ & @ @ @ + + + 8 z p ) _ *.8.j.&.h.B.C.(.S.&.%.g.h.D.(.l.-.f.;.g.D.*Xm.[ { :.2.Z.C.2.{ { 2.M.D.Z.,.$.1.:.1.m.M.m.j.N.A.C.&X&Xn.2.g.2.2.",
"j e e e s i 4.V.V.t.} a  .n p } +.=.v.e.=.[ c u u y u y b.b.g.#.) u /  ./ / %.q.A.e.O.| ' y u / u u B.D.(.:.#.t u ' F.m.b.' [ >.:.F.G.c c u +.b.B. .a a +.B.(.-.[ c +._.F./.I h % # 1 - - 2 ; # < 1 - 1 1 < * 3 = * = = = = = = = < = < < = = = & & = = & , = , = = = = = = = = & & & & & & & & . O + + + 7 0 p x.x.x._ ) x.l.l.h.V.b.-.` / | @.@.| %.h.A.^.^.A.%./ | %.@.%.h.n.C.;XS.D.f.-. .h.-.-.| -.A.V.B.^.V.e.%.-.w.-.-.-.b.B.D.D.2XF. .' ( =.c >.;.(.F.D.D.B.b.:.-.O. .[ u -.F.(.F.V.F.g.:.:.:.=.;.t.F.(.(.(.A.B.w. .| -. .c =.F.F.F.].F.y...6.r.s.s.E d > > > , , , : : : : V : V : : V : : > : V 4 > > A B D V D D B D V V B A D V D V B B V V : > 1 1 - 1 = < < V V < < B 3 ; 2 ; 0 ; 2 0 r d z z w w ( w ( *.M.:X:X&X=X-XN.N.G.=XN.G.G.Z.*X*X2X:XC.3.{ { >.G.-XD.-XN.2.:.( ] :X2X:X5XM.j.{ { [ *XC.2X*XD.2X2X*XZ.N.F.N.D.(.].]./.4.O O # # . @ X . - X # . @ @ + O + 7 i p ) _ 7.w.f.&.h.h.S.:XS.w.%.f.h.S.(.n.w.w.w.f.Z.:Xj.{ ` :.j.*XZ.m.:.>.$.M.*X&X:.>.2.2.2.k.m.m.k.N.Z.Z.D.:XM.g.2.g.f.",
"e s 9 9 j i ..V.V.r.} a X.) u ' [ =.e.e.=.+.c t u y u y b.b.b.#.| y ' @./ a %.w.(.b.%.| / u y y y y b.D.D.e.=.t ( [ m.m.m.( [ [ >.F.e.[ [ u ' b.F.O./ c  .V.A.-.[ n o.(.~./.I 2 2 ; - - 2 1 # ; 1 < - * 3 * * < : * = = = = = = = < 6 = = = = = & & & & = & , = = = = = = = & & = & & & & & X @ . O O O + 7 z z 6._ _ ) w 7.l.l.l.C.B.w./ / @.#.#. .&.h.Z.^.S.S.&.] | :. .#.g.h.C.&XC.(.f.g.#.g.-.%.| :.D.F.C.D.A.g.-.:.-.%.-.g.C.A.D.F.(.C.;.' ' :.'  .g.(.F.(.D.C.b.e.:. . .] (  .F.D.M.F.C.:. .[  .:.:.e.n.D.(.^.D.V.q.|  .r. .u  .V.F.(.].F.y...6.s.r.s.E d d > ; ; , X - - 3 : : : : V : : : : : > 3 : V : B B B B D D D D A B B B V 4 V 4 < < 1 2 ; : ; - - 1 < : < V < < V V 3 3 2 ; % % ; ; r r z z z p ( w ` ` S.:X:XD.-XD.N.G.N.N.N.j.m.Z.:X2X2X:XN.1.{ [ { G.-XD.-XN.m.3.u [ :X:X:X3XN.j.{ { { :XZ.*X-XD.-X-X-XF.N.N.F.D.].D.].F.9.6 O # # . # X . # @ X @ @ @ + + + 7 i p a ) 8.w.w.&.h.g.B.(.A.:.#.:.w.D.:XM.w.-.;.f.Z.*Xk.` [ >.j.*XD.N.;.>.$.m.:XD.2.$.2.;.2.k.m.M.h.M.Z.M.&X:XM.g.2.g.;.",
"i m s 9 s i l V.V.y.} a | / t c +.=.e.v.=.[ c t ' u ' u B.b.n.-. .u }  .( a %.e.(.b.%.' / u y y / u b.A.(.:.#.t ' ' b.B.m.' ' [ +.m.g.[ ' / ' b.A.O./ / | V.F.-.[ +. .(.V.Q.U h 2 2 # # - ; ; # - < < 1 * * : : * = * = = = = = = = = = = = o = & & & & & & & & = = = = = & = & & & & & , X @ X O O O + + 7 0 z 8.x.x.k w 7.l.~.B.M.B.&.] ] ] @.#.#.f.B.A.S.C.C.;.] #.&.{ #.g.g.A.D.M.D.b.h.#.:.-.#.] :.D.(.F.D.D.g.-. . . .-.b.V.C.A.V.(.B.e. .u m.]  .b.:XB.D.D.A.n.e.-.#.] [ ( #.D.D.n.D.(.=.[ [ #.;.;.e.b.A.D.A.A.B.w.| | w.+.u  .F.F.F.F.V.t.o.6.r.s.s.x.d d ; ; ; - - - - : : : : , : : : : : : : : > : : B B D V B B D V B B B : * - : 4 < V - 2 1 1 1 2 - - - 3 < B B B < < 3 3 ; # d 0 ; r r d e w w w w ( ( *.M.^.:XD.F.=XN.N.m.N.N.2.j.=X*X:X,X:XM.&.{ { { N.*X*X2XN.j.2.( ] *X2X:X4XM.j.] [ { 2XD.*X(.-X2X*X-XN.G.N.F.D.-XF.]./.I $ @ # X X - @ . 2 @ & & @ @ O O + 7 i a p ) w.f.w.-.g.f.n.D.A.w.#.%.-.S.:XB.;.;.;.j.D.:Xm.{ ( <.m.*X&Xn.2.{ :.m.*X&X2.:.1.2.2.m.m.M.M.C.Z.M.D.:XZ.m.g.2.g.",
"q 4.a 8 k a k V.l.r.} a | ' y / c =.b.=.=.[ c c ' u ' u B.B.B.;.O./ / | u u %.w.(.b.%.} / ( u y u y b.A.D.e.%.t c ' m.m.F.c ' [ >.m.m.' ' u / b.S.O./ '  .V.^.-.+.+. ./.~./.W 2 2 ; - - ; - - # 1 : * 3 : < = = = - = , : = , * = = = = = = = = & & & & & & & & = = = = & = & = & & & & , X X X O O . + + 0 0 z 6._ _ k p 6.V.V.B.M.k.&.] ` @.{ @.#.1.M.D.Z.Z.S.:.[  .#.[ :.m.b.F.D.n.D.m.b.[ #.%.| [ -.(.D.C.(.A.b.%.#.#. .#.g.n.B.(.V.2Xg.w.' u n.| | e.(.b.A.&XD.n.1.#.#.] ] [ #.A.D.n.:X:X[ =.{ -.e.g.g.B.(.(.B.B.B.w._ } 7. .c =.V.V.F./.F.t.o.4.s.s.6.S d d , , - ; > > ; 3 : : : V , : , - ; : 3 3 ; : : V V V V V V V V - : : ; - - 1 2 < - 6 - - 1 2 - - - 1 3 3 B B B : 3 ; 1 2 ; d # # r d e z z w w ( w ( *.S.:X:X&XZ.Z.N.G.j.M.M.2.f.M.:X:X2X:XS.:.[ >.{ G.D.*X2XM.2.:.( { :X2X&X6XM.h.{ ` >.3XZ.*X-XD.-XD.N.N.N.F.N.].(.]./.F.Y $ @ $ X # - @ O 2 # X X O @ O O + + i p p ) w.w.%.;.f.;.b.D.D.;.#.#.;.n.A.w.#.;.:.2.D.:XM.{ ( >.n.2XZ.M.2.{ { j.*X&X2.:.2.:.2.n.m.M.M.C.Z.M.D.:XZ.m.m.G.e.",
"8 o.i 7 k k k V.V.e.' a | / y ' [ =.e.e.=. .[ c ' ( [ c B.B.B.;.#./ } | y u %.e.D.h.X./ / } a y y y b.A.(.e.#.t [ [ b.b.N.( ( ' >.F.:.( / ( } B.V. ./ / | C.D.e.' +.O./.c.).p.2 4 2 ; - - ; ; - - 3 : : * : < = * = = = = = * = = 6 = o = = o = & & & & & & , & = = = = & = & & & X & X & X @ @ . . . O + d 0 z x.x.x.) l 6.l.l.B.M.g.$.` ] { ] ] @.;.S.D.S.D.D.$.[  .:.[  .b.m.D.D.M.D.m.m.] ] #. .( %.D.(.A.D.B.t.-.-.%. .#.w.B.C.4XF.2Xw.-.( t h.| | e.D.g.D.D.C.b.;.;.#.] ]  .@.N.A.m.(.:X'  . . .#.w.e.b.D.(.B.h.B.r.| ) %.=.c v.F.F.c.F.V.a.o...r.6.x.x.d d ; @ @ > C 4 3 : : : = : : , : : - : - : 3 : 3 V V V V V V V V X & 4 4 4 1 4 5 - - - % % % % % # - ; : 3 < B B 3 3 3 ; 2 0 % r ; ; d r z z z w ) w ( *.M.:X:XD.N.Z.G.G.j.m.j.1.&.n.:X:X:X>XS.f.[ { { G.*X*X-XM.j.2.( ` &X2X:X5XN.j.] ] #.2XC.*X-X-XD.-XD.G.G.N.N.D.-X].].!.v.6 O # X @ ; @ . 4 X @ o @ @ O + + 7 e i t / 8.f.%.-.g.f.h.&XS.:.#.:.#.j.n.#.@.:.;.2.D.:Xm.{ ( 1.m.:XZ.m.1.{ { j.=X*X2.:.2.1.2.n.j.N.n.Z.Z.n.Z.:XD.m.b.G.m.",
"9 s i q a j } b.V.q.} / ' / u y c =.e.v.=.[ c t c ( ( t B.b.e.:.' / / ' ( u O.b.A.B.&.' / / / ( y t h.A.(.g.:./ [ t C.m.m. .u u :.F.N.:.q ] ( A.B.q.' | %.B.C.O./ } } ~.~.`.S ; f > ; > ; ; ; , : = : V = : : < * * * & * * & * o = = = & = = = & = & & & = & = = = = & & & & = & X & o @ X X X X O $ O $ $ z z x.8.s.) l 6.a.l.l.h.f.#.] ' #.%. .#.;.B.S.D.S.A.#.] '  . . .#.e.C.F.C.b.D. .u ' ;.| } -.(.A.F.(.D.e.-.-.| | %.%.e.2X(.b.(.^.} |  .&.| ' t.A.S.V.:XD.b.-.| ]  . .-. .D.A.F.2X4X] %. .O.%.w.e.h.h.A.V.l.t.y._ p y.a ' y.V.V.F.(.c.r.5.6.r.r.s.6.S S d ; d C C C A C 4 * & - 4 > : * F 3 X * & o * < B V : V V = < - 1 4 A F B B 2 2 1 - % % % % # % - 1 ; 3 : 3 3 B 5 4 4 h # d h h h $ 7 z e 7 q w w ( *.k.S.D.:X*XZ.N.C.2.2.j.1.j.&X2X:X:X5X;X;.>.( { C.&X2X2XZ.j.:.( ] :X3X&X:XD.f.{ ] ( :X*X*X&X2X2X*X=XN.N.F.F.D.-X]././.0.. . . . X @ X @ @ o   . . @ ; 0 % + s 9 t r.t.X.#.#.m.g.m.C.m.:.#.:.:.m.C.;.#.#.:.j.D.Z.M.( { { 2.D.C.2.>.{ >.1.m.N.:.>.1.$.2.M.M.n.j.M.M.M.&X:XC.F.G.:.m.",
"s k s q p s } l.V.w.| / ' / ( u c =.e.e.=.[ u u ( c ( t m.b.e.-.+./ / / a ( %.b.(.b.-.' ' / u u t y b.A.D.e.-.u [ u B.b.m.#.[ u =.F.m.>.q ] y A.B.%./ ( %.B.S.w.' | ..^././.M d f 4 > - > ; > - : : : : = : : = < * * * * X * * o = = o = = & = & & = & & = & & = = = & = & o & o & X & @ X @ o . . O O $ 7 d z ) x.x.p l r.L.~.V.M.h.-.@.` ] | `  .w.B.S.S.D.D. .' ' #.;.:.m.B.F.A.D.(.D.-.]  .%./ ' #.(.A.(.2X(.e.%.%.+. .-.%.e.2X(.b.(.F.|  .%.q.' / w.F.V.F.A.V.h.-. .| | ] #.| B.F.B.D.:X+. .] |  .-.t.V.F.A.^.B.V.l.) p 7.s +.e.B.v.V.F.m.y...6.0.s.s.x.d d ; @ ; C C 4 B A 3 - & : 3 : : * B 3 o 1 * * 1 < V < = B B < V * ; 1 4 C F 5 4 4 2 % # # 1 % % $ - - : 1 3 : < o & C W i.s.h $ d h $ 8 j z q q w w ( <.S.S.:X2XD.Z.Z.N.2.m.n.2.j.&X:X:X:X3X&X1.>.( >.C.&X*X:XN.j.:.( ( :X3XD.:X&X2.@.{ [ -X*X2X*X2X*XD.N.N.N.G.D.(.2X]././.p.$ . 6 X X . . X O - X X . # O O + 8 l s i 7.%.| w.#.j.j.b.D.N.:. .:.#.j.C.2. .#.#.n.&XZ.Z.( { { ;.:X&Xm.$.{ >.m.Z.Z.1.$.:.:.g.N.M.m.m.n.C.M.D.:XC.F.:.:.m.",
"s p 9 9 t t ..b.B.q.' ` [ ( ( u c =.e.b.-.+.c u c ( u t n.h.g.-.] ' u ' / u  .h.A.b.-.' / u / u t y h.A.(.;.:.u [ u C.b.m. .[ u  .N.m.=.y ] a S.S.%./ ( | B.^.h.' | ../.~./.I d f > > ; > > ; > : : = V V : : V - = & * & o o # & & = = , = = , = & & & & & & & = & & & = & =   @ X X o X @ X @ . @ @ O $ $ z z m 6.x.z ) a.^.^.V.B.f.7. .| / / | %.w.h.V.B.V.V. .' +. .q.e.b.V.b.C.F.(.F.e. .O.-.' O. .2X^._.2X(.q. . .}  .q. .y.(./.b.^.V. .} O.O.a s %.t.b.B.b.b.e.-. . .' +. .' t.A.t.B.V.=.| ' ' '  .q.b.V.b.B.l.V.l...p X.k } r.b.b.b.V.v.y.} ) 6.8.p.6.d l ; $ 4 Z A C 4 4 4 3 3 : : > : o ^ 5 o 3 3 < 4 = < = & B B B B - & & 4 B H B 5 2 2 # 6 1 % % # % # ; 1 1 3 3 3 3 - 4 P P.p.I h h h d $ l l q w ( w ( ,.z.&X:X>X*XN.N.N.3.M.M.j.j.&X2XD.:X3X:Xf.$.( >.N.&X:X2XZ.j.2.( ` :X3X:X,X&X2.{ @.( :X*X2X*X*X*XN.N.N.m.G.F.F.(.(.F./.0.# O . . . . X . @ * o o . . O . . 7 j i p | O.%.w.:.g.2.m.D.Z.:.[ >.#.m.C.:.>.#.{ k.D.D.M.( { #.;.&X&Xm.>.( { m.*XZ.2.<.2.$.2.N.M.M.j.M.M.M.D.*XM.F.:.=.m.",
"t s 9 9 q u  .C.B.-.| ' ' ( ( u c [ v.b.-.[ u c u ' c y B.h.g.-. .( u / u (  .h.^.b.#.' / / u u y t b.A.(.e.:.u / c B.m.m.[ [ u { m.m.#.q | y S.B.8./ ( _ B.D.h.) } ..~.~./.J f d d > - ; d > ; : : V : : : : < * , # & & * & - = = = & = = , = & & , = & = & & & = = & & = o = o o & X X X o @ X . O @ @ 8 d z x.6.x.x.l 6.a.L.t.8.5.| ) ) |  .X.7.w.t.h.b.l.l.%.| | O.%.%.-.t.t.l.V.^.r.%.|  .q.+.q.+.(.v.V.(.(.q.} } }  .5.} q.F.B.b.V.b. ...+.} u u O.r.q.t.y.w.q.O.| } +.n  .+.q.F.q.t.b.e.+.' ' c ' | O.q.r.y.r.t.a.O.k O.k } q.t.y.b.v.=.9.c j 6.6.a.s.z A d @ f Z F C 4 - 3 4 4 - ; : : - 5 3 o 3 1 < B = < = & B B < B - X X - F F C 4 2 1 % # - 2 2 # 2 ; 2 ; ; : 4 3 C 4 4 J p.s.M j h h r r l z z w w w ( &.l.&X:X:XZ.G.G.G.3.m.M.>.m.Z.:X:X:X2XD.f.$.( { Z.&X2X:XN.j.:.( ] :X2X:X:X&Xf.@.{ [ 2X*X*XD.*X*XZ.F.=XF.G.m.N.F.]././.0.$ . . X . . . . . X X   o 2 2 d r e e e s } %.q.h.2.m.;.g.Z.D.:.[ #.#.m.Z.m.#.#. .j.&XD.Z.( { { 1.Z.&XM.{ ( ] m.&XZ.2.:.:.:.2.M.M.N.j.n.N.M.D.:XC.N.:.e.m.",
"/ } u 9 y a O.V.b.-.| ] / ( ( ( [ +.e.b.:.[ c c c ( ' t B.b.:.-. .' u ( u /  .e.D.b.#.[ ( c u ( q y b.A.(.w.-.u ( ' m.B.m.[ [ u #.m.g.#.t ] ( h.S.w.| (  .l.S.f./ ) ) ~.~.`.6.d > d > > > > d > : V = = : : : : = - * & * & # o & , , = : & = : & & & & = , & = = o & = & = & o & o X @ o . X X . X @ O + 7 d z l l l z z m 6.5.r.X.) ) ) } X.5.X.X...O.y.l.h.7.5.X.......} X.7.a.h.t.l...X.} ..O.n O.s V.O.t.y.A.9.} n k } O.n q.t.t.y.t.r.o.+.a } s a =.9.O.q.y.=.=.c c s c c ..o.=.c.=.q.=.q.c +.+.+.+.c +.} q.r.9.r.t.o.k 5.j a  .5.=.e.y.+.o.s s m 6.s.a.l h $ . @ f 2 2 - - 1 4 4 3 ; - : * 5 1 o 3 1 o 5 < B < = < B = < , & & : B C C 4 4 1 - 6 ; 1 1 1 # ; 2 ; 3 ; 3 4 4 4 C p.i.4.h % h h d 0 l l z ( z ( ( ` j.D.;X&X-XG.N.G.2.N.N.>.g.N.*X*X:X2X&Xf.$.( $.C.&X:X2XZ.h.2.( ] (.5X:X2X:Xf.#.{ ` 2X*X:X*XD.Z.D.=X=X=XN.D.F.].2X'.].v.% @ . X . .   . X .   - g T i.v.c.p.M t a } %.t.g.g.g.:.2.F.D.:.[ :.:.m.D.m.:.$.{ n.&XZ.A.( { { 2.Z.:XZ.2.[ $.N.*X*X2.:.2.:.2.M.C.M.h.M.M.M.&X:XM.m.=.:.G.",
"} } t 9 q q / h.b.&.] ` ( ( ( [ [ +.e.b.v.[ u [ u c ( t B.b.t.;.+.( u u ' u ] e.A.b. .' / u u u y t b.A.D.e.:.u u [ b.B.m.u  .y #.m.m.>.y | p j.B.w.@.' | j.B.w.( ) ) ~.~.`.I d > , > > d d > > V = V V V : : 3 , & - o # o o & , : : , : , , = & = & = & & = & & = & o o o & o o X X o # @ X # . . @ @ $ d d z l l l l l k x.6.r.5.n j k 4.O.......} m 5.a.0...5.) ) ....} 5.7.8.a.r.7.X.X...} o.m O.a v.4.y.y.c.o.....k n +.} 4.=.9.q.-.=.+.c s ' a c =.o.+.O.9.=.M c s t e c n } =.=.O.o.n =.c n  .O.o.+.o.O.9.r.o.} ..k q k a i n X.+.=.9.c O.a k 4.6.r.s.6.d $ O @ ; - - 1 1 3 1 3 3 ; ; - 3 5 1 * 3 * o B ^ H.~ < B B < V & = - : B V 4 : 3 ; - - 2 1 2 ; 2 % - 2 4 4 4 3 4 1 4 Z J h j j h g 0 0 ) l z ( ` w w *.S.D.D.:X-X-X-XN.N.Z.N.3.G.N.*X-X3X3XZ.2.$.( #.Z.D.2X:XC.n.1.( ( :X5X:X3X:Xg.$.{ [ *X*X:XD.*XD.=XD.*X=XF.2X(.].2X]./.p.@ @ O # X X . . . & o 5 W I.)..X'.9Xa.m n k  .t.w.g.m.:.;.D.D.g. .2.:.m.F.m.2.:.>.n.&XZ.Z.( { #.1.C.*X&X2.{ 2.N.D.&Xm.1.:.$.2.M.C.N.n.M.M.M.D.:Xn.G.=.>.e.",
"a k t 7 9 q u f.h.-.@.] [ u ( [ c c =.F.e.c c [ ' ( ( t b.m.g.:.#.' u u u ( | ;.D.h.#.' u u u y q y h.F.(.:.w.( u  .m.F.m.u >.u >.m.m.$.( @.y h.B.8._ ( _ h.S.h.p _ ) ^.`._.s.S d d > > V d d V V V = V = : : : * & - & & o o - : , : : , : = : & = & & = & & & o = = & o = =   & o @ o X . X . o X @ @ @ ; z z S x.l l x.6.6.0.0...j k ..4.o.l o.4.m j m 6...i ..) k ) _ ) ..5.5.7.6...r.5.) l ..o.4.k y.9.r.v.9.m +.4.j c m ..=.+.=.9.=.o.o.n s n s c o.+.n =.m m n c c c n c s M =.M 9.M +.n c +.=.=.=.o.=.y.9.q.o.n ..j 9 s n k } O.o.y.y.} 9.o.5.r.0.s.s.I h d ; # # - 4 F 4 3 - 1 3 4 3 - * 5 6 1 5 < < B ^ H.H.~ ^ < < V & : > B 4 : - - 3 ; - - 3 4 4 2 ; d 2 ; 4 2 4 3 g ; @ $ d r e h % h 0 $ z l z w ) ( ( &.B.Z.D.Z.N.=X-XN.N.=X=XG.3.N.*X-X3X-XN.2.$.( $.M.*X:X>XC.M.f.( ] :X3X:X4X:Xj.#.#.] :X*X2X*X*X2XD.N.D.Z.N.(.b.F.F.~.c.I # $ # , X . X @ X X < g ! !.).oXoX#Xa.5.O.k } w.-.#.2.:.G.*XD.m.>.m.:.m.C.m.:.:.#.M.&XD.Z.[ { $.2.N.D.Z.:.[ :.N.Z.*Xg.:.1.:.2.N.C.C.j.B.C.M.&X&Xn.G.=.>.v.",
"p a t q y a %.V.h.7.| ' / ( ( ' +.=.=.b.b.' u [ u c / t B.h.e.-. ./ y u u ' ] -.F.b.O.' ( y ( y y t h.C.(.2.-.u y [ g.C.b.t -.u [ m.g.#.( #.( B.S.w.` u ( h.D.S./ } ) /./. Xs.S d > d > d V d > = V V : : V : : - - - o # & & X : , : , : , , , , & & & & & = & = & & = o o o = X o o o & X o . X X @ @ $ 7 d h x.k z z j l l 6.m j s l 4.4.m i j ..j i k 5.6.j 4.k k k l l ) 4.k 5.X.k a.5.k i n } M s o.} o.9.o.n o.o.s s m n 9.n =.9.o.o.=.n n +.s s +.n n =.n n m +.M M M n n o.9.n 0.=.o.n n n =.o.+.n =.0.q.a.9.9.r.4.n M o.} o.q.-.c.V.=.t.9.r.a.7.s.a.s.h ; $ $ O . 2 C 4 1 & # 4 4 4 - 1 1 < 3 ^ 3 < ~ ^ H.H.~ B B B B & : B B > = = - : : ; 1 ; 4 3 1 % % 1 2 4 3 4 4 4 - 2 g I v 8 O d d d 7 l z z ( ( w q *.z.S.M.M.G.G.-X=XG.N.Z.>.3.G.*X-X3X3XZ.3.>.( #.C.&X2X:XC.j.1.y ' :X5X:X5X&Xg.$.>.{ *X*X*XZ.*X*XD.N.N.N.N.D.G.:.v.v.v.0.r $ 6 # @ @ . @ @   o 4 P p.Q./.).~.4.0.q.} } w.-. .:.g.m.*XD.2.{ 2. .G.B.2.:.:.>.n.D.%XA.( >.@.1.D.:X*X:.{ 2.Z.&X:X2.3.1.$.2.M.Z.N.M.M.M.M.D.&Xn.F.:.:.m.",
"a k p t a a _ B.l.l.7./ / _ p / [  .e.m.t.=.' u u ( ( c :.F.V. .[ u ' ' u y | b.A.h.} a _ ( y ( t t :.2XD.e.[ [ c c m.m.N.c u c [ m.m. .t %.a h.A.t./ / p b.B.t.O.5.s V._._.6.S h ; @ > 4 > , & : : V = : : = V = : = , = - = & : , : , = : , = & & & X & X - * o & o o o = o o =   o =   o = o &   & X X @ 0 e J k S ..x.4.6.4.4.4.9.4.m o.4.=.9.+.n o.4...k k k 4.4...l k 4.r...j ) ~.k r.6.5.n 9.r.9.9.0.q.=.o.n n =.9.n n 9.9.=.=.o.o.9.9.9.o.o.o.=.9.y.v.v.9.=.9.9.9.9.9.q.=.=.O.9.y.v.y.o.=.=.=.=.q.y.y.9.n c.e.o.9.+.n r.v.=.o.=.q.v.e.y.a.5.0.6.R 6.s.S l ; ; 4 ; # 2 - 4 4 - 1 : - * & 1 1 1 3 2 3 4 4 A ~ Q ~ B B V A : 3 3 > : : : 3 - : 3 - : ; : ; 2 % 1 1 ; 3 1 ; 3 ; ; 1 % % 8 % r d e e l z p i w ( ( f.f.D.k.2.G.N.G.G.3.N.G.>.3.G.=X*X-X-X%X3.>.{ >.G.=X:X:XZ.2.g.( [ :X3XD.3X%Xk.{ ` ( *X-X*X=XD.=X=XZ.M.j.k.m.C.F.+.0.v.0.% @ . . @ @ @ @ X   X 2 f f g M J 4...j k }  .%.-.:.e.e.m.-XD.:.[ =.>.m.D.m.e.:. .G.D.D.Z.( >.#.2.D.2XZ.:.>.:.m.D.2X2.:.g.j.2.M.Z.M.k.N.C.M.D.:XF.G.e.:.:.",
"s k t t a p _ l.l.l.X.p ) ..) / c =.v.m.m. .] u u u u c :.D.B.#.[ c c ' u u  .h.S.h.| / _ ( w ( y t :.(.D.e.{ [ [ c m.m.m.u ( ' [ m.m. .y #.u h.A.e.( } u B.C.b.O.5.p Y._._.6.F d # @ ; A > : , : : = : : : : : : : : = = , , = * - * : , - - - & & X X - - & o o = o = o & o = o = o = = o o = & & & X O $ d e ) 6._ 5.0.5.s.r.9.0.9.9.9.0.0.0.r.5.5.7.5.5.O.5...5.5.5.6.5.5.r.0.4.5.a.5.5.4...s +.=.=.o.=.9.9.y.o.=.0.=.n n =.o.o.o.=.=.o.o.=.=.=.o.=.=.0.y.y.9.9.q.9.=.=.9.0.9.9.9.O.9.y.9.+.0.y.9.9.q.y.y.y.[ v.9.o.t.y.+.o.=.=.=.=.=.+.=.q.q.o.0.a.p.s.R f Z # # h ; # 4 # 4 3 1 - 3 3 1 : : - : 4 : > 4 3 : 4 A G A ~ G E 4 V 4 : ; - : ; : : ; : : : : 1 1 % 1 1 3 1 3 4 1 1 2 # ; $ % 8 h z d e z j i i 9 p ( 8.&.S.j.f.G.N.G.N.3.N.>.>.3.N.=X=X-X=X%XN.>.` >.k.=X*X3XZ.j.2.( ` :X3X;X2X=X3.>.{ ( -X*X=X=X=XZ.Z.Z.M.S.S.F.F.F.c.F.~.v.g O @ @ . @ @ @ @   . $ # ; 0 d z h s t p a | #.#.:.G.e.m.(.D.e.[ :.>.m.D.m.:.:.>.;.D.D.C.(  .#.:.Z.:XD.:.#.:.m.D.(.:.:.2.1.2.M.%XZ.M.Z.N.Z.&X2XN.:.e.e.G.",
"i s q i / p ) a.l.l.O./ | ..k / [  .:.b.e.%.[ u u ' u ' :.B.b.-.[ c c c u u ] h.S.h.| / | ( w / t q -.(.F.G.{ c c [ e.m.N.c ( u [ N.m.:.y  .u b.S.t./ ' y B.V.b.O.4.k c._.'.4.S h # @ > V : , : = : : = = : : : = : = , : = * , : , - - - - - - & & X & & & & & & = o = o = o = = o o o = o = & & & X X @ @ 0 z l m 6.6.7.s.s.0.9.5.m 9.r.r.r.r.9.o.X.5.5.X...5.5.5.5.5.7.5.5.O.5.7.5.p 5.....n n =.q.9.o.O.=.=.q.=. .9.=.+.n  .+.+. .O.o.+.+.+.O.o. .o.O.o.O.O.=.=.=.9.=.=.O.=.o.=.o.+.=.=. .k =.o.+.} +.} o. .c O.+.u =.y.+.s M m 9.=.+.c n } o.m 6.p.s.6.E d Z # ; f # # 4 - ; - * 3 3 3 3 3 ; : : : : 4 > 3 - : > C A ~ G ~ B 4 - & - : - * : ; : ; 1 ; : - 1 1 1 % 1 4 3 4 > 2 2 2 % % % r h d d z h i i w q y q %.*.Z.C.k.G.F.G.N.G.=X3.>.G.N.=X-X=X=X=X3.>.{ <.m.Z.*X2XZ.2.2.( { :X3X&X5X%Xj.{ { { =X=X=X=XZ.=XN.M.S.Z.D.A.F.V.(._._.0.h O O @ # @ @ @ @ . . . . . . + + 7 8 9 t / | #.-.:.e.e.m.D.D.g.[ >.[ e.F.N.e.:.#.:.Z.Z.F.( [ #.;.N.2XC.:.#.2.N.D.2X2.>.;.1.1.k.Z.Z.M.M.Z.N.2X2XC.e.:.G.:.",
"i s t i ) p _ f.l.h.*.p ) _ a ) c  .:.b.e.#.' u u u ( ' e.F.b.-.[ c ( ' u u  .g.V.l.*.( | ( w / t y w.F.F.m. .[ u [ G.m.N.[ c u [ m.m.#.y  .y B.S.t./ | y B.S.b.O.5.l V._.oX6.v d $ ; ; f : : : : : : : : : = : : : = : = , * & * - , = - - - , - & X X X , - &   o o & = o & o o & = o o o & o   X & X O $ d i J l _ 6.6...6.l 5.n n M O.r.r.q.r...) ..X._ ) ) X.| ) } O.O.) p p X.) 7 O.) ) } } q.y.=.' n +.} } a a } o.+.+.O.+.} o.} } } +.+.+.} } } c +.c ' } +.} +. .o.| } } +.+.c } +.} u } +.c n ' s s s t +.n s +.w.o.s c c m c c c c a 5.k ..4.J s.R l C # # f # ; 2 # 3 1 - ; 3 4 3 3 3 : 2 : : : > : 4 : : 4 B A B B A 3 & & - > : - : 1 : : : : : 1 1 6 1 1 1 3 ; > 4 ; ; 2 % r % % e d e e z j p z q w y &.;.:X%XM.-X-XN.-XG.=XG.G.G.=X=X=X=X=X=X3.>.( >.N.&X*X3X&Xj.1.( { &X,X:X2X=Xj.{ { ( -X=X=X*X=XZ.%X%X%X%XD.D.C.t./.(./.K 8 O 6 @ . @ @ @ X @ X . . . O O + + 7 e s }  .-.-.:.e.G.m.D.F.:. .>. .m.F.m.g.:. .2.F.Z.F.[ >.>.;.C.2XC.:.#.;.m.D.(.g.$.:.,.2.N.Z.Z.k.%XZ.F.D.2Xm.:.:.e.e.",
"a s t i ) ) ) t.t.f.5.w ) } ) / u  .e.b.e. .' u u c ' ' -.b.m.-.[ ' c u u u  .w.S.b.%./ | ( y ( y q -.D.F.B.:.[ c [ G.g.F.[ [ u [ m.m.:.y ] u V.V.t./ | y B.S.V.5.5.k V._.oXs.S ; ; ; ; > : : : : = : : : = : : : = = : = , * = : : * - = , - = - X X & & - & & = o o o & o o & o o o o & = &   & & & X @ $ r z ) ..6._ J ) l p o.k s a X.5.5.X.r._ p ) 7.X.) w | ) / +.X. ./ t u / / 7  .p ) | / } O.} a u s a a u s / .. .X. . . .| +.+.} }  .} } } +./ a ' } +.} ' } |  . .} } +.} ' } } } s } +. .=.O.' a +.c  .-.} c O.y.+.+.n c t c  .+.a 5.} I 4.6.R E Z g @ ; ; # - 2 - 4 1 - : 3 3 - - 3 : 3 : ; : : 3 4 : - : 4 A 4 4 B - X X : 4 4 : : 3 ; : 1 : : - 1 1 1 1 4 : 4 3 4 > ; 2 d % % r d d e d z e i i 9 q w f.f.:XZ.M.D.-XN.F.G.=XG.N.3.%X-X=X=X*X=X3.3.{ >.Z.D.*X:X&XM.:.` >.&X>X,X3X&Xj.$.{ ` =X=X=X=X*X=X&X&XZ.k.j.C.B.t.V.c.V.Y N O O O @ @ @ , X X X . . O O O + + 9 i n | O.-.;.>.e.e.G.D.Z.:.#.:.>.b.C.m.;.:.[ m.D.D.D.[ :.>.;.D.2XZ.:.>.;.g.Z.2Xm.:.:.:.2.Z.Z.Z.N.Z.D.Z.*X2XF.e.:.G.:.",
"a n t i } ) | l.t.l.X.p ) | a ) u  .:.t.e.#.' y ' ( u ] w.b.b.w.+.[ u c ' u | e.V.B.%.' _ p y ` y y q.D.D.m.:.' ' [ G.g.N.[ [ t [ F.m.:.u ] y C.C.t.' | p B.F.V.O.5.j V._.'.7.J 0 $ @ > > > > V : : : : : : : = : : : = : = , & , - - , - - - : & X X X & X @ & & o o & & = o = & & = = o o o =   &   X O # 0 e l k k .._ 6.6...5.| ) ) | O.5.*.8._ w ( X.*.( y @.| `  .%. .( y | | | ( | ( (  ./ | | / ' +.| |  .| / | O.O. .| 7.%.O.X.| | X.O.| O.%.| | } O.q.7.%.} | O.O.O.O.' X.%.%.%.%.O.| | } O.r.=.n c O.O.O.r.=.a +.q.9.o.+.c t +.q.-.' X.n 6.a.p.s.I f h $ # f # ; > ; 4 ; 1 - : 3 3 * > : ; : : - - - 3 ; = - 3 V 4 3 : & & X - : V 4 - : : - : : ; 3 1 # 1 1 2 3 V 4 4 4 f 2 % h 2 0 r d e e z z w q q ( y f.d.&Xz.,.G.N.G.G.>.N.G.G.G.%X-X=X=X=X=X3.>.( >.N.*X*X:X*XN.$.( $.Z.2X3X3X%Xj.>.` ( -X-X=X-X-X*X*X%XM.f.*.g.t.q.q.v.c.0.v O O X X @ @ @ @ . . . . @ O $ + + 0 i } '  .%.:.=.G.G.e.F.F.G.:.b.=.G.F.C.;.:.' m.D.Z.D.#. .#.:.D.2XD.:.$.:.g.F.(.m.:.:.1.m.Z.M.N.N.Z.=XZ.(.D.m.:.:.=.:.",
"n a 9 q ) ) _ a.y.t._ ( ) ) a ) /  .;.m.e. .' u ' ( / ' -.b.b.-. .[ u ' u / | ;.S.B.%.` _ p q _ y y &.A.D.B.:.' [ [ m.b.B.+.[ t  .m.F.:.u ] y A.B.h.} | u b.A.A.5.9.k Y._.oX5.J $ , ; ; > : : V : : : : : : : : = = : , = : = = : * * : - - - - & & X & & - - & & & & =   o &   &   =     & &   X X X @ O $ r z k l ....4.6.6.5.q.7. .) _ ..X.*._ ( ( ) *._ _ *.@.] | #.#.*.` ( f.@.#.h.` ( ( $.|  .| |  .w.w.%.w.7.#.X.%.&.%.| %.%.7.&.%.%.#.| @.@.#.@.|  .w.l.h.w.%.| @.#.%. .` X.w.w.w.t.w.%.+.' } %.| u / q.w.+.w.t.' u O.=.c +.+.' O.b.b.O.O.X.r.a.a.a.s.f f @ @ 2 @ # 2 2 - - * & - < 1 * ; : : ; : , - - 4 > : : : : : ; - , * = - - : 4 ; : : : : ; - - - % 1 ; 3 4 > 4 > 4 4 2 2 r % d d e r d e z i w w ( p f.w.Z.z.1.G.N.G.N.3.N.G.3.N.=X-X=X=X=X=Xk.>.{ >.Z.*XD.*X3XM.$.` :.C.2X5X2X%Xk.{ { ( -X-X=X*X=X&X%X&XZ.k.w.h.h.e.9.c.V.p.h O o . @ @ @ @ @ .   . . O $ O + + 7 i k } | %.;.>.;.e.e.F.Z.m.:.2.:.m.F.N.g.:.] m.F.Z.D.>.:.#.:.F.2XZ.:.#.:.m.D.-Xm.G.e.2.k.Z.M.N.M.N.D.F.(.D.m.:.:.:.G.",
"a s 9 9 p ) _ l.f.l._ p ) | k / u  .e.t.e. .' u ' c c ' :.e.b.e. .c u u c /  .-.V.B.8._ ] ( y _ y y q.V.F.C.:.c c [ e.e.C.{ [ y [ m.m.e.u ' y A.V.h.'  .u b.A.V.5.5.n V._.'.6.J $ $ ; 4 > , > B : : = : : = : : , : : = , = = , , - - , , = - - & & X X & # & &   &   o & &   = & o   & & =   = X X X @ O + 0 e k _ ) ..6.5.8.7.7.7.*.../ ` | X._ _ *.8.8.8.d.j.*.#.$.$.$.$.@.] f.] #.&X[ ( ( :.%.*.| _ *.w.w.@.f.w.%.%.w.w.%.| %.7.t.h.f.w.@.| | X. .| @.X.j.B.S.h.%.| _ | | / / | w.w.f.h.w.%. ./ +.O.+.u } b.b.O.y.F.O.' -.O.c +.=.=.q.b.V.e.t.5.r.a.p.s.s.S d . $ f # - 2 - # o o & * : 3 3 : 3 : - : - : - 3 > 3 - : ; : : - - ; : , = - - : : 1 ; : : : ; 1 - ; 3 > 4 V 4 V f d 4 2 2 2 r d 0 d r z e z w w w y w.f.:XD.M.G.Z.N.-XG.N.>.>.3.=X-X=X=X-X=XG.3.[ >.Z.*X=X*X3XC.{ { 2.S.>X5X2X%X3.{ { ( -X*X=X*X=X=X&X*X;X&XS.:XF.V.y./._.v.% O @ @ X @ @ @ @ X . . @ # $ + O + 8 i a /  .%.;. .m.g.G.Z.C.m.g.;.#.g.Z.C.g.2.[ 2.C.Z.D.#.>.#.>.Z.2XN.:.:.:.m.D.].N.m.e.;.m.Z.N.M.M.N.D.D.D.(.m.:.:.=.=.",
"s i 9 9 p p ) w.h.7.X._ | ) } } / ' -.n.g. .c ( u u u /  .B.b.e.+.[ u u c ( ' %.V.h.%.' ` q q ) p q &.(.(.C.e.u ( [ m.b.m. . .u [ m.m.:.c  .y b.A.w.' ( / h.D.V.r.5.} ~._._.0.J $ ; ; > > > > : : : : : = : : = , = , = = , = & = & & - X & - X & & & & & & X & X & X * & X & X & & X & o & X & X X @ @ O 8 0 i i X.5.) _ 5.7.l.t.8.@.| _ @.@. .&.*.*.8.d.f.l.l.` { ] >.2.1.] { j.2.f.j.( $.$.` #.w.%.#.w.f.f.l.f.f.%.| @.h.f.@.@.h.h.f.h.f.%. ._ &.f.` w.| w.S.:XA.j.w.*.| @.%.-.( f.;Xh.h.S.w.-.+.-.| -.u -.b.b.b.b.b.+.' -. .=.=.+.=.F.D.b.D.t...7.~.s.0.s.S $ O ; # f # > . 4 o o 4 1 & = B ; : 4 : & X X - & * - , ; - - : & & - & * : : : ; 3 4 V : - : 4 - - ; > V > V D > > , d $ ; $ 0 d 0 0 0 e i j p k ( / %.M.:X%X2.N.-X-XN.G.=XN.>.3.N.=X=X=X*X=XN.>.{ { N.N.-X*X:XM.$.( { :X3X:X:X=X2.{ { ` -X=X-X-X=X%X%X*X&XS.k.A.F.b.V./.'.Y.% O @ . @ X @ @ @ . X O X O O + + + 8 t k |  .%.#.;.;.;.n.D.Z.m.;.;.>.g.D.Z.m.2.] :.D.C.C.{ #.[ ' m.2XD.:.>.#.m.D.F.m.2.:.;.N.Z.Z.Z.N.C.F.N.D.(.m.:.:.:.:.",
"s s q 9 a / ) 8.l.7._ | ..) ) ) / +.:.b.b.[ u ' c ( u c :.b.b.e.[ u u c c ' | -.S.h.%.` ' ( q ` ( q 7.(.D.B.;.u u ' m.m.b.[  .u [ F.F.:.u [ y b.V.%.} / ' t.F.V.q.4.k ~._.'.s.S $ ; ; ; > > V : : : = : : = = : = - = = , = & & * , & - - & & - - X @ & X # & X o X & X X & X &   & & o & o & o & & , O O + 0 i w 6.7.) 5.4.7.a.l.w.w.X.| | _ | @.` *.w.j.f.z.z./ { ( ( $.$.] { f.2.m.M.$.$.:.] *.&.@.@.h.B.h.S.h.g.&._ %.f.f.O.@.B.B.M.C.n.&.@.@.%.w.' f.@.h.S.:XA.h.w.@.' @.$.&./ h.(.n.C.(.g.%. .w. .q.a e.b.F.B.C.V.-.| O. .n >.=.e.D.F.b.D.B.5.7.a.a.s.s.h ; 2 2 f $ # # X ; X & - * * < B B 4 4 B 4 : : 4 3 > : : : : 3 > & , - - : ; 4 : - - > : - - : 4 - - - : d > D V > ; ; d ; $ ; $ e d h d j z l p w w ( %.S.2X;XM.N.D.=XZ.N.N.=X3.3.N.=X=X=X=X=XG.>.{ >.=XN.*X*X:XZ.<.( ] :X3X:X:X%Xj.{ ` ` =X=X=X-X=X=X&X%XZ.M.j.A.b.b.t.V._.c.r O O O X @ @ @ X X X . . . + O O + 7 e k |  .-.#.;.2.2.n.D.Z.m.:.;.{ j.D.Z.m.$.{ :.C.B.N.[ >.[ [ C.D.D.:.[ #.;.F.D.F.m.:.;.n.Z.C.Z.M.C.N.C.D.(.m.e.:.:.:.",
"s s 9 9 k a ) w.l.7.X.) | ) ) } u ' -.b.e.[ ' u u u u ( -.b.B.;.[ c u u ( ' ] -.B.l.%._ _ y q ( p q 7.(.(.B.:.u c ( b.m.B.+. .u [ m.F.:.u | y b.F.q.+./ / t.A.B.5.O.m ~._._.0.h $ ; ; ; > > > V : = : = , : = , : : = , * = * = = , & & # & & - & - - & & & X & & & X & * X & X & & & & X & & X @ @ @ @ + + 0 e i 5.7.6.5.7.8.l.B.V.h.w.| ) ` | ) / X.f.B.z.B.S.$.$.[ ( &.$.#.1.f.j.D.S.M.$.$.{ #.#.' @.b.S.n.C.n.h.;.| #.g.w.#.*.B.(.D.(.C.&.' ]  .%.( h.e.C.D.(.Z.B.&.| ] | #.#.#.n.D.S.:X:Xh. ./ #.' #.u :.b.(.C.D.D.m. . .' c =.e.F.(.D.F.D.S.q.5.a.r.s.6.f $ 2 C R g Z 4 g 4 1 3 - * B ~ G ~ A 4 4 4 : & & > : ; * , * : : - - - & = & , = - - & - - : : - ; - ; > V f D d > d > , d $ $ d d 0 d i e z 0 i w q / %.S.(.&XM.G.N.N.G.G.N.=X>.3.%X=X=X=X=X=Xk.>.{ { N.Z.:X*X:XZ.1.( { ^.3X*X:X&X2.{ { [ =X=X=X3X-X=X%X&XM.k.j.C.b.t.=.y.~.c.% O . O X @ X @ @ . . . . . O + + + 7 t k } O.-.;.2.2.g.n.Z.Z.j.2.1.{ j.&XN.j.;.[ :.C.N.C.[ { ( [ C.2XZ.:.{ { :.C.(.F.m.=.:.n.N.C.M.M.N.C.F.D.(.F.G.:.e.:.",
"a a q 9 / ) ) 8.l.7.X.| ) ) ) / c ] q.b.g. .u / ( c u / -.m.b.b.[ c u ' c ' ] #.B.n.%.@._ y w ( y q %.(.D.B.w./ ' u m.m.B.[ #.u [ m.m.e.(  .y B.S.w.| / | h.A.B.5.o.k ~./.'.p.l d @ ; ; : > : : : : : : : = : = : = : * , = , * , & # & & , & & & - X & & X & X X & & & X & & X & & X & & X & & X X @ O O 7 9 i p 7.7._ 7.r.8.l.V.A.B.h.X./ _ | ` ' &.j.^.S.S.^.;.#.` ' &.$.#.f.n.N.:XD.Z.#.@.| &.#./  .C.D.C.D.C.n.e.#.#.e.;. .#.B.A.D.:XA.%.' ] ] #./ n.n.D.(.(.D.B.&.] |  .#.| :.D.D.(.2X2Xw.[ (  .[  ./ -.b.(.C.(.(.b.#. .' c +.b.D.D.D.F.(.D.q...7.a.r.I d . h u.W.P.u.T G 4 B g 1 3 ~ H.! H.A : - : - X X , = - - - : - - : : - - X X X   - & X - : 4 : - ; ; > > V V V D > > > > ; ; 8 d ; r z d 0 0 w p q w ` %.j.M.z.2.G.G.G.2.3.G.G.>.3.N.=X=X=X=X=XG.>.{ { =XN.*X*X*XN.1.( ] *X,X:X2X&X2.` { ( =X=X=X:X*X*X=X%XZ.M.h.C.V.b.v.0./.c.h O 6 X O O @ @ @ .   . . O O O + + 7 e a |  .%.;.:.;.2.n.Z.Z.j.:.:.{ m.D.C.2.$.[ >.C.M.C.[ >.( [ N.*XC.:.[ #.:.N.F.m.:.[ #.g.n.N.n.b.C.C.N.-X].F.v.G.:.:.",
"a j t q p / ) 7.l.w.X._ ) / a ) / ] -.b.t.[ ' ' ( u u ' -.B.b.b. .[ c u / / / @.b.b.8.X.| y q / w q 8.(.^.b.e.u ( u e.B.B.[  .u [ m.F.e.u #.u B.A.w.| / } h.A.b.q.5.k a.~._.a.S $ $ ; - > > : : : : : : : - = : : : , = = : = & & - - & & & - X - & & & X & & & & & @ & X , X , , & X & & X , X X @ @ O + + 0 w ) O.X.) *.r.a.~.V.A.A.t.%.' +.%._ | %.n.A.A.S.A.%.] ( ` &. .' &.B.S.^.A.A.*.| @.e.#.' #.F.D.B.F.A.M.e. .#.:.:.-.;.C.F.A.(.D.:.[ ]  . .c m.N.D.D.(.D.B.:.] ] #. .' :.D.2X:X4XD.#.:.+.-.] e. .m.C.D.B.D.(.m.#.[ ' c [ b.F.m.F.D.:XA.w.) ..a.a.S l O Z Q.oX.Xi.G 4 - 4 3 & B H.T.J.H.G - = : 4 : 4 X X ; 3 4 : 3 - : : - , & & X X : - , & 4 4 > - ; - > > > V V V > > > d d ; 0 d d l z z z l k _ w y _ $.h.S.k.1.m.N.G.G.G.N.G.>.3.N.=X=X-X=X=Xk.{ { { N.N.-X=X:XM.:.( ` (.>X:X3X=Xd.{ { ` =X=X=X*X*X*X%X&X&XS.S.S.F.(.V.c.].Y.N O O . @ X X @ @ X   . . . O O + + 7 9 s /  .%.;.1.:.3.m.Z.C.m.1.:.>.j.Z.M.2.>.{ :.N.D.D.{  .u ( N.D.F.#. .>.G.F.F.m.=.c >.g.m.C.N.G.F.F.F.].-XF.m.e.e.:.",
"n k q 9 k p ) 8.l.r.X._ ..) ) a u ' :.b.h.[ / u c u t ' -.b.b.:.=.[ ' c u u /  .l.n.f.X.| w w ` q q 7.(.A.V.w.' ' y ;.B.F.] | u [ m.m.;.u  .u B.(.w. ./ } t.F.B.q.5.k a.V.oXi.I $ @ ; ; - : > : : = : = , = : = : = : : : , = , - & & & - & & - & & # X & & X & @ & , X & & & X X @ & & X , & X X @ O O O + 8 q ) 7._ p X.r.l.V.B.V.V.h.O.' ' %.| | &.h.S.B.V.z.%. .( | w. .` %.V.D.S.B.D.-.( %.e.-.' :.F.F.F.D.F.F.e.:. .-.:.=.e.F.D.D.:XF.:.[  .#.#.u m.b.F.F.(.D.C.-.]  .#.[ c e.D.(.(.2XF.-.:.[ #. .g. .g.B.D.F.D.:Xe.' [  .[ c e.F.m.B.:X(.C.r.k k K.a.m S j I XXwXwXJ.P 4 & 1 4 1 ^ T.[.!.J.~ : - - - * : X X & : : : - & - - - - ; : : : : : - : : : : - - : ; : > V V d > > d > d d d d h l d h l l l p w p ` %.j.S.Z.f.Z.Z.N.G.N.N.G.3.2.N.=X=X=X-X=XG.{ { { =XN.*X&X:XM.&.( { &X3X:X5X1X3.{ { { =X=X=X=X=X:X-X:X%X;XZ.A.A.(.V.~.]./.b O . @ . @ @ @ @ . . . . . O + + 7 8 q p / | %.-.1.<.1.m.Z.Z.j.$.$.$.k.&XM.<.{ ( #.N.D.D.#.{ ( [ F.D.C.:.>.:.G.F.F.m.:.>.=.m.F.N.G.G.D.F.m.D.-XF.e.:.:.e.",
"n n t q ) a ) 7.B.8.X._ _ / / ) ' ' e.b.e. .u ( ( u u u -.b.b.b. .[ u c / u /  .h.B.f.%.` t q _ q 9 r.(.^.b.;.' ' y w.b.C.+.| ( [ m.B.:.' #./ F.A.w. ./ | h.A.B.=.5.n a.~._.a.S $ , # ; : , : : , : : : = : : - : : : = : = : * & & & # , & & - & , & , & X & & & X X X X X & X X X X X X X X @ X @ O O + + 7 q ) O._ ( O.8.l.V.V.b.B.e.O.' '  .| | %.b.B.S.B.B.w.%.` X.w.%.| e.V.(.B.C.(.w.t | e. .' =.D.D.F.(.D.F.e.-.:.>.-.e.e.F.D.F.(.F.:.[ [ #.:.c b.b.F.F.(.-XC.-.'  .=.[ u b.F.F.(.D.F.b.#.' #.' :.] :.m.(.F.D.D.;.y ' #.[ t b.D.C.F.:XD.n.t.) ) a.a.l S L T R.oX}.J.P Z 4 ; 1 3 ^ H.T.H.E G B B > , : V : V 3 3 ; : - 1 & = , - * * : - ; : : - - & , * - > : > > > d V > > d d d d d r l h d l S ) p 9 p y / %.S.:XZ.m.=XZ.N.N.Z.N.N.3.3.N.=X=X=X=X=Xk.{ { { Z.n.*XD.*XM.:.( ( &X:X2X5X*Xk.<.{ [ -X=X=X=X*X:X*X%X%XZ.S.A.F.F.c.~.].V.h O X X @ @ @ @ @ .   . . O O $ 0 0 e e a /  .%.;.:.<.1.j.Z.Z.m.<.$.$.j.&XM.1.$.{ #.F.Z.D.[ #.[ >.D.-XZ.:.=.:.G.F.].F.m.=.:.m.N.F.F.N.D.D.F.F.].F.G.e.e.:.",
"c n t q a p / 8.l.w.X.X.) ) a a / ' -.b.m.[ c ' c u u ' -.m.V.:.+.[ u ' u ' '  .l.B.w.%.` ( w ) q q 8.(.A.b.w.' ' q -.b.C.| | u [ m.C.;.u  .( V.(.g.X.' / h.A.V. .o.n a.V.oXa.S + @ , > , > : : : < : = : = = = : : : = : = * - & - - & & & - & - & & & & & & & X X & X & X X X & X & X & X & X @ X . O O + 8 9 p X.) k 7.r.a.b.c.V.b.y. .' ' ' | ' %.h.B.B.l.S.e. .a ' 7.+.} w.^.(.b.A.(.h.q / :. .[ :.D.F.F.2XF.B.e.:.=. .-.:.:.C.F.D.2XF.=.c '  .-.u b.m.(.D.(.(.F.-.[  .=.[ c m.F.F.D.D.F.D.:.] -.[ e. .h.m.2XD.(.D.#.y ' :.c t b.D.N.F.2XA.b.h.} k a.0.h l F Z P Y.u.P g C 5 - X * 3 B G B V 3 A G ~ G E ! E ~ G A B A B D - - & X X X X   - : 4 - X X X - ; ; , ; > > V V > > > ; ; d h h I l S J 7.4.i 7 p p y @.n.:XZ.2.N.G.G.N.=XN.3.>.3.N.=X=X=X=X=XN.>.[ { Z.N.:X%X*XM.3.( { Z.2X*X5X:Xm.>.{ ( -X=X=X-X*X*X*X&XN.M.n.C.V.b.t.v./.c.h @ O O X . X @ X X . . . . O $ $ e i s n }  .w.1.:.:.1.m.N.Z.2.:.&.$.M.&XM.:.{ { >.Z.Z.C.[ #.#.2.D.2XD.:.:.:.G.F.D.F.m.:.2.G.F.m.G.F.D.F.G.].-XF.e.e.:.:.",
"i s q q a a ) 7.r.8.X._ ) ) ) } y '  .b.t. .u u ] t t '  .B.C.:.' c u ' [ u ' | h.h.w.8._ a y y q 7 8._.^.l.w._ _ ` q.B.n.#.( / #.F.n.#. .] ' b.C.h.| y ] B.A.n.O.o.5.r.p.'.c.J ; @ , ; ; : : V - * * * * * - * * * * < * - * * , & & * = , = , = = = , = = = = = = , = , & , * = = = , = & = &   X - O + + 8 r s X...p ..5.7.a.F.V.b.b.=.c ' O./ | h.C.h.l.B.h.w. .( | w. ._ w.V.(.n.(.B.n.' #.:.G.+.>.2XF.G.(.F.b.t.-.%.-.q.;.e.(.D.B.2XD.:.-. . .] / ;.F.D.V.D.F.n.-.O.#. .' | ;.b.b.F.:X(.g.w.] ' #. ./ w.D.2XB.B.:Xh._ ] &. .] t.D.F.m.F.F.F.v.+.5.a.a.s.z A $ h U J F g % 2 o 1 4 - - 4 C X o 4 ~ H.H.H.Q.T.H.H.H.H.H.~ D ~ -   X : ; - > - , , , , , , , @ @ @ - > 4 4 > & - ; # % d r h J 6.6.6.6.x.k p a w ( *.j.B.Z.k.m.j.M.3.3.G.N.3.G.G.=X=X-X>X%XM.$.{ ] D.M.*XD.&XZ.1.( { =X*X*X3X=XN.( { { =X*X3X-X*XZ.Z.Z.M.j.2.F.G.:.=.v./.c.b % . . # X X X X .     . @ O $ h 8 j ..} / +.%.;.>.>.G.m.D.N.G.>.#.:.j.Z.%X2.>.{ m.N.D.*Xb.[ ( 2.F.2X:X-.( :.A.C.D.D.F.m.g.n.C.C.C.C.n.n.D.:XD.F.m.e.:.:.",
"s i 9 t ) p / 8.h.8.X.) / a / ) t / :.m.b.#.' u ' u t [ =.F.F.-.[ c u ' ' ' / | h.h.f.%.` u ( w q 9 8.;X;Xl.w.@.( / %.B.n.%.' ]  .D.B.#.#.` | h.D.n.@.y ] n.C.b.5.+.o.r.y.oXp.l 0 # @ - > > : V * < < * * * < * < * * * * * * < = * - * = = , = = : V = V = V = & = = = = = = = = = = = = & & & & & @ $ O O 8 9 s ....k ..5.5.V.c.F.V.b.=.[ '  ./ ' q.h.t.h.S.b.w.%./ ' -. .] w.B.A.h.A.n.t.( ' =.e.[ :.].F.m.2XD.C.g.-.-.;.-.q.2.D.D.C.D.B.-.[ [  .| ' ;.D.(.A.(.(.B.-. .| | u } -.h.B.A.(.C.-.q.+.| O. .} w.(.4XA.A.:Xj./ / %.' ' ;.F.F.F.D.F.V.q.n o.a.a.s.) h @ ; h h 2 2 # 2 . 1 4 6 o 4 C & * F I.[.XXOXOXlXlX{.T.T.T.H.H.D = X & : X , : , , ; , ; , ; , @ $ $ ; ; : 4 3 2 3 2 f h h h r h h z h S k l p w y / &.j.S.S.j.j.2.m.m.2.N.N.>.3.=X=X=X=X>X%Xk.{ [ { Z.M.:X&X&XN.:.( { Z.3X-X3X=Xm.{ { { D.*X2X:X*X&XD.D.Z.M.b.F.m.v.m.b.].c.r h . . # . X & .   .   . X O $ j I r.9.o.}  .-.-.>.>.>.m.N.F.G.>.:.2.j.Z.N.<.` ( $.j.n.m.2.( ( :.N.(.(.e. .b.V.F.(.D.C.m.b.N.C.F.D.D.C.n.C.D.D.B.m.g.G.:.",
"s t 9 q a p ( 8.l.w.*._ p / a p y ' -.b.b. .[ / ' y y ' :.b.B.-.[ c c c u u / ' b.h.f.8._ ( w w q 9 8.,X(.z.t._ / ( %.B.B.&.' { ] A.B.#.%.] ] h.D.M.#.( @.h.B.h.O.+.4.r.v.'.a.J d , @ - : : : V 1 * * - < * * * * < * * * 1 * 1 = , , = , = , = = = = = V = V = = = = & & = = & & & & & & & & & X - - O + + 8 9 i 5.X.k ) 4.r.~.F.v.b.m.=.+.+. .+.' O.h.h.C.(.C.q. ./ ' -.%.%.b.b.A.B.F.B.b.u ' :.:.c >.D.D.F.(.2XF.e.-.-.%.%. .=.F.A.B.F.b.-. ./  . .| q.V.(.A.(.(.F.-.} ' } u a %.h.V.V.F.t. .} ' +.O. .+.w.^.2XS.(.(.y.( _ %.+. .-.b.B.(.D.c.t.9...o.r.K.s.s.z + $ 2 $ % 2 # 3 6 1 4 ; - 4 4 - * ^ T.OXOX[.XXlX[.lXT.T.H.H.H.B : X - ; X & ; - , , , , , , $ $ $ @ # ; 1 3 4 3 ; 2 h h h r $ l l h l l l l p p p | ;.j.Z.;XA.C.N.Z.Z.N.N.N.>.3.G.=X=X-X>X%XN.$.] { D.N.:X&XD.C.2.( { =X-X*X3X=XN.( { { =X*X2X&X&X&X*X&XD.Z.C.F.F.F.v.c./.c.% ; . X @   X & X     . . O O ; M r.a.9.X.+. .%.#.[ >.:.m.Z.N.G.>.2.3.2.N.k.>.( ( >.m.m.:.:.{ { :.e.b.B.g.w.t.t.h.C.C.B.g.g.n.B.m.D.C.b.;.g.n.B.g.e.:.:.=.",
"s s q 9 p p p 7.l.r.X.) ) p ) a t ' -.b.t. .' u ' t t ' -.b.B.-.' u u u ( u u / h.h.t.%.` ( w ( q 9 8._.(.L.y._ ) ( *.B.C.&.] [ ] A.C.;.#.] @.n.D.l.%.( | h.C.B.=...+.t.v.9Xa.J 0 $ @ ; : - : V * * < * - * < * - * * 1 * * * * = - * * = : = , = = V = = = = = & & & = & = & = & & & & &   & & & X @ @ + + 8 9 s 5.5.p ) 5.5.c.b.v.v.v.=.+.n =.O./  .t.b.V.A.V.w.O.' ' -.=. .e.b.V.b.F.B.t.u c >.+.c [ N.F.m.F.F.t.O.'  . .| +.=.m.F.F.V.b.e.-.a ]  .+.-.h.V.A.D.F.b.o./ / ) s p O.h.b.V.t.r.X.} c } O.} a O.b.~.h.B.V.%./ %.w.'  .-.O.t.F.F.=.=.9...6.a.a.K.s.h # @ # # # 2 1 2 o - 5 - - 4 4 1 - B H.!.!.I.H.T.{.{.{.H.H.~ H.: * * : - & @ : , - ; , , , , , , @ $ , ; 4 4 1 3 1 ; 2 h % h M R R s.6.6.6.k p ) p ( *.j.D.>X:X3XD.*XD.=X=XN.>.3.G.=X=X=X>X*Xz.$.{ { D.N.*X&X*XN.3.( { Z.-X*X3XZ.G.( { { D.&X*X&X*X:X:X:X&XZ.M.F.F.(.F.v.F.v.x d . O - X X X . . . . . . O r J p.0...k /  .-.:.[ >.:.m.Z.N.G.>.2.1.j.M.k.<.( ( ,.C.k.{ #.#.] ( #.#.O.-.-. . .%.w.w.%.%.%.w.w.#.q.%. .#.%.w.-.;.>.=.[ [ ",
"s i q t s y p 7.l.8._ / p ) ) a y ' :.m.m.=.' / ' t t (  .B.V.:.[ u u u u u u / h.h.f.%._ p y p q q *.;X^.S.t.` @._ &.B.S.w.( ] ' S.A.:.#.| | B.D.b.#./ #.h.C.A.-.} m v.c.#Xa.I ; $ @ ; > , , : : - * : * 1 < - - * * - < * * - & - - , = , , : & = = = = : : = & = , = = = = & & & & & &   & X X @ # O + + 8 9 a 7.O.) ......a.v.v.e.=.=.n c n +.u +.-.t.b.g.-.b.t.+.[ O.+.a [ -.b.-.V.e.=.r u =.c c :.m.F.e.v.t.:.' c / } +.' =.w.b.V.t.w.q. .a +.+.}  .r.t.t.b.V.y.} i a ) ) k X.q.y.y.y.q.9.k c o.o.} s } q.t.%.t.y.X.) 7.7.a } O.+.+.b.c.n o.4.4.4.p.a.s.I h $ O h # ; 2 # 2 o - 4 - - 4 1 - 1 3 G H.H.H.H.T.{.[.{.H.H.D B - - : : - & , > - - , , , , @ @ @ @ @ # : 4 3 4 B 4 g g h f J a.p.~.`.~.s._ l p p q ( | h.S.%XS.D.F.Z.N.G.D.N.>.3.N.=X=X=X-X&XN.$.{ #.D.C.:XD.*XN.2.( { =X-X-X3X=Xm.{ { ( =X&X*XD.:X:X:X&XZ.M.M.m.F.F.b.v.c.v.v r   X @ X X & X   . . . . O d m I 4.n i s  .&.-.>.>.2.N.Z.N.j.1.$.&.k.Z.Z.<.` ( $.n.1.( ( [ ( q #./ / ' ' / u ' ) _ / / ) X.X.p u y / ) _ ' ) ' c c y t ",
"s s 9 9 p p p O.y.7._ ) ) ) a u t ' -.b.m.#.' ' / t t c  .B.B.-.[ u u c u u y [ b.l.h.8.| ( y ( q q 8.^.(.A.l./ *.' %.M.C.;.] ( / A.A.w.&.]  .M.Z.h.#.] #.g.S.D.q.+.} v.V.rXa.I d $ @ , ; , , , - < - < - : - < - < - < - - - : - & * : - : = = = & , = = = = = , & = & & , , = &     & & & & X X # @ O O + 9 9 k O...k ) ....o.=.=.+.=.=.c c c =.t c q.-.=.O.+.+. .' c -. .+.O.-.v.=.b.-.=.t c c c c +.e.e.:.:.=. .+.' +.+.| +.=. .q.e.O. .o.a a } } }  .5.5.r.r.r.7.n s a ..} } ..5.5.r.q.7.5.n n n n n a n ..5.X.7.7.) ) O.} r a +.c c b.v.=.M o.o.m s.J.s.S h O # d ; % 2 o 4 o - 4 1 - > & # & - 5 B H.H.H.T.{.lX{.H.~ B = * * * ; - - - : - , , - , , , X # $ - - > 1 4 3 4 4 5 f % 0 I Y._.oXrX'.L.m l p p q / w.B.Z.M.&.b.G.2.2.G.N.N.>.3.N.=X=X*X-X&XZ.;.{ #.&XN.2X:X*XN.3.( { Z.3X*X3X=XN.( { { N.Z.*X*X*X*X&XD.Z.M.M.F.b.F.b.c.c.v.M 0 . . # . X X X X . . . O . $ j k 4.n a a ' %.#.>.:.G.m.N.N.m.3.$.$.j.D.Z.2.{ ` $.2.$.( ( ( ( y ] / u ( y y u / / ) p y / | ) w w w p ) _ / w p u u y q ",
"s s 9 q p t p 7.h.7.| ) _ ) p q y ' -.b.t.-.' ( ] t t (  .b.F.#.[ c u u ( u u / B.h.f.w._ ) ( w q q 8.(.^.^.h.( @.] %.B.A.w.] ] ( C.D.1.&.] @.B.D.h.#.| %.g.C.^.e.n +.v.V.rXc.I 0 $ @ ; , , , : : - : - : - : - : - , * : - : - - - : - - : : , & & & & = = = & = & , = & & & = & & & & & & & & X @ O O O + + 9 i | / s } ..k n =.=.c +.c c c c =.t c =.+.+.+.+.t c t c =.-.=.=.+.:.c e.=.=.t c c c c >.=.=.=.=.+. . .o.+.} +.o.=.c o.9.n o.o.y m } } ....5.5.4.o.5.5.k e a m } ..k k ..5.4...k ..m n n ........5...5.X.) 5.%.p s c n n n q.y.=.n I m I s.K.s.Z S # # f ; - 2 # 5 o * 4 ; - > # # o & # < B ~ ~ H.{.T.H.E D V & & & & o X * * & - - , # , X , @ , $ @ - : > 3 4 4 - 2 f ; 0 v a. X9XwX_.K.X.j p p ( _ f.B.D.S.1.G.:.G.G.G.G.N.G.>.N.=X=X*X*X&XC.:.{ #.D.N.2X*XD.Z.1.( { Z.-X*X3X*XN.[ [ { =XZ.*XZ.*X:X&XZ.Z.S.D.D.m.m.(.(.c.v.M 2 . O # X X X .   X   . O O + d z m ..n a '  . .>.:.:.m.N.m.m.m.$.$.j.Z.S.2.@.{ $.m.1.{ [ ] / ] ' ' ' y q u a / ) p p w ) X._ p p p ) X.) p p ) a a u t ",
"s p q 9 s y w *.l.8.| _ } ) y 7 u ' -.B.m. .' [ / t t / :.m.B.=.+.c c ' u u u / l.h.j.8._ ( w ( q q w.^.:X^.h./ | / #.n.C.g.#.' ( A.D.w.%.]  .M.:XB.&.] *.e.B.F.w.c k t.~.6Xa.4.% $ @ $ ; , X , ; : - : - : - : , - : - - - < - - * , * - , - = & & & = = , = & & & & & & & , & & &   & & & & & X @ $ O + + 7 9 q / p u X.X.k a =.M c N c s s c +.9 t c u t a ' t c s c =.=.c ' c +.s =.+. .t c c c =.=.[  .-.=.c +.=.=.} a c +.o.t n =.} 9.9.k ..k k o.5.5.5.5...5.5.k i k m ..o...j } 5...k i 4.} n n o.9.O.o.O.......X.r.7.k =.M +.o.=.=.0.=.=.4.I I s.Y.K.S J d # h # 1 4 ; 4 o - 3 3 ; 3 & - * - * < B ^ ^ H.T.T.H.~ ~ B =   &     X & & X , , - & , & @ X , @ - ; : 3 4 V B : 4 g g d S r.K.~.`.~.r.S p p w q ( | ,.z.%XZ.N.G.D.D.G.N.N.:.3.G.=X-X&X*X;XZ.$.@.#.D.N.2X*X2XN.:.( { =X3X-X3XD.N.{ { ( Z.Z.*XZ.D.&X&X%XD.&X:XD.e.F.].'.V.0.Y % . . , X   , X   . . . X . . 8 0 j } k / +.%.:. .>.:.G.m.C.M.n.:.1.j.Z.z.1.@.` &.j.f.#.{ ] ( ] ( ' ' y q p / a ) ) p w k X._ p ) p ) X.) p ) X./ a p t ",
"n t 9 9 i t p _ 7.t.X.( ) ..p t a ' #.m.F.q.' u ' u q ' #.b.F. .c ' u u u u t | n.b.h.w.` ( y p / q f.:XB.^.C.( ` | #.C.C.#.{ ] / n.C.h.&./ ' n.D.S.-.( #.b.M.(.q. .O.q.y.4XY.r.7 $ + . @ ; ; X - - ; ; - , & , & & , - - , & , @ & - - ; 4 > ; V : & & & , , & , & & , V V , , & & & & & , & X X O O + + + 9 t q } | / X.} } } n c +.n c +.+.+.+.' a ' / u s a ' u t u +. .' u +.=. .+.' u t  .=.+.+.+.+.+.+.c +.}  ...n +.} o... . .O.o.X...} ..7...} 5.O...r.a.5.o...4.5.5...5...k k o.5...o.O.o.o.o...k o.t.r.O.} O.7.7.8.q.O.n y.9.q.o.v.o.r.I r.0.`.K.K.D S ; $ d ; ; 4 - 3 ; 3 : : > : : 1 1 - o X - C T J.H.E ~ E A B B = = * * * * - 3 D B 3 & , - , ; - # , - , : : : B : X , d h S I 4.s.~.a.s.l i w 9 / ) ( #.S.D.k.F.F.F.N.G.F.G.G.2.N.*X-XZ.*X:XC.#.{ @.D.n.D.D.*XC.1.[ >.N.*X-X*X=XN.{ y 3.D.*X*X*X2X:X:X:X*XD.Z.].D.D.F.V./.v.N ; . . # . X @ X   . X . . . . + d e j a ) |  . .>.:.;.2.m.N.M.j.@.&.j.S.S.d.$._ f.g.f.( ;.|  .| | / O.%.a y | X.7.) ) ) ) 6.5.p l _ ) _ 6._ j ) X.....} ",
"} t 9 q w t ( ) 8.y._ p _ X.p y u /  .B.F.;.' u ' u q /  .h.V. .[ c u t ' u y | B.l.j.8.) p ( y ( q w.^.B.D.B.[ / ] | C.C.#.#.' ` B.B.f.%.( ] n.(.S.#.( #.g.B.D.q. .+.q.v.rXc.0.+ d # $ , > > ; , * , , @ , - , : - > : , - , - - - - - ; ; - - , , = & & = & & & & & & , = & & , & & & & & & X X . O O + + 9 q q | | / X.} } } o.+.+.+.+.+. .+.O.+.+. . .+.|  .=.c c +.-.%.+. .a  . .'  .+.' =.=.[ [ +.[ +.+.[ +.+. .O.o. .O.5.} } ..| ..} } } ) O.X...r.5...r.5.O.X.4.7.5.6.} a.7.5.O.5.5.5...9.9.q.y.q.O.q.y.7.X.| X.%.O.*.O.O.} y. .q.+.y.4.y.0.r.6.L.a.K.S Z ; # 2 - ; 4 ; 1 3 3 : : > > ; - - 6 & o X 3 B V 3 < V B V B V < < = * o * 3 A G B 4 - & , - - - @ @ , : : : = B : , f Z S I s.Y.`. X`.a.l p p w ( / ` f.S.&XM.m.F.N.m.G.G.G.G.3.N.*X*X=X*X:XD.$.[ { D.N.:X&X*XN.1.{ $.Z.*X*X*X=XG.{ ( 2.Z.*X2X&X*X&X:XD.Z.M.n.F.F.F.e.v.F./.U d . . @ X X & X   . . . O O O + r r s a / +. .#.:.:.2.:.b.M.C.j.1.1.j.M.M.j.,.&.&.1.1.( ;.] | ` | y ) | q q ) } 8.6.6.X.6.8.8.) _ 5.5.6.8.5.) 5...| ....",
"n i 9 t t w p _ 8.y.X.p ) | p t u c  .B.B.e.' u u u 9 ' -.t.F.| c [ t u ' u y ] h.l.h.w._ w w ( y q w.D.A.D.B.` ( ' ] C.A.&.#.] ' n.M.g.;./ ] b.A.C.&./ #.h.n.D.w.' c q.V.qX~.4.8 $ d ; d , ; > : , , & & , > > ; , X @ , , , @ ; - ; ; - - , - & , , , , = & & , & & & , , & & , & & & & & & X . O O O + + 9 s a %.%.O.%.q.X.5.O.=.=.O.=.=.=.O.-. .| O.%.O.%.-.-.} ' ;.w. . .-.u -. .'  .w.%.O.>.[ +.+. . .=.=.} +.} X.X.X.X.O.| | } ) | } ) } ) O...| w.q.X.*.) } 5.5.5.O.X...a.r.7.5.O...X.X. .9.r.-.-.q.O. . .+.} O.%.| ) ) O.+.%./ =.' =. .9.o.5.S s.s.K.S S ; $ > - ; 4 - : - ; : : : : > & - - * o X & & X & = = < V V B = : * o o * B ~ ~ A 4 - - & - , - # - & : : : = : , ; Z S I s.`.9XrXeX9X~.6.j w p w ( @.j.S.k.f.:.m.G.G.G.G.G.:.G.G.*X-XZ.*X:XN.$.] { D.M.D.D.*XM.>.( >.Z.-X-X*XD.N.{ ( :.Z.&X*X&X&X:X*X:XZ.N.n.F.G.m.v.U c.F.U r   . @ X . & X X   . . . O O + 8 9 i a c |  .#.#.:.2.e.m.M.M.h.j.j.j.S.z.k.j.d.1.f.j.| j.X.@./  ./ _ | y p | O.5.) ..k k 5.5.j ) 6.....8...p X.) } } } ",
"n s 9 q t q p X.8.w.*.) X.} p p u [ :.b.b.-.' u u u t ' #.e.C. .c [ u t ' y y ' b.B.h.w._ ( ( p ( y &.A.^.&Xl./ ' ] ] M.A.-.{ [ | B.S.g.:./ ` n.A.A.;.( @.f.n.(.e.] / q.V.qX~.m e $ + d ; @ ; > > ; , @ , - , ; , X X X @ - , - ; 1 - ; - - - ; X & , , = , = : , , & & = , , , & & & & , , & , @ O O O + 7 9 t u %.%.%.w.w.%.q.-.-.=.O.=.=.%.-.-.| |  .%.%.#.%.&.' ' w.w.' | w./ ;.O.y | w.-.%.+.+.[  . . . .[ | | X.X.5.O.X.|  . .|  .| | | |  .%._ ) 7.%.) O.p ) 7.%.O.X.O.%.*.*.7.O.X.| X.%.'  . .' |  .] y | ` ( @.@.' ` ] #.| ' t  .u ' +.+.n 5.k s.7.s.x.h @ ; ; - ; 4 - 3 : 3 : : : > : - 1 1 - & X o X & : : : = = : B * < 3 * o = A ~ ~ A B ; - & X X , , X - = V : = & & : S s.p.`.9XxXMXMXwX~.6.l w p w w &.S.M.f.&.G.F.m.G.G.G.G.G.G.G.*X*XD.*X:XN.$./ { D.N.*XZ.*XZ.<.{ >.N.*X3X*XZ.N.{ ( 3.N.&X2X*X*X*X:X&X&XZ.A.F.b.b.v.b./.v.x % . . X X X X X   . . . . O . + + 8 r s '  .%.-.#.;.;.2.g.C.M.n.h.j.l.S.S.z.d.j.f.f.f./ f.*.@.| X./ | X.p p ) ..} p j p i ) ) w i p p p X.j 9 j / } ' ' ",
"n s q t q q y _ *.r.X./ } ) p a u / -.V.b.:.' c u u q [  .:.F. .[ c t u ' u y / l.B.h.8.@./ ( ( y ( #.B.D.(.j./ [ @.] C.C.$.{ ( #.n.C.g.-.] ` b.S.F.;.( | g.b.D.e.] ' q.B.qXV.4.0 + O @ ; ; ; > ; , , , ; , , X , , , , ; ; , ; ; ; ; - - - ; > , , , X V V : , , & & & & & , , & X & , > V V V ; ; $ + + 8 9 q q | @.| %.%.| O.%.O.#.O.#. .O.#.q. ._ @.&.*.X.@.%.] | &.-.@.| &.@.f.*.y ` w.&.@.| |  .@.%.@.| / *.*._ O.*.8.7.7.@.@.@.@.| @.| @.%.&.| ( @.| ) %._ @.w.*._ _ 8.w.| | @.| | _ | X.#.-. ./ ( #. .( @.] ` @._ ] { $.#.| [ q #.u ' %.' } 7...a.s.l.E A $ , ; ; ; 4 - - - : - : : : : 3 1 1 - * & - * & - : : & & = = o * < < = < B H H B B : - - & X - @ @ * : : = = = , > C I s.).wXMXMXMXrX`.6.j p p q ( ;.S.z.k.M.F.F.N.G.G.G.G.G.G.G.D.-XD.-X*XN.#.( [ Z.N.:XD.*XZ.<.{ >.N.-X3X*X=XN.>.( <.N.=X:X*X&X&X&XD.D.%XD.-XF.F.F.(.].c.h d . . @ X X & X .   X . . O O O + 8 q s a  .%.-.:.:.1.e.n.M.C.j.j.h.j.S.S.j.l.l.&.&.&.q  .( | / X.p } X.p w t w n s a a s n } s 9 t 9 s a t 7 t s u u u ",
"} i t t q 9 y ) X.8.7.) X.) p p u u :.B.B.#.' ( u u t / +.w.F. .[ [ t t ' u t ( b.b.j.w.@./ ) p y ( #.n.:X:Xg.] #.{ | n.A.:. .y #.B.B.g.;.] ] h.C.C.;.( | f.B.D.;. .| e.b.rX~.0.7 $ + + d d d d , > d A D D > @ ; ; , , X , ; > Z Z C 4 - @ - > , X X , V D V D , & & = , & , , & , , > D D D E S h d e i i y y t | #.' %.O.| %.O.%. . .| | | @.f.%.| %.&.&.*.*.&.*.@.&.&.&.*.%.*.h.&.( | @.@.*.@.@.*.%.&.%.X.` _ ) ) ` *.8.8.*.| { @.@.@.@.] ` &.f.*.( ( / ` &.&.&.&.X.` ' %.f.*.X.X.@.*.@.X.@.%.#.[ ( ( [ { { :.$.{ { { ` { ,.:.$.] ( m.{  .g. .' 8.X.l.a.L.x.z @ @ ; , , > - : * : : : : : : 4 1 & # & 1 3 4 & , < : = = : < o o = = < 3 3 3 B 4 3 3 - & & X - & & & , = V = V V > A A I L.'.rXxXeX Xa.6.p p p q y &.h.B.D.:XF.F.F.F.F.F.G.G.G.G.D.D.N.*XD.G.>.[ [ D.N.:XD.*XZ.>.` >.%X-X3X*XZ.N.{ ( >.N.Z.*X:X:X*X*X&X&X&XD.2XD.F.F.(.#X/.K d . . #   X @ X   . . . . O + + + 8 9 i / }  .#.:.:.2.g.h.C.M.n.j.f.j.j.z.j.j.j.w.&.*.w | ( _ | X./ X.7.) t w 7 y 9 i t 9 p a 9 q s t u ) s 9 u t t t t ",
") s i t q 9 y _ X.8.%.) | ) p u u ' :.B.b.:.' u y y t / [ w.B. .+.+.u t ' u t / l.n.j.8._ ( ( ( q ( ] m.:X:Xg.' @.{ [ M.D.#.[ u #.C.S.g.;.| ' g.C.V.;./ ] w.n.(.e. .+.q.b.rX~.r.e I s.Z S E S > > D E J.E.K.E A d d > @ X > S J.P.J.u.L f # - ; , X & A E K.K.E D E D D D D V V > A A D E J.K.K.Y.K.p.r.r.r.O.X./ w.-.| O.#.| O.%. .@.| | _ ] _ f.*.] *.d.8.&.*.&.&.$.@.&.f.&.` *.f.f.*.&.@.( *.*.@.@.$.&.8.w.8.8.*._ ` X.8.8.*.@.@.&.,.&.$.{ ] @.1.&.` @.` *.k.h.f.w.*.@.@.*.&.&.*.*.&.f.f.&.&.#.{ { [ [ ( { $.j.1.3.1.<.{ @.<.1.:.{ ( Z.:.$.N.-.%.%.) l.a.a.6.A @ , ; , ; > - : : : : : , : V ; - - * - 3 ; * * = = : V V : : = o o = 3 < < * 3 : * - - * , X @ @ & & = : = = V , , > d A s.K./.`._.~.6.l z w q q ( X.j.B.%X:XG.F.-XF.F.-XN.G.G.G.Z.-XD.-X-XG.@.( ( N.N.:XD.*XZ.<.[ >.N.*X3X-XZ.N.{ ( >.m.Z.:X2X3X2X:X*X&XZ.M.(.F.m.v.v././.p.0   . @ X X & X .   X O . O O + + $ q s a ' %. .#.:.g.g.n.M.S.j.j.f.j.l.l.k.j.k.f.f.,.( %.` *.| %.) X.%.) p p q t 9 t 9 7 q u 9 9 y t i } u 9 t t t t t ",
"k s i i w 7 w X._ w.8.) X.} p a t [ -.F.B.=.' ' y u t '  .-.C.O. .[ t t ' ( t / b.l.l.8.*.) ( ) y [ { m.2X(.2.] [ [ ] B.C.;.>.( #.B.B.w.w.] ' m.B.S.;.( | ;.h.D.;. .' q.b.qX~.r.6.~./.K.p.K.E d A I K.|. X XY.s.A D d ; d D E. X X|.W.J.L f ; ; , @ ; E {.{.{.L.K.K.H.J.H.E E G D D E H.E.{.|.|. X)./.)./.~.V.h. .f.%.` ] _ /  .X.#.| | ] ] | _ &.` ( @.&.w.&.&.*.&.*.` *.f.f.( ] f.j.j.k.@.( *.&.$.*.*.8.j.j.j.z.j.8.*.*.8.&.*.$.<.2.2.j.<.<.@.` 1.,.$.$.{ $.Z.j.j.f.&.@.@.*.$.*.@.@.&.j.l.j.j.$.>.{ 1.{ ( { j.m.k.m.k.<.{ { $.1.>.{ ( D.2.:.D.C.g.y.} l.a.L.s.h @ @ d @ - 4 : - < = : = : : , - * * - 1 1 - & : & X & = : = = = o o o = : < o - & = = - : = & & & & * = : = = & X & , d d l s.s.K.L.K.4.z i p q ( _ &.f.j.M.n.G.G.F.N.F.G.G.G.G.G.=XN.N.=XF.G.>.( ( Z.C.:X*XD.N.:.{ >.=X-X3X-XN.N.>.( >.N.Z.:X*X*X:X:X&XC.j.1.m.m.b.e.=.v.v.I 2 . . # . X @ X . . . . . O O + + 8 9 s / ] =.#.#.;.g.g.j.Z.B.j.f.f.j.z.S.z.j.k.*.*.$.q %.( _ / X.( ) } p w t 9 t 9 t y 9 t c t 9 t q t s t 9 t t t c t ",
"o.k z 9 w 9 q _ _ 7.7._ p p u q q u %.b.B.w.' u ' u u u ' e.C.e.u c / a ' q q / B.A.l.O.*.*./ ( ( (  .m.D.D.G.[ ' >.[ m.-X:.( [ [ m.N.G.:.[ >.e.D.m.:.t #. .b.F.e.[ t -.V.].].F././.`.). X).K.D S S `.xXzXrX9Xx.S z d S S s.`.9XzXzX+XU.E A A d @ > D K.`. X X X X X|. X{.E.J.H.H.K.K.K.{.9XzXzXrX9X+X X'.4X/.c.w.;.w.;.@.( ] ;.e.b./ ' | -./ ;.f.&.| *.l.j.f.j.g.j.@.;.&.j.` ] ;.h.j.B.&.,.@.{ *.w.h.| j.w.l.S.j.l.` #.;.#.h.$.d.2.j.k.N.M.1.{ <.1.<.$.` { ,.k.j.B.M.1.$.$.*.{ &.` X.j.j.S.S.f.f.2.$.( j.>.@.j.Z.n.C.Z.f.$.$.{ j.$.,.$.Z.2.m.D.B.-.+.=.a.a.p.I 0 @ @ d @ > V = = B X V , S X > & ; 4 3 - X * - & & & - * * - * 6 = = = < < V < : = : = : : : : = = V = = V = = = & , > d @ d S I 6.p.p.6.z 9 ) p t ( *.B.S.k.&.j.m.m.3.G.G.G.3.3.G.=X=XG.=X=XG.{ { [ M.m.*X&X*XD.>.>.G.G.N.-X-X=XG.{ { >.G.=X*X2X3X2X2X=XM.j.j.C.m.b.=.c./.V.v.2 . . # . o # .   . . . O O + + + 9 p t y | #.>.=.#.:.m.M.j.j.N.k.k.k.k.%XG.M.S.1.{ ( ( ] ] | ] | ) ) / p s q 9 p a p q t p a p q u a / u t t u c t u u ",
"m k w 9 t 9 w _ ) 7._ _ p p i q q u O.b.b.w.' t u y / ' } e.b.e.u u y u / u q / B.A.h.*.*.O./ p ( ( >.m.2X*X2.[ ( $.[ m.*X:.[ ' [ m.F.e.:.+.[ e.F.m.-.t  .:.B.F.:. .u e.V.'.]./.)._.oXoXrXoX`.E s.r.9XmXxXxXzXK.s.D z S s.`.wXMXxXzX+XE.J.s.S D , d D K.`.zXlXlXzX+X+X X X|.{.E.{.{.|.lXzXzXzXxXwXwXrX9XrX9X2XF.b.e.:.#.] ` @.f.t.B.#.:.#.;./ #.-.$.] #.M.B.j.M.g.n.@.2.;.n.[ #.j.j.M.z.j.&.@.` *.&.f.@.B.j.S.D.S.M.{ $.&.#.j.{ 3.j.k.%X%XZ.k.<.<.<.<.<.{ $.k.k.M.Z.M.2.{ $.<.$.&.| &.j.A.^.:Xk.f.f.1.( j.] { k.D.M.Z.%Xj.$.$.@.2.<.1.$.&Xm.F.2XF.=.M 9.a.a.r.s.d @ 7 , , : A : = B & B - g X - o 1 B B 3 & & - & * & - & - & * = = = = < < < : : < : : = , = , = = = = = = = = = & & > d d d S d z S m l 9 0 p p w y @.j.S.M.j.2.k.N.k.G.=XG.3.3.G.=X=X=X=X-XG.[ { { N.m.2XD.2XD.=.>.>.G.-X-X-X=XG.>.[ { G.=X-X*X*X*X*XD.N.M.N.M.F.C.V./.~.v.~ h . o & . o . . . . . . O O O O + 0 i p ( ' #.#.{ #.;.k.k.2.k.k.3.k.%XN.%XN.M.M.f.#.{ [ [ ] ' | | } ) a p i i q i p p i p / ) a q u / ' a u y u u c u u ",
"k k 9 9 j w w _ _ 7.5.) a p p q t u  .B.V.:.' u u y a ' | h.B.q.+.' t t ' y q / j.A.h.%.*.@./ ( ( ( >.N.2XD.:.[ [ >.' N.*X:.[ [ [ m.F.e.:.>.>.e.C.b.$.y -. .B.D. . .c v.V.'._.].oXeXzXwXzXzX XK.S K.eXxXzXzX9Xs.s.l S s.L. XxXnXzXwX X`.K.J.s.A , d D K.9XzXzX X9XlX X X X|.|.|.lX{. X X`.zX X+XrXwXwXeXeXqX9X(.C.g.-. .] @.:.j.h.A.h.C.-.-.( ] @.#.@.1.A.D.M.D.h.m.] 1.2.f.] @.M.S.:XS.S.&.` ( %.&.w._ S.B.&X(.&XD.1.$.$.{ 1.{ ,.k.%X=X=X%XM.,.<.2.3.<.<.,.M.%X%X&X%Xj.$.&.<.{ $.] 1.S.;X,X,XD.j.1.1.` ,.( &.M.:XS.:X:Xk.$.$.$.2.<.j.3.*XC.&X2XF.w.+.9.a.a.r.s.z @ , d @ > B , & : * A 3 C , @ X : 4 B 3 ; - - - * # * * & & * = = = = < V < = V : : = = : - * = = = = = = = = = = & > , d d z + 7 0 e d 0 0 p p q y ( f.B.D.&Xj.Z.%XN.=X=XG.3.G.G.G.=XN.-X-XG.{ ( { N.N.*X&X:XD.G.>.G.N.-X-X-X=XG.>.{ >.G.Z.-X2X-X2X*X&XZ.Z.D.F.D.(././._.!.p.2 . . & . . X   . . . O . O + + + 0 i i y | #.#.>. .:.m.m.k.k.N.k.N.k.%XN.N.N.z.M.;.#. .[ ' ' ' } | ) / j p i i i p p i p ) } / t u ' +./ u u u c u c a ",
"l j 9 w p w w _ _ 7.7.) p / p q q u  .b.B.q.' u u u u ' ' e.B.e.%.' 9 t / ( t ( l.S.h.*.*.@.( ( ( '  .N.2XD.2.[ ] [ [ M.D.;.#.( [ G.N.G.>.[  .:.C.n.;.q #.#.n.D.O.-.a b.v.9X].'.9XwXwX+XwXzX XJ.J.`.xXmXxXxXzX`.p.E s.Y. XzXxXxXzX+X|.E.E.J.x.A d D E K. XzXxXlXzXzXzXwX+X+X+XOXlX{.`.lX X XlXrX XrXrXrXwXqX6X2XV.t.#.#.$.$.f.B.C.D.A.:Xf.&.( @.@.*.&.j.&X;X%X;XM.j.[ ;.2.j.` $.Z.:X:X%X:X,.` ( &.&.&.@.D.Z.:X&X:X&Xj.:.$.$.1.{ 3.Z.*X>X:X%XN.3.1.d.2.1.<.3.N.%X*X:X%X2.$.$.{ <.{ ` f.%X:X:X>XZ.j.:.f.{ $.( ,.D.>X&X:X:XM.$.&.,.2.<.j.j.3X&X2X2X(.b.o.o.y.a.s.6.d + $ ; , > B , & & = A > 4 4 2 X * 4 4 3 - * * * & & & & & - o = = 6 = < < : < : = : : , , = & & = = = = = = = = & & > d $ @ $ $ @ + 0 e z p s w t y ( &.n.%X:XZ.=X=X=X=X=XG.>.G.G.=X=X=X=X-XG.{ { [ N.M.:XD.:XD.>.>.G.G.-X-X-XD.G.>.[ { G.D.*X3X3X3X:X&XZ.Z.Z.N.D.D.F.F././.P.h .   #   X X .   . . . O O O O + 0 w w / | #.#.=.>.:.m.N.k.3.k.k.%X%XN.k.N.N.N.M.2.:.#.{ ` | ] | } ) k p p p i w s a i s k / s t a ' c / u a c c c c c ",
"k z 9 9 p w q _ X.7.7._ p p w q t u %.b.b.w.c u ' u u u u e.F.h.%.+.q q / / q ( j.^.j.%.*.` ( ( [ ( @.n.D.D.g.#.] ' [ n.D.;.#.( [ m.C.g.:.[ [ ;.Z.N.e.y @.| n.V.w.y.i y.v.rX'.'.rXzXwXwXxXxXzXE.J.|.zXxXxXxXzXK.K.E E K.{.wXzXwX+X|.E.K.K.J.u.S d D s.`. XzXzXzX`. XzX X+X X|.[.{.K.{. X X X X X X X9X9X9X9X].(.b.e.-.&.&.w.g.B.(.D.D.:X&.$.` *.@.&.1.k.:X:X%X&XZ.N.{ j.j.M.{ 3.S.>X:X>X:Xk.( ` 1.;.;.@.&XD.:X*X*X&XN.>.{ 3.1.>.2.%X:X:X:X=Xk.<.3.d.j.<.<.2.%X*X3X3X=X2.<.{ <.<.<.$.k.&X;X:X>XZ.k.&.j.*.@.( j.%X5X:X3X<XB.,.&.,.d.2.k.2.3X*X:X2X:Xb.O.5.r.a.s.s.z @ 7 > , > V = = & = G : - 4 :   & - 3 1 * * & 1 * * * o o * o = < = = = < * = : = - * - & & & & & & = = = = = V = = > d @ + O d + $ + e z j w w y ( | f.M.Z.;XZ.Z.Z.m.G.=XG.3.G.G.=X=XG.-X-XG.{ { { G.j.*X&X2X-X:.>.G.G.-X-XN.=XG.{ { >.G.=X*X2X2X-X*XZ.M.m.j.n.F.n.t.v.c.c.i.2 . . X .   . . . . . O . O O + + 0 0 t /  .:.#.:. .:.m.m.j.k.N.k.%X%XN.j.k.Z.M.N.;.#.] | | ] ' ) | ) / k p p p a k k j p k s s t c n +.+.c +.c c +.+.+.",
"..p 9 q p w 9 k X.7.7.) p p y 9 9 u #.b.B.w.[ u | / u y u w.V.b.-.] q q ' / q ( h.A.l.&.@._ ( ( / ( #.n.D.C.g.:.#.( ( n.C.;.$.y [ m.N.j.>.[ #.:.C.C.g.q ] @.h.C.h.w.i 5.c.qXoX_.~.`.`.`.+X+X`.K.s.K.{. XzX X XK.E.Q S E K. XwX+X).U.a.J.K.K.J.u.D S s.K. XzXlX X`.{. X X{.{.K.J.{.K.K.{.{.K.K.{.L.{.|.`.)././.V.t.;.-.w.w.1.j.S.:XS.Z.,X#.@.@.$.$.1.d.M.:X;X%X:X%Xm.` 2.j.k.` 1.S.3X&X>X:Xk.( <.1.-.;.@.&XZ.:X&X*X=XN.{ { 3.>.<.3.Z.>X:X:X=XM.$.<.2.2.1.<.j.Z.>X3X3X=Xk.>.{ >.{ 1.1.Z.:X-X:X:X%Xz.@.f.,.` ( j.;X5X:X5X3Xz.,.,.1.2.d.M.j.3X:X2X:X:Xb.5.5.r.a.s.8.h d ; d , : B - V = B H.- o # X o * * * - * * = * * * * - * * * = 6 o = = < * = * = * - , = & & & & & & & = = = V : V , , @ O + $ $ 0 8 0 j j w i w / | f.l.Z.C.j.m.j.3.G.G.=XG.3.G.G.=XN.-X-XG.>.{ { m.g.:X:X3XD.:.{ 3.G.D.-X-X=XG.{ [ { 3.Z.*X*X*X:X*XZ.m.m.j.n.B.n.v.c.c.c.U 2 . . X . X O   .   . . O O O + + 0 q w /  .-. .#.:.:.N.M.2.k.k.N.%X%X3.1.j.M.N.M.2.#.@.#.@.| / | } } ) ) k l p m ..X.m c n / s t c +.=.+.+.c c +.c c n ",
"6.k 9 7 w 9 9 w X.8.7._ p p y 9 t y =.b.B.w.c u ' u u u u w.F.t.%. .t t / ( y / f.A.j.%.@.` ( ( / (  .B.(.C.h.w.%.( / M.B.;.w.y { m.C.2.$.{ [ 1.S.S.j.y ] @.z.S.h.r.k 5.V.eX'.Y.`.|. XwXzX+X X{.K.K.{.OX X{.{.{.{.K.E H.K.OX+X+XY.J.u.u.K.u.E S D D D K.L.{.`.K.{. X{.{.E.T.J.J.{.J.J.E.K.J.K.K.E s.p.a.a.a.r.9.r.-.w.-.&.&.l.S.:XS.S.4X#.*.@.@.*.,.d.M.;X&X%X:XZ.j.( <.3.k.( { Z.3X;X:X>Xk.( <.;.:.f.{ D.C.*X&X&XZ.=X{ { 3.>.<.3.Z.&X*X*X>XZ.$.1.3.1.$.<.3.Z.-X-X3X=X2.<.{ <.{ 2.2.%X-X:X>X:X%XM.| d.,.*.( d.%X<X:X5X<Xz.&.,.f.<.<.j.<.3X>X4X:X2XB.7.7.a.a.s.s.z d d ; , : V = B B H.[.A 4 - & * o * * < 3 * 3 1 < * * * * o & * = o 6 * * * o * = & & & , & & X & & & = & = = & - , , @ O O $ + 0 d 0 0 j j i p p (  .h.B.M.C.2.j.G.G.3.G.G.G.3.G.=X=X=X-X-XN.{ { { 2.m.*X:X2X&X;.{ :.G.-X-XD.=XG.{ { >.G.Z.=X*X*X*X&X=XN.Z.Z.N.C.F.A./._.Y.p.2 . . X X   X .   . . . X O O O + 7 0 9 ) O.q.#.:.:.2.B.M.2.3.N.Z.%XZ.3.{ 1.N.C.F.j.-.#.#.@.] } } _ ..) k k k k ..o.o.+.} o.} c c c +.+.+.c c =.c M n c ",
"6...9 7 w q q w X.7.8.) p u t 9 t u O.b.B.q./ u / u u a / e.C.t.%.| y y ' y t ` j.A.B.#. .` ( ( ( ( %.S.:XC.g.w.&.y / B.S.w.f.q { m.N.2.>.{ ( :.M.M.j.w ] @.M.S.t.r.) 6.~.rX'.a.s.s.K.K.K.s.E s.D H.J.{.K.E E K.E D G E E J.J.Q K.u.s.u.u.S A d > V D E K.K.J.s.D D x.D E E ~ G ~ V B D S D D S > D S J l 4.m c q.-.-.q.%.&.l.Z.:XB.Z.3X$.@.] ` @.,.j.z.*X;X%X>X%X3.( <.2.3.` <.%X3X:X%X<X<.( *.&.1.2.#.Z.M.&X:X&XZ.=X{ ` 3.{ >.1.M.%X=X:X>XZ.<.1.1.<.<.>.1.Z.:X3X3X*XG.>.>.>.$.<.3.%X:X:X:X:X%XS.` ,.f.<.( z.S.5X:X5X5XS.*.,.f.*.<.2.&.2X2X3X2X(.b.7.7.a.l.s.x.A 7 , d : V V < B ~ T.lX~ ~ g 1 * * * * 3 3 3 4 < - < * = o * * * = = * * * = o * o & & - & - # X & & & & & = & & = : , @ O ; r @ d e d d j l s a s y | h.S.Z.S.m.N.Z.G.3.G.G.G.G.G.=X=XN.-XN.G.{ { { Z.n.:X&X>XD.:.>.G.G.N.-X=X-XG.>.[ { G.N.*X*X*X&XC.M.k.C.Z.A.D.F.F.(.(.Y.I h . . @ X . @       . . . O @ O + 8 0 t a -.:. .=.:.;.M.M.j.k.N.%X%XN.$.` >.n.C.D.M.g.&.#.] | ' | ) ) ) k ) p ) k ..o...n o.n n c c +.=.+.+.[ N c c c n ",
"5...7 7 9 9 q _ X.8.8.5.p / p q t t  .B.V.%.' +.t u / y u -.n.q.;. .u t ' u q u g.C.h.$. .( ( ( y ' w.h.(.,XS. .X./ / S.:Xw.| y { m.N.2.:.[ [ :.N.C.#./ | f.h.^.t.r.7.5.~.#X_.p.S I 6.u.s.R S A D G A G ~ E T E E G C 4 B Z C C S h h Z I S A $ > . ; D @ , Z D D s.S A D C , : F   : A > ; f > ; d d d M 9 8 s | c ' %.q.%.w.S.D.B.S.A.g.*.@.$.2.( *.S.:X:X>X1X%X$.{ { %X%X` 1.:X5X5XZ.;XZ.w <.-.;.#.#.m.2X3X&XZ.Z.*X>.( 1.{ { { M.:X*X*X*XZ.1.1.j.<.{ 1.j.Z.3X-X3X*XN.<.{ $.<.$.<.Z.:X5X:XD.D.j.*.` *.@.( &.&X<X:X:X^.k.f.&.*.] <.f.k.:X>X,X3X4Xf.x.8.K.8.s.x.z @ $ d , , V : B H.[.lXT.^ < < * * o = & < 3 B * * * * * = * o o 6 = = o o = 6 o * o & # o X o & X & & * & = & = & , X @ ; d $ $ ; % r h l l i ) p ' | @.h.&XD.D.S.&X&XZ.&XZ.G.G.G.N.N.D.-X-XN.{ [ [ f.j.3XD.,X&X;.{ :.G.Z.-XN.=XG.>.[ 3.N.N.N.3X*X*XD.M.%X&XN.:X2XD.y.V.]./.v.4 . . -   . @ . . . X . O @ O + + 7 0 p k  .O. .>.:.>.m.C.2.1.Z.%X&Xj.` { 1.j.N.D.D.1. .%.;.%.%.O.X.X.) J ) ) j n n n ..M n +.} n c c c c c c c c s s s ",
"4.k w 9 w q 9 w _ 8.8._ w y t q t y #.B.C.-.' ' t y / u u q.B.-.-.' t t [ u t ( ;.B.h.%.{ ( y ( y ` w.h.:X2XB.| &.` / B.^.w.@./ [ m.Z.g.:.[ [ :.D.D.;.u / %.n.(.a.7.X...V.9X_.a.l F g h d f f f A A C C f 4 4 4 C f : - 4 4 C 4 f $ $ f Z h d ; d , d C , - f > d D ; , 4 : X * B X = 4 , > d , , ; $ $ d $ 8 n o.+.+.%.%.| 8.B.(.A.:X:XS.#.$.;.j.` *.S.:X:X:XD.%X$.` ] M.Z.` 2.&X>X:X%X>XB.q @.#.:.#. .t.D.2XD.&XD.*X$.{ 3.{ >.$.S.>X:X:X:XZ.j.$.2.$.[ $.1.M.2X-X3X*Xm.>.{ $.>.$.$.k.:X5X2X:X:XS.f.*.&.*.( d.^.,X:X,X:XS.*.@.&.&.&.w.f.2X4X4X6X,Xr.X.8.d.l.K.s.z @ @ > , , B V V ~ {.lXT.^ = = < = = o * < < < 1 * * * 6 < o o = o 6 o o o o * * # o & X & X @ X # X & & & o = = * & o @ % % O $ ; 0 8 e j j s p s } O.-.B.D.C.Z.C.D.Z.N.N.N.G.G.G.N.=X-X-XD.N.{ { { 2.m.2XD.3X:X;.#.2.G.=X-XZ.=XG.>.[ >.G.D.=X=XD.-X-X&X&XZ.m.n.D.B.-.a.c.p.p.; . @ @ X . @ . .   . X X X @ @ O + 0 z k  .%.-.=.=. .b.N.g.1.Z.*X:X3.{ ( 3.m.Z.D.D.2.] %.%.%.%.O.X.X.) _ _ l k j s c j c a n n t r r t r s r c s s N r ",
"l k w 0 p 9 9 w X.8.8.) q t t t t t O.B.V.-.' / u y u u u -.b.e.=.[ t t c ' t [ e.B.m.#. .( y ( y ( %.j.(.,XB.' %.] ( l.A.w.#./ [ m.A.g.>.c c :.A.D.;.u u | e.F.t.7.) o.V.#X].0.M j d 0 0 2 h h g C C C 4 ; ; 2 ; - @ @ # ; ; # $ $ $ $ ; ; @ $ ; @ - ; @ ; 4 X , , , X 3 - & 3 < X : ; @ > d , @ ; ; $ d $ r +.5. . .%.| ` %.l.A.C.(.2XB.] ( #.,./ $.S.;X:X:X%XM.$.` ` j.f.( &.B.D.:X(.,Xj.q @.%.-.w.-.n.:X:XD.D.&XD.#.[ 3.{ <.1.Z.:X:X:X:XZ.f.@.1.$.` { $.j.:X>X2X*Xm.#.{ $.$.$.&.f.D.:X,X:X:Xl.*.| *.@._ d.^.,X:X5X5XM._ _ f.f.@.' [ 2X2X4X:XD.q.x.a.K.8.a.x.l @ 7 > X & B B B ^ H.[.H.^ < = 1 < o & * < = o * * * * o = o o o = 6 o o o = * o * o # X & & X @ @ & , & = = = * o & o # ; ; $ + $ 0 d h l j i i t / %.w.M.C.f.g.h.B.m.2.m.N.G.G.G.N.D.D.-X=Xm.>.( { j.h.,XZ.<X;X;.@.:.G.Z.-X=X=XG.>.{ { 3.N.-XD.*X2X3X=XZ.Z.2.f.C.n.t.V.a.p.a.0 . . - X . X . X   X X X O @ @ @ + 0 s n | -. .:.:.>.g.N.j.j.D.-X>Xk.( [ $.m.Z.Z.D.w.] #.%. .%.O.X...) k m ) l s s s j s N c s s s c s s s s s s r r s ",
"k l p w w 9 7 ) X.8.y.) w t p p q u  .V.C.q.' u u u u u c -.V.-.=. .u t c u t c :.n.m. .[ ( t ( y ( X.h.:X:Xh./ | _ / n.A.&.@.u ' m.F.;.>.c c >.B.F.h.' '  .q.V.V.q.k } V.]./.=.r $ O O $ $ O O X $ ; # O . . # f 2 2 2 h f f h $ 8 ; ; $ O @ . . X @ - 4 A f X , , , , > & X 3 * B A : X > > @ . > g h M M m q.r.q.5.O.+.) w.B.F.m.D.D.t.u y ] :.` %.M.D.:X4X:XM.1.@.@.&.*.( @.z.B.(.:X5Xw.p %.-.q.q.-.b.(.2X(.D.&XM.$.{ <.$.$.;.M.D.;X&X&XS.f.@.1.$.` @.{ f.&X*X:XD.f.#.#.$.&.w.w.f.z.:X:X^.S.&.` ( _ ` _ f.^.:XD.,X,XS.` _ w.w.' ' u D.F.:X(.^.r.8.a.l.K.s.s.d @ ; d X * V < B B ~ H.~ B < = 3 * o   o < o o * = o * = = = o 6 o = = o o o * - o & # o & X X @ @ @ X & & & o * o & . $ # $ O O $ % $ h M j s s t a %.w.n.h.#.#.&.m.G.>.m.N.G.>.G.N.N.D.D.D.N.$.{ { f.j.3XZ.4X:X1.$.2.m.Z.-XD.=XG.>.( { 2.D.-X*X-X2X*Xm.m.M.m.m.C.b.B./.~.c.Y.2 . X @ . . @ .     X   X @ @ O + + 0 j k +.O.=.=.:.=.:.M.m.j.Z.*X:Xm.{ [ #.g.D.S.D.f.' @.*.| X.*.O.X.) _ ) k k j s j s s s s s c c c c c s c s s s s r ",
"m m w 9 w 7 9 _ X.8.8.) w w p p t t  .b.B.q.' u / t u u / q.b.w.=. .c r c c r c :.V.m.+.[ c u u ( ( | h.:X:Xh.` ( ` ( B.S.%.| y ' G.m.e.=.N N >.F.A.b.c +.=.b.F.B.7.a +.V.'.].v.m M r r r b $ O $ 2 d % $ # # 2 . . . . O . O . @ ; h d $ O . . . # 4 C R T 4 X , , X X - X   : < ~ ! 4 @ , , , X A I u.c.Y.c./.y.y.%.O.) | r.B.F.V.F.F.;.' '  .-.' #.h.n.D.:X:XS.h.&.w.%.@.*.@.l.S.^.^.^.O.| q.X. .o.| r.V.(.^.A.:Xh.%.@.@.{ *.&.j.B.S.S.C.h.,.&.f.&.| @.@.f.S.A.D.M.;.*.@.%.#.%.%.w.l.^.^.l.l.h.%._  .@._ %.h.A.l.B.^.l.*.| 8.-. .w.c F.b.F.F.B.9.5.r.a.a.K.6.d + ; f - = : = B < B ~ ^ < 6   * o     < < =   = 6 o = = = o o = 6 o o o o o - o * # o o # o @ @ @ X , X o & & & *     . $ % O O # % r h j j e j t a  .-.B.C.;.:.2.F.C.G.G.F.G.>.G.F.F.D.2XD.F.$.{ { g.j.,XD.,X:Xw.#.f.G.Z.-X-X=XG.>.{ { >.=X-X3X*X3X&Xm.M.Z.C.C.C.b.V.(.~.c.J.2 . X @ X . O . .       & X @ O O + 0 z j  .O.-.:.:.>.e.m.m.2.M.&X:XM.$.$.:.g.D.D.A.w.`  .#._  .5._ _ _ ..k l p i s s s s s c s c s c s r s r s r t r t ",
"..k q 9 q 7 7 _ _ 7.5.p q w u t t y  .h.b.e.' u ' y u u ' e.b.e.+.[ s s c c c [ :.m.e.>.[ c t u y y %.b.(.D.g.| ' | | n.S.&.#.y c b.F.e.=.>.=.v.F.F.=.t u +.v.D.b.O.c =./.4X]././.v.K c M M M b I v M v M g j g v j M F M h v v ; 0 d d % O O . . ; 4 T P.T ,   X @ X X - X o B 3 H.H.B - , @ , , E K.`.oX#X_.].c.y.O.} | O.r.h.b.b.b.v.=.[  . .:.]  .-.-.g.B.b.w.%.` %.| / w.| l.V.h.b.b./ X...o...o...5.h.V.B.B.A.w.&.%.@.*.@.w.f.j.j.l.j.j.8.&.f.&.@.*.*.&.h.h.B.h.%.| %.%.O._ | 7.w.l.^.l.y.t.*.*.| _ / (  .l.w.&.t.w.%.%.%. .=.y.c v.=.w.v.=.s j 6.s.a.K.6.d O , d ; , < & < = < ^ = 6 =   6 o   = = < 6 = = = o o = 6 o o o o 6 o o o o 6 o 6 o & @ o X . @ @ @ @ & & = o o * * o . % % . $ $ % $ r j M e s t /  .w.C.:XC.N.N.D.D.F.F.N.G.G.G.N.F.-X3X2XD.:.{ *.j.n.5XD.3X:Xf.#.2.N.F.-XD.=XG.>.{ { 3.D.3X*X*X2X*XZ.=X*XC.&X&XB.V._./.a.u.0 . O - X . @ . X   &   X X X @ + @ 8 i k ..%. .=.e.=.:.m.G.;.2.Z.*XC.;.&.2.m.D.Z.D.f.]  .%.| | O.X...) k _ k p s e e i e t t t r r r r s s s t s r t t ",
"4.k 9 9 w 9 9 ) 6.O._ p q p p q t y ] w.b.e.+.y ' t u ' ' w.b.w.+.+.c s c c s +.-.b.e.+.[ c c c ( ( #.n.A.S.h.%.] &.] h.B.;.%.' [ m.b.e.G.=.=.=.c.c.=.c c =.v.F.V.-.+.q.F.4X4X].c.v.U N M N K K I J v K I I I N j v j j h s h g I J l h d $ O . X ; C J.Q.Y o - , , X @ : = = ~ B H.E A A > X ; V E U.).rXwX#X'.V.y. .n | X.8.%.=.q.=.+.c  .=.'  .'  .-. .-.e.O.| / y O./ p y.a q.V.O.r.5.X.7.k o.o.4.5.5.r.y.r.y.l._ X.w.| &. .d.w.8.w.f.j.w.*.f.f.&.| &.*.*.8.&.w.q.O.X.%.*.X._ X.O.7.w.l.8.7.%.| _ X. .) / / w.%.%.O.*.q.w.O.=.=. .c =.+.+.=.9.s e I s.K.K.6.S + @ ; , : : = < = < < = 6 =   o o = o = 6 = o o o o = = = o o o 6 o 6 o o 6 * o & # o # X . @ @ @ @ X & = = & * o o   6 $ $ O O $ 0 $ d M j i s i /  .-.B.(.D.D.F.D.D.N.F.F.G.G.G.N.-X*X2X:XD.:.@.$.j.j.,X^.<X:Xw.#.2.G.*X-X*XZ.G.>.[ { 3.=X-X*X*X2X2XZ.*XD.j.C.:XA.b./._.~.c.2 . . @ . X @ .         X X X O @ + 0 z j o.O.=.=.:.>.:.m.G.[ #.k.&XM.2.2.f.N.D.D.D.f.' @.%.| | X...) ) m _ l j s s i s s s r t r r c s s c c c r t r r ",
"..l 9 7 w q 9 ( 8.8.) p p / / q y u +.-.h.e.| u [ t t u | e.b.e.=.[ c s c s r c e.b.e.+.[ c t c u ' ;.B.A.C.h.-.-.-. .h.B.-.e.#.c e.v.e.v.:.v.G.b.F.v.=.-.v.e.b.V.b.q.y./.'.'.]././.]././.F./.F.c.v.a.c./.)./.~.~.Q./.Y.Y.Y.~./.c.p.P h % $ @ X # C G Q.OXH.3 G , @ X & :   o B B H.~ A G f . ; A u.U.).wXgXoX'.V.y.X.a )  .X._ [ =.-.+.c -.-.u ' ' O.-.%.-.w. .%.| a w.| / l.a O.t.) 5.X.q.l.j k ....5.5..._ p O.l./ X.w._ w.@.w.%.*.*.%.8.8.8.8.w.*.@.w.%._ | | O.%.| X.O.%.X._ 7.7.X._ 5.7.X.O.X.%.q.7.X._ ) X.%.7.| X.7.w.X.=.=.+.c =.+.=.9.b...s m 7.K.a.S E + . @ @ = < = < < < < o o * o o = * = 6 = = 6 = o o o o = o o = 6 o o o o o o # o # o o o X X @ @ @ X &   = o o & o o . 6 6 O O $ $ % h j M i s p } O. .g.C.b.F.F.F.N.N.D.F.G.G.G.F.G.D.-XD.M.1.{ $.h.n.3XD.,X:X2.:.G.m.D.-X*XZ.G.>.{ >.3.D.-X3X2X*X&XN.M.M.<.;.D.F.w.B./.~.Y.2 . @ @ . . @ .       & X   . X + O 0 h n ..O.O.=.:.=.:.F.e.[ >.M.&XZ.1.:.j.N.2XD.D.f.@.%.#._  .*.X.) .._ l l j l k s j s s s s c c t t r t r r t r t r ",
"..i 9 i q 9 w 6.8.7.x.) w w p p %.a / w.b.q.c c +.' c s ] r.t.t.=.c ' ' c u u ' =.b.b.w. . . . .O.=.t.C.V.(.F.m.q.b.t.F./.b.B.b.m.F.F.F.F.F.F.m.F.F.F.F.F.F.F.F.F.F.F.(.(._.'.9X_./././.c.v.v.c.0.v./.V.v.v.c.~.Y.c.c.c.P.c.v.r.v.c.Y.U h # & = B o B {.[.H.4 Z , , & X , , : 3 - 4 B C > , ; ; > i.P.Y.@XrX/.].c.y.O.) } ) | _  . .} ' ' +. . . .| |  .-.q.-.|  .' / |  .%. .) | 5.7.7.X...6.5.5._ ) ) X.5.X._ O.O.%.7.%. .%.7.7.h.r.8.l.l.5._ y.8.8.t.t.X.X.%.t.%.} / O.%.%.7.y.%.O.7.w.%.%.w.) | %.%.X.| #.%.| | X.%.%.| %.q.b.c v.+.[ :. .-.o.q.y.0.a.Y.K.p.s.h @ @ ; > - * * = * & = * = & X 1 1 * o o o * o o o * o o & o X o & # X . # X # o # o o # X . X X X X * & o = & = o * o o 6 . O O $ 0 d j l i i q ( _ 7.l.S.d.B.j.M.g.:.j.C.j.M.m.D.=XZ.*X*XZ.3.>.$.1.n.(.:X,X:X1.,.$.N.=X-XZ.=XG.{ { { >.=X-X:X*X*XZ.N.&X=Xj.m.#.F.b.q.~.Y.Y.2 . X # . . @ X &       X . . . O + 0 j k m 4.%.q.;.;.-.g.:./ [ M.:XZ.>.#.2.j.Z.&XZ.&.#.&.' %.%.| / } X.s s M s s s s M n c s y t t y u c u t t y s t 9 ",
"..i 9 q w 7 w _ 6.8._ ) _ ) ) ) %.` *.h.V.t.=.=.=.=.=.+.q.b.V.B.b.w.q.q.-. .=.q.b.F.(.V.B.F.V.t.b.t.V.F.F.(.(.c./.(.F.(.2XF.(./.F.F.].].].].F.F.F.F.F.F.G.v.F.m.V.b.c.V.c.t.c.~.Y.c.v.c.c.v.v.v.0.v.v.v.v.0.0.v.M M M M m M v j h I I g % & o   < = B I.I.G - > , , @ X X , - > - : B 4 , @ @ , ; p.p.P.'.XXY./.r.5.4.O.7.7. ./ O. .| | | } }  .5.O.O. .%.%. .}  .' / '  .%. . .O.%.q.7.7.5.7.7.7._ _ 5.7.7.7.X.O._ X.X.O.%.-.w.*.y.w.7.l.t.w.y.f.8.8.7.7.%.7.8.w.%.%.%.%.w.%.%.w.w.7.w.q.%.X. .t.w.q.-.w.t.w.w.t.w.w.f.f.f.h.h.w.+.b.=.[ b.-.b.w.t.a.r.a.Y.Y.s.s.d O @ - - * X & * & X & : , X - & 1 # & o & o & o o X & o # o o X o o & o o o & # & # & o o o o o o * & * & & = o & * % 6 . 6 . + $ $ r j l i k i p ) @.j.z.&.j.j.B.k.f.M.Z.2.3.2.C.*XD.*X2XZ.:.:.$.1.z.&X:X>X,X1.&.:.N.N.-XZ.=X=X{ ` { 3.=X3X3X3X3X%XM.*X2XZ.:XV.4XF.~.].Y.v.; . . & X . # X   o   o     . . . O ; e j m O.5.q.w.%.-.h.;.( { h.*XC.$.$.2.g.Z.&XD.$.$.&.` %.@.| /  .+.s c n c j c j n s s s r t t s c a u u u s t t 9 ",
"m s 9 i w q p _ X.7.8.8.7.8.5._ 8.%.y.V.(.V.V.V.c.V.c.b.b./.(.A.F.V.V.b.b.b.V.V.c.F.(.F.F.^.A.c.V.V.V./.V.(.^.b.b.V.q.t.c.q.y.q.v.v.v.:.=.=.e.=.$XG.:.:.=.=.>.=.-.y.q.q.o.} 4.r.a.4.M 9.$X=.U =.U =.I M N M n M m o.m I I m I I j v M g 2 1 & o = = B ~ ~ : X @ , , @ , & - - : , - - * , , , X 2 Q p.P././.c.~.0.5...X.q.8.%.X.#.%. .#.O. .%.#.%.-.%.%.%. . .#.#. . . .O.O.7.O.X.%.O.7.8.r.7.5.8.7.7.8.r.w.q.%.8.%.|  .%.w.w.w.*.8.w.%.w.w.j.B.w.t.w.X.8.w.w.w.X.-.w.w.w.-.q.%.%.w.w.w.w.w.&.| h.w.%. .w.B.g.*.h.h.f.w.f.h.j.h.-.=.e.:.=.b.=.:.e.q.0.0.a.Y.a.R S A ; ; 4 1 - 1 < 3 :   - A A & o * * * o o o * o o o o * o o o & o & o o o o # o * o - o X o o o   * o & & & & = & o * - 6 . . . O $ $ d j p e k w y ( _ j.S.h.j.j.M.C.Z.D.Z.f.>.:.N.*X*X-X-XD.1.$.$.:.M.D.:X2X:Xf.1.:.Z.=X-XN.=X=X{ { >.3.=X3X3X=X=XZ.N.%X:X%XD.C.:X_._.4X/.p.% . . @   X - #   o     X   . . O O 0 h j ..5.5.w.-.@.%.b.f.( ] j.&XZ.:.$.$.2.Z.^.%X$.$.$.] %.%.| / +.} c c n c M M n s s s s s t s u a c u u t s s t q ",
"o.s 9 i w q w ) X.X.6.7.8.8.8.7.8.8.t.A.^.V.V./.V.F.~.V.V.V.~.V.(.V.V.V.V.V.V.A.b.B.b.t.t.c.t.7.b.r.t.t.r.v.c.O.y.r.k  .r.+.O.} N [ >.N +.=.+.c N N +.N =.N +.+.[ c c +.a r l 4.4.m M M c N c M N c s s c M n M o.I 4.o.I 4.4.0.4.I N f 2 4 <   o = B 4 B = , X @ & & X X , * - & & & X - - , X f W v.P.Y.Y.p.c.a.6.) } 8.7.w.&.-. . .+.#.%.-.e.-.#.-.-.-.=.#. .-.-.-.w.-.-.%.%.X.X.X.%.7.8.8.r.t.8.r.8.w.8.w.%.w.%.X.#.;.g.e.#.w.w.w.&.%.&.w.l.8.f.w.&.w.j.l.-.@.&.f.w.&.%.&.;.#.f.h.&.*.-.w.&.%.%.@.@.w.j.f.] f.f.f.*.&.h.k.w.:.=.-. .:.:.[  .-.O.o.9.p.c.s.h h d d d 4 - 1 3 3 B < & : G A & - * * o & o = o & * * * * o * & o o & o # & & o - # o & * X & & o X * & & & & & o * & o * 6 6 . O + + + 0 e z w p q p / *.l.:XS.B.Z.:X:XZ.&X*XM.1.2.N.*XD.-X-XZ.$.>.$.<.M.;X>X4X,Xf.1.1.Z.Z.-XN.=XG.{ ` { >.=X>X:X=X=X%Xm.%X*XN.C.n.A.F./.'.).i.2 . . X X . # @       X   . . O O + 0 j j ..o.q.w.-. .;.b.e.] / m.:XZ.:.#.{ 2.Z.&XD.&.$.&.] %.#.| /  .+.s s M n M n n j j c c a r c a c ' a a u s p s 9 ",
"o.j q i z w p ) x._ _ _ _ 8.5.7.8.8.y.l.h.a.c.c.c.c.c.v.r.r.r.7.r.q.7.t.t.a.w.q.y.y.7.} X.O.q.O.O.n ....) 6.5.k O.O.i } 5.) ..n c c c c =.=.c c N c c N N c [ N t t c c t q j m 4.m l m M M n n =.n c N M 0.9.0.9.0.0.0.0.6.0.p.p.0.b % % # o     = B o - X - X @ , & X & & o - &   & & * ; - # g P p.P.c.p.U 0.0.5.X.O.7.7.%.| #.[ ] ' '  .:.;.:.#.#.:.:.[ [  . .#.-.;.w.-.&.#.%.%.X.X.7.8.f.t.w.8.w.-.%.%.#. .#.#.] ] ;.m.:. .&.&.@.h.@.;.*.%.$.f.f.&.w.j.f.#.$.-.f.-.&.@.&.1.&.1.g.#.] #.w.f.@.&.f.f.1.;.<.{ &.&.,.*.&.d.j.&.;.b.[ ] 2.;.-.:.-.O.o.4.a.p.0.Z 0 @ $ # @ o X & o < o   X C V   * * o = & = o = * * = = * * & * & o = & o o o & o * o o = o o & * X & & = & & & & & & * # # O 6 O $ + $ 8 e e e 9 q ( _ *.S.:XS.S.D.:X;Xj.n.%XZ.M.j.Z.=X*X-X-XZ.<.$.>.,.B.:X:X2X:Xw.1.&.N.N.-XD.=XG.{ { { 3.=X-X3X-X>X*X%XN.%Xk.M.A.F.b.b.~./.0.h . X @ . . @ .   o       . . . O O 0 s j ..O.5.-.-.#.-.n.w.] ] C.2XN.#.#.{ 1.&X&XD.&.#.&.` %.#.| / |  .a c n c n n n M c n n c t s c c ' a c u a a i i ",
"m k i 9 p p ) ) 8._ _ _ 5.7.x._ O.7.7.7.5.4.5.0.p.v.y.9.m o.o.k } a k 5.7.5...) ....k a k ) X.5...k k ) k ..5.p j k 9 k 6.p k p c c c c +.c c c [ +.c c +.+.=.=.+.+.c c } n n 4.I o.9.m m 9.9.y.0.9.o.=.0.y.y.0.r.0.c.v.a.a.a.c.0.0.M % O o o o   = =   X X @ X X & X * & & o * = o & & & , > - F g I u.I v M s l 4.7.t.t.7.| (  .[ [ ( [ [ :.#.m. .[ :.#. .( [ / / | %.w.w.%.O.X.%.%.X.O.7.7.&.&.-.%.#.O.#.#.-.' [ [ [  .m.:.{ $.{ ] M.@.f.,.$.*.&.j.1.&.&.$.#.1.2.j.2.$.#.1.g.j.1.;.$.$.$.&.f.$.$.f.k.d.] ` *.,.<.<.<.&.$.,.1.g.C.' ] n.b.C.D.e.O.+.0.Y.~.p.p.$ @ @ ; # o o o * * o   & : : X * & & & = = = = = * = = * = o = & = & o = * & & o & & & & = = o X o = & & & & & & & & & 1 6 6 O O $ $ $ 8 i i 9 9 q / | *.j.^.j.z.S.&XM.:.2.N.m.M.m.N.D.*X2X3X*X$.{ @.:.S.;X,X,X:X;.,.$.N.N.-X*X=X=X{ ` { >.=X-X-X-X>X:XZ.N.N.j.2.n.g.y.q.c.).p.h O . # . . .   &       . . . . O + 0 j j ..O.q.-.q.%.%.h.-.] #.Z.:XC.:.>.$.1.Z.:XD.;.%.&.| %.#.| / .. .a k o.c n n M c n M n n c c c ' } ' ' a / a s s ",
"m n i q p ) ) ) 8._ _ 6.r.8.7.x.8.6.6.x.4.4.o.I 0.0.0.4.m ..6.x.) k k ..7.5.....k k ) k k p ) 5.6...4.6._ 6.7.) k .._ 0.a.6.5.X.+.=.v.=.=.=.=.=.=.=.=.>.=.=.=.=.:.+.=.=.q.O.o.4.m 5.r.0.o.9.q.y.q.q.=.=.9.9.0.r.+.4.r.q.5.4.6.6.p.0.M % @ # * X o & &     X . X X - & & & = X * & o = & X X , ; g $ h v h r h 8 l ..5.r.7.*.@.@.:.:.#.+.[ { +.>.m.#.[ :.m.:. .+.] ' / @.q.w.w. . .%.w.f.w.X. .X.%.*.#.#.#.{ ;.2.:.>.[ [ [ 2.g.>.:.( f.C.2.1.m.2.$.$.j.2.$.@.<.j.k.M.M.j.f.1.j.m.Z.1.$.j.Z.k.k.M.,.{ <.k.j.( ` j.k.j.k.N.d.{ *.j.n.:X] { D.&X2X5XC.-.X.r.~./.Y.i.d $ O # 2 % * 1 <   o * - & , : o & & & = = = = = = = = = = = = & & & = & = & & & & & & & & = = * X & & & & & & & & & & - % 6 @ % 8 $ $ 8 e j w 9 q ) _ *.j.%Xz.M.M.Z.j.j.M.C.j.j.k.N.*X*X2X3XZ.>.$.$.1.M.^.3X3X;X;.$.{ N.N.-X-X=XG.{ { { 3.=X3X:X=X-X*XN.M.Z.M.;.M.e.b.c./.'.0.h O . $ . . O .   o       . . O O + 0 j k ..O.q.-.w.%.-.w.#.] -.C.&XM.2.k.j.2.&X:XD.;.#.&.' %.#.| ) X. .a c o.c M n n m n +.n n a a ' +.| ' ' ' n k s p ",
"..j i q p l ) z ) ) _ 7.8.8.X._ 8.8.6.5.5.0.0.4.p.v.a.0.6.0.5.r.7.X...5.y.r.8.r.X.5.7.r.6.) ..5.r.6.7.5.6.r.a.S p 6.x.r.r.) 6...=.v.b.v.c N +.e.:.=.=.+.>.[ N [ +.[ c +.9.O...n j 0.y.5.+.m =.9.o.o.o.o.O.o.5.r.o.9.a.r.r.5.6.0.0.0.J r # . . X * =   = X X . . @ & X & & o o o   o * &     X - f   . % $ $ h r j n ....) X.w.h.;.b.G.G.:.:.>. .;.[ [ :.m.m.2.G.g.-.' | %.w.&.| %.j.(.(.B.w.%.%.' ] ] ]  .:.g.m.C.N.3.[ [ :.2.:.j.{ %XZ.M.$.%XM.1.1.j.m.2.$.j.*XZ.Z.Z.M.N.M.k.M.Z.$.$.Z.3X2X*X*Xj.{ $.N.k.>.<.-X*X%X=X>X%X<.<.%XM.:X#.2.3X:X2X8X4XB.%.y.~.~.c.I d @ . # # o o o o     - * o X : & & & & = = = o = = = = = = = = = & & & & & & = & & & & & = = & & & & & & & & & & & X # - # 6 O $ 8 8 $ 8 e s i q q / @.*.B.:XD.Z.B.M.Z.C.&X&Xf.2.m.N.=X*X2X-XN.$.#.@.;.S.:X:X5X:X&.$.[ G.G.3X-X=X=X{ ` >.>.=X3X3X-X>X>X%XZ.&X%XZ.:XC.(.(._.oXM h . . X . . @ .     . o . . . . O $ 0 e j } 5.%.%.w.-.%.-. .{ 1.m.C.m.g.Z.M.m.&X&XD.;.#.&.] %.#.| /  .O.a ' +.n +.m +.o.n n a s c c ' +.} +.c a / / s p ",
"o.i e i q p p p _ _ _ _ 8.8.6.7.7.l.^.a.a.~.V.c.V.v.0.0.0.a.r.0.r.7.5.y.l.l.r.7.r.r.7.7.r.5.7.5.a.8.6.7.7.0.8.s.6.7.s.r.r.a.7.J =.b.V.v.u t n b.+.=.=.+.N c N >.+.=.=.+.+.=.=.=.r.r.5.5...o. .O.+.o. .n } +...k 5.4.5.4.X...6...0.M r % O O 6 o X   X X X X X @ X X X X & o = o o o =   X & ,   . . . . $ $ $ r i 5...k %.f.w.w.2.m.m.2.m.#.#.>.:.>.#.:.m.M.m.m.D.B. .@.&.(.%.n.B.D.A.S.(.M.f.h.1.{ ] 1.m.m.M.C.F.3Xm.>.2.>.m.>.N.N.&X>X&X%X=XZ.k.3.j.3.<.2.N.M.:XZ.&X%Xm.N.N.k.2.{ j.&X5X3X3X>X%X<.3.k.N.{ k.N.7X:XaX7X=Xk.k.3.*Xf.f.2.*XZ.:X&XD.B.w.t.~.~.s.R h @ @ ; # 6 # o o o o # X X X - , = = = = = = = = = = = = = = = = = , = & = = & & & & & & & & & - - X & , & , & , & X X % # # . $ $ $ $ 8 9 q 9 t y y / &.S.:X>X:XM.S.;X2X5X3Xj.2.2.N.2X2X-X*XZ.1.:.] $.S.S.:X5X(.&.{ &.G.N.-X-X-XG.>.` >.3.=X-X=X=X:X=XN.%X*XZ.C.N.:XF././._.p.j . O # O O $ . .   .   . . . O O $ i j n ..X.O.%.-.-.-.w.#.' ;.n.C.m.2.N.C.C.D.2XD.e.#.;.-.| #.@.| | / / c a n m o.+.n s n s s c c o.-.O.' u c s s u i ",
"o.e w p w i ) p _ _ x.5.8.8.8.8.x.a.l.a.r.s.a.a.c.v.0.I 0.r.r.5.r.6.5.r.a.r.7.r.7.q.r.5.7.5.5.7.a.r.6.5.6.7.7.5.) ..5.7.6.6.....=.0.y.9.n c n +.+.=.=.[ c =.=.>.+.+.>.+.=.+.Y 0.5.5.5.O.O.O.O.5.O.=.O. . .O.O...7.q.7.5.7.5.7.5.0.M h $ $ O .   X X X X X . O X X X X X & o & o & = &   X & & X . . . . O $ $ 8 j 4.O.) 7.r.w.w.m.Z.F.m.m.:.{ :.g.#.>.2.B.N.n.n.B.f.X.%.-.S.| f.l.C.B.n.C.h.-.;.h.$.#.:.j.g.j.m.m.N.{ [ >.{ 2.>.f.3.Z.=XZ.N.%XZ.2.1.2.1.$.<.N.M.%XM.Z.Z.k.k.k.j.N.3.M.Z.*XZ.:X-X%X{ 3.N.k.{ k.=X3X=X-X>X=X3.k.3.%Xj.j.2.*XZ.:XD.:XA.y.t./.~.a.a.l $ + $ @ # 6 o o o o & X , , X & = & & & & & & * * , = & & = , * * & - , & - * & & & & X & & & # X X X & , & & & & X , # # @ O $ $ r r r e e e q q y +.f.D.:X:X&XS.D.&XZ.*X&XM.M.2.N.*X*X2X-X&X3.$.{ <.S.&X;X5X:Xf.@.1.G.N.2X-X-XG.{ { { 3.%X-X:X-X:X>X&X=X=Xj.N.g.C.g.F.V._.Y.d O . O . O O .         . . . . + + 9 i a ) } X.-.e.w.w.g.;.] ;.n.C.n.j.Z.Z.N.Z.(.F.:.#.;.;. .#.| | ) } / ) a a n m M n s j c s s c +.O. .c u / t t t s ",
"o.t q i w z ) k _ X.X.X.r.7.6.8._ l.L.a.0.9.a.v.0.0.9.9.9.4.5.5.7.O.5.5.r.5.5.q.9.7.7.5.5.7.5.5.a.r.5.5.4.5.6.5.k ..5.q.X.....o.n o.=.9.=.=.+.c =.=.[ +.=.=.=.=.>.+.+.+.+.+.=.=...5.5.O.%.=.%.=.#.-.q.O.O.-.7.O.X.%.O.O.5.O.5.4.9.o.N r % O O o X . X X X X O X X & X & & o & & &   & & X & , X . . . . O O $ 8 e 5.5...7.8.*.%.:.f.f.:.;.$.] #.g.:.#.;.m.m.n.M.f.f.&.f.f.S.| g.h.M.b.j.M.g.&.&.1.#.] #.$.:.1.1.g.N.>.>.1.>.2.2.>.<.M.Z.k.k.M.2.2.<.3.1.{ <.Z.%XZ.M.M.Z.j.2.j.j.z.2.%XN.-Xk.:X:XN.{ 3.3.k.` 3.=X3X=X=X-X=X3.k.3.Z.2.k.3.3X*X3X2X3XD.7.7.V.~.K.l.l + $ $ O # # 6 o o o # @ X @ @ , & , & , & , , & & & & , & , X @ & - & , - , X X & X & & & & X @ X X X , & , , X X X @ . . O $ $ $ $ 8 r r 9 t t y a ` 1.C.&X%XM.S.&XZ.&.2.M.M.N.j.M.*X*X*X-X*X>.<.] $.S.&X:X>X:Xj.$.2.G.D.-X*X=Xk.>.` { 3.=X=X-X=X*X*XZ.%Xm.{ N.:.2.-.V.V.(.c.h . . O . . + . .   . . . . O O + + 9 i s k } | %.q.&.w.g.#./ #.m.M.j.j.M.M.j.N.D.D.:.[ -.;.@.%.| ] } ) / n / n M o.+.n s c a s t s c o. .a a c i i u i ",
"5.e e s i p _ p _ X.x.7.7.8.X.X.8.l.h.8.5.5.r.0.I 9.0.9.o.o.o.5...| X.q.7. .X.5.7.O.O.9.5.5.O.O.8.7.5.5.X.5.5.X.5.5.r.r.8.5.6.5.o.o.O.9.9.q.=.m =.=.+.+.=.:.=.=.+.=.[ =.=. .=.=.X.O.O.7.q.7.%.-. .-.-.O.%.7.q.q.a.l.l.a.l.a.l.l.v.9.m j r # O   X X . @ . @ O O X X X X &   &     & &   X X & @ . . . . O $ $ 8 e ..X...q.w.8.w.f.B.M.h.m.:.$.1.g.#.#.1.m.h.g.h.-.&.X.w.f.B.| j.M.A.n.M.Z.M.:.:.f.1.;.f.j.N.D.*XD.=Xm.2.f.>.>.2.k.Z.:X3X*X*X:X&X1.$.1.<.{ <.S.*X=XZ.=X%X2.2.j.3.j.<.*X&X5X=X3X2X%X{ 3.3.3.` k.-X8X-XaX3X=Xk.k.3.m.2.M.N.8X3X8X8X5X;X7.*.l.~.a.a.h + + ; # O # . # O o X @ @ , , , @ X @ , @ @ , X @ @ @ @ @ X , - & @ @ @ & & # # X , # @ X # @ @ O . X X , X X X X $ X . . 6 % $ $ O $ 8 q i s u u ( ( @.f.M.M.1.j.S.l.$.:.M.M.Z.2.M.D.*X*X2X*X2.:.` >.B.D.:X,X4Xj.&.2.G.N.*X*X-Xk.<.` { >.%X-X5X-X>X:X=X:X=Xj.N.$.g.n.(.V.~.p.e O . $ O O O . . . . . O . O + + 7 0 i k ) |  .%.-. .%.g.%.] ;.M.N.j.1.f.:.2.m.D.D.b.+.%.%.| %.| | / / / a ) a n n m n s j c s t y '  . .' u a u i i i ",
"o.e w i w p ) ) _ _ x.7.X.X.5.7.*.7.X.X.X.O.+.m o.=.r.9.O...O.=.} } =.w.r.O. . .O.O.9.O.7.O.=.=.O.q.5.=.5.q.5.7.y.9.O.r.b.y.q.9.5.9.9.4.9.=.9.=.=.=.N +.=.=.=.=.=.>.+.c =.=.9.O.5.7.7.7.q.-.-. .%.-.w.q.%.w.w.w.l.B.B.l.B.~.^.~.c.v.0.K v 2 . . . X X . X X O X X X X X X X   & &   X & X X X @   . . . O $ $ 8 0 ..X...7.w.8.h.A.:XS.n.f.@.( ] #.#.&.h.S.S.S.S.j.&._ &.@.f.( 1.A.&XD.D.*XD.2.:.&.$.&.&.j.S.&X:X&X*XD.2.:.{ ( 2.S.%X5X3X:X:X:XZ.j.{ &.,.{ $.M.&X>X:X:X*Xj.2.j.1.3.,.D.3X8X3X3X*X3.{ 3.3.3.( G.-X8X8X8X8X=Xk.3.3.m.k.G.m.hX8X8XhXyX2Xg.w.~.^.a.L.l + + $ @ $ # @ . . # X @ @ @ $ @ @ @ , , @ @ , , @ , , @ , $ @ @ @ @ # # & @ @ @ # @ @ @ @ @ # $ X . # X @ X . X , % # . . % % r $ O $ 9 t c } a u u ( @.f.M.k.f.j.S.M.j.M.D.M.N.2.N.&X*X*X2X*X2.1.{ ( j.&X:X5X<Xj.$.1.2.N.*X=X-XG.` ( ` >.=X=X3X=X=X%X%X:X>XM.=XG.D.D.4X(./.0.h O . O O . O O . . . . . O O + + 7 9 i s / |  .%.-. . .e.w.#.g.D.Z.n.:.$.{ >.Z.D.D.m.+.#.#.| ] | ` ' / / / / } c n n j s c s s s s c O.O.c u u s p s s ",
"o.e w p p p ) ) _ _ X.5.X.x.8.r.w.&.X. .O.q.O.n =.=.v.q.q.q.q.r.O. .q.t.t.-.O. .-.=.-.%.q.-.q.q.q.O.9.=.r.e.y.q.t.+.n -.t.y.q.9.r.9.=.9.=.0.q.0.=.=.=.=.=.=.=.=.:.=.=.>.=.q.q.9.8.w.r.w.w.%.-.-.%.w.h.w.q.e.h.h.a.l.l.l.l.l.l.V.V.c.a.0.M h O . X . . X O O O O @ X , X & X X X & & X & X X X @ . . . . O O 8 r e n ..) %.7.f.B.A.:X^.k.h.@.( ` ( ` &.S.^.:X:X,X;Xl.*.&.*.w.y 1.D.:X&X&X3XZ.2.:.@.*.@.*.w.k.S.D.D.:X:X<.{ $.{ j.M.D.3X,X&X&X*Xj.j.{ ` $.] &.z.:X3X:X2X*Xj.1.j.f.,.2.Z.:X6X5X3XD.N.{ 3.3.>.[ G.-X-X-X-X8X-Xk.3.3.G.G.2.2.hX8X-XhXyX3Xh.f.^.^.a.a.l + @ $ + O # . @ # . @ @ $ @ @ @ @ , 7 $ , $ $ 7 @ $ $ @ @ , $ @ @ O X O O @ @ @ . $ X @ @ @ . $ O . O @ , @ X X @ $ # O . O $ % $ . $ r r r c t y / ] :.M.Z.Z.Z.C.&X&XZ.:X*XN.M.2.N.*X*X2X-X*Xj.1.{ ( k.*X:X5X,Xg.@.$.2.N.*X*X-X3.{ ( ` >.N.=X%X%XM.M.N.=X*XN.:XZ.2XD.(.(.].p.r + O + . O $ .       . . O O O + 8 8 t p / } O.%.%./ | ;.-.#.w.C.N.2.$.{ ( ( m.(.D.b.[ ]  .' ' ' ) / ) / a / a j M n j e s n s c c c  .O.+.u s s i u p ",
"o.i q j p p _ _ ) 5.5.X.7.8.8.l.l.j.w.w.e.t.y.=.q.v.y.y.y.e.y.h.t.-.-.t.b.:.q.q.=.-.=.y.-.w.e.q.w.w.=.e.t.t.e.q.y. .+.w.c.e.9.q.r.9.9.9.y.v.v.b.v.=.e.=.=.=.=.v.v.>.=.=.q.e.r.-.t.r.r.w.8.w.:.:.%.e.b.e.w.w.h.l.B.B.V.B.~.^.^.(.~.c.c.0.I g # . X X . X O O O @ @ X @ X X X X X & X X - , @ , , # O O @ $ 8 r e l ..k k ..*.t.^.:X,X,X:X^.z.f.l.` _ w.B.:X:X:X,X4XS.X.&.$.h.( f.:X2X:X*X3XD.2.;.d.l.j.f.j.^.:X>X:X:X:X] { j.$.j.D.3XqX8X5X5X5X&Xj.( / $.$.,.C.D.:X:X:X&Xj.&.2.2.1.f.*X:X3X2X5X2XG.{ >.3.>.[ G.-X8X-X8X8X=X3.3.3.G.N.3.>.hX8X3X8XyX:Xf.8.~.L.a.a.z + + 0 O @ $ O O . # # O O @ $ + @ + @ @ + , + @ + @ + @ @ + @ . O @ . O O O . @ O O . O O O O . . . @ # ; ; ; @ @ # $ O O 6 $ r O + 8 c r 9 t t t u ` 1.M.&X&X;XD.:X:XD.&X:XN.N.j.N.D.*X*X3X*X2.2./ ( j.:X,X4X:Xf.] { 3.N.*X-X-Xk.{ ( ( >.N.=X-X*X:X>X=X:X:XZ.Z.N.*X;.V.F._.y.h O O $ + O $ O O 6 O O $ O $ + + 0 9 i p /  .%.%.%.| #.t.;.{ #.n.m.1.$.{ ( [ j.F.(.b.' ]  .| ' ( ` / a / k / k s n n s s s s s y t u +. .+.u y u i p s ",
"4.q e j p p 6.k ) *.x.*.x.7.l.A.l.h.f.e.e.e.t.v.b.b.v.b.t.b.b.b.V.w.=.w.t.t.y.e.e.-.:.:.=.y.:.=.b.v.y.e.b.v.e.w.b.q.-.c.b.e.t.b.y.r.9.a.V.F.V.c.F.v.m.v.v.=.=.G.v.:.=.:.v.b.y.q.y.t.w.q.w.w.e.e. .w.t.w.%.w.t.t.l.l.l.l.l.B.A./.c.c.v.0.M j # # . O X X O X O O @ & X X X X   X = X . , > ; , ; 2 d % % h g h j m o.} p ) | w.^.^.:XD.M.h.%.( | @.@.w.j.A.S.(.:X:Xj.( *.*.f.( &.3X5X2X2X3X2Xm.;.*.w.&.%.&.B.D.(.>X:XD.( ( M.$.>.M.&X5X4X:X>X,XS.1.( ( @.&.f.S.;XZ.Z.&XZ.1.>.1.1.:.2.>X&X8X&X8X3XN.{ >.3.G.>.G.-XhX-XhX8X=X=X3.3.N.G.>.>.jXjX8XuXuX:Xf.w.^.^.l.c.z + + 0 + + $ O O @ O O @ @ + @ $ + + + + + + + @ + + + + + + + + . + O O O + O O O O O O O O O . . . O # 2 f 2 ; d h g h % r % N r r M 0.M s y t u u ( #.M.D.Z.Z.Z.*X:XM.Z.*XD.N.2.m.*X*X*X2X*X1.1.] ( j.:X:X2X:X,.( { >.M.-X3X-X3.` ( ` { %X=XN.=X*X&XN.N.k.>.>.2.C.#.r.V.(.5.l $ 0 0 $ $ 0 0 $ % d % % d r r 9 e i k ) | %.w.g.t.e.h.D.n.&.-.C.n.j.2.m.<.$.C.F.D.m.' ] #.| | / / / ( / / / n i n n s s s c s t 9 t '  .} u u p u s p ",
"o.n s i s i s _ 5.X.) _ X.8.f.l.B.F.B.b.b.b.V.b.F.b.b.b.b.e.t.e.m.e.:.w.e.e.e.e.-.:.e.:.e.=.v.:.e.e.v.v.G.v.v.m.v.b.v.b.b.b.t.y.y.v.V.V.V./.(.].F.F.v.=.v.v.e.=.=.=.:.e.e.-.-.y.b.b.e.e.e.e.b.v.w.e.v.g.t.h.b.b.S.B.l.S.^.(.A.V.~.Y.c.0.p.$ . % O 2 ; f L f @ @ , @ X , @ @ X @ @ , ; > @ O , ; g h g g g N 4.0.I o.4.O.%.7.w.l.:X(.D.D.S.*.( %.%.&.w.B.A.(.:X,X,Xn.*.@.z.&.7 j.A.(.D.:X2X(.B.w.] #.|  .h.:X4X(.(.2X(.( u / ;.' j.:XtX6X:X,X2XB.j.X.*.%.*.f.D.:X&X-X*XZ.<.{ $.1.3.$.N.2X-X3X8XZ.G.>.>.G.>.[ G.3X3X3XhXhX-X=X3.3.2.m.3.{ 8X8XyXyX:X6X%.%.,X~.y.r.e 7 + + + + + O O + + O O O O O 7 $ + O + + + + + + $ + + $ + O $ $ $ + + + O O O O O O + O $ O O @ O % % h g v f h F I J N K F U N n 9.0.M c c c c ' t ;.:.n.C.:.f.M.j.>.2.Z.N.N.G.N.*X*X*X2X*Xj.] $.( j.:X2X2X2Xf.] { { m.*X3X3XG.>.{ ` { =X3X>X-X&XZ.N.Z.N.3.m.;.m. .b.t./.~...6.m x.6.6.S S I J S J 6.I I k 6.4.) X.r.b.V.B.A.b.b.b.C.V.h.w.h.b.B.h.g.g.f.j.F.N.e.:.] ] ] ' ( ' / u u ( u c n M s s s t t t t t s [  .' a u t t t y ",
"m j i i i i j ) O.| _ _ *.w.d.h.B.B.B.B.b.B.b.B.B.F.b.b.t.b.g.m.b.b.t.e.e.e.:.e.e.e.e.:.v.G.G.:.e.e.:.m.v.m.e.v.m.b.b.b.t.y.c.V.~./.F.c.v.v.v.c.V.F.F.b.b.F.b.v.:.v.v.:.:.v.e.t.b.v.b.b.v.b.e.e.q.v.e.b.h.t.h.h.V.B.l.B.~.^.~.V.~.c.c.J 6.+ O O # h Z Z Z d @ d . . . . . . . . @ d g h d d d d h h h h h M I 0.0.4.9.O.X.%.j.M.^.(.A.B.h.X.( %.' | &.j.S.V.A.:X3Xk.*.] h.&.q n.:X:X2X4X2XD.h.-. .O.| | w.D.2X(.(.:X(./ u u -.| g.^.6X5X:X2X4XB.j.%.#.#./ #.S.*X>X3X:XZ.3.>.$.>.3.$.N.-X-X3X6X-XG.>.3.G.>.[ 3.-X3X8X8X8X-XG.<.3.2.N.1.2.8XhX8XyX5X8X8.} c.y.0.0.i 8 + 7 8 $ + 7 + O O O @ + $ O $ + + + + $ 7 $ $ $ + + $ $ $ $ $ + + $ $ $ + + $ O + O $ + 7 $ . . # # % d % % J U p.u.p.0.p.v.9.I v.c.c.o.M +.n +.=.u B.m.C.C.1.g.N.j.1.G.N.N.N.3.m.*X:X*X:X2Xm.{ >.( m.&X3X2X2Xg.{ { { j.*X:X8Xk.<.{ ` { k.-X=X>X3X%Xk.k.k.M.C.C.(.C.(.D.(.V.r.a.a.s.s.a.a.s.Y.c.a.Y.Y.~.~.~.V.l.h.l.A.A.S.V.V.V.B.B.C.B.b.e.M.S.S.S.z.l.B.S.N.N.g.>.[ [ [ [ [ ' c ( u c c a c s s t t r t s t t c  . .| a / u s u y ",
"m n e i i s p .._ | ) _ _ 8.y.l.F.V.B.F.B.m.b.b.F.C.F.b.m.b.m.b.n.b.g.e.e.g.e.:.b.-.:.e.v.m.v.:.m.b.b.F.F.F.b.m.b.V.v.b.v.V.F./.^./.Y.v.q.9.=.+.v.v.c.b.F.F.F.v.b.v.e.e.v.v.:.-.-.v.y.b.v.b.b.v.=.e.v.e.m.t.B.j.S.B.l.B.A.A.V.V.V.~.a.0 M $ $ O O e h Z f O @ d O X . . . . . . O d d h h d ; $ h f h h f b N n I 9.9.=. .*.f.^.D.:X:XB.h.&.@.%.` | %.B.S.D.(.:X,Xh.| ( w.@.q h.(.:X(.:X(.C.-.[  .#. .+.O.F.:X].2XF.F./ ' u %.%.g.S.4X5X:X4X,XM.%.' ' @.` %.D.,X:X*X*XZ.k.1.$.{ ,.,.k.2X3X2X2X3XN.>.3.G.>.>.G.D.8X8X3X3X-Xk.<.3.G.N.1.Z.*XyX3X5X,X5Xh.%.y.V.~.v.n r 8 9 0 r e e $ $ ; 0 8 d $ $ d 0 z 0 d z h h e d d e h h h e d 0 d h h h h j j l l h h h j h M Y K P U 0.W p.0.p.p.v.p.0.p.c.9.U v.v.v.4.n +.' +. .' C.n.D.Z.M.M.N.N.G.N.=XN.G.>.N.-X*X&X*X2Xj.{ :.( m.&X3X>X2X2.{ { { m.:X2X3Xk.<.{ ( { N.-XZ.*X>X&XN.M.N.Z.D.F.,XD.4X(.(.V.l.~.V.~.~.Y.~.Y.a.a.c.K.a.c.Y.c.~.~.V.A.D.A.S.h.V.C.A.V.V.C.B.B.A.A.D.S.S.S.S.S.Z.B.g.>.{ ] ] ' [ ' / / u / / c s t t t s a s s y t y c / a a k / a a a ",
"..s 9 r i i k ) X._ _ _ @.7.d.l.B.B.C.B.F.b.F.F.F.F.F.B.F.b.V.b.n.h.g.e.e.g.e.g.b.:.-.v.G.F.m.v.v.F.F.F.F.m.F.c.v.b.v.b.V.V.A.^.v.v.9.O.n n n s =.=.q.v.v.v.m.v.F.F.v.b.b.:.e.=.:.e.:.v.b.b.b.V.e.e.v.G.h.g.h.j.z.B.B.S.A.^.S.~.~.~.0.+ e r e O . r d d d O + h $ O $ O O + O O + + d d 0 0 0 $ h h r r r r c N =.n n =.X.&.j.l.M.,X4XB.j.-. .@.| ' %.w.B.S.S.(.D.f.` ( %.` ( f.C.V.S.(.A.V.-. .| -.-. .-.b.(.:X(.V.B.| #.u =.-.t.B.:X4X2X5X4XM.e.] ` | | e.(.2X:XZ.C.j.2.:.#.{ ;.1.m.&X2XN.N.2XN.>.3.G.>.G.G.F.3X-X-X*X%XN.k.3.M.N.j.Z.N.5X2X:XD.(.^.A.a.(.'.y.5.j j j l l k S l j j S l h N N l S m 6.4.4.S 6.4.I 4.I 6.6.6.I I o.4.I 4.4.p.0.p.p.p.0.r.p.p.p.I U 0.p.p.p.c.v.v.v.p.0.p.4.s.r.0.0.v.v.r.+.n } c / | ( C.A.*XD.*XZ.*X&XZ.*X-XN.2.:.N.-X*X*X:X:Xj.{ >.( n.&X2X3X:Xj.#.{ { j.*X2X-Xk.3.>.( { M.3X=X&X=X*X*X*XZ.M.F.b.C.e.A.A.:X(.V.l.~.V.V.~.V.V.Y./.~.~.V.a.l.V.l.h.b.V.B.S.h.h.B.A.D.A.S.V.B.S.S.B.S.S.S.B.S.S.Z.m.g.:.#.[ ' ] ' ' ' / c c a ' n c t s +.+.} n c s t t t s a  .+.} } +.",
"n s 9 t e s a ) ) ) _ _ _ 7.j.l.V.B.C.B.M.B.C.F.A.A.F.C.V.B.m.C.h.g.f.w.g.g.h.h.B.g.e.b.F.F.b.v.b.F.F.v.v.:.v.V.F.b.v.B.V./.V.a.o.o.m s j n s r c +.n +.=.=.v.e.V.V.b.c.V.V.b.v.V.b.v.b.b.c.V.F.e.v.G.v.G.v.g.b.M.S.B.S.S.^.B.V.^.V.r.+ i e e + O 8 $ 8 d 8 + h $ $ + + + $ + + + + 8 0 7 + 0 + 8 $ 8 $ $ $ r r M c c | &.e.f.f.f.(.(.j.w.%.( ( ' / / #.e.h.B.S.j.f.| *.&.| | -.b.B.S.A.F.F.b.q.| -.e.-.-.t.F.A.F.h.B.=.e.+.=.=.b.S.(.2X4X4X2XB.A.w.#.%.%.e.b.m.D.C.m.;.e.;.;.;.2.2.b.D.F.G.e.D.N.:.G.F.:.G.m.F.&XA.N.A.%XZ.k.n.M.m.M.A.n.&X5X,X^.S.,X(.a.~./.o.a.0.6.5.r.0.0.0.p.r.0.0.$X$X$X0.r.p.p.p.a.p.0.0.a.p.p.a.0.v.U v.p.p.a.a.a.a.a.c.Y.c.c.c.Y.c.c.Y.0.0.0.p.r.a.p.p.Y.p.0.6.0.0.0.6.v.p.5.r.r.9.O.X.| ' / ( C.D.:X>X&XZ.Z.Z.N.*X-XG.G.3.Z.2X*X*X*X:XG.{ :.( m.*X2X2X*Xm.$.{ [ j.*X2X3XN.1.<.[ { Z.3X*X*X*X:X>X=XM.j.b.g.h.#.b.b.(.D.B.b.v.b.c.V.V.c././././.V.V.V.A.V.B.B.n.S.M.C.n.n.V.D.D.S.B.S.D.B.S.M.S.S.M.S.S.F.N.g.:.{ ] ] ] ] ' ' ' / c / c ..a s a n +.} a n n } } } k } O.} } | ..",
"m e 8 9 s a k k / | _ _ _ *.d.l.V.C.F.B.B.V.V.F.D.A.A.C.B.B.B.B.h.j.f.g.g.h.j.h.C.b.b.b.F.F.F.m.b.v.b.b.:.v.b.F.F.v.c.b.B.c.9...n ..n s s n n 8 t r r t c c =.=.q.t.b.V.F.F.F.F./.F.F.F.V.b.b.b.e.G.m.v.G.G.g.m.l.z.M.z.S.B.A.B.~.V.7.+ t 9 r $ 8 8 + + e 8 + 7 + $ $ $ + $ + 8 0 8 7 + 7 7 7 7 + 8 $ $ + $ 8 % c a ' #.f.f.f.2.f.A.C.h.h.-./ ) #.@.` &.g.h.n.S.j.j.w.f.f.%.f.w.h.b.V.V.F.m.b.w. .q.e.g.g.b.b.B.m.e.B.q.b.:.e.:.B.B.^.:X:X:X:XS.S.w.%.w.-.e.n.b.C.n.b.m.b.m.m.b.t.e.n.D.F.v.m.F.F.G.m.F.m.v.F.m.D.D.A.A.Z.M.S.B.C.j.Z.M.j.S.3X:X:Xl.(.^.h./.~.V.V.a.a.c.~.V.Y.~.c.Y.Y.Y.F.$Xv.F.c.c.c.v.c.c.a.a.c.c.a.a.v.v.v.v.c.a.c.a.Y.c.a.Y.V.Y.~.~.V.Y.c.c.V.~.~.c.c.a.v.a.r.0.I 4.6.6.0.6.9.m k k 5.q.7.%.X.@.] ( M.M.D.Z.M.m.M.N.G.N.N.G.Z.G.N.-X2X*X:X*Xj.[ $.( n.&X2X3X*Xn.:.{ { G.:X3X-Xk.1.$.( >.=X6X&X3X5X3X&X2.2.f.g.g.n.-.B.m.D.b.h.h.b.b.b.b.b.v.y.t.t.a.c.h.V.b.A.C.C.M.M.M.M.C.n.C.A.D.C.B.S.A.S.S.M.S.S.Z.Z.S.D.N.g.&.#.] ] ] ' [ / / u a u a n c s s a a a s t s } q.O.) k ....} } } ",
"n r 8 9 s a k ) ) ) _ ) _ *.f.l.B.C.C.B.F.B.S.A.A.D.F.C.B.m.B.B.M.h.j.j.h.j.B.B.C.B.B.B.V.F.b.b.V.F.c.F.F.V.V.V.v.b.c.a.q.4.} n k m n j o.y.9.s r r $ r s s c N +.=.e.v.v.c.V./.].(./.(.F.F.c.b.e.G.m.G.m.e.G.m.k.M.S.S.B.S.A.B.A.l.w.q n t i 9 9 e 8 8 l i 0 r e r r i e j j l j z j i j i z i s s s c t s c c +.=.;.e.1.:.2.j.j.C.h.B.S.g.%.f.f.-.&.h.B.S.B.V.g.l.w.l.h.w.C.e.h.h.b.b.b.v.e.e.-.e.t.b.b.h.t.b.t.e.V.:.m.b.v.:.b.b.A.(.A.D.(.V.h.w.h.n.g.t.b.F.b.b.B.b.B.b.b.b.b.-.V.D.m.m.F.F.m.m.m.m.m.F.m.G.F.C.^.A.A.A.B.B.C.h.C.h.f.h.S.h.^.f.^.A.b.^./._.V.V.l.~./.~.~.~.V.Y.V.~.!.F.!.F./.~.V./.~.V.~.~.~.V.~.V.~././././.^./././.V.~.~.~.^.~.~.~.~.~.V.~.V.c.V.a.c.a.a.r.0.q.5.6.6.6.7...k k k ) O.O._ @.` | ( C.k.M.k.2.m.N.G.:.G.N.N.N.G.G.*X*X*X:XZ.j.] >.( j.*X3X2X&Xk.:.] ( j.*X3X2XN.1.$.( ` =X5X2X2X3X3XZ.j.2.M.b.b.D.b.D.B.F.m.b.e.b.m.b.b.b.b.B.b.b.V.B.C.F.C.B.N.M.n.m.j.m.M.j.n.V.C.A.C.S.S.S.M.S.S.^.D.&XZ.D.M.h.:.#.] | ] ' ' / a a s a a a a s s s a a k q i } 5...j p k ) } } } ",
"n q 7 8 i j k k / ) _ _ _ 5.d.B.C.V.C.F.B.C.F.A.A.F.V.B.B.B.B.n.S.M.n.j.M.B.M.B.A.S.F.F.V.F.b.F.F.b.v.V.F.(.V.t.q.v.b.q.+.s j o.i m ..o.r.~.c.9.M c s c s r r c n  .9.=. .=.e.V.F.F.(.].].(.F.c.G.v.m.m.e.G.e.G.M.M.B.S.S.S.S.A.A.B.t.s  .s a s s n k } 9.6.m 5.m o.m o.4.4.5.5.0.5.5.r.a.r.5.5.q.q.0.=.=.=.9.v.-.b.n.h.:.$.j.S.h.h.w.f.C.h.f.B.w.-.w.B.S.B.h.f.f.n.,.B.f.-.A.t.h.b.b.B.b.m.v.F.h.e.t.h.b.t.h.e.e.b.b.=.m.v.F.G.B.h.A.D.B.B.V.n.S.n.(.(.h.w.b.F.=.b.V.V.V.m.t.t.V.=.F.(.v.m.F.:.b.v.v.m.v.m.v.=.-.t.b.b.b.b.l.b.h.g.g.h.f.h.l.w.(.&.V.V.V.~.9.V.a.a.a.~.~.~.V.c.~.~.~.~.F.!.F.F./.~././././._.]./.(./._.'.4X6X#X4X4X2X_._._.(././.(./.^.(./.(.(./.(.F./.(./.^./.V.^./.V.r...6.r.5.5.5.X.X.X._ *.} ` @.` &XZ.Z.k.j.m.Z.N.3.N.=XD.=X>.2.=X:X3X2X&Xm.{ >.( m.*X2X3XD.m.,.{ [ g.2X2X3XM.2.#.( { N.3X5X*XD.D.*XZ.C.Z.:X:X2XD.2X2X4X(.h.b.b.e.b.m.m.b.B.V.b.b.B.C.B.h.b.b.M.M.m.m.M.M.b.b.B.C.C.A.S.S.S.B.B.S.Z.;XS.S.D.M.h.:.#.[ ]  .' / / u y u s u a a k c s n } ..} } k k a s ) 7.) ) k k ",
"t r 9 r a k ) k ) ) / _ *.w.l.l.M.V.D.A.C.C.C.C.F.C.B.B.V.C.F.M.B.C.C.B.h.m.N.F.B.A.A.V.B.V.A.B.v.F.V.V.(.F.t.9.V.n 4.O.r.a o.k ..j 6.V././.V.9.o.c s c t c M t 8 +.t +.v.u =.v.=.c.F.c.c.F./.c.b.m.b.b.g.j.M.M.z.M.S.S.S.S.A.^.A.l.7.O.O.=.O.o.q.9.q.r.a.a.l.a.r.y.y.y.y.t.c.a.a.a.a.a.l.a.a.a.b.v.v.v.v.m.v.m.b.v.b.:.e.j.m.M.B.B.C.B.S.h.h.D.n.h.h.g.h.B.b.m.S.B.S.C.V.V.A.D.F.F.G.m.F.v.v.m.b.b.b.v.v.m.m.m.F.m.v.e.v.G.v.v.w.e.h.h.b.b.F.b.e.w.w.e.G.e.e.e.t.b.v.b.b.b.b.v.v.=.:.$XG.v.v.v.v.F.v.>.F.F.e.G.v.F.D.F.V.(.(.A.b.b.B.C.S.^.S.V.A.A.(.(./.V./.(._.(.(._.4X,X].4X6X].#X#X6X].6X].rX#XgXgX6X6XgX6XgXgX6XgXhXhXhXhXMXMXhXgXqX6X6X4X4X4X4X'.2X'.2X_.2X].2XD.(.(.(.(._.(.(.~.a.7.6._ 5.x.5.*.6.*.*.| | ( ` @.<.%X:XZ.M.Z.%XN.m.N.=XZ.N.G.m.=X=X:X:XZ.m.2.{ { 2.&X:X2X2Xn.[ $.( N.:X2X2XN.g.{ { ( *X2X:X3X:XZ.D.2XD.*XC.D.D.Z.Z.D.D.m.m.e.b.m.G.e.b.b.V.B.b.b.n.B.b.b.M.n.M.n.M.n.M.M.B.V.A.F.B.B.B.A.B.B.z.B.S.A.^.S.D.C.h.-.@. . ./  .@.| | k s p s a u a a ' n k a ....l k k p l r.k s q 9 ",
"r 9 9 9 s k k p } ) ) _ _ 8.j.j.B.B.A.A.C.F.B.F.C.C.B.B.B.B.n.B.C.N.C.M.n.B.F.D.V.^.V.V.B.~.^./.V.F.V.v.v.y.o...n 9 ..9.a.} 6...l ..c._._./.a.m 0.o.9.9.M o.=.n t n 8 +.b.a c c o.q.e.q.b.(.(.(.F.F.F.m.m.h.B.C.B.B.B.l.z.B.V.A.A.b.h.w.w.y.y.y.a.t.t.a.b.c.V.t.c.v.c.v.c.c.c.V.V.c.V.l.V.V.l.l.b.b.m.b.m.v.F.v.b.m.V.m.n.n.M.Z.S.S.(.B.:Xh.B.S.A.S.B.l.B.M.C.F.h.h.b.b.h.h.B.F.F.F.v.F.F.F.b.F.t.t.e.;.v.G.v.e.v.e.v.m.v.F.F.m.h.h.t.b.b.m.b.F.B.b.b.b.F.G.F.b.=.=.-.b.=.y.-.=.F.v.m.F.F.F.F.F.F.F.F.F.4X].F.F./.4X4X2X].6XrX4X4X2X4X4X6X4X4X2X4X4XqXyXqX6X6XyXqXqXeXgXeXgXeXgXhXgXgXhXhXgXgXhXgXhXgXgXhXgXgXNXgXhXhXNXhXhXNXhXMXhXhXhXhXgXqXqXqX6XqXqX9X6X9XqXqXqXgX6X6XqX6XqX4X4X,X(.a.7.m 6.5.5.X.x.7.7.*.| | ( ` { 1.%X:X%XM.Z.*XZ.m.N.=X=XG.2.N.D.Z.*X2X*Xj.1.( ( m.=X:X3X2XN.{ { [ C.:X3X2XN.f.{ [ u *X2X2X3X*XZ.*XD.N.C.g.C.C.n.n.D.D.m.m.b.m.m.m.e.e.n.b.b.h.b.B.n.n.l.B.B.n.B.B.C.C.B.n.V.A.A.V.C.A.A.A.S.S.S.;XD.;XZ.^.&XC.w.#.#.@.| } | | | ' a u a s u s c a } } k k ..m ) _ l l 6.j p p / ",
"r 9 8 9 s l k a ) ) / ) X.8.l.f.B.S.S.A.S.C.C.A.A.C.B.n.M.B.M.B.b.n.m.B.B.C./.(.F.^.V.V.V./.(.`.F.V.y.=.+.n n } k + j 9.V.a.a...j m a./.(./.a.a n n 9.y.t.v.v.c.+.} t =.~.0.n t c c c n =.v.V.F.F.F.F.F.b.h.l.S.S.S.S.B.V.S.(.^.l.l.a.y.t.y.t.y.V.V.V.c.V.c.c.c.c.c.c.c.c.V.V.V.V.V.c.V.V.~.V.V.b.F.F.b.F.v.v.b.b.F.b.m.B.h.S.S.n.w.n.w.S.;.h.f.f.w.%. .%.%.:.:.h.h.g.h.h.h.B.V.G.v.G.=.+.:.e.e.b.b.b.b.m.F.G.G.:.2.e.m.F.m.G.G.C.F.A.A.F.F.F.G.2X].(.2X-XD.].-X].2X4X2X2X-X4X].-X-XF.-X6XgX-X-X].6X-X].gXgXgXgX6XgXhXgXqXhXhXhXgXyXyXhXhXhXhXhXpXhXhXMXMXhXMXMXMXMXMXAXMXNXMXAXNXNXhXNXNXNXNXNXNXgXhXhXNXgXhXNXgXNXhXhXhXhXhXhXhXhXhXgXqXgXqXqX2X4X4X4X4X2X4X2X2X2X4X4X2X2X4X'.9X4X,X/.l.0.6._ _ 8.5.7.7.X.X._ | ( _ *.,.Z.*X%XM.Z.*XD.k.N.=XZ.G.3.N.*XZ.&X3X2Xj.2.( { n.*X:X3X:XM.{ >.( N.:X3X:XN.2.#.{ ( :X2X*X4X*XC.D.C.g.g.2.n.N.j.g.m.N.B.m.b.m.b.b.b.g.b.h.h.t.h.b.B.B.B.B.B.B.V.V.B.B.B.b.V.B.F.V.V.B.B.V.A.S.^.^.D.^.A.D.&XS.f.X.#.%. ./ _ | } ) k a a t u s a a } n n k ..S k I S l l p ) r.l.",
"r 9 8 9 i k k ) ) ) ` ) _ 8.d.l.B.S.D.A.A.A.S.A.A.C.C.B.B.C.B.B.b.m.b.b.n.V.F.(.A.~./.V.A.~.~.b.v.q.=.o.c c +.4.y.t m r./.V.a.j j j 6.a.~.'./.m s m 9.c.F././.(.9.+.n t.(.V.y.c c r 8 t s c +.=.c v.V.F.V.b.B.V.^.A.^.^.^.(.~.V.^.A.B.V.~.A.V.c.V.c.c.c.a.V.b.v.v.c.b.c.c.c.c.c.c.V.a.V.l.c.V.V.V.b.b.F.v.F.F.F.v.V.b.V.l.B.S.S.(.S.:XB.4XA.(.D.4X4X:X:X(.:X(.D.A.A.A.A.A.D.(.(.F.].].G.b.].].F.F.(.(.F.D.].].F.(.].].6X6X6X].-X6X6X4X4X2X-XgXgXqXyXqXqXgXhXhXgX6X6XqXgXgXgXhXgXhXgXgXgXgXhXgXgXgXgXgXgXhXhXgXhXhXhXNXhXhXhXMXMXhXhXgXgXgXhXhXeXhXgXhXMXhXhXhXhXhXbXhXhXhXMXhXhXNXhXhXhXhXgXhXgX6X6X6XgXgX6X6X#X6X6X6X-X-XgXgXgX6X2X6X2X4X2X2X:X2X2X].2X].2X:X_.D.D.D.(.(.(.(.F.^._.(.V.s.7...) X.6._ 5.5.*.| _ ` ( ] @.&.Z.:XZ.M.m.Z.N.G.G.N.N.G.2.N.*X&X*X2X3Xm.1.[ [ n.D.2X3X:XM.{ #.( N.*X2X:XC.j.$.[ y D.3X*X2X:XD.D.Z.f.g.g.M.N.2.;.g.M.C.C.m.b.V.b.b.t.h.b.h.h.h.B.V.V.l.B.B.B.b.B.B.b.V.b.V.V.V.V.B.B.V.V.B.V.B.A.A.A.V.S.S.B.w. .@.@.%.} } } } a k p a y y a ' k a k ) s 6.6._ ) 6.l z 6.l._.9X",
"s 9 8 8 t s k k ) ) _ _ *.*.w.l.B.B.S.D.D.S.S.A.D.D.S.S.C.C.B.M.n.b.m.b.m.F.F.F.~.F.~.V.V.Y.r.m 9.c +.+.s ..q.o.r.m c.V._.a.y.e k l m 4.Y.4X_...o.r.q.c.]./.~._.t.n o.v./.V.9.} } a s j M s s n N +.e.b.c.B.V.^.V.^.^.^._.^.~.V.^.l.a.V.V.~.b.v.c.c.V.c.V.V.V.Y.c.v.c.c.V.c.c.V.V.V.Y.F.~.A.~.F.F.A.A.(.F.(./.F.F./.(.(.:X:X:X,X2XF.:XN.6XD.2X*X3X2X4X4X-X3X2X2X3XgX-XgXqX6XqXhX6XhXhXgXgXhXhXgXgX6XgXgXhX-XhX6XgXhXgXgXhXgXhXgXhXhXhXgXhXhXhXhXhXhXhXhXhXhXhXhXhXhXhXhXhXhXhXhXhXhXhXhXhXhXhXgXhXgXgXhXhXgXgXhXgXhXMXhXqXqXhXhXqX0X9X6X9X6X6X9X9X4X9XqXqX4X4X9X,X9X4X9X6X6X'.6X4X4X].].].].].].F.F.F.F.].F.F.F.-XF.F.F.F.].F.F.F.F.B.C.C.V.n.b.C.V.C.B.C.F.F.C.m.F.m.F.c.b.B.V.t.c.V.r.6.6.6...6.X.X.5.5.X._ / / / ] @.&.Z.:XZ.n.j.M.N.G.N.=XG.N.>.G.*X2X3X:X&XM.2.{ { m.D.*X>X:XN.#.#.u B.*X2X2XC.m. .{ u &X4XD.2X2XD.:XD.B.m.m.Z.Z.m.f.h.C.S.b.e.t.h.l.l.t.h.V.b.V.V.b.V.V.V.V.l.V.l.V.V.V.V.V.V.~.V.A.V.~.A.^.A.V.^.^.^.A.A.B.S.B.w.@. .X. .) } } } k p p i t y a a a a k ) k 4.6._ x.J S z a.,XxXMX",
"r 9 7 8 9 i k k p ) | _ _ 7.8.j.B.S.S.D.A.^.Z.Z.(.S.S.M.B.C.n.B.m.b.m.b.v.F.v.b.V.c.c.v.c.c.4.s m c n n t 9.c.n 9 o.'.4X_.4.5.i l 0 z 0.V._.a.e M 4.+.0.(.V.b./.c.m q.c.V./.q.n o.5.9.9.=.n n n c N =.N =.r.t.V.l.V./._._.(./.V.V.l.h.V.~./.V.y._././._.].(.].].].].].].]._.].].].(.]._.]._.'.'.2X].2X'.2X4X6X'.4X6XrXqXqXqXqXqXhXhXhXqXAXhXhXhXyXhXhXhXhXhXhXhXhXhXhXhXhXhXhXhXhXhXhXhXhXhXhXhXhXhXhXhXhXhXhXhXhXhXhXhXhX6XgXhXhXhXgXhXgXgXgXhXhXhXgXhXhXhXhXgXhXgXgX4X6X6XgXgXgXgX-XgX6X6X6X#X6X-X6X6X4X'.2X2X5X6X4X4X4X,X,X'._.^./.A.^.^.~.V.(.A.^.^.^.V.B.B.B.l.V.V.V.V.V.c.v.F.F.m.F.b.m.b.v.v.G.$XG.$XG.v.$XF.G.v.m.G.m.m.m.m.g.g.g.g.e.;.;.-.-.-.;.-.:.:.=.:.=.=.-.=.9.=.o.q.r.6.6.7.0.6.6.X.6.X.O.X.} / / ( | #.:.M.:XD.N.M.N.N.N.Z.D.N.Z.3.2.-X3X3X:X&XM.2.[ ( m.=XD.:X&XC.$.{ y N.&X2X:XC.m.#.[ y &X3XD.2X*XD.2X*XZ.C.N.=XZ.m.j.M.D.D.h.w.w.l.l.^.~.^.~.V.l.V.~.V.V.a.~.V.~.~.~.~.~.~.~.V.V./.~./.^.V.^.~.^.^.^.(.^.^.:X^.M.-.X.@.@.) _ _ ..} a p i s s u / a s i p k l 6.6.6.6.x.m r._.qXMXAX",
"r 9 7 7 9 i k ) p ) _ X._ *.8.j.j.C.S.A.A.Z.A.D.D.C.B.B.m.F.v.m.m.m.v.m.F.b.b.v.v.v.0.v.v.c.p.m M c n s s V.(.n 9 ..'.'./.m 4.j j 0 l r.c.~.r.e 9 4.m 4.c.r.o.].V.s q.b.V._.y.n =.c.V.v.=.=.=.M =.N N +.o.9.5.5.l.a.a.~.(.).`.~._._.2X'.4X'.'.#X#X'.#X4X#X9XrXrX#XrX#X4X9X#X#X#XrXrXrXqXqXeXqXeXqX6XqXqX6X6XgX6XgXgXhXhXhXiXpXiXhX8XhXyXhX6XhXhXyXhXhXhXhXhXhXhXhXhXhXhXhXgXhXhXhXgXgXgXgXhXgXgXgXgXgXgXgXgXgXgXgXhXgXhX6XhXhXhX6X6X6X'.=X2X6X'.2X].2X].2X].].].6X-X(.2X-X].D.D.F.F.F.F.F.F.F.F.-XF.F.].F.b.F.V.F.V.b.l.B.l.b.V.~.l.t.a.t.a.y.r.t.t.y.t.t.y.7.7.r.8.q.y.r.r.q.=.=.=.=.=.:.=.=.=.$X$XG.G.$Xv.G.=.G.$XG.G.G.G.G.e.g.2.;.:.;.;.;.;.g.;.2.2.g.g.2.;.:.e.:.-.w.e.t.q.n 5.r.4.4.6.4...6.X...X.X...) / / / | #.#.C.:XZ.Z.F.*X*XN.N.=XN.=X2.G.*X2X*X:X*XM.f.[ { n.&X*X2X&XZ.$.{ ( j.&X:X:XC.m.:.{ y (.3XD.2X&XD.2X*XC.C.N.N.M.j.m.Z.D.D.B.l.a.l.^.~.^.^.l.~.a.V.c.c.V.a.Y.l.~.V.V.Y.V.~.c.V.c.V.V.~.V.l.~.V.V.~.^.~.~.V.^.B.h.%.%.&.O.) / / ) ) k p p s y u } ' p t s j l l S r.r.S 6.L._.9XeXeX",
"s 9 + 7 9 i ) ) p ( _ *.X._ 8.j.B.S.S.D.Z.A.A.D.S.S.B.n.m.b.G.G.v.:.e.v.v.m.v.=.v.0.9.I c.c.c.r.9.n n s s _.rXo.9.5.~.~.~.r.r.s l i I c.~.c.c.5.m c.y.y.c.+.n ].y.8 =.v.V.].t.s c._.4XF.y.b.v.v.=.=.v.v.c.y.X.k 6._ x.7.a.~.~.V.V./.'.'._._.].6XgXgXrXqXgXgXqXqXgXgXrXgXgXqXeXqXgXgXgXgXgXgXhXgXhXgXhXgXgXhXgXgXqXgXgXhXeXeXqXeXgX6X8X6XqX4X3XqX6XqX6X8X3XgX-XgX-XgX3XgX2X2X6X4X6XF.F.].-X-X2X'.6X2X-X(.-X].=XF.N.F.D.].F.F.F.F.].F.F.F.G.m.F.F.F.b.b.b.v.m.G.:.m.:.:.v.m.m.G.G.v.G.F.v.G.G.G.F.v.N =.F.q.O.t.e.q.O.} X.8.r.r.8.b.c.a.r.r.q.r.9.r.o.5.q.w.%.X.X.5.5.5.9.O.=.=.=.+.=.=.=.+.=.=.=.=.=.N =.v.=.$XG.$XG.=.=.=.:.:.:.:.:.-.:.;.#.:.{  .{ ]  .#.#.#.|  .=. .=.=.=.-.=.} 5.5...j 4.6.l 5.6.......| ) s ( /  .#.#.n.&XD.N.2X3X-XN.N.Z.D.-Xm.N.*X&XZ.*X:Xn.2.` [ n.D.:X3X&XZ.$.{ y m.:X2X:XC.n.:.[ u :X3XD.2XD.F.D.D.N.m.2.m.2.2.m.Z.;XD.l.l.8.l.L.l.K.a.l.a.a.a.L.l.~.~.c.a.~.a.a.c.L.a.a.r.r.y.t.c.a.r.V.V.a.l.l.l.l.l.B.f.%.X.X.w.%.| p / ) / ) p j / s a } a p t i a k z x.a.a.S 6._.L._._.,X",
"e 9 7 9 w p ) ) _ ` _ | *.X.7.g.j.N.Z.Z.Z.D.M.h.Z.A.B.b.w.w.h.m.F.G.v.v.G.=.=.G.=.=.N N v./.V.0.c.n n m =.].'.4.o.v.v.v.v.9.M n m 5.0.a._._.V.y.r.~.9.n j n a.V.y.=.=.v.V.v.=.+.=.b.F./.c.e.=.=.:.=.=.v.v.F.=.c n o.5.5.s.a.L.^.~./._.].4X4XrXrXqXeXqXqXrXrXqXrX6XrXrX9X9XrX9X9X9X9X'.oX9X'.'.rX'.'.'.'.'.'.'.'.#X'.4X4X4X,X_._.:X4X4X:X(.C.A.(.D.A.A.D.D.D.D.A.D.F.A.F.C.F.F.B.F.B.v.b.b.V.b.b.b.b.b.b.b.b.b.t.B.b.b.h.b.h.l.t.-.b.v.e.b.e.v.t.e.-.=.-.e.b.t.y.e.=.e.=.:.:.v.:.q.q.-.v.b.b.v.y.=.=.9.=.=.4.=.=.4.9.q.q.q.y.y.y.=.=.9.9.0.0.v.=.=.=.v.=.q.%.q.7.5.q.9.=.q.t.y.y.=.=.-.=.=.=.=.=.=.=.=.=.=.=.:.:.:.:.>.:.:.G.2.:.2.&.$.$.&.:.:.&.#.$.&.&.,.w.&.w.:.=.-.-.-.%.w.-.w.%.| ..5.5.k l x.k k p X.) ( q ( } ( ( $.M.&X&Xm.D.*XN.G.m.N.N.Z.G.m.*X2XD.2X*Xn.1.;.y k.D.D.3X,XC.;./ y ,.&X:X*XM.j.;.( [ S.5XD.:X*XZ.D.Z.N.m.G.m.N.j.;.n.(.^.X.p _ 7.6.x.s.6.0.r.s.6.0.r.r.r.7.7.s.7.6.6.6.6.7.6.4.O.4.4.5.o.5.5.5.5.7.7.8.7.7.7.7.O.O.*.X.) X.) k ) p ) p p s a a a s a a j a n 9 r.4.m ~.qX_._._._.",
"e 9 7 9 w w ) ` _ _ *._ @.X.w.t.b.M.n.j.m.C.C.n.Z.A.C.C.B.B.b.b.F.e.=.:.G.v.$XG.v.=.[ N 9.~./.~./.o.M M h F.'.4.I v.y.9.p.0.M c +.a.v.V._.'.V.a.V./.r.m n j 9.y.0.=.+.b.F.V.v.=.=.b.F.F.v.=.+.=.v.>.=.G.G.v.=.c c n ) k z _ _ 7.r.a.c.~./.(.].].'.4X].].].].].(./.].(._._._._.^./._./.`./.~.~./.~.c.F./.!.F.V.V.F.V.V.~.~.~.V.l.b.V.V.B.h.t.h.V.B.h.b.h.b.B.B.b.b.b.y.v.t.t.t.q.e.q.-.:.e.t.e.=.e.e.q.-.w.w.q.7.y.y.y.w.r.q.r.q.=.=.=.=.=.=.=.=.q.-. .O.-.;.-. .=.=.=.:.v.=.v.=.q.=.=.9.=.q.q.9.=.9.=.U =.9.9.=.9.9.9.9.v.=.y.y.v.=.9.4.Y v.=.Y v.=.=.=.q.%.w.&.=.q.9.=.9.y.v.0.v.0.y.y.0.y.y.e.:.:.>.:.G.G.e.:.:.>.:.2.2.2.:.>.:.:.$.#.&.,.&.:.$.#.&.&.w.&.f.&.=.9.9.-.-.-.&.%.-.%.O.X...k l z k l j ) ) ) p y ` ` ( ( $.M.&X%XZ.N.Z.n.g.F.D.D.m.2.N.*X*X2X*XD.j.w.&.y l.&X:X2X>XC.1.` ( 1.:X:X:Xn.j.$.y ( Z.3X%X:X:XN.&X&XN.G.m.m.M.m.;.B.D.B.X.p k _ _ x.x._ ) S l x._ S J l S k S l l _ _ l k k s s k k l s p p p p k k p ) p ) ) k _ 5.5.) X...k p ) k a i s / k a s a k s q ..e t.4.6.(.rX'.oX_. X",
"i e 7 7 w z ( ) _ ` | _ _ | &.e.B.M.m.g.g.C.C.A.A.B.B.V.A.F.b.9.m.=.=.=.v.v.G.v.v.e.=.N o.a.~./.~.r.9.n r c.].4.0.c.v.9.0.v.9.I 4.V./.c.(.].~.r.c./.r.o.n s o.o.=.+.+.=.b.b.v.q.=.e.b.m.e.+.c c =.=.=.:.=.:.=.=...) ) k ) p l k k +.5.r.v.c.F.V.c.c.c.c.v.v.c.c.a.a.r.a.a.a.a.a.a.a.r.r.a.0.o.r.0.9.0.0.v.9.0.9.r.5.0.7.7.7.7.O.O.X.%.O.%.-.-.-.q.%.-.-.w.w.w.q.-.O. .=.=.%. .+.-.O.+. .O.-.O.+.-.O. .O.O.%.O. .O.*.O.O.7.5.O. .=.=.=.=.+.=.=. .q.=. . .O.%.#. .:.:.v.=.G.e.:.:.-.=.O.5.9.=.q.=.=.=.=.=.9.=.9.=.=.q.q.q.-.y.y.y.v.v.v.=.=.=.v.0.v.=.v.=.w.w.w.w.-.-.q.=.=.y.t.:.e.y.y.y.b.v.e.t.G.v.G.v.m.v.m.e.G.>.:.:.:.>.>.>.&.$.$.>.$.$.#.#.%.#.&.&.&.&.&.w.-.q.-.-.-.%.-.&.%.%.%.} k i e e p i w w i p p y ( ( ( ( $.N.&X%XN.Z.N.Z.Z.D.D.F.G.:.M.2X2X2X2XD.j.f.&.( M.D.:X>X:XZ.1.' ( ;.:X2X:XM.j.&.( ' S.5XD.:X*XZ.Z.Z.N.N.N.N.C.M.g.B.A.B._ w w z 0 w z z 0 d 0 w d z e w 0 w w w q 0 q q 0 8 8 9 9 9 9 9 9 7 7 9 9 9 q q 9 q q w ) X.5.X.X.) ) k p ) p p p c } a s k n s 9 5.k c.6.~.9XeX9XrXrX9X",
"e 0 7 9 w ( z ) ( _ ` _ '  .%.w.b.M.n.g.e.B.F.A.F.V.b.V.~.V.t.=.:.+.+.e.v.F.$XG.=.v.=.c m 6.a.c.c.v.v.M M c./.=.v.V.0.M y.c.v.o.9.~.~.r.v.~.c.r.y./.0.m o.k 4.4.o.c +.=.v.m.v.:.e.v.v.v.=.=.c +.=.N =.=.=.$X=.v.4.5.5.6.X.6.X.5.j ..4.9.9.y.a.v.9.9.o.=.O.o.O.o...o.m I 4.6.6.4.4.0.6.6.4.m m 6.o.+.o.5.=.+.o.o.5.5.5.5.7.5.X.| | } ) | O.-.%. .%. .O.O.=.-.-.-.=.%.O.O.O. .O. .-.O.O.O.%.-.O. .-.#.#. .O.-.%.O.%.5.7.O.*.5.7.O.=.=.=.-.=.=.-.-.-.-.=.#.%.-.-. .e.=.G.v.v.v.m.v.t.w.q.q.9.q.q.q.9.=.v.=.q.=.=.=.y.=.y.:.q.w.e.-.v.=.e.=.e.e.=.=.=.:.v.-.w.;.f.w.q.q.-.-.-.b.t.-.w.-.-.-.=.-.e.e.G.v.=.v.G.G.m.e.e.:.>.G.:.G.>.>.:.:.#.#.#.#.#.#.#.%.&.%.&.w.w.%.9.9.q.=.-.-.&.-.%.q.q.X.i 8 8 e 9 0 9 q q q w / q y y ( @.j.&X&XN.F.D.2X*X-XD.Z.n.:.m.*XD.*X-XD.M.,.&.y M.;XD.4X,XM.f.] ( w.:X>X:Xn.j.&.( ` M.5X&X2X:XZ.&XZ.G.N.N.N.Z.C.n.S.A.h._ q 9 w 7 7 0 + 0 0 0 7 0 7 7 0 7 0 7 0 9 7 9 7 9 8 7 7 8 8 9 8 7 9 7 7 9 9 7 9 q w s p ) X.5.X.X.) ) k ) p k p s } } a a c n a e 9.n a.4._.4XMXeXeXrXwX",
"j 0 7 7 w w ) ) w _ _ _ / | O.w.t.e.t.:.-.e.b.b.(.V.b.V.V.c.y.9.=.+.=.b.V.c.r.r.=.v.5.m 4.4.7.a./.v.0.=.9.c.F.K v.v.o.n o.v.9.4.r./.V.4.9.a.r.y.a.V.4.m o.n 5.0.9.+.+.q.v.b.e.v.:.v.v.-.=.=.N +.N +.=.v.e.=.9.9.O.4.o.5.5.5.5...m o.o.9.9.9.4.9.+.m m m n n n o.m k S ..4.4.6...k 4...J 4.M l r...O.5.9.7.5.5.O.7.O.5.7.7.7.7.X.%.O. . .q.q.q.O.q.O.%.%.q.;.q.-.q.q.q.-.q.-.-.-.q.-.9.-.q.q.q.-.q.-.-.-.;.w.q.-.7.-.7.q.q.8.q.q.-.-.:.y.-.-.-.-.-.:.-.-.w.;.w.;.-.;.e.g.m.v.G.e.h.t.y.y.r.8.w.y.=.=.-.-.-.=.-.q.e.-.w.w.e.e.w.w.e.e.=.v.=.e.v.e.=.v.e.e.:.G.f.w.-.e.-.-.-.e.e.-.-.-.-.-.q.-.w.e.e.e.:.G.e.G.e.G.:.:.G.:.g.2.:.:.:.:.#.#.#.-.#. .&.%.;.;.-.-.;.-.-.9.q.=.%.-.;.&.%.-.7.X.w 7 + 0 7 7 9 7 9 9 p ( q ( ( ( ` j.&X&XN.D.*X:XD.N.Z.*XD.m.N.*X*X*X2X*Xn.f.f.y B.&X;X4X>XC.1.] ( g.:X2X:XM.j.:.y ( M.<XD.>X:XZ.*XZ.G.N.C.m.C.N.m.C.V.w.( q 7 9 7 7 q 7 0 7 0 0 9 0 9 9 7 9 9 9 9 9 9 9 9 8 8 8 9 9 9 8 9 9 9 9 q 9 9 q t p a ) ) 5.O.X...X.) ) / a k a a +.} k c n n k s 5.j 5.} _.9XeXeXrXrXrX",
"i w 7 9 w z ) ( ( ) _ / / )  .q.:.t.t.q.O.q.t.v.c.v.y.0.4.5.o.o.n +.0.v.c.v.r.4.=.I m l 6.6.s.a./.v.I n I v.v.9.0.v.o.M 0.0.I v.c.~.v.o.4.r.r.v.y.c.m +.4.n o.0.v.q.=.t.b.v.v.b.v.:.v.v.v.e.=.=.=.=.:.=.=.=.I =.5.5.4.5.4.X.o...o.9.9.4.+.m m +.m +.+.m m o.o.M ..o.k ..6.5.6.4.J 6.k _ 6._ k 5...O.5.q.q.8.7.7.5.%.%.8.w.7.7.X.w.-.O.%.-.w.-.-.q.-.7.q.q.q.q.%.-.r.r.w.q.-.r.y.-.q.-.q.q.q.q.q.-.-.%.-.q.w.q.q.%.7.%.7.q.7.q.8.=.=.=.=.=. .:.-.-.#.#.-.&.;.w.e.-.-.w.w.e.e.e.e.w.t.f.8.8.8.8.w.y.-.=.y.-.e.;.q.w.w.w.w.e.;.w.w.e.=.=.:.e.v.:.e.e.:.e.e.;.:.1.1.w.e.;.%.:.e.w.-.;.;.q.;.;.e.e.g.G.v.G.v.m.G.m.e.G.e.m.G.G.g.G.:.1.;.:.:.;.-.#.:.%.-.-.-.w.-.w.%.9.-.q.%.-.;.#.;.%.-.7...w + + 7 7 7 7 7 7 q w p q w w ( { j.&X&XZ.D.Z.N.G.g.N.:X*XM.N.*X*XD.:X2XM.g.f.y M.(.&X3X:XB.f.| ` h.:X,X:XM.j.,.( ( S.3X:X3X*XD.D.Z.N.N.m.g.m.m.j.B.S.q.) q 7 q 9 9 w 7 0 0 0 7 7 7 7 7 7 7 7 7 9 9 9 7 8 9 8 8 9 9 r 9 q e t w q q w q 9 p a a X.7.7.} | ..| ) p a p / a } } } a } ..} ) n n O.4.4X9XgX9XrX9X9X",
"e 0 8 7 w w ( z ( ) ` / / )  .=.q.v.t.9. .9.y.y.y.0.0.o.m M M n M O.r.v.y.y.0.5.I 4.m I 6.s.a.a./.v.K =.9.K =.v.c.v.=.v.c.9.9.c.V.c.r.4.r.9.0.a.0.y...4.a.o.4.=.q.=.9.v.v.t.y.v.=.=.v.e.e.v.e.=.=.=.=.c =.=.=.9.r.9.9.4.5.9.o.o.9.4.9.9.4.+.o.o.o.o.o.o.o.o.o.4.6...m 4...4.4.4...5.k ..6.k _ 0.| X.O.7.7.%.7.O.8.%.*.7.8.8.8.*.q.-.%.-.-.-.-.O.w.w.7.7.q.q.7.7.-.q.r.q.O.-.q.q.=.-.q.q.-.q.q.e.q.%.-.-.-.e.q.w.%.O.5.-.7.q.q.q.=.=.:.=.-.-.%.-.-.;.-.;.-.;.;.w.-.-.;.w.w.q.=.-.7.w.8.y.8.7.8.8.:.-.q.-.w.-.e.w.w.w.w.f.f.w.w.;.e.e.:.=.G.=.v.:.:.=.:.:.2.g.;.1.1.g.;.;.;.;.;.-.w.;.2.;.g.g.g.h.v.G.v.e.m.v.m.e.e.G.e.G.m.G.2.:.b.:.:.:.e.:.:.-.-.;.w.e.w.-.q.-.-.9.-.-.%.&.;.%.%.-.7...i 0 7 7 7 7 + 7 q w w q w ( ( ( { j.*X:XN.N.n.M.m.m.N.&XD.m.N.(.*X*X*X*XB.f.1.( B.;X(.>X:XB.f.{ / g.:X2X:XS.j.&.( / B.5X:X2X-XZ.=XZ.N.G.N.G.m.n.n.D.F.f.) 9 7 w 9 q z 7 0 7 0 7 0 9 7 9 7 7 9 9 9 9 9 9 9 8 8 9 r q 9 t 9 w q 9 q q q 9 9 q a ) X.%.X./ } | | ) k p a k a +.| } n n } n o.j o.6.r._.(.eX'._._._.",
"e r 7 7 w z z ` p / ) ) / /  .%.9.q.q.} j } 9.0.y.v.0.0.0.4.m M M 0.y.y.9.0.0.0.9.9.4.6.6.0.0.Y.v.9.v.c.V.9.4.c.v.9.I v.c.M N V.V.a.0.9.a.4.+.a.m r.n r.c.9.9.o.=.+.=.9.e.=.=.y.=.=.=.:.v.v.=.=.=.c N c N Y =.v.0.4.m +.O.9.=.O.o.=.9.9.4.4.o.4.o.o.o.M o.o.o.o.m m ) m ..4._ ..5.5.6.6.7.6._ 7._ | X.*.8.%.*.X.w.8.7.w.f.w.w.w.%.-.q.%.-.%.7.%.t.y.w.w.r.r.q.7.O.-.-.q.O.O.-.r.7.q.q.q.q.q.q.w.-.-.%.-.q.w.w.r.O.%.O.7.7.q.7.8.w.e.:.:.w.e.:.;.e.e.e.e.;.;.w.w.w.f.w.;.-.;.-.b.*.8.l.f.w.7.8.8.w.-.-.w.-.e.w.;.e.f.f.w.f.f.w.f.G.e.:.:.:.e.=.>.:.e.:.e.;.2.1.1.;.g.;.:.-.g.;.$.;.;.-.;.;.w.g.g.m.G.v.:.e.m.e.e.m.e.G.e.2.2.>.:.m.b.b.:.:.e.-.:.e.e.e.;.e.w.e.w.%.-.-.-.-.-.%.;.-.&.O.} j 0 8 8 0 7 + 7 9 i i q w ( ( y @.j.&X:XN.G.n.Z.Z.N.N.Z.N.2.N.D.:X*X2XD.M.f.f.y M.&X&X5X:XC.f.@.` j.2X2X>XM.j.$.( ( M.>X&X3X2XD.*XZ.m.N.N.m.N.N.C.D.(.h.( 9 7 q 9 0 0 7 9 0 0 7 9 9 9 7 9 9 9 9 q 9 q q 9 8 8 8 9 t s r q e q 9 w 9 q 9 q y / } X.O.} p +.X.| } / p a / / +...} n +.} n 5.p 4.5.6.V.r./././.)./.",
"e 0 8 8 w j p p _ ) ( p / a +.q.c.9.o.} m o.9.0.v.c.0.K 0.0.I 4.6.4.4.4.r.r.a.a.J r.L.a.K.6.I r.m 4.c.V.9.I v.c./.v.I v.v.0.0.V.r.r.r.0.q.r.r.y.m r.o.4.a.o.n r.o.=.o.=.q.q.9.=.+.=.q.y.9.=.=.9.=.=.=.N +.=.N I 0.9.o.9.=.v.b.v.y.9.=.9.9.9.9.9.m 9.m o.0.y.9.y.9.5.4.o.5.....j ) ) _ ..6.5.X.5._ @.*.%.w.8.d.w.d.y.f.w.7.*.%.w.q.-.=.-.q.q.r.q.7.q.7.r.7.r.7.r.O.O.O.O.O.O.O.O.O.O...}  .q.q.} -.q.e.q.w.-.%.O.%.q.%.q.w.r.r.q.-.q.q.-.w.w.q.-.w.w.-.w.w.;.w.&.w.w.w.&.w.8.w.8.w.8.8.*.8.*.8.X.w.e.h.w.-.-.w.f.w.f.f.w.f.f.j.j.g.;.:.e.;.b.e.=.:.e.;.:.#.$.&.2.;.f.f.w.f.w.&. .&.-.;.w.;.f.e.g.=.m.m.v.G.m.b.m.;.;.m.m.2.:.2.:.:.:.e.e.e.e.:.=.e.e.;.e.e.e.e.w.q.-.w.q.;.w.;.w.w.w.q...s 8 + + + 7 7 7 7 9 9 t q y p ( %.j.&X*XZ.Z.&X&X*X*X&XZ.M.1.M.:X*X:X2X&Xj.M.@.( n.&XD.:X:Xn.f.#.q C.;X2X:XM.h.&.w ( z.2X>XZ.Z.&XZ.N.Z.N.*XD.N.-XA.2X(.h.) q 9 q 7 7 q 7 7 9 7 7 q 9 9 9 q q q q q q q 9 9 9 9 r t r 9 t i i q i i w q 9 p / / ) | } | ) +.) / } a q y a a a k c j a n } k m ..o.o.5.c.~.Y.Y.V.~.",
"e e 8 0 w j p p _ ( ) ) / a } =.t.r.o.n n +.4.0.0.v.0.0.v.p.I 0.l 4.a.c.0.4.6.r.6.p.a.0.~.0.a.v.o.4.v.v.4.9.v.c.c.=.o.v.v.M m v.a.a.y.v.v.y.r.p.9.y.9.0.c.0...a.9.-.9.9.y.v.q.=.9.r.y.t.y.9.=.9.N =.$X=.$X=.v.=.0.p.v.y.0.q.-.v.r.0.9.4.4.=.o.o.o.9.o.o.y.0.9.0.4.o.o.4.4.o...) 6._ X.X._ _ _ _ _ | @.*.&.w.w.w.w.f.w.8.&.%.8.-.q.-.O.%.-.e.r.q.7.7.r.7.r.r.s.8.5.O.%.O.O.5.%.O.O.O.} } ..O.O.| -.-.O.#. .-.q.w.q.q.7.q.8.t.w.q.-.-.-.w.-.-.w.w.w.w.w.-.w.&.w.&.w.&.%.%.&.7.%.8.7.8.8.r.w.l.l.a.f.e.w.-.&.%.&.f.w.&.&.&.8.f.f.f.1.:.:.e.e.:.:.:.e.:.e.-.;.$.,.f.-.-.;.-.-.-.@.] %.-.&.;.w.w.w.w.=.v.e.v.e.b.b.b.e.;.;.:.:.:.:.:.:.e.:.e.G.e.e.:.;.e.e.t.g.e.w.e.-.w.-.:.-.;.f.;.w.w.7.} z 7 + + + 7 + 7 7 7 q 9 q y y ( #.n.:X:XZ.Z.&X*X*X&XZ.&XN.2.M.*X*X:X*X&Xj.B.| ( b.;X(.:X:Xj.f.#.y C.D.:X:Xn.k.$.( ( M.>X:XC.:X3X&X=X*XN.G.N.C.Z.$.n.B.B.( 9 7 q 7 9 9 7 q 7 7 9 7 9 9 9 9 9 q 9 q 9 q 9 9 9 9 9 9 r r t 9 9 9 9 w w w q a u a / } | } / } / / / u q t u a a / a a a n } s k m ..j ..r.a.a.c.c.Y.",
"e r 8 8 9 s p p ) / ( ) / a +.=.y.q.o.n n ..9.9.m p.v.r.p.0.m p.m 0.a.a.a.r.r.a.5.6.0.l a.a.Y.r.0.o.p.v.=.0.v.v.q.0.0.v.v.v.9.0.a.y.a.v.a.a.r.r.r.y.0.9.c.y.a.V.v.a.v.t.c.c.v.v.c.c.v.v.b.c.v.q.=.v.v.v.v.v.v.$Xa.c.c.c.v.9.e.y.v.y.0.9.0.9.0.=.o.9.4.o.v.r.9.r.o.m o.o.O.5.4.....5.X.X.*.x.X.*._ *.*.*.&.8.w.8.8.h.w.w.7.-.q.-.-.-.-.=.q.q.q.q.r.7.r.r.r.8.r.8.5.5.5.5.7.O.5.5.O.O.} ) ..7.5.} %. .O. .O.-.q.w.q.%.O.q.q.w.r.7.9.-.q.=.q.-.q.-.w.q.q.q.w.7.-.7.%.%.%.%.O.O.*.7.5._ 7.7.8.a.a.f.t.w.-.%.%.-.w.w.&.%.%.&.w.f.f.&.-.;.-.:.:.e.=.=.=.:.:.e.-.&.&.f.7.%.%.%.%.%.| _ %.%.%.q.-.-.w.q.=.>.e.:.b.b.m.e.;.:.:.#.:.#.;.:.e.e.:.e.t.:.:.:.w.e.;.g.w.w.e.w.-.q.-.-.;.;.;.w.q.w.7...e 7 + + + + + 7 7 7 q w q q q ( %.M.(.:XN.M.Z.&XZ.n.M.*XC.2.N.&X&X:X:X*Xj.M.` ( n.&XD.2X:Xn.2.&.w M.(.>X:XM.j.&.( ( M.4X&XZ.D.:XZ.M.N.N.:.G.m.m.[ ;.n.B.) q 7 q 7 7 9 7 7 7 7 9 9 9 9 9 q 9 q q q 9 q q 9 r 8 r r 9 q e 9 9 9 q i i i t p u a / ' | } ) } / / / u q t u u a k a s c n n k n ..j j m ..4.0.a.p.a.",
"j 8 8 7 z p p ) p p p ) } a +.=.q.q.O.n n } O.9.9.r.y.0.0.9.m 9.a.4.l ..r.Y.Y.t.4.5.5.7 a.a.V.0.v.0.v.0.0.0.0.M 0.v.c.c.v.c.V.c.c.v.y.a.a.v.v.r.a.a.r.y.c.V.c.~.V.V.V.c.V.V.V.V.V.V.c.b.V./.V.v.v.v.v.c.v.v.v.v.p.c.c.v.q.v.v.v.y.y.0.9.0.y.9.9.o.9.4.+.y.0.4.r.o.o.o.o.4.5.O...X.X.X._ _ X._ _ _ @.*.%.8.&.&.w.8.w.w.w.q.%.-.w.q.-.=.-.q.w.r.q.5.7.5.r.8.s.r.r.7.9.7.7.5.7.7.O.5.O...} X.q.7.X.O.%.-.e.w.q.q.%.q.%.7.7.7.r.8.q.=.q.9.-.q.9.q.-.w.-.7.-.8.%.w.%.O.O.X.X.X.X.O.5.X.5.X.5._ 6.8.5.w.-.%.%.w.w.w.-.%. .@.%.f.f.w.%.:. . .-.=.=.=.=.=.q.q.q.w.-.w.-.w.q.w.q.q.7.%.O.O.O.7.%.7.%.7.%.+.=.=.=.e.m.e.=.&.;.:.:.:.2.2.#.g.:.:.2.;.b.:.:.;.w.e.w.f.e.w.w.-.-.;.q.;.;.;.;.-.w.7...i + + + + + 7 + 7 w q w w q q ( 8.A.:X;XM.j.m.N.k.:.2.Z.Z.j.M.*XD.*X*X&Xh.M.[ ( n.;X:X:X:XB.d.$.w S.D.>X:XZ.b.$.( ( S.<X:XD.D.=X2.:.G.G.G.m.:.m.{ N.B.b./ 9 9 q 9 7 q 7 9 7 7 7 9 9 9 7 9 q 9 q q q q q 9 8 t 9 9 r 9 q t 9 q 9 w p w w u u p / } | } / ' / p a t t q y a a a a s s a n a j m } ..l k ..0.0.a.a.",
"h r 7 8 9 i / p p p a ) } ' +.=.w.y.=.c a o.9.9.9.a.9.9.v.a.0.r.c.4.k M r.V.v.r.a.a.c.s ~.c./.v.V.c.c.c.v.c.c.=.v.v.c.v.v.V.F.!.~.V.c.c.c.V.~./.c.c.V.c.c.V.~.c.v.V.c.V.~.~.V./.~.V.v.r.c.(./.c.F.c.c.v.a.p.s.0.a.c.a.a.r.v.b.b.y.v.y.9.m 9.9.M m 9.o.m 9.0.4.9.9.I =.o.5.O.o.....X._ _ *.x.*.*._ { @.#.%.%.%.%.w.r.;.q.=.=.-.q.-.-.=.-.q.q.q.q.7.5.7.8.s.s.r.r.5.7.r.5.5.7.7.5.5.5.X.X.5.r.r.5.-.-.-.-.%.%.=.%.q.7.%.%.7.q.q.7.5.=.9.9.9.9.q.%.7.7.7.7.7.7.7.%. .O. .....X.X.O.8.7.8.5.7.6.6.O.9.O.O.%.q.q.%.| O.@.X.&.w.f.w.8.-. .=.#.=.=.=.=.=.=.=.v.w.w.q.%.t.r.r.r.q.r.7.O.5.O.5.5.7.O.7.5.=.-.-.q.e.w.=.:.e.g.b.m.n.C.m.;.f.;.1.:.;.;.;.;.f.w.1.w.f.w.w.w.-.q.;.-.;.;.;.w.-.7.5.k z 8 + + + + + + 7 0 w q q w y / w.S.D.S.M.m.m.%Xm.<.2.&XZ.m.M.&X*X*X:X&Xb.M.@.( b.:X:X3X:XS.f.%.w M.&X,X:XM.n.&.( ( B.3X>X&X2X2XZ.2.m.N.N.Z.G.F.;.D.C.h.( 9 7 q 9 7 w 7 9 7 7 7 9 9 q 9 q q q q q w w w t r q 9 r r q r s z w i w i p w y u u ' +.| +.' } / u a u t q t a a a s s s s k s k n ....m ..m 0.0.v.v.",
"j r $ 8 9 i j ) p p a } ) c +.=.y.b.w.+.a  .q.y.y.y.9.r.F./.c.V.a.a.c.V.c.c.a.y.V.~.~.4.V.v.V.c.Y.V.!.F.c.(./.v.V.c.v.v.v.~./.c./.~.V.c.y.a.V./._.~./.~.V.~.V.r.9.r.c.V.V.~.~.~.~.c.y.5.a././.V./.V.c.v.p.6.I S K.K.c.r.v.V.V.c.V.~.c.0.=.0.o.n m 4.+.n 9.9.+.4.9.=.o.9.5.O.O.} X._ *.@.*.*.X.*._ @.@.X.%.%.%.%.%.O.-.=.O.=.-.q.-.-.-.=.q.q.q.9.5.5.s.7.r.8.r.s.7.7.5.7.r.5.r.7.5.7.5.X.7.y.y.8.h.q. .' '  .-.r.w.-.O.O.O.7.7.9.5.9.O.O.=.5.5.9.5.7.%.q.*.7.O.5.o.....+. .o.o. .5.5.5.5.5.5.5.5.7.=.%.O.O. .} / w.w.w.w.w.w.w.w.=.=.=.=.=.=.=.M =.I =.=.r.r.r.q.r.r.7.9.7.7.5.4.5.5.7.5.7.6.5.5.q.-.q.y.-.=.-.:.g.V.Z.D.D.*XD.j.2.1.&.:.2.e.f.;.;.;.w.f.f.w.f.w.;.-.-.;.;.;.1.;.%.%.5...e + + O + + + + 7 0 e i w u p ) ;.B.A.S.Z.Z.Z.=XZ.m.Z.=XZ.2.M.*X*X*X:X&Xk.B.] ( j.&X(.4X:XS.g.&.y S.&X:X:XM.j.,.( ` S.5X&XD.3X5X:X=XN.G.2.N.D.*X:.n.B.F.) q 9 q 9 9 w q 9 9 q 9 q q q q q q w w w w w w i s e w r i e t p s i p p p w w a p ' ' | O. . .| / u u / y t y u c a a s s s a i i k n m ..6.k 0.0.v.c.",
"j r + + 8 i p ) p p p a ' c  .w.t.b.t. .' O.e.y.q.v.b.c./.V.c.~.y.v.~.V.~.c.V.c.V.c.c.9.V.v.y.y.v.c./.(.F./.].v.c.v.9.v.V.F./.c.V.V.~.v.4.o.r.c.F.c.~.~.c.c.c.n n O.r.c.V.V.V.~.V.c.r.n 9.c.V.V./.c.c.c.a.I l d 6.a.K.a.c.V.F.c././.V.y.0.r.0.n o.9.n m 9.5.o.9.o.=.=.4.9.9.O.X.O.X.x.*.X.*.X.*.| | @. .%.#.#. . .O.O. .O.=.=.q.y.-.=.-.q.q.r.r.5.5.7.s.8.s.s.8.5.r.r.7.q.7.7.r.5.5.5...7.y.r.q.e.w.-.%.O.-.w.w.y.7.O. .O.7.7.O.5.9.4.9.5.9.5.9.7.5.7.5.5.5.5.O. .o.+. .o.o.5.4.4.......4.5.4.X.5.q.9.O.O.O.7.q.h.V.B.a.7.7.8.y.=.=.=.=.=.=.=.=.9.=.m =.r.r.r.r.r.5.0.6.0.6.5.5.7.0.7.0.5.5.0.5.q.q.w.e.q. .q.b.m.C.D.D.D.2X&Xb.g.1.1.&.&.1.1.;.,.w.&.f.f.w.f.&.-.-.-.;.;.;.;.w.#.%.5.n e + + O + + + + 7 0 0 w q u p / X.l.A.:X&XD.Z.=X=XZ.Z.%XN.2.M.*X*X*X*X&Xj.M.` ( n.:X:X5X2XM.g.&.y M.;X:X:XS.j.&.( ( Z.3XD.Z.:X3X*XD.N.G.G.N.N.D.#.N.C.B.( q 9 w q 0 w 0 9 9 9 q q w w q w w w ( z ( ( z s s j j i i i i k p p p p k k j a / ' | #.O.%. . .' a / / u u s a c a s t t i s i i j k m k m m 0.9.0.a.",
"N 8 + 7 9 i k ) p y p / a n o.y.e.b.h. .' O.t.t.q.V.V.V.V.v.y.v.0.9.m 0.a.V.c.a.c.V.v.y.V.0.0.a.v.c././.c./.Y.v.0.M M 0.!./.~./.c././.c.0.m 4.y.v.0.V.~.a.c.t.j e m 9.a.c.c.c.V.V.c.9.s M y.V.v.Y.v.c.Y.a.6.d 7 d s.V.a.c.~.V.v.v.V.c.9.=.r.0.n o.9.o...9.9.o.5.o.I o.=.9.9.7.5.5.*.7.*.X._ *._ _ |  .#. .O.O. .+. . .=.+. .=.=.-.-.=.-.-.q.q.7.5.5.8.s.r.8.s.r.r.7.r.9.r.r.r.q.O.O.X...O.y.y.O.-.-.h.b.B.h.t.q.w.7.O.X.X.5.7.9.4.o.9.O.4.5.5.5.5.5.5.5.O.5.5.O.o.4.o.o.4.o.5.5.5.4.4.4.6.4.6...O.9.=.9.%.r.V.~.A.^.A.B.7.| 7.w.9.=.=.=.=.v.=.Y 0.4.m =.7.a.8.r.r.r.6.5.0.5.5.0.0.r.6.0.r.0.5.5.5.%.e.t.-. .w.B.n.B.B.m.Z.:XD.g.g.2.:.$.,.;.1.1.;.,.f.,.f.,.f.1.;.:.-.:.;.;.;.;. .%.X.) e + + + + + 7 7 8 0 e i w p y y | f.:X:XZ.Z.Z.N.N.D.N.N.M.3.M.*X3X:X:X&Xn.M.] ( h.:X:X5X,XS.j.&.y A.D.2X:XZ.M.&.y ` C.3X5X&X&X*XZ.Z.=XN.m.G.>.G.2.(.S.t.` q q w q w z w z w w w w w w w w w ( w ( w ( ( k s s s s i i i j p s j ) ) ) p / / '  .-.-.-.#.#.' c ' ' u u u a a a s s t i a j s l k m 6...m m m 0.0.",
"l 0 7 7 0 w z ) ) / a ) k c o.e.t.e.q.+.+.-.q.y.v.V.V.c.c.c.c.v.a.o.I o.I r.l.a.4.r.p.v.c.p.n j r.V./.~.Y.~.~.a.4.r j 4.a.~././.Y.c.c.p.M r j 0.c.c.c.a.r.5.4.4.e s 9.v.v.v.V.v.~.r.n r M o.v.c.p.c.c./.c.M + r l s.a.a.v.v.c.v.v.~./.y.4.5.o...5.5.O.5.5.7.5.5.0.9.O.9.9.5.9.5.r.7.X.X.X.X._ _ %.| | O.q.-.=.+.-. .+.O.-.-.=. .-.=.q.y.-.y.=.+.9.o.o.O.5.5.5.4.9.5.=.=.9.9.9.=.9.o.+.+.O.O.O. .-.m.F.A.F.A.B.y.q.q.O.5.5.5.5.5.n n } } o.O.o.O.5.O.o.o.O.....} 9.=.m o.o.4.o.j 4...m ......O.o.o.9.9.y.a.l.C.A.A.A.A.B.a.%.%.q.=.=.9.=.9.9.o.o.9.o.o.9.r.8.r.7.r.r.r.5.5.5.5.5.5.5.r.r.9.5.5.o.O.q.q.-. . .-.t.B.D.D.:XD.n.g.g.1.:.:.$.:.1.1.$.1.&.$.,.j.j.<.$.:.-. .:.:.:.:. .w. .q.5.s 7 7 + + @ + 7 7 z e w q q y ` _ j.&X&Xm.M.C.C.M.G.N.N.G.:.N.*X*X*X*XD.Z.M.@.( f.(.>X4X:XM.j.&.( S.;X:X:XM.M.*.{ ( Z.:XD.&X*X-XD.N.N.N.2.2.j.m.f.B.S.h./ q 9 q w q w 0 i e w i p p i w w w p y w w ( w p i p k p p a p k p k ) p ) ) / ' +.[  .[ =.[ >.[ [ u u y a a a } o.} k s a k k e i l o.6._ S k k m 4.r.",
"m 9 7 7 9 w w ) ) p p ) / c o.y.b.b.w.+.n =.q.y.v.b.V.c.b.V.~.V.a.4.n j j r.Y.a.a.a.a.c.c.6.j 4.0.a.Y.c.V.~.~.a.l 8 0 m 4.a.c.p.c.c.v.0.j $ e 4.~.c.a.a.a.a.6.a e r o.0.v.v.c.v.c.9.c r s I v.c.v.c.c.c.a.j O 0 h 4.p.a.c.c.c.v.c./.V.r...o...n ......5.7.q.7.5.0.9.5.9.9.0.5.5.r.5.5.5.w.a.a.h.r.-.O.O.q.w.%.O.O.O. .5.q.q.q.O.=.=.=.=.-.=.=.+.O.o.o.o.o.O.O...o.m I =.9.=.I =.o.+.' +. .=.=.=.e.M.D.(.:XD.F.t.q.q.5.5.5...4.....} n ..o.4.O.o.5.o...o.o.+.....M M m m 4.4.4.4.m ..m k ....5.o.=.4.=.q.h.B.^.(.S.A.A.A.h.w.-.r.9.=.=.9.9.9.9.o.m o.o.5.8.a.a.8.5.5.6.5.5.5.4...o.4.r.q.5.5.o.O.O.q.r.q.%.O.-.w.:.e.j.h.;.-.#.{ $.>.$.#.$.2.:.2.2.,.$.1.2.j.3.$.:.:.>.:.:.:.:.:.;.O.%.q.p 7 7 + + + + + 0 0 z w w q w ( ] j.1X&XM.N.N.N.m.G.G.N.G.3.G.*X*XD.2X*XC.B.#.` j.&X2X3X4XC.j.w.y M.D.:X:Xk.S.$.{ ( N.3XZ.D.*XD.N.N.N.N.D.N.C.N.S.&X^.j./ y q q w w w z w i q w p i u w y y p w ( w w ( p i p p p p j ) p ) p p k ) p k a [ [ +.>.[ =.[ [ c u t t s k k n +.} n k j n j j j l 6.J 6.6.4.l m 5.9.",
"j e 7 7 9 w w ` p p p / a a o.w.b.b.q.+.c =.y.e.e.b.c.V.c.V.~./.c.0.j 8 r 0.c.0.0.a.r.a.a.j e m 0.a.v.a.Y.~.~.0.M 8 r m 4.p.a.r.v.v.v.U r $ 8 m a.c.r.4.a.c.6.8 8 8 M 9.v.c.c.0.p.o.s r s o.0.c.v.v.0.v.p.j O 8 0 I r.v.c.c.c.v.V.V.c.5.n n ..k k k } ..5.r.r.7.q.0.=.4.9.5.q.5.7.5.7.r.l.V.~.~.b.y.q.%.%.q.q.%.O.O.O.O.q.q.-.-.=.=.=.=.=.=.o.n o.} n ....5.o.m M o.m I =.=.=.o.+.+.c +.+.=.=.-.b.F.(.2X(.(.A.t.r.q.5.O...6.............o.O.o...4.o.} ......m k n n M m 4.4.6.6.6._ ......o.5.5.=.o.+.9.a.V.D.^.A.l.l.B.B.w.q.e.9.=.9.9.q.0.9.9.....5.5.6.8.8.r.4.....m k m k m m ..4.O.5.O.5.O.q.9.q.e.q.-.-.%. .#.-.-.;.#.#.#.#. .] >.$.2.1.;.3.$.$.1.d.2.1.:.;.:.#.#.:.:.:.:.e.#.q.5.p 8 7 + + + + + 0 9 e w ( q q ( @.k.:X&XZ.M.Z.N.N.G.N.Z.N.G.G.=XD.*X2X:XZ.B.@.( g.&X:X5X3XS.h.,.y z.D.:X:Xj.M.&.( ( Z.3X*X*X*X*X=XZ.Z.=X&XM.Z.M.B.D.;XB./ w q q z 0 w w i 9 w i p p i w w p ( w ( w w ( p p p p p k p p ) k ) p ) ) k / u u [ [ =.>.>. .[ c u t u a a a n } +.m k n m n ..m k ..m 6.6.0.m ..6.5.",
"l 9 7 7 7 w z ) ) p p ) / k o.q.c.b.w.+.c +.y.v.q.c.V.v.c.V./.(.a.5.j + $ 5.c.0.a.a.p.c.r.r + n 4.0.a.a.~.~.c.0.j 8 0 m 0.a.c.a.0.U 0.M 8 + 8 n p.a.r.I 6.a.4.8 8 $ r m v./.c.0.0.n r $ r n v.c.F.c.I M I s + 8 0 m p.c.V./.Y.c.Y.V.v.+.k k } j a k ) ..5.5.5.5.0.=.5.9.9.r.r.9.q.r.y.h.l.V.l.^.V.V.t.q.r.q.q.=.O.O.-.-.q.q.=.O.=.=.=. .=.O.+.+.+.n } } ..o.....o.M o.=.I m o.+.+.+.n +.+. .-.-.b.B.C.F.V.F.V.e.q.5.O.4.5.4.4.......m ....o.......} k n } k k s s e j l k J 4.4.6.6.4.......O.9.=.o.} o.8.h.t.r.l.w.w.f.t.q.O.q.9.9.=.=.0.q.9.=.4.4.4.) x.) ) l p j j z p j i i i a k m ..o.4.5.q.-.-.q.y.w.-. . . .-.-.;.g.;.m.] { [ { #.;.;.2.1.1.:.<.,.2.3.$.:.#.:.:.:.:.:.:.e.%.7.7.z 0 7 7 + + + + 8 0 z t / q w ( @.M.:XD.Z.C.Z.&XD.N.N.=XN.G.m.D.*X2X2X:XS.n.@.( f.&X:X4X5XD.j.:.y S.D.:X:XM.Z.>.{ ( Z.:XD.*X-X*X-XD.Z.D.M.M.M.M.g.M.A.l.( w 9 q w w w w w i i w p p p w p w ( w w w ( y p p p p k p k p ) p k p ) k ) ) y ( +.[ >.=.=.[ [ c c t s y s i s n +.n n n ..k m k l l x.m m 6.l k ..4.",
"m e 7 7 q w w _ ( ) ( ) } k O.e.F.V.e.+.c +.y.b.y.b.V.v.a.c.~./.r.M e $ + 4.c.4.a.c.c.c.a.e + j J 4.r.a.Y.V.r.M 8 + 7 e J a.a.0.M M M M 8 $ 8 M 0.a.a.4.o.0.6.j $ $ r I v.V.F.0.I n 8 $ r M v.v./.v.I c m e + 8 0 I a.Y.~./.V.c.V.V.v.I M n } m k k n ..5.5.O.5.9.9.4.5.9.9.r.5.r.r.y.a.l.l.B.V.V.V.B.b.b.t.-.-. .O.-.-.-.-.O.O.=.=.+.=.o.+.n n M n n n n ....m o.o.+.Y I =.M +.o.n +.n +.+.=.-.;.m.b.e.t.b.b.r.5.X.......5.6.5.o...k ..k m m n l a j s l s i r r h r e h l M m 6.4.6.5.o...o.O.M o.n =.q.q.%.) 8.*.%.8.7.5.O. .9.=.4.4.9.9.4.o.5.o...l p z w 0 0 0 0 0 8 8 0 7 0 e i j l n 4.5.9.O.O.w.y.e.%.+. . . .#.-.&.-.#.{  .[  .$.:.&.:.:.,.,.1.1.1.1.,.:. .-.:.:.;.;.:.e.%.q.q.z 7 0 $ O + + 7 0 z e w p q w ( *.S.;XZ.N.N.Z.*X=XN.N.Z.N.3.G.*X:X3X2X&XC.n.{ ( g.D.:X3X3XC.j.&.y C.:X2X:XM.Z.&.[ ( Z.3XD.&X=X*X*XN.m.G.2.j.Z.M.w.f.A.A.( w 9 q w w w z i w i i p s p p p y p y p p y w a a p a / p a a p k p / a ) ) k u / '  .>.+.[ [ [ c c u u s t i i n } n n n m n p j s l l k m l i j k n ",
"j e 7 7 7 w z ) ) z ) ) ) ) O.y.V.b.w.+.c n q.b.c.c.V.c.V.V.V.V.4.j z 8 8 m a.r.p.c.a.p.6.e + 0 j 4.p.a.c.a.I e r + 8 e M r.c.0.M M h r 8 $ r M 0.a.c.r.4.4.k l 8 8 s o.v././.0.o.s 8 $ r n v.c./.c.=.h j e $ 0 0 m a.Y./.~./.c./.c.0.=.n n +.o...} ....X.O.X...9.9.o.5.0.r.r.9.9.r.a.l.l.l.~.^.b.V.V.V.V.t.q.-.=.-.r.e.q.=. . .=.=.n c +.c c s s c s k k n n j I N =.=.+.M =.M =.o.o.c c n =.=.e.b.;.-.e.b.t.r.o...o.m 4.6.6.4.4.m l j l k j i i e e q i e 8 7 d r r r 0 0 z h J o.5.4.+...} o.+.M +.=.q.e.%.X.8.7.%.r.7. ...5.=.=.o.=.m 9.m +...m j j i w w w 7 7 7 7 7 7 7 7 7 0 0 e i j k 4.o.o.O.9.y.q.O.+.q.-.%. . . .] ] #.{ { #.#.$.$.$.,.:.1.1.1.1.1.&.;.:.:.:.:.;.b.:.t.%.q.7.l 0 0 7 + + + + 7 0 z w p q ( ( @.j.*XZ.j.j.N.*XD.G.G.N.m.3.m.-X3X3X:XZ.M.k.{ ( f.&X,X3X2XC.g.&.y C.:X5X2XS.Z.&.{ ( Z.:X:X3X2X*X=XN.G.3.:.2.M.M.;.f.S.S.( q 9 q w w z ( i w i i j p p w p p ( p ( p ( p / p ) p p a p p p ) a k a ) a / a ' |  . . .[ [ [ c u u s i i i i s n s j n n k j j s s k m m l z s s j ",
"l e 7 7 9 w z ) ) ( w ) / k o.y.v.b.=.+.t c =.t.b.a.v.t.c.V.c.a.o.e r r 8 j a.Y.a.c.r.j j r + + e 4.a.c.c.a.m 8 e 8 0 e m c.~.c.4.h $ $ $ 8 h j 0.a.~.a.r.j e q + 8 n =.v././.0.o.c r $ r n v.c./.V.4.e h e 8 e r m a.c.V./.c.v.V.v.9.I o.n m ..} n } o.5.5.O.o.5.4.o.9.9.r.r.5.5.8.t.a.a.l.l.V.t.b.V.F.B.g.w.-.-.y.b.t.w.=. . .=.+.M c s u r 9 t t e e s j j s c M M n M +.I +.=.+.n c c n =.=.=.:.-.-.q.t.e.O.O...) o.6.4.4.4.k l j j l j z r e 0 0 0 0 8 7 + $ $ $ $ O + 8 e 0 j m ..+.n +.o.n c =.=.9.q.r.w.w.7.8.8.7.....5.+.m m =.I +.n M j s r 9 0 w z 0 7 + + + + 7 7 + + 7 7 0 0 i l m n } o.5.9.q.O.+.-.-.#.=. .-.[ ' #. . . .$.;.:.&.$.&.f.1.1.&.f.f.;.:.#.:.;.;.:.:.f.%.8.r._ 7 0 7 + + + + 8 e w i w q q ( ( f.&X%Xn.j.m.N.N.3.G.=XN.3.2.=X*X:X3XZ.C.k.] ( 1.&X:X2X3XC.j.&.w Z.&X3X>XS.Z.&.{ ( Z.*X3X3X3X*X*XD.N.N.j.2.C.M.j.B.A.l.w w 9 q w w w z i i w i p a s i p y p p w p ( p / a a a a p p a p / / p p ) a / a / ' [  .{  .[ [ c c t i u s 9 t a s s i s n k k s s r j k k j i s j a ",
"k 0 7 7 q z w _ w z w p s a ..q.b.b.-.c t c +.0.c.t.y.a.V.~.V.r.4.9 0 e 8 e a./.a.c.0.e e e 8 + j 0.~.~.c.a.l 8 8 + + r m c._.~.0.c $ $ 8 $ r l a.a.~./.a.M 0 8 8 r M 0.v./.].v.o.N 8 $ r n v.c./.~.0.j e r 8 d d M a.c.Y.V.v.v.c.v.9.+.M n n ..m m k ..5.5.5.4.5.9.5.4.9.r.9.r.5.7.t.l.a.y.a.t.t.b.V.V.b.b.v.t.y.b.B.b.t.q.O.O.+.n c t t r 9 8 r r 9 9 q e r 9 r s M n M Y M =.M n m n c +.=.v. .=.=.-.e.t.q.n 5.4.6.m ..4.4.6.l l j z j e r 0 0 8 0 0 0 7 + + + + + + + O $ e + r j m m n n +.=.I =.I o.O.q.y.8.r.y.y.O.k m 5.=.n M n m M N c j 9 7 7 8 7 7 7 7 + 7 7 7 + 7 7 + + 7 7 7 e j m a n ..O.=.O.O.+.| +. .O.;.-.#. . .#.] #.#.;.;.;.:.1.1.f.&.1.1.1.;.:.:.:.b.;.e.e.t.7.r.8.l 0 d 7 + + + + 0 0 e q ( y w y y &.%X:XM.2.G.N.N.3.G.Z.N.3.2.Z.*X*X:X%XM.m.[ ( 1.Z.:X2X5XZ.j.{ ( M.&X3X2XS.Z.&.{ ( Z.3X2X*XD.Z.D.=XZ.Z.&XZ.&X&XD.:X:XS.( q q w w w z p j i i s p j p i p p p p p p w y / ) p / a a y p a p / a / a ) / a u ' | [  .#.[ ' c c t s i i q e s s i 9 s j s n s 9 8 q s k k s s k k ",
"l z 7 7 7 w p p _ ) w ) ) p ..q.v.b.q.+.+.+.+.y.t.t.V.c.a.c.V.9.o.j e 0 8 j r.)./.V.4.l j e 7 r l 0.Y././.a.l 9 + + 8 e l a./.Y.v.h 8 8 $ 8 M c a.V.~.~.a.l 9 + 8 8 M 0.c./.F.p.o.M 9 $ r M c././.c.=.s r 8 8 + j 4.y.Y.F.c.c.v.c.F.v.c M +.N c +.o.9.4.o.5.5.q.r.9.=.9.9.r.9.5.9.5.q.7.8.8.a.t.c.t.t.h.l.b.t.t.b.l.b.t.y.q.| n n n c c s r 8 8 9 8 8 8 8 8 7 8 h r r s M I =.o.o.I n c n n =.q.O. .=.-.y.y.q.O.O.o...o.6.I I k J l l e 0 8 + 7 0 0 0 0 7 7 7 + + O $ + O + O + 8 r e j n n c n c M N =.O.5.7.q.7.X._ 6.8.0.6.6.+.m m M n c s r 8 0 0 0 0 0 0 7 7 7 7 7 d 7 d 0 + 7 7 + + + 0 j j ..4.+.o.5.O.+.q.q.-.e.-.-.#. .#. . .-.;.e.g.e.f.f.f.&.&.&.&.&.w.e.w.-.;.w.;.w.-.} 7.6.z 7 0 + O + + + 7 z 0 q i p q q ` g.;X:X%X%XZ.=X=X=X=XN.=XG.=X=X&X=X:X&XZ.M.[ ( 2.D.&X2X3XD.2.:.( m.*X2X>XA.B.1.( { N.3X2X-X*X*X*XD.=XN.Z.Z.M.:XM.2X(.z.` 9 q w w w p w 9 i i e i s s a y p p u p y y y p u t p u u t y ( s / / p a u a y ( / |  . . .#.' ' u t s t e 9 9 r s n n n n c s a t r t c n s s c n n ",
"j 0 7 7 7 w ) z _ w ( z p k o.y.b.V.w.' c n =.w.v.t.V.c.a.V.V.r.m j 0 r 8 j a././.Y.4.l j r + r l 0.~._./.a.M 0 8 + 8 r j a.~.V.v.s % 8 $ 8 s h a.Y.~.~.a.m 9 + 8 r M y./././.y.o.M 8 $ r +.v.F./.v.M N 8 8 8 $ j K a.c.c.!.c.v.c.!.v.c =.K c s M n +.4.o.5.r.y.r.0.9.9.r.y.r.9.5.r.r.r.8.y.l.l.b.t.c.V.V.B.c.t.b.V.V.V.V.r.5. .=.n n c t 8 $ 8 8 8 + 7 8 8 8 8 % $ % % c N c N M =.=.I n c =.=.O.=.=.w.q.y.q.9...m I 6.4.6.6.M l l e 0 0 0 8 7 8 7 + 7 7 + 7 + O O O + O + + O 8 $ r e j n n n N c c =.9.q.r.8.8.5._ 6.0.8.6.k n n M n s h r r 8 $ 0 0 7 0 0 0 7 7 d 7 7 7 0 7 + 0 0 8 + + 8 0 t j n n } 9.q.O.5.-.q.q.w.q.-.=.#. .-. .;.w.;.f.&.-.&.w.&.&.&.&.-.:.;.;.-.;.;.w.%.| 7.5.z 0 7 + + O + + 0 0 w w q y w y ] h.&X*XD.Z.N.Z.=X=X%XN.G.3.%X*X&X*X>X&XZ.n.( ( 2.Z.&X2X3XD.:.,.( M.:X2X:XZ.k.1.( ( M.2X:X*XD.*X2X*XD.N.j.m.j.Z.g.;XD.B._ q q w w w p z 9 e i i t s i k s i p p i p p u p t u y y p u p p / u a a ( / a a / ) | #.=.#.+.' ' a s i i i q 9 t j k j j s c i s c r s c n s y s s n ",
"z e 7 7 7 z z ) ) z w l ) ) 6.y.b.b.q.c +.+.=.0.b.t.c.b.v.V.V.0.l e 8 r e l a._./.Y.m e l r $ i m 0.~././.a.l 8 8 + 8 e M a./.Y.v.M 8 % + $ h s a.c./.~.a.j 9 + 8 r N a.c.]./.v.m c $ $ r M v././.c.I s r 0 $ 7 h 4.p.V.!.c.c.c.c.c.v.N o.Y M s c M n =.5.9.a.c.v.0.r.0.y.y.r.r.7.w.r.r.t.l.l.~.l.b.V.C.~.B.h.y.c.l.a.b.V.t.y.q.0.=.M M s r 8 $ 8 $ $ 7 + 8 + 8 $ $ $ $ r r s s M m =.Y M c M =.=. .=.9.q.q.9.9.k m m 4.4.I S l e 0 + + 7 0 r d 7 $ $ 7 + 8 $ $ $ $ + $ $ O + O + O $ 8 e j n n c c n +.=.9.r.r.r.r.6.7.r.6.6.S m M n N h r $ $ r 8 0 0 0 0 0 0 d $ 7 7 7 0 + 0 + 0 0 r 0 8 + + 8 9 s j n 5.9.O. .=.q.w.y.w.q.-.-.O. .=.-.e.w.w.%.%.&.&.;.w.&.w.w.-.-.;.-.;.-.w.%.| 5.7.z d d + + + + + 0 0 w w q q ( w @.z.%X&Xz.N.N.%X%XG.k.=Xk.3.N.=X1X=X:X&XN.m.{ ( :.Z.*X2X3XZ.1.1.( m.*X:X:XZ.M.f.( [ Z.:XD.*X*X*X*X*XN.2.2.m.n.Z.&.D.(.D._ w q w w w z w 9 i i e i e s p s p p s p p y p u p u p p y y u a y s ( a a a p ) ' |  . . .+.[ +./ y s i i w e t s k n a s c s i s s s s c c s t s s a ",
"j e 7 + 9 w z ( ` z ) p p k X.y.v.V.q.[ c +.+.y.V.v.t.c.c.~.~.4.k e 8 8 e M c._./.V.o.j l r 8 e M 0.~._./.a.l r 8 + 8 e j a./.~.p.b 8 r $ $ j j a.~.^.~.a.m e 7 8 $ c v./.].].0.o.M 8 $ r M v.~./.c.4.s r 8 8 $ j I v.c.!.F.c.c.c./.$Xc M M c M M n M +.5.9.t.c.y.y.r.r.a.a.t.a.a.a.h.a.a.l.l.~.~.V.~.V.~.V.V.l.V.V.l.V.V.l.l.t.v.v.9.o.M c s c 8 9 8 8 7 + 8 $ $ $ $ 8 % % r r s M =.=.n c M =.o.O.=.-.0.y.9.4.m l m M m I l j e 8 + + + 0 0 8 0 8 8 8 8 8 0 $ $ $ $ $ $ $ $ O + + + + 8 q s N c N n +.o.5.q.r.8.r.8.s.s.6.6.o.M M j e r r $ $ $ $ 0 7 7 0 7 0 + 7 d + 7 , 7 + 8 7 $ 8 0 0 + + + 8 9 s j +.5.5.5.5.q.q.q.w.-.-.-.%.%.-.;.w.w.q.%.%.w.&.f.&.w.&.-.-.q.-.-.&.-.-.7.X.6.7.z 0 7 7 O + + + 0 0 e t w ( w w @.M.D.%Xk.N.k.N.G.3.G.=X3.3.N.=X=X-X:X%X=Xm.{ ( 2.D.*X2X3XZ.1.:.u N.*X2X2XZ.M.f.( ` M.3X:X*X*X*X*XZ.m.3.M.N.j.M.1.^.;XD._ q q ( w w l w e e s s i t p k i s i u p p p a y y t u y u y i u p y a u / / / ) } }  .-.#. . .+./ a u p s z i i j j k s s r s t t s t c c c t 9 s s a ",
"l 0 7 7 9 z ( z _ z ) ) j k ..q.b.b.e.c c } O.q.V.t.c.c.c.~.V.9.m e 8 0 j l a._._./.6.l j 0 8 j m r.~._./.a.M 0 8 + 9 j j c./.V.0.s r 8 + 8 n M a.Y./.~.a...e 7 8 $ c 0.~.]./.v.I c 8 $ r o.v.~./.v.4.e d r 8 $ j I r.Y.c./.c.c.c.c.v.M o.M M c M m =.I 0.y.y.v.v.y.y.a.v.a.a.V.V.l.c.a.l.l.l.^.~.^.~.l.V.l.l.~.a.l.a.V.V.l.l.a.c.v.y.0.9.4.=.m s M n r $ 8 8 + % $ % $ 8 % r r r N 9.9.n N n m =.=.O.9.q.y.0.4.o.I m l j j h h r 8 + + + 8 8 7 8 0 0 0 0 r d 0 $ $ $ $ $ $ $ $ $ + + + + 8 r r c c N +.o.=.5.5.8.7.6.s.7.6.6.I M M s r r $ $ $ 8 8 7 8 0 0 d 0 0 + 8 $ $ $ + 0 0 $ + + 8 r 8 $ 8 $ 8 r j n o.o.5.=.q.r.w.q.9.-.-.O.%.%.-.-.w.%.%.-.&.w.w.&.*.&.&.%.%.-.%.-.-.%.q.X.7.s.l 0 7 @ + + + + + 0 i w ( w w w ` k.%X*XN.N.N.%XG.3.G.=XG.3.k.=X-X-X:X=XZ.m.{ ( 3.D.*X2X2XD.:.2.( m.D.:X>XZ.B.1.( { m.:X:X2X*X*X*XZ.C.N.Z.N.f.M.&.D.S.l.*.w w ( z w _ w q e s e i i s s p s p s a s p p y u u y u t u y u u u y a / / / / / )  .%.-. . .} / a i s i j i j a k s s t r s r s t c c c c c r t s s ",
"j 0 + 7 7 z z _ _ _ ( z p s } 9.b.b.e.c +.+.o.w.c.y.V.V.b.~.V.9.4.e 8 r e M c./.oX(.0.j j r 8 e I a.~._./.a.M 0 8 8 r e M c./.Y.0.e % % O $ M m a.c./.~.a.m i 8 8 8 n 0.F.'.].0.o.c r $ t M v./.(.c.9.N r r 0 0 l I a.V./.c.F.c.c.c.=.n I =.M M 9.9.9.0.y.v.0.r.r.a.t.a.t.t.a.V.V.V.l.V.l.t.l.V.~.V.~.l.a.a.a.V.l.a.l.l.a.l.a.a.v.b.v.t.v.0.0.0.M 9.I j r 8 r $ $ r 8 $ $ $ $ r r c M o.o.n n c o. .=.9.q.0.9.o.4.m j h d e d e 8 8 $ 0 $ 7 $ $ d 8 0 r r r r r $ $ $ $ $ + + $ $ O + + + $ 8 r N c N c o.o.O.5.6.6.7.8.s.6.x.6.M c h r r r 8 8 $ $ 8 + 7 0 7 0 8 d 8 8 0 0 0 $ 8 7 + + 8 8 r r 8 8 8 t s k n O.O.5.-.q.q.-.=.=.-.=.=.%.-.q.%.%.%.%.&.w.w.%.%.X.%.%.-.%.%.#.%.%.-.X.7.s.z 0 z 7 + O O + 7 0 z i p ( w q ( j.%X:XN.%X%X=X%XN.N.=XN.3.G.=X=X>X:X&XZ.M.{ ( 3.D.-X3X2X=X2.2.( m.*X&X2XZ.M.1.( ( N.>X*X*X*X2X*X*X*X*X%XN.j.C.w.:XA.h.*.w w w w w z w i e s s i i s j y s p p p a ) a p u u u u u u p u u a a / ' ' / ) ) )  .-.-.%. .+.c a p p l p z k j j s t r t t t s s t t c c s t t t u ",
"z 0 7 7 0 w ) ) _ z p p p p +.9.b.b.y.c c +.=.q.t.v.V.V.c.V.~.9.o.j 8 0 e I a._.'.).6.j j r $ j o.a./._./.a.l r r 7 0 i J a././.0.h 8 r + $ j M a.~./.~.a.4.j 8 r r M v./.'._.v.9.M r $ r I c./.].c.4.s r 0 8 8 j I p.~.F./.v.F.!.F.v.N =.Y =.U 0.9.0.y.v.y.y.r.0.0.v.v.a.v.c.c.a.V.a.l.a.l.V.B.V.~.l.a.y.r.a.l.a.a.t.a.l.a.8.r.v.v.v.v.v.v.y.0.m p.0.M r e d r % % % % $ $ $ % r r N M o.I n M o.O.=.9.r.9.5.4.4.l j e r d r 0 + 8 r r 8 + $ r 0 0 % 8 8 8 8 8 $ $ $ $ $ + $ @ + + + O + + 8 $ r N c c o.o.4.6.6.8.s.6.x.6.S I e r r r $ $ $ $ $ 8 $ 7 d 7 0 8 d 8 r $ $ 0 0 $ 8 + $ $ $ 8 8 8 9 8 8 t s j n 4.o.o.=.9.q.q.q.-.-.O.O.O.%.O.%. .@.X.%.w.w.&.&.%.%.%.%.#.#.-.%.%.w.X.7.7.l z d , $ + + + 7 0 w i q p ( y ( 2.%X:X%XN.%X>X=Xk.=X=X=X3.3.=X=X>X>X=XZ.m.{ ( 2.Z.-X2X-X=X:.:.( m.=X*X3XA.M.1.( { N.:X&X:X-X:X2X-X*X*XM.Z.M.&Xj.:X^.B.*.p w ) w w l w e i j s i e s s s s s s a k a a u u u u ( u u u u u u / / ' / } ) ) | O.%.-. . .' / a p l j p l k k k s r t t r t s c r c c c c t t s u ",
"l 0 7 7 0 w z ) _ p p p k ) o.w.v.V.y.' +.+.o.y.y.t./.~.V.~.c.9.m q $ 0 j o.c._._.~.4.e j 9 8 j m a.)._./.a.M 0 0 $ r j I a./.V.0.h r r + $ j m a.Y.(./.a.m e 8 c s M c.].'.].v.9.M r r s =.c././.c.U h r r 8 $ j I c.c.!.c./.!././.v.N =.v.0.=.v.0.0.v.c.c.a.q.9.y.y.y.y.r.t.V.c.l.V.a.l.a.V.~.l.V.l.a.8.r.8.a.l.a.y.8.a.a.y.8.t.v.v.a.v.0.0.0.o.r.r.M e j j e r r r r 8 $ $ r r r c M =.I +.n =.o.O.9.q.9.5.o.m j h e e e d 8 + 8 d e 8 8 r e 8 $ 8 8 8 $ 8 $ $ $ 8 $ $ @ ; 7 O O O + + + 8 % % r c M 4.5.5.7.6.7.6.6.6.m S l r r $ $ $ $ 8 $ + + + $ 7 $ 0 0 d 0 d 0 r 0 8 d $ 8 8 8 0 8 8 $ 8 $ $ r j s n 4.} } O.=.q.q.-.q.-.-. . .=.%.O.#.'  .%.w.w.w.w.%.%.O.#.O.%. .#.O.w.X.7.r.l 0 0 7 7 @ + + + 0 z i 9 p ` / ( 1.Z.:X%Xk.N.=X=XN.k.=X%X3.k.=X>X>X3X=X%XM.{ ( 2.D.*X2X2XZ.3.2.( G.Z.&X>XD.M.1.( ( N.*X*X&X*X-X*X&XN.N.1.m.M.Z.f.D.S.j.X.p w ) ) w l w i e i s i s i s s y p a a a ' a u a a u a u u a u u u a / ' ' +.| | O.O.O.%. .+.+.) k k p p j j k k j i t r t c r c t r c c c c t s u a ",
"j 0 + 7 0 w z ) z w z ( ) ) _ 5.t.V.e.} } o.O.y.c.t.V.~.a.V.~.0.k 0 + 8 r m Y.(._.c.4.e 8 8 r e I a.Y._.).a.j r d $ d e I P._.~.p.m 0 $ + + e 4.r./.(.~.c.4.r 8 8 9 I c.~.'._.y.m i 8 + e 4.a.~./.0.Y M 8 r r r r 4.v.v.v.F.Y./.c.c.v.$XU 9.U I v.v.0.v.r.0.a.v.r.r.t.a.a.V.h.a.~.V.V.V.V.V.c.V.v.b.y.y.r.q.q.r.7.r.y.t.y.7.7.5.q.v.e.v.y.v.y.r...4.o.j j i j l h r r $ $ $ $ $ r r j M m o.o.5.O.q.q.9.q.y.y.o.9.m j e e 9 7 7 8 8 9 8 9 8 8 r 0 $ r ; 0 % 0 % + $ @ 0 ; $ 8 + 8 $ $ + + O + 8 $ $ s n 4.+.4.7.5.4.6.6.6.m l l l r + + 0 8 0 d r % 0 0 r 0 $ $ r % % 8 r % 8 $ $ $ 8 $ 8 r 8 $ % $ 8 % 8 s n o.=.O.q.-.-.-.#. .:. . . . . .>.=. .:.-.-.-.w.q. .&.%.&.-.#.-.-.%.w.y.r.4.z + + ; $ O + $ @ 7 0 z w w ( ( $.$.>XZ.k.2.k.M.%XM.j.N.k.2.%X=X=X*X>X*XZ.N.` q 2.:X3X*X-XD.3.:.{ F.D.*X5XD.m.2.( >.N.3X*X*X2X*XN.N.Z.N.1.N.M.Z.%.S.^.A.7.X.p q w z w 7 w i i s i s s s t s t t c s t t c t c u a ' u a u u / u ' ' / / ' X. .| O.%.O.} } } k s s j s p k ) k l ( p p p s t a a / a a u s s i s ",
"p 0 7 7 w w ) ) ` w w z ) ) ..%.c.V.r.+.} +.o.r.c.t.V.c.a.~.V.6.M 8 8 0 9 M ~./._.V.4.h 8 8 0 j ..r.~._./.c.l 0 r + 0 h I L.).~.0.M 0 8 + 7 e 4.p./.(.Y.a.4.0 0 r r m c./._./.a.I s $ 7 e 4.c././.0.n N % r r % r U $Xv.c.!.c.c.!.I.v.v.U v.9.Y =.0.0.U 0.p.p.v.0.r.y.r.a.V./.V.V.V.c.c.a.c.t.c.v.v.0.9.=.O.9.5.5.8.w.r.8.7.%.7.q.q.q.0.y.0.y.y.o.o.5...l s k l r h r $ 8 8 8 $ $ 9 s n n o.o.o.=.q.q.9.9.y.0.O.o.n s r 9 8 8 + 7 7 8 8 7 8 0 0 0 0 r 0 % 0 0 d ; + $ # 0 d 0 $ $ + + 8 + O + $ % r s M o.o...5.X.X.5.6.6.6.S z l 0 + + d 8 8 e $ 0 r % % 8 d r % r r % % r $ r r $ $ r 8 r r $ 8 r 8 r r t n m o.O.%.-.w.#.#.#.#. .[ [ +. . .#.[  .-.%.:.;.:.-.%.%.&.%.-.-.#.=.%.q.r.5.l 7 + 0 + . O O + @ 0 0 z w w ( $.1.>X=XN.k.m.z.k.3.j.M.N.j.N.:X:X:X>X-XZ.M.] ( 1.*X:X:X3X&X:.3.[ N.*X*X2XZ.m.2.{ { N.*X*X2X-X*XN.N.=XZ.Z.M.2.M.j.2X:XS.) ( ) w q w ) _ i i i i s s s a c s s c t c c s t c s c / a a u u a u ' ' / ' u / |  .| X.%. .) } k j s s k j j k ) k ) l p s p w y y / / ' / s y s s s ",
"z 7 7 9 w 0 z ) z w w ( ) ) X.7.h.V.y.} } o.O.r.V.a.V.Y.V.~.~.5...8 + 8 9 j c.`._.Y.6.e 8 8 r e M v.~._./.p.v 0 0 $ 0 l I l.`.~.r.M 8 8 + 7 e 4.y.~./.Y.c.I 9 8 0 r I c.~.]._.a.m j 8 8 e 4.c.V./.0.I c r $ r 8 r U v.v.c./.!.F.I.v.v.v.v.U 0.9.0.9.4.0.0.0.r.a.o.9.0.5.y.V.V.~.c.a.a.r.r.r.y.r.q.9.9.=.o.+.+.o...5.7.7.7.5.5.X.9.9.9.9.9.9.0.9.5.4.4.m j k l M M h h r r 8 8 8 8 8 9 s m =.O.o.O.q.q.q.q.q.9.4...k e 9 8 7 7 + 8 8 8 8 8 7 8 0 r 0 % 0 r ; r ; 0 $ 8 0 r d d $ 8 $ $ $ $ + O 8 r % r M 4.O.5.5.5.5.6.6.6.J l l l d + 7 0 8 d d 8 d 0 d 2 d h r h h r h h r r h r $ $ r r r r 8 $ r 8 r r s n ..O.5.%.q.-.:.#.#.#.+.[ [ [  . . .]  . . .-.e.e.-.w.%.-.&.%.-.:.-. .o.O.5.n 0 + + ; r ; 8 d 0 l x.z w w w &.,.5X=X%XN.M.Z.N.m.M.%X%X1.k.*X:X*X3X:X%XB.] ( 1.&X:X2X3XZ.:.2.{ N.*X-X*XC.N.m.{ { m.*X*X*X*X*XZ.&X=XD.&XM.1.Z.l.:XA.B._ ( w w w 9 z 7.i i i s s p s a t s t c c s c s s u u c a a u u u a ( / c / / / / ' | ' X.O.O.} } a p p a k j k k ) ) ) k p / p t y u a ' ' a u s a s s ",
"l 9 7 7 0 w w ( ( z ) _ / ) } q.b.V.y.} o.+.o.q.a.a.V.V.a.~.~.0.m 0 8 8 8 m c._._.~.6.e 8 8 r j m 0.~.)./.a.l 0 0 $ 0 h S Y.).`.a.m 8 7 + 8 s I a./.`.~.a.4.r 8 r 0 m a./._.).r.m i $ + e 4.a.Y./.v.I N % % r % r =.v.v.!./.c.!.v.P.v.v.v.v.0.U U U 4.4.0.0.0.5.4.9.r.5.0.r.a.y.r.r.r.0.9.r.5.5.9.o.n M j n n M ) ..4.X.X...X...=.=.9.=.=.9.9.0.5.4.o.o.m M k m M M j h r r 8 $ 8 + 8 e n 4.5.o.=.q.q.O.9.r.q.+.} k t 9 9 7 7 7 7 8 8 9 8 8 8 r r r d r r d d h r d d r h d r r $ + 8 8 $ + + $ $ % s M 4.O.5.5.5.5.6.7.6.6.l j z 0 7 7 0 8 8 0 r r d r r h r h h h h e e b e s r r r r r t 8 8 8 8 r 8 9 i k ..5.-.q.&.-.#.#.#.[ [ ( ' [ #.#. . .=.#.#.-.e.;.-.&.%.&.-.-.#. .-. .} ....o.z 7 + O O O O + 7 e l z w q ( &.3.3X&XZ.N.Z.=X%X=X&X3X=X1.2.*X>X:X:X3X%XM.{ ( f.&X2X2X3X&X3.3.{ N.D.*XD.N.C.m.( { m.*X*XD.*X-X=X*X*X=Xm.N.Z.:X1.j.B.:Xl.( 7 q ) w w z w i i i s s s s c s t t s c t s u s a a a s u t u u u a / ' / / / / | +.| O.O./ } ) k k j k a p ) k k p ) / k / p t y u / } / u a p a a ",
"p 0 7 7 w w z _ ) p p ) ) ) | q.c.V.t.} } o.o.9.V.a.c.~.c.~.~.0.m r 0 r 8 j c._._.~.4.j 8 8 e e m v./.]./.0.l r 8 + r h J c.).~.a.M 0 $ $ 0 i I r.~./.~.a.6.8 8 0 r I a.~._./.r.I i 8 7 e o.a.Y.c.v.9.N $ $ r 8 h U v.v.F.c.c.c.v.v.v.v.v.0.0.0.0.0.0.I 4.4.4.I ..0.a.r.r.0.r.6.5.6.6.4.6.4.4.5.M n s s s s e s j j ..k m k ) m M =.o.o.o.=.4.=.5.o.4.o.4.4...m I M M M h e r 8 8 $ 8 9 n 4.9.4.5.q.q.7.9.q.5.+...a s r 9 9 7 7 8 8 9 8 8 0 0 r d e r r h r r r d r r d e h r d 8 $ $ 8 8 $ $ $ % 8 r n =.5.5.7.7.7.7.7.7.m l z z 7 + 8 0 $ 0 0 r h h e h s h j h h j j N h j N h r r r s r t 8 r 9 8 9 9 s k ..5.%.8.w.w.;.$.#.] ] [ ' [ [  . .#.-.#. .-.w.w.%.%.%.%.-.-.#. .-.O. .} o.o.l 0 + O O + + + 7 0 z w q q ( f.f.>X%Xj.M.%X=X=XZ.&X*X*X1.2.:X>X*X*X:XD.n.@.( 2.&X:X3X3X&X2.2.[ N.-X*X*XZ.Z.G.' ( m.:X*X-X-X3X-X*X*Xm.1.M.&X:X#.f.A.3XA.) 7 q ) w w q i i i i i s a s u y t t s a c y s u s c u u u u t u u / u u / / / ' | ' | O.O.) ..} k k k a i i k k k ) k ) k / p u y / ' +.' u ) a / ) ",
"p 0 7 9 9 w w _ p p p ) ) a X.r.h.F.y.} } } o.r.c.t.V.c.V.~.~.r.4.8 8 8 $ j c._.'.Y.0.e 8 0 e j m 0.~././.v.M 8 8 7 d l _ K.`./.a.M 0 + 7 8 e 4.r./.~.~.a.I 9 $ r 0 o.a.~._./.p.m j + + 0 o.a.~./.v.4.M $ $ r % r Y v.v.!.F.v.v.0.v.$Xp.W 0.U 0.0.4.M m m o.m j z 4.s.r.7.5.6.S 6.m S _ m m _ S s M s r r 9 r r j s j l l j l ..o.n n n +.o.m o.9.4.4.4.4.4.6.I 4.I I M M h r 8 8 8 9 r j +.5.=.=.q.q.=.9.q.9...n a r 9 8 8 8 8 8 8 8 9 9 r e r e e h r r h h r e h r h e h r 0 8 $ + 8 r 8 $ 8 8 $ r n 5.9.5.5.7.8.s.s.6.6.l z 0 7 7 0 0 0 0 e d e e h h h j l M M v h j M j j j e s r r s r r r 9 9 9 9 i ) ..*.7.%.&.&.&.$.#.[ [ ( ' [ +.>. . .-.%.| #.-.-.%.%.8.-.&.-.:.:. . .+.k } k e 7 7 r r r r 0 0 0 z 9 q w ( *.,.3X%X3.j.Z.&X%Xm.k.Z.:Xk.N.:X>X=X:X:X%XM.{ ` j.D.*X3X3X&Xg.2.{ N.=X*X2XD.Z.g.( [ m.-X2X3X3X3X3X*XN.3.$.2.j.M.*.S.^.D.7.` p p w w w l i i u s s p p a s u t c u a u u u a a u u s t y y u u u / ' / / u ` ] |  .%.%.| X.} } } k a i q p ) p ) ) / ) / / u u a |  .' u / ) ) / ",
"z 0 7 7 0 0 z z p p ) _ ) / X.r.c.V.t.} o.} +.9.l.t.V.~.c.~.^.0.m 0 8 8 $ z c._.'.~.0.e 0 8 e e I 0./.)./.v.n 8 8 $ r j M K./.`.a.m 8 7 8 8 j m p././.c.a.4.8 8 0 r m a.~._./.0.I s 8 + r I p.c.Y.v.0.M 8 $ 8 8 h 0.v.c./.c.v.v.v.U v.p.0.Y 4.4.4.M M n m j l z z l 6.6._ S J l l l l j l l l j s s r r r r 0 r e j l j j j l l M c M n n n n m 0.4.4.4.0.6.6.I 0.U 4.I M j r r 8 8 9 9 s M o.o.q.q.r.7.9.9.5.+.k s 9 9 8 9 7 7 8 9 r q 9 e s j e e h h h e h h h e r e e h d 8 r $ $ $ $ 8 $ 8 r $ r M 9.9.7.7.r.r.r.7.6.6.l h 7 7 8 9 r 0 8 e e h j j j j M v N j N j j M M j N s j s c e t r 9 9 t t q p k X.5.8.w.w.w.&.&.#.[ [ [ [  .#. . .#.-.#. .O.w.w.%.%.&.%.-.-.#.:.-. . .+.} s 8 7 7 + + $ + + + 7 7 7 q w ( @.$.>X=X3.j.M.%XM.k.k.Z.=XM.%X:X:X:X:X:X%XB.{ ` j.Z.2X3X5X*XG.2.{ N.D.-X3XD.D.m.( [ N.3X-X2X3X3X=XZ.N.m.:.m.j.j.$.:X:Xl.| _ ) p w q z p t i i p p s a s u t t y u c u u s s a s s i t t t y y u u u ( c [ ' | | %.%.%. .| } } ) } k i t a ) / k ) } ) } / a u '  .%.' / / / / / ",
"z 0 7 7 q w ( ) z ) _ ) p k  .w.V.V.t.} ..+...q.c.a.~.V.V.~.~.a.o.e r 9 + e c._.'.~.6.j 8 r e e n v.F.]./.p.j r 8 $ d l l a././.c.m 8 $ 8 9 j m r.~./.Y.a.m r + 0 r I a.~._./.0.m i 8 + 9 m a.c./.v.0.N $ + r 8 s 9.v.v.c.v.v.$X0.p.0.0.=.M I 4.M M e e j l s e z m 6.x.S k x.k z z z z z z z z j r r r 8 r 9 8 e e e e z l l l M c M n M n m m 0.4.4.4.0.p.0.4.0.0.0.I M M r 8 8 8 9 r 9 i n o.O.q.q.=.=.q.O.n k i 9 8 7 7 7 7 8 q r e r s j j h s e e r h e h e h r h e e r % r $ + 8 % 8 8 8 $ $ 8 c 9.9.7.5.8.8.8.8.6.6.z z 7 7 7 0 0 0 0 z s e j z j M h M j j M h M j j N s c h e c s r t t 9 9 9 q i ) _ 7.7.7.w.&.&.%.#.] [ [ [ [ #.>.:. .#. . .#.w.w.w.7.7.-.%.:. .=. .e.-.-.9...i 9 0 + + 0 e z z p p 9 q ( w ` ] 3X>XM.m.%X&X&XN.N.:Xj.k.%X=X=X:X3X*XD.M.{ ] j.Z.*X6X3X*X2.2.[ N.=X*X3X*XD.G.{ { N.-XD.-X3X-XZ.Z.=X=XN.3X:XD.&.:X,XB.*.X.) w z ( z q w i i p p p a y s s t y u u a u a u u a u u t t t u u u ' ' u ( ( ] | @.%.-.%. .} } / } ) k a s / a k / / ) / ' +./ u '  .%.] ' / / _ / ",
"p 0 7 7 q w ) z ) w w ) ) p _ 7.V.V.y.} ..o.o.9.c.t.V.V.l.~.~.r.m j r + + r r._._.Y.0.s j 8 8 j M 9./.].c.0.n r + + r e l a.)./.r.J 0 7 + 8 j m a.V.~.~.a.0.s + 8 9 l a./._./.c.6.e + 8 e 4.a.~./.c.r.M s 8 8 r N M 0.v.c.c.c.a.0.0.U =.I m M M M l e r z i w 0 l l ) S ) l z z z z z z 0 0 z i r r r e e 9 r s 0 e e e 0 d e e r t s r N M M n 4.m 4.0.p.r.0.0.4.U 0.U m M r $ e r 8 9 r t j O.q.w.r.O.O.O.o.n s s e 9 8 8 9 e s i i e s r r r s h s r N r r N j e e N h r r $ r $ $ + O $ + $ 8 $ 9 n 5.5.5.7.x.r.8.x.a.6.l z 7 7 7 0 z 0 r j e j l M l j M l M N s h j s e r M c M s M s s s 9 i q 9 0 w p ) 7.7.w.w.q.%.%.#.+.>.[ [ >.=.=.:.#. . .-.=.>.=.:.%.%.%.| '  . .#.=.=.:.=.=.=.I +.k m O.4.4.x.k ) w q w ( ( <.:X3X%X3.Z.3X*X%X:X:XZ.2.Z.3X:X*X3X3XS.Z.&.( <.&X:X3X2X*XN.$.>.2.D.*X*X*XD.m.( { N.3X-X-X3X*XN.Z.*X-XZ.Z.N.>XC.:X^.S.X.) ) p w w z w p i p p p ) / ) u u u p u a u u u u s u a s u a u u t u u / / / ` [ #.| #.-.%.' | } / / / k k a ) } } | } ) ) ' ' | |  .:. .[ u ` / ) ` ",
"z 9 7 7 9 z z ( ) ( w w ) ( ..5.V.V.t.} } +.} 9.t.a.~.~.V.~.~.0.m z 9 + + 0 r._._.~.4.e j 0 8 s m v./.].c.v.M r + + r h J a.).~.a.m r $ 8 8 e I a.Y./.~.a.6.e 7 8 8 M p./._./.l.4.e + + e o.a.~./.c.0.M r r r r M o.p.v.v.v.p.4.0.9.I I I m M M l i e 9 9 e 0 0 z l l l l l z z w z l z i z z z r q q q q r 0 e e z z e z j j h r r r s s s s M M J I 4.0.p.s.4.I 4.I 0.0.M M e 9 $ 8 8 r t n o.9.q.q.5.=.9. .n k l s 9 8 8 9 9 7 8 8 9 9 t j s s s h N s h s s j h s e s N h r r r 8 $ + O $ + 8 8 e m X.5.5.7._ 8.8.6.s.8.S z 9 7 7 w 0 0 z z z l l l v j j M h j j j N s j r e s s s t q 9 8 9 q 9 9 9 0 p p O.O.7.-.%. . .] [ [ c c [ [ +.>. .] | =.:.=.=.=. .%.%.%.%.:.=.#.:.:.F.F./.F.V.V.V./._.(.(./.L.7.w q w ( ( *.*X*XZ.k.:X7X:XZ.*X-X%Xj.M.>X>X*X3X>XS.S.$.( 1.Z.2X3X3X*XM.>.{ j.Z.2X:XD.*Xm.[ [ N.-X*X2X2X-X*X*XZ.N.j.j.m.D.&.n.S.A.X.( ) _ z w z w p p p p a p k / u p y u u a u u p s u s u u a s u y y y u ' c ( ( ] #.{ #.&.%.| | +./ a ) / a a ) ) } } | ' ' / ' ' '  . .=. .' ' ) / / ",
"l 0 7 7 9 w z _ ) ( z ) ) / ) O.V.V.t. .n } n 9.a.t.~./.~./.~.0.o.j 8 $ + e r._._./.6.j j 8 $ s M v./.].V.v.n 8 8 $ 9 s l c././.p.+.9 $ + 8 e m a.c./.~.a.4.j + $ r k a./._.`.a.4.e 8 8 i I a.~./.c.y.m s e r e s o.0.r.0.9.o.M I m I m m M M j j e 8 8 9 0 0 9 i z p z j z w z 7 9 w z z 0 w e t 9 t 9 9 9 8 9 0 7 7 0 e h z e r r r s h e h M M j M I 6.s.0.4.0.4.U I 0.I o.m e 8 8 9 e s n +.=.q.=.O.4.9.O.....j s q 9 7 8 8 8 7 8 8 r t s s s N r s r N r s s s h e h c s h r r $ $ + + $ + r r i m 5.X.X._ X.8.8.6.r.8.) z z 0 0 w w 9 e j l M k m M l m m M e s j M n M s +.m m n n a u s a j i i i p k ..8.r.y.y.q.-.-.=.c [ [ [ [ [ =.=.e.-.-.q.v.=.v.:...X. . .=.:.:.{ >.v.F.4X].(.].4X(.(.'.(.,X_.l.l ( q w ( w *.fX%XZ.N.:X3X%Xk.S.%X%X2.k.:X:X:X:X:XZ.C.&.( 1.%X:X3X3X3Xk.{ { k.=X-X2XD.&XN.( { N.2X2X*X*X*X2X-XZ.2.2.M.M.D.@.g.S.(.*.( _ ) ( w ( q i p p p p / p / y a y a ( u u ( u s u s a p u u u u t u u u / ( [ [ ] { #.;.#.] ' ' / / a / a / ' ) | | +.' ' u ' ' ] [ >. .[ c a / / / ",
"j z 7 7 0 w ) z z w ( x.) ) X.O.V.V.t.} } n } 9.V.a.V.~.~.~.^.r.4.e 8 7 $ e r.'.'.~.9.h j 8 8 s M =./.].V.0.M 8 8 $ 8 s J a._.~.a.m 9 8 7 8 s m a.Y./.Y.c.4.j 8 8 r j a./._./.Y.4.j 8 7 e I c.~./.~.p.M j s e j M m 4.4.m M M s m M M M n M n s e 9 7 7 0 0 9 7 0 w e z i z i i 7 0 e e 9 0 0 q q q 9 q 9 9 7 7 7 7 7 0 d p z 0 s r r % r r e r j M l m I 6.U I I I 4.0.U 0.0.0.M s q e s t s M O.-.q.O.O.9.O.o.} k s 9 9 8 9 9 9 r r q e r r e s r h s r s N r r h e e s N r r r r 8 8 8 $ + $ r r i m X.X.X._ _ y.8.8.8.s.) z p 0 0 e i z w j l l m m m m m m N M e M j M n M n n s c s s t r 9 9 9 9 7 0 e s o.4.5.%.O.+.+.[ =.[ +.[ [ =.:.:.=.+.[ =.:. .=.=.}  .| / +.:.=.>.=.m.F.D.D.F.(.4X(.'.4X_.,X,X^.5.w w ( w ( *.%X%XM.k.Z.=XM.3.2.N.=Xj.m.*X-X>X3X=X%XM.$.( 1.D.*X2X3X*Xm.>.>.m.=X-X2X*X*XG.{ { C.-X2X-X*X-X3X-X=X2.N.Z.D.&X&.n.A.:X8.w w _ z w z w p p p p p a p ( y y y u y a u a a s a u s u u u u y t y u c ( u ( ` { ( @.#.#.' ] ` a ( / a / / | } | } | ' ' ' ' ' ' [  .=.[ c a ' a ( ",
"z 0 7 7 9 w z ( w p p ) ) ) O.7.t.V.y.} n } +.q.c.a.V.V.c././.y.4.e + 8 8 e p._.'./.4.j j 0 8 e n v.F.].F.v.M $ 8 $ r e m c._.Y.a.M r + + 8 e m r.Y./.~.a.4.s 8 9 r m a./._./.a.4.j 8 8 j m p.~./.~.p.m j s j s j m M l s j M j j j j j l j j z e 7 7 7 7 9 9 9 9 9 9 q 9 w z t j p i w 7 w w w q w q q q 9 9 9 z q 7 0 l k l z r r % r r r r r e M v I I I 4.U U 4.I 4.4.4.9.4.0.M q r 9 r j +.O.5.q. .O.9.9.} ..s r r 9 e e 9 s s s i s r r r s h s s r s r s N s e e s h r r r r % r $ $ $ + 8 8 t n X.5._ _ x.8.8.x.a.8.x.z i e q p i w w p n k k m m m k j j n j N s k n s j n n c n a a a q r q r 0 e j n N v.=.=.=.=.=.=.>.+.c c [ >.=.=. .=. .=.=.=.=.=.O.| ' c [ :.:. .=.e.m.F.F.B.V.(.b.(./.A.~.^.~.8.w w ` w ( f.;X=XM.N.k.M.M.k.m.M.%X2.M.%X*X3X>X&X&XM.$.` f.Z.*X>X2X*XN.:.>.N.*X=X*X2X*Xm.( { N.*X2X-X*X*X=X*X=XC.Z.&X&X:Xh.;XD.M.f.) w p w 0 ) z p p p p p p p p y u y y u y y y u s a u p u u u u y y t u / u ( ( ( { { *.#.#.] ' ' ` / / / / / } ' | }  .' / u ' ' c [ [ [ [ [ ' c c / ",
"j e 7 7 9 w w ) p w w ) } X.5.w.y.V.y.} n n o.r.l.a.c.c.l.~./.a.0.e + 8 8 e r.'.'./.0.j j r $ j n v.].'./.v.n $ r $ r s m c./.~.a.m e 8 + 8 e l a.~._./.a.4.h 8 0 e m a./._./.c.4.j 8 0 e M a././.V.v.o.j j j M s n j e r e j j h j j j j j j e e 7 7 7 7 0 9 7 9 9 9 9 q i w i k p w 7 7 7 9 w w w w q q q q 9 w 0 w 0 z z z z r r 8 $ $ % r r h M M v I I I 0.4.Y 9.I 4.I 4.I o.M s r 9 9 j O.O.=.5.O.=.9.5.o...k t 9 9 e i e r t r e r s r t r s N r N s N r c N s N c N h r h e r r r $ $ + 8 8 r m 5.7.7.7.x.l.8.8.8.s.x.z z w 9 w i e i j j k l j k j j j M j c s j s s s s a c n c } } c j j j s s s m m =.=.v.e.0.=.=.=.c N N c N c +.+.-.=.=.b.v.G.=.=.O.| / u [  . .[ >.=.:.v.b.t.t.t.O.-.7.7.r.t.8.X.) w w ( ( g.>X:X&X%XN.M.&X%X%X*XZ.N.Z.=X:X:X3X&X:XZ.@.] m.&X&X2X*X:XN.>.3.D.*XD.2X*X2Xm.( { N.*X-X3X2X*X=XZ.D.=X&X:X*X>XC.2X^.l.l.( w w w w z ) w p p p w p p ( q y y y y u y u / a a a u s s t t y t y u u / u ( ( ( { { $.#.] | ' ' ' / / / ' |  . . .| } ' ' [ / u [ [  .[ [ c u u c ",
"p z 7 7 9 w ) z ) w w ) ) _ O.y.t.V.t.} n a } r.a.y.c.V.a.~.~.a.0.e + 8 9 j r._.'./.s.j j r 8 e c v.].'./.v.+.$ r 8 8 e +.Y./.~.a.I 9 8 8 8 e M a.~._.~.a.I h r r e M a._._.~.a.4.l r 0 e M a././.V.0.o.j k j l i j j s e j s s e j e j j j s i e 9 7 7 7 q 9 8 9 q q 9 9 t e t p t q 9 9 7 q q w ( ( w q q q q w w q 9 z 0 0 0 r r r $ $ $ r h d e j M j J U 4.I 4.I 4.0.I I o.4.4.o.m s r s 9.O.-.9.O.O.9.5.} ..k e 9 e e 9 9 r t r r t r s r s N r s r r s s M N c M s j s s s s r r 8 $ $ $ 8 8 t .._ 7.x.*.*.8.d.s.a.8.S z w 9 0 w z q i l j i s j j k j e s s e e s e s s 9 8 9 9 9 9 9 9 8 8 $ $ $ 8 r r M I =.$XN +.N c N =.=.N c >.=.=.=.+.=.q.$X=.N N t.r.-.=.=.G.:.+.>.[ =.-.:.-.O. .w. . .w.l.l.8.7.z ( ( ( y j.,X&X%X:XD.%X>X:XZ.*X%Xk.%X-X&X:X>X=X:XZ.$.@.n.&X&X2X*X*XN.>.:.=X*XZ.2X*XD.m.( { m.*X3X2X-X*X&X=XZ.N.Z.&XZ.:Xj.2X,XS.f.( q p w w p p p p p p p y p w y y y ( ( u u u a a u a s u t u u t t y u u u u ( ( { ] { #.#.] ] ] ' ' / ' |  .| |  .X.| ' ' / ' u u ( [  .[ +.c c c c ",
"l w 9 7 7 w z w _ ) p / k _ O.w.t.V.t.} n a } r.y.a.a.c.c.~.~.6.6.e + 7 r e p.'. X(.0.l j 0 7 s N v.].6X/.c.o.8 r 8 r j m c./.~.a.m e 8 + + e M r.~.].~.a.o.l 0 r i J a./._./.c.4.M e 0 e M a././.Y.y.4.m j j M s l l j i i j r j e e j j j j e i 0 7 7 7 9 9 9 9 q 9 t q w t p p ) p ( p p w ( w ( ( w w q q 9 w w w z w q w 0 r r 8 8 $ $ $ r 0 h h h h j M 4.I I m U 0.4.9.I 0.r.c.q.M t j 5.5.9.q.5.9.9.5.} 4.n i 9 t e q 0 e r t t r t r r r r s s s N r r r s r s N s j e s h h r r $ $ $ 8 8 i m 5.5.5.*.x.l.s.8.8.x._ ) w 9 7 i w e w j p i e i j s i 0 e r r r e M s s n n c k c a s s s e s r r N c M v.v.v.v.m.e.v.v.v.:.:.:.e.v.m.c.b.v.F./.F.F.F.G.(.(.F.F.(.(.F.m.e.:.=.-.e.-.-.=.-./ p 7.l.w._ ) ` z ( q ( j.:XD.M.*X*X=X3X%XM.*XZ.N.%X:X=X:X3X:X:XS.$.@.M.&X*X2X2X*XN.{ >.D.3X&X*X-X*Xm.( [ G.D.3X-X3X2X*X=XZ.G.2.m.f.k.*.&X^.S.l.w q ) p w z w p p w p p p p y q q y y p y ( u a c a s y u u t u y t t y ( u ( ( ( ( ( @.$.#.` ] ] @.| _ / |  . . . . . .' c u ' u c c [ [ [ [ c [ c c ",
"z 0 + 7 9 z i p p p p ) ) ) X.7.w.b.w.} a c m 9.a.a.a.l.Y././.p.0.s $ + e + c./.9X).0.M M r + r c v./.'./.c.0.r r 8 9 c m c.'./.v.=.e 8 $ $ e n a.~.)./.c.I d r r j 5.a.~._._.a.l j r r r M v./._./.r.J _ k l z l l i e r e 0 r j j j M j s s e 7 8 9 9 8 r 9 9 9 9 t t y ( / ( ) ( ( p p p w w w ( w w w q 9 7 p w q q 9 q w 7 8 8 8 9 8 7 7 8 + $ 8 r h l J m 4.4.I m 4.4.4.4.m r.a.0.j j M 4.4.O.4.4.O.4...4.o.m k t 0 9 9 9 8 8 0 r r e s j r e j j s j j M e s e r 9 8 8 r 8 8 8 $ $ $ $ 6 . O 8 s m X.X._ ) 8.8.x.8.x.z ) z 0 7 0 k _ _ l l 6.l l 6.7.4.) 4.I M M 4.9.9.m o.I M v.=.=.=.=.9.0.v.N +.n 0.v.v.F.F.].].F.F.v.].F.F.F.F.].].].6X6X].#X-X].].6XqX6X6X4X6XF.-X-XF.F.=.N >.:.=.=.e.>.c +.:.v.7.) 9 q q q _ j.;X3XD.f.$.Z.3Xk.>.=X=X2.=Xk.-X=X7X>X2XZ.:.[ j.C.&X2X3X-XN.;.2.n.&X&X2X*X-XN.[ >.N.j.3X-X=X3X3X=Xj.f.$.%Xk.<.%Xz.j.:Xz._ w p w p ) z z w z ( p p p p i p t p t y y t u t t u y t y t y y y ( y y ( ( ( ` ( ( ` { >.{ ( [ ( ] | | _ _ O.O.O. .' u u c c c c c c c c c c ' ' ' ",
"l 0 7 7 9 w p k p p p ) ) ) | 7.r.B.r.' a k n r.a.p.c.Y.Y.`./.p.4.j 7 + j 7 c._.'./.0.M j 9 + 8 M 0.].#X].c.=.% 9 8 9 j 4.V._./.v.I r 8 $ 8 r M 0.~.]._.a.M i e e j 6.a.~.'._.a.4.h r r r M p.!./.~.a.J J 6.I l l l e z 0 e z e e e r 9 e s s e 9 8 9 9 9 9 9 q t t y ( ' _ _ @.*._ *._ _ ) ( _ ) / ( w ( w w w w q 9 9 9 q 9 q 7 8 9 7 9 7 8 9 7 + + + 0 h l l I M l o.o.I o.I I k l M 6.0.4.j m o.....m ....k k j 0 8 7 + 7 8 9 r e e e j e j e e j j j j l j M j j i j j j j j e s s s r r r % r N m 4.r.r.7.x.a.d.8.a.l.8.x.5.5...5.r.a.a.8.a.V.a.a.~.~.~.~.V.V.c.F./././.F.F./.F.c./.!.F.F.V./.].].].(.].6X6X].#X#X#XgX6XgX6X#X#X6X#X6XgX6X#X6X#X6X6X#X#X6X4X4X6X6X6X6X#X6X6X].G.=.>.v.=.:.:.=.=.=.:.v.O.k w w q q ( j.;X,XZ.j.2.Z.*XG.3.=X=X3.%X=X7X=X>X%X3XZ.>.{ m.N.&X3X6X-XN.:.2.M.D.*X=XD.=XN.{ { N.Z.-X>X>X3X>X*X*X%X%X*X%X%X:X%XS.^.l.` w w w p p z ( ) z z z z p p w w p w p w p y t y u t y t y y y u y ( y y y ( ( ( ( ( ` { { { { ( ( ] | _ @._ |  .O.+.' a c c c c c c c c c c c u c a ",
"l 0 7 7 9 q p l j w p ) ) ) _ 7.w.b.y.} k / ..9.a.a.a.Y.Y./.`.p.6.h $ + e $ Y./.4X`.0.l M 0 + r N =.].'./.c.I r r 8 9 s 5.~._.(.v.=.s $ 8 8 t M r.~._./.a.I j r d i 0.a.~._._.a.0.j r r M Y v./.P.Y.a.6.k m l j l j i z z w z e j i 9 e i s j k 9 i i q t s s a } }  .O.&.;.,.d.d.d.8.d.8.8.8.8.w.*.*.*.` ` _ _ w 9 q q w q w q 7 7 7 7 7 7 7 7 7 + + + + 0 h l j j M m m M l m m j e j 0.a.0.m 4...4.....6.k m j i 0 0 8 8 9 9 j j e e j l l M M m m 4.m m 4.4.4.4.4.4.4.4.4.6.0.0.0.0.9.U =.$X4.U a.v.~.~.F.B.L.^.^.`.^._.`.^._._./.F._.4X_._._.0X9X4XrXrXrXqX9X4X9X9XqXqX'.#XrXrX6X6XgX#X#XgX'.rXgXgXgXgXgXgXgX#X6XgXgXgXgXgX6XgX6X#XgX6X#X6XgX#X#X6XgX6X#X#X2X6X6XrXgX6XgX-X].F.$XN +.=.=.:. .[ [ [  .-.+.t p w q q ( 8.;X:XZ.D.N.A.=X3.%X-X=X3.=X>X8X1X>X%X>XZ.<.{ m.N.&X4X5X2XN.1.2.C.&X*X*X=X*XG.{ { =X*X=X>X=X=X*X:X:X=X*X%X%X>X;X&X%XB.d.) w p p p k p z z ( z p z p p p p p y w p y p t u t t t y y t y ( y y ( w y ( ` ( ( ( { $.{ ` { ] ] ] | *._ ..) X.} } +.c ' +.c c c c c c c +.c / / ' ",
"l 0 7 7 0 z z k p w p k k / ) %.e.B.y.} a k m r.a.a.V.c.V.`.).a.0.j 8 + e + a./.oX/.p.M j r $ e M v.].'./.c.=.r r $ 9 j 4.V._./.v.m s 8 $ 8 r M p./.].).a.I e d e e 4.a.~.9X_.a.r.m r e M 9.v.Y.a.a.a.6.S l m l j e z 0 e 0 z 9 9 e e i i k a k a p a k ' | %.w.w.w.g.h.k.z.%XfXz.z.z.L.z.z.l.z.z.z.k.d.d.l.f.d.` _ ` ( ( w q w q 7 7 7 7 7 7 7 7 8 7 + + $ 0 j 0 e j l j j l j l m I 4.6.0.a.a.r.a.a.a.r.r.r.0.5.6...o.......4.6.0.0.0.0.0.0.0.a.c.c.c.c.Y.c.~.~.Y.Y.~.c.~.~.V./././././././././.].).'.#X4X'.].,XeX0X9XeXpXeXeXgXeXqXgXxXgXeXeXrXgXbXeXhXgXgXgXgXgXrXeXeXgXgXgXgXgXgXgXgXgXgXgXgXgXgXhXhXhXgXgXgX6X].].6X].].].gX#XgX6X6XgX#X6X6X6X].#X#X6X].-X].].(.].].6X-XF.F.F.$XN c =.+.[ [ +.c c +.=.) t p w 9 9 y f.^.:X;X:X*X*X=X=X=X3X=X3.=X=X>X=XaX=X3X%X$.{ k.Z.*X3X5X:XC.1.f.M.&X=XZ.=X-XG.` >.N.-X-X3X>X=XZ.=X=Xj.%X<.N.%Xj.k.;XS.8.( w p w w k p ( w z z w ) p p i w p w t y w t u u t u u u y y y y ( y q ( w ( ( ( ( ( ( >.$.{ { ] ] @.X.X.*._ ) } } ) } ) } } c c c c c c c +.+.} } } ",
"z 0 7 7 9 w p l p w p ) / ) _ 5.w.B.r.} } k ..r.a.a.c.~.Y././.a.6.j $ + e + a./.'._.0.l j 0 $ e j 0.].#X/.c.4.r 9 8 e j 5.~._.(.c.o.s 8 8 8 e n r./.'._.a.M j r j e 4.c./.9X_.a.p.m j j Y v.v.v.a.K.p.6.j j p z z i 0 e e e w w 7 7 9 w i w w i ) ) _ *.8.d.h.z.B.B.S.Z.;X;X1X=X1X%XfX1X1X:X;X;X1X1X%X%X;X;X;XfXL.z.l.8.x.` _ z q 9 9 q q q 9 7 7 7 8 7 8 $ 0 r 0 r e e e e e j m 0.0.0.4.a.~././.(._._._._././.(./.~.~.~.(./.]._._.]._._._._._.'.'.4X9X9X9X9X9X'.'.4XoX4X4X9X9X9XrXrX9X#X#XgX'.#X#XgX#XgXgX4X#XqXeXqXrXeXeXeXeXgXgXgXgXgXgXgXgXqXbXbXgXgXgXgXgXgXgXrXrXgX6XgXgXrXqXrXrX6X#XgX6XgX].-X].#X].'.].6X#X].].6X].#X].6X6X6X6X#X].6X6XhXgX6X6XgX2X-XgXgXgXgX6XgXhXhX-X].-XF.=.:.=.c c =.:. .+.| q.O.k w w q 7 ( *.;X>XS.:X>X*X:X=X=X=X=Xk.=X=X>X%X8XaX7X=X$.{ k.Z.=X5X8X-XZ.3.2.S.*X1X=X-X-X3.{ { k.-X8X8X-X=X=X-X=X3.k.{ z.%X&.d.:X;X8.( w p w w z ) z z ( z p p p z w i y w y p y u u u y s u u y u q y w ( w w ( ( ( ` ( ( [ $.$.[ { ] ] | | | ) _ ) ) ) ) _ ) k k c } +.n n n c c +.X...X.",
"l 8 7 7 0 i i k s w p p k p | %.y.b.e.' a } +.r.t.a.~.Y.c.`./.K.6.h + + z + c.)._./.a.J j 8 + s N 0./.#X/.c.4.8 e $ r l 4.~._./.c.o.r r $ 8 s M 0./.'.(.a.I z e l r ..c./.'._.V.a.m j M 0.W p.v.0.a.r.6.l j z e j w 9 9 w w z w q w w z ) ) _ ) *.X.8.j.j.l.A.Z.;X;X:X>X:X>X1X>X1X1XaXaX<X<X<X5XaXaXaXaX<X<X<X<X<X<X1XfXL.z.d.x.w w 9 9 q w q 9 7 7 0 0 0 0 0 0 0 r e e e j M 4.a.r.0.r.c./.].'.rXrXqXqXeXqXqX9XrXqXqXqXqXgXgXgXbXhXgXgXeXgXeXeXgXgXgXbXgXgXgXgXgXeXeXeXeXeXeXeXeXeXqXgXgXgXgX#X#XgX#X#XgXgXgXgX9XeXrX9X0XeXrXqXgXgX6XrXgXgX].gX9XeXgXrXgXeXrXrXqXrXrX9X'.].'.6X6X#X9X6X6XgX#X6XgXgXgXgXgXgXgXgX].6X6X#XgXgXgXgX#X#X6X-X6X#X6XgXhX6X].6X6XgXgXgXgXhXhXgXNXNXNXhXNXgXgX-XF.v.c c =.=.=.[ } 5.5.p q 9 9 7 ( d.^.<Xz.%X%X&X=X%X=X=XfX3.=X=X8X=X8X1X>X%X<.{ k.%X=X3X3X2X%X3.<.%X%X-X=X8X-Xk.>.>.3.-X-X8X-X-X>X-X=X3.k.$.M.&X$.&.^.D.j.) w p p w _ w z w w z p p p p y w t y y w p t u y u s y u y u y q ( ( ( q w ( / ' ( ( ] $.$.{ { ` ' } X._ _ _ 6._ _ k m k k l +.o.o.o...} n c } } } ) ",
"l 9 7 7 8 z p l p w p p / p ) 7.w.V.e.} k } m r.a.a.c.~.a.`./.a.6.i 7 + e 7 a.`._._.a.k l 0 7 j M U _.'.).c.U r r 8 e j 6.~._._.c.=.t r 8 9 s M 0./.9X/.r.m j e j 0 m Y._.4X_.~.0.m M 0.0.v.p.v.0.p.5.M j j j j z e 7 9 w w w w w ( ) ` *.8.d.l.l.z.z.A.^.%X%X:X>X,X<X<X<XaXaXaXaXaXaXaX7XaXtXtX7X7X7X7XtXtXtXtXtXtXtXaXaX1X1X^.d.7.p w 9 q q 7 q 9 7 7 7 0 0 r 0 r e 0 e l 0.c./.~.Y.~._.9X9X'.eXgXgXMXhXhXbXiXMXgXhXbXgXMXMXhXMXMXMXbXbXhXgXbXhXbXbXMXhXMXMXMXbXhXgXgXeXgXbXhXgXgXgXgXgX#XgX#X#X#XgXgX#XgXgXgX9XqXqX9XwXqX9XrX6X#X].gXgXgX#X#X6XgXqXrXgXgXqXqXgXgXgXgXgXgXgXgXgXgXgXgXgXgXhXgXgX6XgX6XgXgXgXgXhXgXgXhXgXgXhXhXNXNXNXNXNXNXNXNXGXNXGXNXFXFXFXGXJXJXJXJXJXJXJXJXNXFXNXhX].G.c +.' >.-.+.+.9.} q 9 q 9 q ( d.^.,Xk.M.z.%X%Xk.k.=X=X3.1X>XaX1XaX1X3X=X<.$.k.%X*X7X8X3X%Xd.3.N.%X%X=X-X=X3.3.3.3.=X-X-X-X>X-X=X=Xk.Z.<.S.:Xj.,.M.S.l.` w p p p _ z p w ) w p p p p t w w y p y y u s u u y u u u y y y q w w q ( ( ` ` ` ( { $.$.{ ] ] ' / ` ) ) k ) ) l l _ k m l X.4...o...n } n k k k k ",
"l 0 7 7 0 w p k i q p ) p ) ) *.r.b.r.} ' n +.q.t.a.~.V.V././.v.4.j + + i 7 a./._.`.a.k j 0 7 j j 0.].'./.c.0.% r $ e j 5.~._._.v.=.s 9 8 8 s n 9.(.9X_.a.m j e l e m l._.9X_.c.4.I M 0.0.v.0.W 0.6.I l j k l j i q 9 9 w w w w z ` ) ` _ 8.z.^.S.S.,X1X>X>X:X>X3X<X3XaXaXaXaXaXaXaXaX7X7X7XtXtX7XuXtXuXuXuXuXpXiXuXpXpXpXtX0XaXaX;Xd._ w w q q w 9 7 7 7 8 z e 0 e e e j 4.c._.'.9XrX9XoX4X9XrXeXhXhXMXMXMXMXbXgXhXbXhXhXMXMXMXhXgXhXgXgXgXeXgXgXgXgXhXbXgXgXhXgXgXgXgXhXeXeXeXgXgXgXgXgXgXgXgXgX#X#XgXgXgX#XgXqXMXgXgXgXbXgXgXgXgXgXgXgXgXgX#XwXgXgXgXMXMXgXgXgXMXhXNXNXNXhXMXNXNXNXNXNXNXNXNXFXNXHXNXNXNXSXhXNXFXHXNXNXNXNXNXNXNXGXNXNXNXNXNXNXNXNXFXHXFXSXFXNXNXFXHXNXNXNXNXNXNXNXgX2Xv.c +.c -.y.-.-.r...9 9 q 9 q z d.;X;XS.z.j.M.%X3.3.=X=X3.=X=X>X1X8X>XaX%X<.{ m.%X=XaX7X>XN.<.k.%X1X-X=X8X=X3.3.3.3.=X8X-X8X8X-XN.%X=X%XN.&X>XD.l.S.A.A._ w w w ) _ w z w p w p p p p w t w y t y u y u a u y u u y u q y ( w ( ( w w / ` ( ( ] &.#. .] ' ` ' ) } ) k z ) z l _ x.x.k _ ....X.o.....m k k k k ",
"j z 0 7 7 z p z i i p ) ) ) X.y.h.A.t...a a n q.y.r.c.V.c././.a.4.0 7 8 + r a.4X4X_.a.0.M 0 + e r 0.].'.].c.9.r e 9 8 9 4.~._.4Xb.v.c r t r r +.q./.]._.V.m 8 i j M 0.V._.9X_.~.0.4.I 0.c.Y.c.v.0.4.M l k m l k j q 7 q q y ( _ ` x.d.z.;X;X<X,X<X5XaX5X-X8X8X8X1XaXaXaXaXdXaXdXdX8X1XdXaXdXaXaXdXuXdXtXdXdXdXsXdXcXiXsXcXiXiXiXpX0X<X^.8._ w w q 7 7 q w 9 w z 0 e 8 r I r.~.rXhXMXeXqXeXMXeX4X9XqXgXgXhXbXhXhXgXgXgXqXgXgXhXhXMXMXgXeXgXqXgXgXqXgXgXgXgXhXMXMXMXMXgXhXMXgXhXbXhXgXgXMXgXgXgXgX#XmXgXgXgXMXbXqXbXMXhXmXNXMXNXNXNXNXNXNXgXNXNXNXNXNXNXNXSXNXSXNXHXHXHXHXFXHXHXHXHXHXFXHXHXFXHXHXJXHXHXHXHXHXFXFXFXHXHXHXHXFXSXHXHXHXNXNXNXGXNXhXFXhXNXNXNXNXhXNXgXNXhXhXNXhXhXgXhXhXgX#XF.=.=.=.+.=.-.-.y.q...z 9 9 7 q w d.^.,X;XS.%X-X=XN.N.=XfX=XfX=X1X1X1X-X3XN.<.<.k.%X3XyX7X7X%X2.d.M.%X1X=X=X-X3.( >.3.=X3X3X>X-X>X-X=X=X*X&X:X:X(.2X:XA.B.| q q ( z w w ( p p p p ) p a y p y u p u u u a a u a u a / u ` / ( q ( w ( q _ ( ` _ @.&.$.#.&.' / / _ p p z _ z z ) x.z x.z k k ) m ..k a i w i i i ",
"p z 8 7 8 i p w p p / ..) ) X.w.y.V.c.X.} a ..q.v.y.c.c.V.F.(.c.4.0 8 8 7 9 a.)._._.a.6.k e 7 e M v.].'./.c.4.8 8 r z s 5.~._.].c.q.r 8 t r r o.a._.4X'.~.4.j m e l 4.a./.'./.a.a.a.0.0.v.v.0.m I v j h j j k k i w q q w ) _ _ 8.d.z.^.,X5XpXpXpXyXuXpXhXhX8X8XtXdXdXaXdXaXdXdXdXdXdXdXdXdXdXdXsXdXdXdXsXsXsXsXiXdXiXiXsXiXsXiXAXiXpXaXfXd.*.*.w q 9 9 7 7 0 e 8 0 8 9 m 4.c.9XgXbXhXgXhXMXbXrXeXhXMXMXhXhXMXMXMXMXMXhXhXhXNXMXMXNXNXNXNXNXMXMXMXMXNXNXNXNXNXNXMXhXMXhXMXNXMXMXSXNXNXNXNXNXNXNXNXNXFXNXNXSXNXNXSXNXNXSXNXHXSXSXVXHXHXSXNXHXHXNXFXFXHXFXHXFXHXHXSXFXFXFXFXNXFXFXFXSXSXNXNXNXNXFXNXFXNXNXNXNXhXNXhXhXNXhXNXMXhXhXhXhXhXhXgXgXgXgXgX2X].gXrX4X4X4X].6X#X#XgX].(.(.-X-XF.F.=.=.+.N [ O.-.y.r.9...z q 9 9 q ( 8.z.1X1X:X1X5XaX>X3X3X=Xk.fX=X>XaX>XaX7X%X,.<.<.k.%X>X7X7X%X,.k.M.%X>X=X=X-Xk.{ <.3.=X-X-X-X-X-X-X-X-X:X&X:X:X:X:X:XS.l.X.q 9 z ( z w z p p p p p ( p p y y y u y y u u u u u / y / u ( y w q y ( w ( ( ( w ( %.;.&. .-.| a / ) ) p p z x.) z z ` z _ z z w i k k p i q q t 9 ",
"e z 7 7 9 i i q p k ) _ ) ) *.8.y.V.h. .} ) ..q.b.v.b.V.v./.(.c.5.e 8 9 7 9 r.~.'./.a.o.k e 0 k M 0.].]./.v.0.9 8 t s s r./.,X/.c.=.t 8 t t s o.y./.4X/.V.4.l o.j m 4.a.).,X_.~.V.c.a.c.c.p.0.U M j j j j l k k p w w / X.8.w.j.z.;X,X0XsXAXAXAXAXAXAXjXhXhXjXhXvXdXdXdXdXdXdXdXdXdXdXdXdXdXdXdXkXdXsXkXvXkXAXAXdXiXsXiXsXiXiXiXiXiXiXpX<XL.l.x.` w 7 7 7 7 7 9 8 r 8 8 j m r._.rXgXMXMXNXNXNXhXMXNXNXGXNXNXNXNXGXNXNXNXSXSXSXGXNXSXFXFXFXSXNXNXSXSXFXGXFXFXFXFXFXFXFXFXHXJXHXFXFXGXSXFXFXFXFXNXNXNXSXHXHXNXNXSXFXFXFXHXDXHXFXFXHXVXHXSXNXFXFXNXNXNXNXNXNXNXNXNXhXNXNXNXMXNXhXNXhXNXmXMXhXgXgXhXgXgXhXgXgXgXgXgX#X6XgXgXrX6X#X#X].].-XF._./.(./.].].(.(.(.].(.(.F.].].F.F.m.V.].-X].F.G.:.=.>.=.' =.9.-.q.5...p 9 9 7 q w 8.^.,X:X>X5X3X5X8X8X3X=Xk.k.=X>XaX>X1X5X%X<.@.<.z.:X7X7X5X%X,.j.N.%X:X=X=X8X3.>.3.2.Z.-X-X>X-X3X-X-X2X2X:X2X2X(.:X,XB.l._ q q ( z z ( p p p p p p p p p u y y y u y u t t t u u a / / y t q ( y ( ( ( ( p y ( &.w.&. .%.| ) } ) k p z _ x.` x._ z l z p w 9 i ) ....k 9 q 9 9 ",
"j w 7 7 7 z p e k p p ) _ ) 5.w.t.V.b...} n } e.c.c.V.V.V./.(.c.r.s 0 9 7 s a.~.,X/.a.m k e 7 s c =.].'./.V.a.s 9 s s s r.(.'.A.b.v.t 8 c s s o.q./._./.~.r.k k j j 4.a./._.~.a.p.p.a.v.p.0.Y =.J M h j l k m k p p ) *.j.z.^.&X<X<XpXcXAXGXGXGXGXGXGXGXGXkXjXjXvXvXvXdXdXdXdXdXdXdXdXdXdXdXdXdXsXsXsXsXsXkXsXsXvXsXiXsXsXvXvXsXiXiXiXvXiXtX<X^.8._ w q q 7 9 i 8 e 8 8 8 e I ~.].qXMXNXSXFXNXSXGXFXFXFXJXFXFXFXHXFXFXGXGXFXFXFXHXFXSXGXSXGXSXSXFXFXFXFXFXGXSXFXFXNXNXNXNXFXFXNXNXNXNXNXNXNXNXmXNXNXMXNXNXNXMXmXNXMXNXhXNXgXNXgXgXgXgXbXgXgXgXgXgXgXgXgX#XgX#XgXgX#X6X#X#X#X].6XgX#X].].#X].#X].].].].-X/.].F.].F.].F.].]./.F.F.F.F.v.F.V.V.V.V.(.2X].F.c.c.V.c.v.G.m.v.G.v.b.(.#X-XF.=.=.=.>.=. .=.-.q.q.q.6.w 9 9 7 w ( 8.fX,X,X5X5X3X3X5X5X:XfX=X=X=X>X-X>X>X,Xz.<.&.f.S.3XyX6X5X%X,.d.S.&X,X>X>X-X3.$.j.2.N.>X3X3X3X-X2X*X*X2XD.2X(.(.2X:XV.V.*.w q w ) z w w p w p y p p u y u y y y y y y y t t y u y u u q q y y y ( y ( _ / ( | -.g.%.] -.| ) ) ) k k l ) z x.z z _ z ( ) i w a 5.7.5.k 9 9 9 9 ",
"z 0 7 7 7 w p z p k k X.) ) X.r.B.^.h.} a k o.y.t.b.F./.F./.F.v.r.s 9 7 + i a./.4X/.r.k n 9 8 r s =._.4X].F.v.a s a s y w.(.,X/.F.v.c t c c s =.h.].0X4X_.a...o.z k 0.t.~.~.a.5.o.4.0.4.I M M M M l M j j j k p p ) 5.f.^.<X5X7XpXpXhXAXGXJXGXJXJXJXGXGXGXkXkXkXvXsXsXkXdXvXdXkXdXdXdXdXdXdXkXdXsXsXsXdXsXsXkXsXdXsXsXsXsXsXAXiXsXiXiXsXiXsXpX<XL.8.) w q q w i e j 0 0 8 0 e 0.c._.eXMXNXSXSXNXFXFXFXSXGXFXSXGXSXNXSXNXNXGXSXNXGXNXMXMXNXNXSXSXNXNXMXNXMXMXMXNXMXgXeXeXhXMXgXMXgXeXgXgXgXgXgXgXgX#X#X#XgXrX9X9XqXrX#XgX#X#X#X#XXX].'.'._.].oX].].].].].)./.]././.].]./.F.F.!.F.]./.c.!.!./.)./.F.v.v.v.F.!.v.c.v.F./.].F.F.V.v.v.v.v.v.e.b.t.a.(.].].V.5.y.v.y.=.=.=.=.-.=.t.F.(.B.h.%.>.=.>. . .%.=.q.5.r.6.z 0 9 7 q z 8.z.,X5XtX6X3X4X6X3X*XZ.Z.*X:X-X>X1X5X5XD.l.f.h.S.,X5X8X6XZ.f.j.S.^.:X-X=X4Xn.$.j.f.M.3X3X3X2X2X*X*XD.D.D.-X].D.2X2XA.A.7.p w w p w w p p p p p p p u y t y t t y y t u t t t t t y y q q y y w y ( w _ / / _ -.w.$. .%.| / } ) k l l _ _ x._ ` z ) w i w w ) 5.q...s q t t 9 ",
"e 0 7 7 8 i i t l ) ) _ ..) *.r.b./.c.} k c ..t.c.V.(.(.(.(.(.b.q.a 9 8 7 a c.^.'.(.t.o.} s 9 s M v.].4X'.(.b.c O./ s / t.(.:X(.F.b.=.c  .n n y./.qXeX4X(.V...j m 0.c.~.~.~.a.6.I 4.4.I M M j N h j s r i j i i p ) 8.S.,XtXhXhXjXMXNXGXGXJXJXJXJXJXJXGXGXGXGXkXsXvXsXvXkXkXkXdXdXdXdXdXdXdXkXkXkXkXkXkXkXAXkXjXvXsXvXvXvXsXsXvXvXsXdXiXsXMXiX0X1Xz.X.) w w z i j l e r e r 0 m I a._.rXgXbXhXMXhXhXhXMXMXhXMXgXMXhXhXgXhXbXMXgXgXgXeXqXgXgXeXrXqXqXeXeXrXqXrXrXrXrX9X9X6XeXeXgX'.]._._.].].].].#X!.F.]._.^.V.~._.]./.].!.F.!.v././.].].~./././.F.!.F.!./.F.Y./././.!.F.F.!.F.!.c.v.v.c.F./.]./.$Xv.=.v.=.v.9.v.v.v././.!.c.c.v.$X=.+.=.+.=.O.o.V.(.(.v.9.9.y.y.v.=.=.=.O.%.w.b.h.h.g.f.:.:.;.:.O.=.O.O.r.7._ z w 9 7 q ( d.fX,X,X6X5X,X3X8X8X*XM.C.&X:X>X=X>X5X<X^.k.f.j.S.:X3X5X5XS.&.j.S.Z.>X:X1X3Xn.&.g.w.C.3X3X6X3X*XD.D.*X2XD.(.2X(.6X4XD.l.7.p ( ) p ) ) ( k a p / / / / y y y y ( u u a ' a u ' / a u / ( / ( / ( ( ( ( *._ *.*.&.w.-.%. .+.} ....p z _ _ 8.8.x.x._ _ ) p y a X.r.q.} y t y u t ",
"e w 7 + 7 w p z ) p _ X._ ) O.w.a.A.t.O.} } O.b.C.F.].].F.(.].V.t.+.s s 9 +.b.V.'.(.y.=.9.n c n =.b.(.4X(.(.V.+.5.+.} O.h.B.A.(.V.V.y.=.9.O.9.V./.9X9X(./.b.0.o.a.c./.~.c.a.a.r.4.4.o.K I M N c j e e h j s i i p X.j.:XyXhXAXjXAXAXNXGXGXJXJXJXJXJXGXGXkXGXkXkXAXjXsXkXkXdXkXdXkXdXdXkXkXkXdXkXkXkXjXkXkXkXkXsXsXAXsXvXsXAXvXkXAXGXAXAXAXAXAXhXpX,Xl.8._ k i s m m s j m j 0 j M m r.~._.4XoX9XqX4X9X9XrX6X4X'.6X9X'.'.4X9X_.,X(.].9XoX4X/././.].'.'._./././._._.].'.'._._.(.]./.~.c./.c.!./.!.].].#X]._./.~.^.c.V.v.v.v.v.v.v././.'.'.c.v.Y.c.v.v.v.v.v.v.v.v./.!.F.!.v.v.$Xv.0.0.U 9.v.!././.=.$X=.=.=.v.M =.$Xv.v.b.V.v.v.9.=.+.N c n n c n =.9.9.+.a n } } c +.N c ' / /  .&.&.%.@.@.] ] { #.=.O.5.5.r._ p 9 9 9 q w x.^.,X3X4X4X2X5X6X3X:X&XD.D.:X4X:X:X4X:XB.j.w.h.S.:X0X5X6XS.w.f.V.(.:X:X,X5XB.%.w.g.A.3X3X5X2X:XD.D.(.(.(.-X2X-X2X4XD.A.w.X._ x.*.x.8.5.X.*.%.*.5.O.%.%.O.O.%. .:.;.;.w.y.w.w.w.w.w.w.w.w.w.w.w.w.j.j.l.l.h.t.w.-.-.w. .+.} ....l l x._ x.8.8._ _ _ ) p ) | q.e.w.=.| ' a ' a ",
"0 0 7 + 7 p z i ) ) _ ) } ) X.8.7.V.l.9.O.O.O.t.^.(.4X2X(.'.4XD.c.9.O.+.n 0.V.V.4X(.v.9.q.O.c =.=.m.(.].:X].(.e.-.|  .t.B.b.V.(.b.V.b.t.t.=.y.F.V.4X4X(./.V.a.a.a.V./.Y.r.9.4.4.j s M j c M r r h r e j j k j ) ) X.l.:XyXMXGXGXGXGXGXGXJXJXJXJXJXJXJXGXGXkXkXkXjXkXAXkXkXkXdXdXkXkXkXdXdXdXdXdXkXkXsXsXkXkXsXsXAXsXAXsXAXvXkXvXkXAXAXvXiXAXAXiXAXpX,Xl.8.5.) p 4.m j j 0.4.j M j n M p.~./.~.~.].]._.].'.'._.~.(././.(./././.~.c._.'.'./.~._.'./././.~.~.~.~./.].'.9X9X4X/././.Y.c.v.v.V.v.!.c.v.].].].Y.s.7.a.0.0.v.=.v.$X=.N Y.~.].].p.U 0.0.N M N N U N =.N !.F.!.v.v.$X=.N M N s N v.v.v.v.=.=.N +.N =.M M N =.=.v.v.=.N m =.N [ N n n M c q.=.+.n n n n ' c c c >.%.%.|  .w.-.#.*.@.*.$.%.O.-.O.6.5.7.x.z 0 9 9 q ( 8.^.,X5X4X5X5X6X6X3X:X2XD.M.(.5X5X:X(.3X^.h.f.f.S.:XqX5X5XB.&.j.S.D.2X&X:X4XB.#.-.w.D.:X4X4X4X(.D.2XD.2XD.].2X(.2X].F.^.l.8.a.l.l.L.l.a.f.a.j.a.h.h.l.h.h.h.b.V.C.V.F.V.V.V.F.A.A.(.^.V.A.^.A.S.^.(.(.(.(.(.S.w.q.7.w. .| } X.) k z _ _ 8.l.8._ 5._ ) a ) } %.y.y.q.=.' c ' ' ",
"e 7 7 7 9 i l k ) p ) X._ } X.8.r.l.r...| X.O.y.A.(._.(.:X_.(.(.b.r.o.+.X.9.t.V./.F.v.w.=.y.q.y.+.v.F.F.].F.m.v.G.v.v.v.F.c.b.V.v.m.b.B.B.B.V.S.t.A./.A.V.V.~.V./.V.F.v.=.+.=.=.c c h c r s r % $ r r 9 a e w ) *.l.1XtXiXAXAXAXhXGXGXGXGXJXJXJXJXJXJXGXkXkXkXkXjXsXjXjXdX8XkXdXdXdXdXdXdXkXkXdXkXkXdXkXdXkXkXkXkXkXkXkXvXvXkXAXvXGXGXAXAXAXAXAXvXvXdXaXA.5.....k k m o.o.4.4.4.j e 4.a.a.~.^.~.].(.].'._.(./.(.V.~.V.~.~.V.~.~.~.~._.9X_.a.a.a.~.r.K.a.9Xa.a.0.a.4X4X9X'.a.a.+.5.r.0.m 4.a.r.M e '.9XV.~.0.s j a.n j m m s r j =./.).v.b N j r h s M v j N M I p.~.~.I h I 4.M M e d s K 0.v.p.M M n M M n M n r M 0.r.5.o.o.o.I =.M =.=.m n o.o.+.c a n +.} +.[ +. .+.[ +. .O.#. ./ '  .O.O.| =.O.+...x.7.x.z 7 w w q 9 *.;X^.3X4X3X4X2X2X2X*X:XD.Z.:X:X,X:X:X:XS.&.*.f.^.5X6XhX5X:Xf.w.B.(.:X&X2XyXb.-.j.b.A.2X2X2X2XD.D.D.*X2X:X2X2X(.,X4X:X^.^.`.^.^.`.^.^.^.^.^.^.^.^.^.^.(.^.(.,X^.,X,X_.,X_.,X2X4X4X,X4X_.,X,X_.,X,X_.,X4X4X(.F.y.=.=.q.O.| X.X.) p j _ _ 7.8.7.5.X.X.6.k 5.q.5.t.c.y.n O. .O. .",
"0 7 + 7 9 z p p p j ) ) | _ X.r.y.B.t.O.X.X.X.q.V.^.(.^.^.(.^.~.V.b.b.v.t.b.b.V.F.b.V.v.c.b.b.b.e.F.F.F.F.F.F.F.F.F.F.F.F.F.V.F.V.V.F.V.V.V.V.A./.(.(././.(._._./.c.F.v.N N n N N c r r r r r r r s r q s w q _ 8.A.0XMXAXMXAXAXkXNXGXkXkXGXGXGXkXGXkXkXkXkXkXkXjXjX8XjXjXjX8XkXdXdXdXdXdXdXdXkXkXkXkXdXkXkXkXdXkXkXvXkXkXkXvXAXGXvXGXGXAXGXAXAXvXvXcX0X,Xl.5.} n ..O.5.4.4.0.0.j N m 0.r.a.~.a.V.].'.].V.c.v.a.c.c.l.a.y.y.y.r.y.a./.4X_.r.J 6.0.6.4.l a.S S l p.4X9X9X_.5.5.j m o.j i s M j 8 k '.9X~.c.5.z n m e q l m s 8 r Y c./.v.M j M M e N j r r b M 0.J c.c.I l v J l h j j M I 9.4.M M c M n m m m m c +.9.r.5.o.o...=.N =.M M M =.+.n n n +.+. .+.' [ +. .+.+.[  .O.O.' ' '  .=. .+. .O. .o.s.r.x.z 7 q w q q *.:X1X3X6X8X3X5X3X5X5X(.Z.B.:X3X,X,X4X,XZ.f.*.d.D.<X5XyX6XD.h.w.C.(.2X:X2X6Xn.1.n.m.D.5X6X5X2X:X(.2X4X(.(.(.2X:X,X4X(.,X,X;X_.,X,X_.,X_.;X^.;X,X^.,X,X;X^.;X_.^.,X,X,X(.,X_.,X,X,X_.4X(.(.(.(.(.^.(./.(.D.F.V.-.=.O.q.%.X.X.O.X.p ) X.) ) 7.7.5.5.....k O.4.4.r.a.r...O.O.-.O.",
"w 7 + 7 9 w i j p ) ) } ) ) | 7.h.V.h.7.5.O.X.7.l.V.~.^.~.A.~.b.V.V.B.b.V.V.c.b.v.m.m.F.B.V.V.v.v.F.F.F.F.F.F.F.].F.F./.A.F.F.b.F.F.D.D.D.A.D.(.(.(.(.^./.].].].F.v.v.v.c N c r r r r r r r r r t 9 7 8 i i w _ l.,XpXAXAXMXMXsXNXkXkXNXGXGXGXGXGXkXhXkXkXkXkXkXdXjXuXdXdXdXkXdXdXdXdXdXkXdXkXdXkXkXdXkXkXkXkXkXkXkXkXkXAXAXAXAXvXGXvXGXGXGXAXGXAXAXvXpXtX4XB.5.) n } 5.=.I M 4.I s j 4.6.a.a.6.r./.'.F.p.=.m n k a s s s i i q m 5.~._.~.6.i l 6.l z 0 6.e z l 4._.4X4X~...m l l j j 9 j 4.l 7 .._.'.c.r.o.i m k e s 4.5.k j j 4.0.0.0.M j e N M N M e r s M I l s.a.s.M M l m j M m m o.m M j M n n M =.I o.o.m o.5.5.5.4.....I M Y +.=.M o.o.+.+.+.+.%.-.| u +. .+.[ ' +. . .=. .' +. .-. . . .o.O.5.7.r.x.w 9 q w 9 q 8.(.:X3X5X6X5X6X6X8X6XA.S.S.;X,X3X,X4X,X&Xj.w.f.D.:X:X4X2XD.h.t.B.(.(.:X(.2XA.g.B.e.C.4X2X2X(.D.D.D.:XD.D.(.(.D.(.,X(._.(.^.,X,X,X,X`.^.^.^.^.^.^.^.^.^.^.^.^.^.^.(.^.^.^.(.(.^.^./.^.L.V.l.l.l.V.l.b.b.v.b.t.=. .O.O.O.X.X.O.X._ _ 5.p ) 6.8.7.5.X.) m ..o.k o.r.y.4.5.O.O.O.",
"z 7 7 + 7 z z p p k ) X.) / X.7.a.^.l.q.8.O.) 5.t.V.^.V.B.V.B.l.V.V.b.V.V.V.V.b.F.v.m.F.F.F.V.V.m.]./.F.F.].F.F.F.F.F.F././.^.F.(.(.(.(.(.(.(.(./.(.^.~.(.2X]./.c.v.=.=.c s c r s r s r s r r r 9 8 7 9 k ..5.l.^.0XsXMXAXAXAXsXkXNXGXhXNXGXGXGXGXkXkX8XkXkXkXkXdXdXdXdXdXkXdXdXdXdXdXdXdXkXkXdXkXkXdXkXkXkXkXkXkXkXkXvXkXAXAXAXGXvXGXGXGXAXGXAXAXAXMXiXMXpX4X~.7.} k n o.=.=.I 4.j j m 6.s.7.l M /.].c.M M n s j s s k k k k k i ..c.V.a.k e e l l j w J z l 6.j V./.`.c.4...m 6.k s j k 5...i ..~.~.q.4.l i l l k k 6.r.4.o...9.I 4.4.m s e M o.4.0.0.m n e e M m 4.6.6.l m m m 4.9.9.o.n n c +.n M n +.=.o...5.4...O.5.5.5...=.=.m I =.=.o.o.+.+.}  .-.q. .u +.+. .+.| +.+. .=.O.|  . .O.=. .O.O.O.5.7.x.l z 0 q w 9 q 8.^.;X*X:X3X:X3X3X5X2XS.S.B.A.^.:X:X;X:XD.j.w.h.D.(.(.2X(.^.b.h.B.F.A.D.F.B.F.g.b.;.n.D.D.D.C.b.b.b.n.C.C.S.A.B.A.^.B.l.L.L.L.L.L.l.a.l.l.l.a.l.l.l.l.l.a.l.l.l.l.l.l.l.a.l.a.y.l.y.y.r.8.r.y.a.8.y.r.=.=.9.=.=. .+. .X.} | X.5.) _ *.k _ X.6.5.5.........m n ..9.r.4.O.O.O.#.",
"0 7 7 7 9 e w p ) l ) _ ) ) | 7.f.~.l.w.8.O._ %.l.V.^.V.B.V.^.b.F.F.F.F.F.(.(.D.].F.D.D.-X(.].D.F.].].].-X].].].(.F.(.(.:X_.,X2X(.2X2X(.:X(.:X].(.(._.(.4X9X'./.c.9.+.N r s s % r s h s r r r r t e 9 s 5.t.l.(.,X0XhXAXMXsXAXhXhXhXkXhXhXkXkXkXhXkX8X8XkXkXdXdXdXdX8XdXdXdXdXdXdXdXdXdXdXdXdXkXdXkXkXkXkXkXkXkXkXvXkXkXAXAXAXAXGXvXGXGXKXvXvXGXAXAXdXpXvXvXpX,X~.q.k } 0.v.r.9.4.s j o.6.r.5.l o.v.c.=.M o.o.s k n ) ..o.5.X.} t n 9.q.9.s s n s k l j o.l l o.m r.V.a.r.5.o.o...n j s n o.k e ..y.r.o.o.m n o.n n k ..4...m ..0...m 5.5.m l 4.o.9.0.5.6.m l i k i q j k k k l 5.5.r.9...} +.o.=.o.m +...5.....5.X...X.7.7.7._ o.o.4.O.O.4.O.O.O.O.O. .%.-.%./  .+. . . . . .O.-.=. . .=.O.-.O.-.=.O.O.6.6.x.x.l z ) w w 8.S.S.D.D.D.D.D.D.(.C.A.S.S.S.V.A.A.S.S.B.h.-.w.B.A.F.F.F.V.t.:.b.v.b.b.b.-.m.e.-.-.;.B.C.m.F.b.g.t.e.e.;.g.h.w.h.l.y.w.8.8.8.8.8.x._ 5.7.7.7.7.7.7.7.7.5.7.7.7.7.7.7.5.X.5.5._ X...) X.5.X.O.5.5.5.X.} +.O.=.O.} } } X.) ) ) _ X._ 5.6._ X.X....._ ......4.....4.4.+.O.O.O.X.",
"z 0 7 7 0 z p j ) k ) _ ) ) X.8.a.S.z.w.8.7.X.8.V.^.^.^.~.^.^.^.(.F.F.F.(.(.].2X-X].D.].].(.(.(.F.2X2X].-X6X-XD.(.(.(.:X2X4X'.2X(.].'.2X].:X(.:X_.2X'.4X4X4X].V.c.=.c c r r c r s s r r r 8 r r r s i a 6.8.l.,X<XyXpXiXcXAXAXiXhXkXhXkXkXhXhXkXhXhXkXhX8XkX8X8XdXdXdXdX8XkXdXdXdXdXdXdXdXdXkXdXkXdXdXkXkXkXkXkXkXkXAXvXAXAXAXAXvXGXvXGXvXGXGXvXGXAXvXvXvXcXpX5X,Xh.X.X.y.v.0.0.=.M M M 6.a.r.l 0.0.0.n n 5.O.k ..k k } X.X.} k c n +.+.} c +.o...o.5.k r.m k s o.4.r.o.4.q.j o.0.5.....m n k s 5.4.4.5.4.o.O.4.o...m ..m ..o.o.m l l ..4.....6.o.m m k k ....6.5.k w j ..5...} O.O.O.O.+.+.} O.9.o.O.4.X.5.X.X.%.X.X.X.8.8.8.7.=.5.O.5.O.O.%.7.-.w.%.| | 7.-. . . .O.O. .+.=.=.-.-.-.=. .#.=.=.-.o. .=.r.8.r.a.x._ _ _ ( *.l.h.B.n.j.h.n.n.k.w.l.S.B.h.l.l.h.f.q.w.%.O.%.y.h.y.e.v.t.=.n +.=.=.-.-.' -.:. . .=. .=.-.-.e.e.:.-.=. .-.%. .%.w.*.7.X.5.5.X.6.x._ _ 5._ X.6.5.X.5.X.X._ X...X.X..._ ..X.) ) ) ) ) _ .._ .._ _ _ X.} +.+.+. ...} } X.} ) _ X.X._ x.7.O.6._ X.5...6.....5.o.o.o...m o. . .o.",
"p 0 7 7 0 w p p ) ) _ X.} / ) 8.f.^.l.r.8.8.8.w.^.^.(.^.(.,X,X_.F.F.F.F.D.D.D.(.D.D.].F.D.D.D.(.F.].-XF.].-XF.].(.(.(.(.(.,X,X_.(.2X].2X:X(.(.(.(.(.].(.]._./.c.v.N M c r r s % r r s r r r e e 9 j k k 5.7.l.,X4XeXiXpXiXAXvXvXkXhXkXkXhXkXkXhXhXkX8XkXkX8XdX8X8XdX8XdXdXdXdXdXdXdXdXdXdXdXdXkXkXkXdXdXkXkXAXkXkXAXkXAXkXAXAXAXGXvXGXvXvXGXvXGXAXAXAXvXiXcXiX0X:XB.e.y.y.9.=.0.y.M M m 6.r.r.k 9.9.=.M m 4.....r.5.5.r.y.a.8.X.+.+.n c c +.+.O.o.o.q.s a.o.X.j o.} 9.k ..r.k n 5.q.r.5.....} ..9...o.5.X...O...5.4.4.....o.5.5.p _ _ k k ..) k 4._ ) ) _ 6...5.5.5.5.X.O.q.7.O.O. . . .| +. .} 5.X...5.X.5.5.X.8._ X.7.8.8.*.8.X.5.5.5.O.7.7.%.%.w.e.X.| &.-.#.O.-.O.-. .O.-.-.q.-.-.=.-.O.-.q.q.=.o.9.q.7.0.r.8.x.5.7.) *.f.w.w.2.;.&.w.g.&.@.&.w.f.7.*.w.8.%.O.%.O.|  .q.q.=.+.=.=.+.c c +.+.'  .c +. .s =.' c ' +.+. .+.' ' ' / ] +./  .%.) X._ _ _ 5._ X._ X.5.5.5.X.5.5.X.X.o.X.X.X...X.X.X.X.X.X.5._ ) ) X.X...X...X.X...| +.+.o.O.O.O.O.7.X._ 5.6.5.7.6.7.X.5.7.7.7.5.X.5.4.5.5.4.o.=.4.5.5.5.5.",
"z e 9 7 0 p l l ) k ) X.) ) _ 7.a.^.l.8.w.8.8.l.^.(.,X,X:X,X,X2XF.(.D.D.(.].D.D.].D.D.-X].2X(.(.].2X].F.].6X].].].(.(._.,X_.4X:X2X(.,X2X(.(.(.(.,X4X,X(./.(.V.c.+.c M c s r s 8 r e j j j e j m e ) ..5.8.a.z.5X0XyXcXiXcXAXAXuX8XkXhXhXkXkXhXkX8XhX8X8X8X8XdXkXdX8XdXdX8XdXdXdXdXdXdXdXdXkXkXdXkXdXkXkXkXAXkXAXAXkXkXvXAXkXvXAXvXvXvXvXGXvXGXGXAXGXAXvXcXAXcXyX,X^.^.A.c.=.9.0.c.m n n l 4.7.4.4.m o.+.+.........n ) X.r.r.7.X.O.+.' c +.=.O.+.c a +.9 y.+.5.} j i 5.k O.a.k ..k m o.o.} k m 5.5.....9...n m k o.O.5.O.o.5.5.5.6.r.a.5.X.6.x.k 5.6.5.6.6.5.) k ) 7.t.7.O.%.-.%. .O.%.O.#. .] +.X.X.X.O.7.8.7.7.8.7.8.8.x.*.8.x.8.5.*.7.7.7.%.7.X.h.h.&.| &.-. .O.-.-.-.=.%.-.q.-.q.q.-.-.O.=.q.-.=.O.9.5..._ 6.x.) _ 5.X. .*.| #.#.@.| %.&.%./ / _  .` _ @.X.| O.%.9.O. .O.=.o.c +.=.n c M c =.c =.a u +.t -.u  .+.' ' ' a u u ' ( ' / y } | a / ) p ) ) _ 5.X._ _ ) ..X...X.X.X.X.4.X...X.X...5.X.5.X.6.X.X.X.X...X.X.X.X.X.X...+.+.O.O.9.7.7.y.5.O.7.8.8.8.7.5.X.6.7.r.r.5.5.5.o.o.4.o.o.0.0.q.q.7.7.",
"0 0 7 7 q z i i p ) X.X.5.) _ w.f.l.l.l.8.*.7.l.^.,X^.,X,X,X^.,X2XD.D.D.D.(.:X(.D.(.2XD.(.2X(.D.(.2X].F.D.].2X(.(.A.^._.,X,X:X,X4Xb.4X2X(.F.0X(.(.:X_.'.].~.y.m M N c r t r r r r s r r j j h e ) .._ 6.r.l.^.,X0XtXpXpXcXcXiXuXhX8X8XkXkXkXhX8X8X8X8X8X8XdX8X8XdXdXdX8XuXdXdXdXdX7XdXdXdXdXdXkXdXkXkXkXkXAXAXkXkXkXvXkXkXkXAXAXvXvXvXGXvXGXGXvXGXGXAXvXvXcXcXpXyX4XD.B.V.t.y.r.0.4.I +.4.5.5.5.o.5.4.o.o.5.5...X.5.X.X.5.X.O.O. .+.+.+. .+. . .O. .o.O.O.O.O.O.O...5.O.5.O.5.5.5.=.7.5.O.X.o.X.O.X...o.O.q.5.5.5.7.q.7.9.q.5.5.r.7.5.6.8.7.7.7.7.7.7.7.7.8.5.7.7.*.O.5.7.%.%.%.%. . .#. .%. .| ) X.X.O.7.7.8.8.8.*.X.8.x.8.*.8.X.8.X.8.8.8.8.8.&.8.%.%.%.%.-.%. . . . .O.-.O.O.:.q.-.-.-.-.q.-.O.=.O.=.9.5.5.5.6.7.5.O.*.O.O.#.] ' / ' %.%.%. .X.%.7.8.X.X.7.7.O.O.O.O.O.o. .o.n n +.m n c n c n +.+.+.' +.c +.=.+.n c +.+.c s ' | | y } q.%.a O.X.X.X.O.7.7.X.5.5.5.5.5.7.5.5.o...X.o...X.o.X.7._ 5.5.X.5.5.5.7.7.r.7.r.r.8.r.5.9.-.-.q.9.r.r.8.8.8.8.8.8.s.8.8.8.7.7.r.r.r.r.7.r.0.r.r.r.0.y.r.r.y.y.",
"z 0 7 7 9 i i w p ) _ ..*.) ) 8.a.z.l.l.f.x.*.l.^.(.(.,X,X,X(.,X].(.(.(.(.(.(.(.2X4X4X(.(.(.D.(.(.(.(.(.(.(._._.(.(.(._.,X_.(.(.(.b.2X(.(.V.qX:X(._.(.(.A.v.9.+.c c r r 8 r r r s r e N l l j j ..X.5.8.j.L.;X,X0X0XpXpXiXsXiXuX8XkXkXhXhXhXkXhXhXjXjX8X8XdXdX8XdX8XdXdXdXuXdXdXdXdXdXdXdXdXdXkXkXdXkXkXkXAXkXkXkXvXkXdXvXkXAXAXGXGXGXvXvXGXvXGXGXAXvXvXvXvXvXiXpX0X,X(.^.b.y.9.r.9.o.M m o.4.5.o.5.9.5.X.5.5...X.X.5...5.5.5.*. .+.+. .+. . .+. . .O.O.O.5.5.O.O.O...O.X.O.O.X.5.5.-.5.5.O.X.o.O.o.X...O.5.O.5.9.5.9.q.7.9.5.7.5.7.7.7.5.7.5.5.5.7.6.5.5.6.7.5.O.X.X.X.O.%.%.O.O. . . .#. .[ | ) X.X.5.7.7.7.7.8.X.*.*.*.8.8.*.*.X.7.*.8.*.&.w.%.%.%.%.%.%.%.%. .O. .O.O.O.=.%.O. .O.O.O.O.O. .O.=.O.O.O.5.7.7.5.7.O.7.O.%.#.O.| | ]  .%.%.%.%.%.%.X.X.| ) _ ) O.O.O.=.=.O.O.=.+.=.+.=.M n =.N +.=.o. .+.+.+.+.+.+.' +.O.=.+.c | %. .| %.h.h.%.%.%.X.%.7.w.r.8.5.7.q.5.5.5.9.7.5.5.O.5.5.5.5.5.7.5.7.7.7.7.7.7.r.8.8.r.r.8.r.w.5.9.9.9.r.q.8.r.r.8.s.8.8.a.8.8.8.6.7.7.7.r.7.r.0.r.r.r.a.y.y.0.r.r.y.r.",
"j z 7 7 7 e z i j ) ) _ 5.) _ r.8.z.l.f.w._ _ a.z.^.^.(.,X,X^.(.2X(.D.(.(.:X(.:X2X].2XD.S.A.F.(.(.D.(.(.(.F.^.2X(.,X,X,X,X(.^./.A.t.(.(.A.V.6X2X(._.(.~.a.o...M r r r $ 8 r r e j j j m J ..J S 6.7.7.a.l.^.,X,X0XpXpXpXiXcXiXuXkXkX8XkXhXhX8X8XjX8X8XhXdXdX8XdXdX8XdXdXdXdXdXdXdXdXdXdXdXvXdXkXdXdXkXkXkXGXkXkXkXkXkXvXvXkXkXAXGXvXvXGXGXGXvXvXGXAXvXvXvXvXcXiXyXyX5X5X(.B.y.9.q.9.o.n n n o.o.o.5.r.5.O.5.5.O._ 5.7._ *.7.5.X. .+. . . . . . . .O.O.O.O.O.5.O.X.o.O.O.O.O.O.O.5.%.O.5.5.O. .| o.X.}  .O.O.O.O.O.O.%.5.q.%.O.O.5.5.7.5.X.) ..X.X.6.5.X.X.5.5.X.X.X.| X.| O. . . .| | |  . . .' } _ X.X.7.5._ 7.8.8.*.X.8.8.*.x.*.*.8.8.*.8.8.%.%.O.%.O.%.%.#. .O.O.O.O.O.-.O.7.O. .O.O. .O.=.=.=.=.O.=.O.9.9.O.5.5.%.%.O. .O.%. .#.%.O.#.@.%.%.X.@._ X.X.X.X.) q.q.q.q.-.9.7.q.4.=.=.=.o.=.o.o.=.=.O.O.=.O.o.O.o.+.n +.O.=.O.} 9.w.-.O.%.t.q.X.%.O.O.%.r.t.w.y.7.r.r.5.r.q.7.9.7.r.r.q.r.r.r.8.8.7.8.r.8.7.r.8.7.r.r.8.w.a.r.r.9.q.q.9.r.7.r.r.r.8.8.a.s.l.8.8.8.8.r.r.7.r.r.r.r.r.r.a.0.y.a.r.y.r.y.r.",
"l i 8 7 7 0 w p l _ ) _ O._ ) w.y.V.V.a.8.O._ h.~.(.(.(._.(.^.(.].].(.D.(._.(.(.A.(.D./.(./.(.^.].F.D.2X].V.F.,X(.(.(.^.^.^.,X^.b.w.D.(.(.B.4X,X(.(.(.V.5.n s M 8 r 8 8 $ 8 r s m m M I 6.0.5.6.5.8.8.l.^.(.,X0XpXpXpXpXiXpXpXtX8X8XkX8X8XkX8XhX8XhX8X8XkXdXkX8XdXdXdXdXdXiXsXdXdXdXdXdXdXdXkXsXkXkXkXkXkXkXkXjXkXvXdXvXkXvXkXAXvXGXvXvXvXGXGXGXGXAXAXvXvXvXvXvXyXyXyX4X(.C.c.e.0.=.m M s j n m ..9.r.9...5.5.7.5.5.5.5.5.X._ 7. . . . .+.+. . .X.O.O.O.O.5.5.O.O. .X.O.O.O.O.O.O.O.O.O.O. .o.o. .+.X.O.O.O. .X.O.O.O.O.O.5.O.O.X.5.r.5...k ..5.X.X.X.4.X...X.O.....) } X.o.X.} | +.| }  . .| } } ..X.X._ 7._ 7.7.8.x.7.8.8.8.*.x.8.x.8.7.8.*.7.%.O.%.%.O.O.O.=.-.9.%.q.O.q.-.=.9.-.=.-.q.=.-.=.O.=.-.O.9.=.=.9.5.O.5.O.%.-.O.=. .%.-.%.O. .O.8.%.X.*.7.8.y.8.8.q.q.w.r.w.r.r.r.9.=.4.=.9.=.9.=.=.9.9.=.9.O.=.=.=.O.O.=.9.q.=.=.-.r.q.%.q.h.t.%.-.7.q.w.w.t.t.w.r.y.r.r.r.r.r.8.a.y.y.r.t.r.r.y.8.r.y.y.8.r.8.y.r.8.8.y.8.8.y.w.q.9.r.9.q.r.r.r.8.a.8.a.8.8.l.s.r.r.r.8.r.r.r.7.9.0.r.r.r.r.r.r.r.8.r.8.",
"l z 9 7 7 7 w p k ) ) ) O.X.| 8.8.l.l.r.r.%.5.l.~.(.,X:X,X(.V.~.:X(.^.~.^.(./.^.^.V.~.(.,X,X_.^.].(.(.].(.l.V._.^.^.S.l.^.,X,X_.w.-.D.(.:XV.(.:XB.A.^.V.5.s s s $ r $ 8 8 r e M 4.I 4.4.p.r.r.r.6.8.f.L.^.;X4X0XpXpX0XpXuXuXuX8X8XjXdX8XkX8XkX8XhXjX8XjXjXjXkXjXdXdXjXuXdXiXdXiXdXdXdXdXdXdXsXkXdXdXkXkXkXkXkXjXsXiXsXsXvXkXAXAXGXvXGXGXvXKXGXGXGXGXvXvXvXMXvXcXyXpXyX5X:XF.V.c.q.=.=.M s s c n ..r.r.q.O.X.5.7.5.5.X.X.7.5.7.O.O. . .X.O. .X.O.X.*.X.X.O.5.5.X.O.X.X.X.O.%.O.O.O.O.O.*.O.O. .X.X. .X. .O.*.X.} X.X.X.O.O.O.O.5.O.5.5.5.} k } o.....o.......X.....} ) ..X...X.} ..+...+.O. . .+.....X.O.5.7.5.5.7.5.7.7.7.7.7.*.7.7.8.8.7.7.%.7.=.-.O.=.=.-.=.=.-.q.-.9.-.q.O.q.q.q.q.w.q.w.q.-.=.=.9.=.=.q.9.9.=.9.9.=.q.-.-.q.q.w.g.w.8.%.7.w.r.8.7.7.a.l.l.l.t.r.f.a.y.y.y.y.y.0.9.9.9.y.q.q.9.q.w.r.q.q.w.q.y.y.y.y.t.y.w.q.r.t.t.t.l.V.A.V.t.t.t.t.w.e.w.t.t.y.a.y.a.f.y.l.y.a.t.y.y.8.r.r.r.r.8.r.8.8.8.r.8.7.7.8.8.r.8.r.q.9.q.r.5.r.7.8.r.8.a.8.r.8.K.8.7.7.7.7.5.7.0.5.4.5.4.5.5.5.4.5.7.6.7.7.",
"m l w 7 7 9 w p ) ..k ) O.X.) q.7.B.B.r.8.7.7.t.^.,X_.(._.^.V.^.(.^.^.~.~.^.^.^.~.V.S._.4X_.^.^.(.D.(.2X^.h.l.^.,X(.l.l.^.^.^.^.q.=.V.F.2XB.^.(.t.V.V.c.4.s r e 8 r r r 8 r s M o.I I 6.r.p.s.a.8.l.l.~.^.,X<X0XpXpXtXpXtXtX7X7X8X8X8XjX8XhX8XhXjXhXjXjXjXjXjXjXdXdXjXiXiXsXiXjXdXdXcXdXpXvXsXsXkXdXdXkXkXkXjXjXjXsXsXjXkXvXAXAXvXvXvXGXGXvXGXGXGXvXGXvXvXvXvXcXiXhXyX4X:X(.V.y.=.v.=.m s s e n m 5.r.5.5.5.5.5.8.5.8.7.X.8._ 5. .X. .X.X.O.X.O.5.7.5.5.5.*.x.5.5. .O.O.O.O.%.O.X.O.O.O.O.O.X.X.O.X.X.O.O.O...} | |  .O.O.%.*.O...o.5.5...m ..o.......o.o...o...4.X.6.4.5.5.5...o.} .. .5.=.=.O.O.4.5.5.7.5.7.7.7.7.7.5.7.8.7.7.8.8.8.8.7.7.7.7.-.=.-.=.=.=.-.=.q.q.q.q.q.-.-.q.w.r.q.q.q.q.-.y.-.-.=.y.=.y.q.q.y.q.t.e.t.t.v.b.e.h.h.h.t.t.t.l.h.y.y.t.y.l.8.y.y.w.w.a.f.8.w.r.t.t.q.q.y.t.a.y.v.y.e.t.t.t.t.v.b.h.b.b.b.b.t.t.l.l.b.l.b.h.b.h.t.h.h.h.h.w.t.h.t.a.t.y.y.a.a.y.a.w.r.r.y.r.r.8.8.7.7.7.7.7.7.5.7.6.7.7.8.r.7.7.O.5.5.5.5.5.5.5.8.r.s.8.r.8.8.8.x.x.) 6....._ ........o.o.o.o.o.6.5.6.5.",
"l j e 0 7 9 z l ) _ p ) *..._ 8.7.V.b.r.7.5.O.y.^.(.(.(.,X^.V.^./.^.l.V.B.l.~.V.~.l.l.^.(.^.~.l.F.V.(.(.V.y.a.V._.^.L.l.z.L.^.l.w.O.e.t.(.t.l.V.q.r.a.q.} s q r r r r r $ r r M I I 4.0.p.a.p.s.l.l.^.^.,X,X0X0XpX0XtXtXtXaXaX7XhX8X8X8X8XkXkXhXhXjXjXjXjXhXjXjXdXkXkXdXhXhXdXiXiXdXiXdXdXiXvXvXjXkXdXkXkXkXjXsXsXsXsXsXsXAXAXAXvXGXGXvXvXKXGXGXGXGXGXvXvXcXcXiXuXhXuX5X2X,X^.b.0.y.q.m M s e s ..O.5.O.O.5.7.X.7.7.7.5.8.X.*.X.X.X.O.O.X.O.X.O.5._ _ 5.x.X.5._ X. .O.O.X.O.O.%.| .. .O.X.X. . . .X.X.O.O. .} ' } | | O.O.O.O.O.o.o.o.4.o.4.5.4.O.o.5.o.o.o.4.5.5.5.6.6.5.5.5.5.O.O...O.q.9.q.9.5.9.5.r.r.r.7.7.7.7.5.8.8.7.7.7.8.8.8.y.8.q.q.q.q.y.=.=.y.v.-.=.q.q.w.q.q.-.q.-.q.q.r.q.w.q.q.9.=.=.-.-.-.9.q.q.y.e.v.e.:.v.e.b.t.e.w.t.h.t.t.t.a.f.l.a.a.8.a.8.8.f.8.8.a.r.w.r.t.r.7.5.r.t.t.r.w.w.r.w.y.y.t.e.q.y.t.t.y.y.t.t.b.l.h.y.q.%.5.O.w.e.h.e.w.q.w.t.7.q.r.r.8.7.r.r.7.r.7.5.7.5.7.5.7.7.5.7.7.5.*.7.5.5.7.5.*.5.5.5.5.4.O.5.5...6._ 6.7.8.x.6.7.8.6.) ) X._ ) ) k k k k m m m m ......_ m x.",
"z p w 9 7 7 i k ) ..p p O.X...q.7.V.V.7.%.X.X.w.V.(.(./.(.A.B.V.^.~.L.l.l.~.l.L.l.y.r.L.^.L.l.V.c.V.^.F.h.q.w.l.l.l.l.y.8.l.l.8.y. .%.%.(.r.t.b.%.7.9...j r 9 r 8 r r r r $ r M m 4.4.6.p.a.a.a.l.L.^.^.,X0X0XtXtXtXaXaXtXtX8X8X3X8X8X8XjX8XhXkXhXjXkXkXjXjXjXkXdXkXdXjXdXdXiXdXdXvXdXiXdXdXsXsX8XkX8XkXkXkXjXsXsXsXsXsXAXAXAXAXGXvXGXKXvXvXGXGXGXGXGXGXAXcXpXpXpXuXyX5X6X6X].b.y.v.v.=.c r t s o.O.X...5.r.5.X.7.7.7.7.7.7.5.%.X.O.X.X.O.X.5.O.X.5.5.5.X.6.4.O. .X.X. .%. .X.O.|  .X. .*.O.X.o.+. .X. .O.| } / } ..X.O.O.O.O.5.o...o.o.9.9.9.9.4.4.o.4.5.4...5.r.5.r.7.r.r.r.r.5.o.5.9.q.q.q.9.9.9.9.r.r.0.r.7.7.5.7.6.r.8.8.8.r.t.r.w.w.w.q.q.e.:.v.v.q.:.y.q.w.y.w.q.r.q.q.q.w.e.w.y.y.w.e.w.=.v.q.q.9.q.q.q.9.=.9.y.:.y.y.-.w.q.%.7.w.w.8.8.w.a.f.l.f.8.a.l.8.y.8.y.8.8.r.w.y.O.} X.9.r.q.5.5.=.q.7.7.q.q.q.X.O.5.-.7.q.q.q.5.7.7.q.q.7.7.w.O.%.q.q.%.-.8.w.8.7.7.O.8.7.7.5.8.7.5.7.5.5._ _ X.X.5.5.5.X.5.5.X.X.O._ 6.5.7.5.X.5.....X.....X._ x.7.x.x._ x.X.X...X...6.) ..) k } n } m } k n _ ) _ ) ",
"l i r 9 0 q q e a a a k +.}  .O.7.w.y.w.q.q.7.w.b.b.~.A.^.V.h.t.B.a.r.q.r.t.b.l.r.y.a.b.V.B.y.O.q.b.V.c.y.O.O.q.b.y.q.%.7.q.w.t.q.7.7.5.O.q.r.t.....o.5.o.e e i r r $ 8 r d r M F 6.6.6.s.8.s.d.~.^.(._.,X0XyXtXtXtXtX<XtXyXtX<XaX7XtXtXuXuXiXjXjXjXjXjXjXjXhXjXjXjXkX8XdXkXhXjXkX8X8XkXdXjXdXkXkXjX8XkXjXdXjXdXdXjXkXAXAXAXAXAXAXAXSXGXGXGXGXGXGXGXvXGXAXMXiXpXiXpXMXhX0X9X4X~.v.y.9.9.n s c c s O.=.n } } n O.5.} k ) 7.r.7._ 9.O.5.O.o.4.o.o.5.5.5.5.5.9.5.5.=.O. . .O.=.9.o.%.5.O.5.r.w.r.r.o.O.9.=.O.o.O.9.o.o.5.O.5.4.6.5.s.7.7.r.0.r.y.r.a.r.r.r.r.r.r.y.8.s.r.8.r.r.r.r.r.r.y.e.q.y.y.q.t.y.a.r.r.9.7.5.5.r.a.a.l.a.8.8.7.%.%.O.-.-.-.O.=.=.O.=.=.q.9.=.q.%.%.7.w.a.y.r.7.7.7.7.-.%.%.-.=.o. .o.O.O.O.O.7.q.7.7.w.8.7.w.w.&.w.w.&.w.w.w.w.8.8.8.8.8.8.7.7.5.5.5.5.7.7.9.7.5.5.q.5.r.r.7.5.5.6.7.X._ 5.X._ X._ | @.X.X.| X.......X.X._ X.5.X._ 5.8.8.8.X.| _ _ | | | ) X.5._ X._ _ X.6.7._ | X.| X.) ) ) _ X._ 6._ X._ _ ..X.X.X.} _ X...X.X.X.X.X.X.X.X._ X.6._ X...X.X.| ..| } ..| | } o..._ X.",
"j i e r e e e t j k k c k } } o.O.w.t.w.O.| O.q.t.h.h.l.b.h.y.q.y.q.O.O.7.r.t.t.w.8.%.7.8.w.8.| O.q.v.e.O.+. .=.r.q.O.X.X.%.%.%.} |  .O.O.X.5.5.....o.4.l j e j r r 8 % h r % K v 6.I 6.a.s.8.K.l.^.^.,X<X0X0X<XtXtX7X5X7XyX7X7X5X7X7XtXuXuXuXiXiXhXjXjXAXjXjXhX8XjXjXkX8XdX8XkX8XkXkX8XkXkXdXkXkXkXjXjXdXjXdXkXsXsXjXvXAXAXAXAXAXSXAXGXGXGXGXGXGXGXGXvXAXAXiXiXyXyXiXhXqX0X4X~.V.v.y.0.=.c t s a q.9.O.9.O.o.5.) k ) ) 6.8.s.7.9.9.9.4.5.5.=.o.4.O.o.4.4.o.o.o.o. .+.O.O.-.O.O.r.q.r.r.r.r.r.r.9.q.q.q.=.o.=.9.5.5.0.5.0.7.r.r.a.a.r.0.a.s.s.r.r.0.r.0.r.r.0.s.a.r.8.s.r.r.7.8.q.9.y.0.y.q.v.y.r.9.9.9.9.5.5.5.X.5.7.7.7.r.a.8.%. . . . .O.O. . .O.O. .O.O.=.O.O.%.%.7.8.8.8.8.6.7.5.7.O.%.O.O.+.+.o.X.X.X.X.O.X.X.5.*.7.O.*.X.#.#.*.%.&.X.%.*.7.*.*.*.5.8._ _ ....X...O.4.O.O.o.o.X.o.5...O.5.5.7.6.X.6.X._ _ X._ _ X._ *.*.X...X.X...X._ ..X.7._ X._ X.*._ _ | | | _ _ _ X._ x.7._ X.X.x.*.8.X._ X.) _ ) X.) _ _ _ _ _ x._ 6.X.X.| ..X.X.X.X.X.X.X.| X.X.X.X.6.X._ X.X._ X.X.X._ X.| | } | X...X.X.X.",
"l j i e i i j s a s a k k } +.} +.%.w.q.| / ) O.7.q.q.w.r.w.O. .X.} } } X.O.7.q.7.X._ | 7.7.%.X.+.o.o. .o.X...O.%.O...| X.X.X.| a } } } ......} 4.) ..m M s e j $ h 8 r h % % M m 4.6.6.8.a.8.l.L.^.,X4X0X0X0X<X7XtX7X7X5XtXtX5X5X7X7XyXuXuXiXiXhXjXhXkXjXjXjXiXjXhXkX8XdX8XdX8XkXkXkX8XdXjXdXkXkX8X8XkXkXdXkXkXsXsXAXAXAXAXAXNXGXAXAXGXGXGXGXGXGXGXGXBXAXMXAXiXhXpXiXhXpXeXqX(./.V.y.q.=.M t t } 9.9.o.q.q.6.5.....5.5.s.r.a.y.r.0.0.9.9.9.0.0.9.9.9.9.0.9.9.9.O.=.9.9.9.q.9.y.r.5.9.r.a.a.a.a.r.v.y.0.0.0.9.q.0.0.0.r.r.r.0.r.s.8.8.s.r.r.p.r.s.r.s.r.r.s.r.r.r.s.r.r.s.7.7.0.0.5.9.9.r.r.q.9.9.9.4.4.o.5.4.O.5.X.....O.6.7.7. . . .|  . .+.| +. .O. .} } +.|  .' | } 6.7.6.6.5.x.X.X.X.| | | } } } } ..} ....} } X.| X.X.X.| | | | | | | | _ X.| _ X.*._ ) _ ) n k } m ..m ......n ..........5.6.X.5.X...X.X.X._ _ _ @.X.X._ ............X.X.7.5._ _ _ _ ) / _ | | | X.| X.| _ _ _ _ _ X.5._ X.| | _ X.| X.) 5.X._ 6.6._ _ 6.X.) _ ....) ..) ..X...X..._ X.X._ X._ X.X.X.X.X.X.} | ..| | | | } X.} X.",
"k l i i s j a k k k k s a a / k } X.7.O.) a ) | } } X.X.5. .X.k ) k k } ......} 7.X.X.) X.X.X.X.O.o.} +.O.O.O.O.O. .X.O.%.O.X.) } } ..} } o.X...5.o.n n l e s j r r 8 % h r r M J 4.6.x.K.8.s.l.V.^.,X,X<X0X<X,X5XtX5XaX7XtX8X7X7X7X8X8XtXuXuXiXdXjXhXjXjXjXhXiXjX8XhX8XjXkXdXhX8XkX8X8XkXjX8XjXjXjXjXkXkXdXjXjXsXAXsXAXAXAXAXAXAXAXGXAXGXGXBXGXGXAXGXvXAXAXMXjXMXhXMXhXgXpX0X_._.~.v.y.9.n s 9 c O.o.} r.a.9.5.r.a.a.a.a.r.8.a.e.0.y.y.r.r.q.r.r.r.a.y.y.r.y.y.q.q.y.y.q.9.y.r.r.r.r.r.a.l.a.a.y.y.y.v.r.r.r.a.r.0.5.0.s.p.r.p.8.s.s.s.7.s.r.s.a.a.s.a.a.s.a.s.s.r.s.r.r.s.0.r.0.4.9.I 9.4.I =.=.o.9.o.4.o.O.4.r...k } 5.5.5.X.| +.' ' |  .+.' ' +.O. ./ s a } / a a ) ) ) x._ X._ _ ....} } } n n n n } } } ......X.X.X.X.X.X.| | @.| @.| @.| *.X._ X._ 5._ ) ......m ..} ....} ..............X._ 6._ X...) ) X.X.X.| X.X.*.| | o.X.X...X.X.} x.X.5.*._ _ ) ) | | | | _ | _ X._ | X._ _ x.X.X.X.} X.| ) X.} | ) X..._ _ ) 6._ ..X.X._ X.X.X.X.6.X._ X.X.X.X.X._ 5.6._ X.) _ X._ X.| X.| } | | | X._ | ",
"m l j j s l k l n k k a a k c ) ) } n } ..} } n } } } } X. .} } } } ) } } ..} ) X.} X.X. .X.X...q.O.} } o.O.O. .O. .*.%.%.*.X.} |  .+.a } o.O.n 5.m k M s s e j 8 h $ $ h r % v M 0.6.6.a.a.s.L.~.V.^.,X,X<X<X<X<XtX7X7X5X7XtX5XtX7XtXtXyXuXpXiXhXsXiXuXuXuXuXpXjXhX8XhXhXkX8X8XjXhXdX8XkXjXjXjXjXjXjXjXjXjXkXdXsXjXvXvXMXAXAXAXMXAXMXMXjXMXvXMXcXMXcXMXjXAXMXMXhXhXiXiXqXqX9X_.(.c.r.r.5.} i e n 9.5.5.a.c.a.l.a.L.~.a.r.r.a.a.0.v.0.0.y.0.r.r.r.a.0.v.r.0.0.v.0.0.q.0.9.9.5.9.v.a.r.r.0.0.s.6.0.0.0.0.p.r.0.s.s.r.s.p.s.a.p.a.K.s.K.s.s.K.K.K.K.a.a.K.K.a.K.a.a.a.a.K.a.a.a.a.r.r.0.0.0.0.Y M 9.o.I +.+.=.o.+.9.n s } 8.5.X...} ' } / } | | ) / |  .| a y u ' / / k ) _ _ _ l _ ) _ ..} ) } } k n n n +.n } } ..X.X.O.%.O.O.X.| | |  . .| | | | | X.X.X.O.X.) ....+.o.+.o.......o.o.} o.o.o.4...6.X.........X.X.X.X.| |  .| _  ...o.} X...X. .*.X.X.X.O._ X.X.| | | } | | | | X.| X.X._ _ X._ } | | } | X...X..._ X...X._ X.6.5.X.6.X.6.X...X.X...X...X..._ 6.x.5.x.X.X._ X._ | X.*._ *.| _ _ _ X.| _ ",
") j j z k l k k ..n n k n ) } n } a a ) }  .} } } ) k } ....| } o.......X...} k n } } X.X...} ..5.+.) } o.O.X.} X.X.X.X.%.7.X.) O.O.} y a O.5.n 5.} j n j s s s r r 8 $ h % r M v 6.6.6.d.K.d.L.~.V./.;X,X,X<X<X<XaX5X5X7XtXyX7X7XtX7XtXtXpXuXuXAXjXhXpXiXiXiXiXjX8X8X8XjXkXkX8X8XkX8XkXkXjXjXjXjXjXkXkXjXjX8XjXAXsXsXsXjXhXpXyXpXpXtX7X7X0X5X0X0XaX<X0X0XyXpXpXhXiXMXhXyXeX0X4X(.~.r.r.5.m s s k 5.6.O.t.c.a.a.0.a.a.a.r.s.r.a.0.9.0.0.0.0.p.0.4.0.0.9.0.9.4.9.0.=.=.o.4.o.o.m r.6.s.0.r.0.r.7.0.s.6.0.p.a.K.a.a.K.a.a.L.K.K.K.L.L.K.L.L.K.L.L.~.`.`.`.~.`.`.~.L.E.U.L.Y.Y.K.Y.Y.Y.c.Y.Y.v.v.0.0.0.0.v.=.m o.n } i s o.q.5...} } } ) ' ' } } ' / +.| +.' / / '  .} | } X._ 6._ m x...) ) } | / c n n n } n n n } } ....X.X.X.| | | | | | | | | X.) ) _ X._ X.) X.+.} ..+.m n } n ..} o.+.o... ...........X...X.O.| X. .X.| | | | o.X.+. .+.X.| X. .%.%.%.X.%.%.X. . .|  .O.X.X.X.X.X.O.5._ 5._ | } } |  .}  ...6.X.X.X.6.X.X.X._ 5.X.6.X.X.6.6.6.X.6..._ 6.6._ X._ *.x._ *.x.*.X._ _ | _ | X.| @.| _ @.",
"J l l p l k m ........n ..} } } } n } ....X.} } } } k } o.X.o..... .} O.O.5. ...} ....} ..} | ..o.} } }  .5.O.5.O.X.X.5.7.O.*.X.o.O.+.a n 9.5.n 4.m n n M s e h 8 h 8 % h r r J M I 0.6.a.8.a.l.L.~.S.^.;X;X;X<X>X<X7X7X7X7X6X7X8XtXtXtXtXyXiXiXhXsXiXiXiXiXiXuXjX8XhXhXhXhX8XkX8XdXhX8XjXjXjXjXjXjXkXjXjXjXjXjXsXsXuXuXyXtX0X,X,X;X;X^.z.l.z.z.L.z.L.^.;X<X0X5XtXpXMXjXgXpXyX9X_.~.c.r.4.p k l j 5.5.4.r.0.0.a.6.s.p.0.0.0.s.s.0.9.0.4.0.0.0.0.0.0.0.9.0.9.0.U p.0.4.9.v.v.a.0.r.0.0.a.a.Y.L.Y.a.a.a.c.Y.~.L.Y.`.`.`.`.`.`.`.`.`.`. X`.`. X{. X X`. X`. X|.`. X`.`.`.).).).)./._.).Q./.)././.!.c.c.c.v.v.v.+.M o.n c o.r. .} o.} } ) } | | } ) | | | | | | } } %.X.X.X.7.5.x.5.x._ x.X.X.) | } n n m } n ..} ..} ....X.X.O.X.} } ' | | | } +.} ) ) ) } X.X.) ) ..o.+...} } n } o.} } +...} ..o.....4...5.4.X...O.O.X. .X.| | | | +. .+.o.| | +.| #.%.%.X.@.%.%.#. . .%.O. .O.O.X.O.7.5.5.7.O.X.) | +.| X.X. .X.X.| ..X...X...x.5.x.6.5.6.6.X.5._ ..6.X.6.6...5.*._ _ x.*.x.*._ X._ *._ *._ _ *._ _ @._ ",
") l j j l j k k ....m } ....X.o.....O.O.} } } ..} n } } }  .O...O...} o.O.5.5.O..... .o.} ..O.5.} m ..o.5.7.q.q.7.5.O.%.8.7.7.X. .q.O.+.o.e.9.c o.n s M n j h s r r $ r h r % M v 0.4.s.K.8.l.L.S.l.l.^.^.^.^.;X>X<X7XtX6X7X7X5XtXyXtX7XtXuXuXiXpXtXtX7X7X7X5X5X-X8X8X-X8X-X8X8X8XhX8XdXjXjX8XjX8XkXjXkXkXjXjXjXsXuXtXtX5X<X;Xz.z.l.f.8.*.8._ _ *.*.d.d.l.^.;X,X^.<XhXhXpXyXeX0X9X(.V.a...j l _ m a.a.0.0.0.7.p.4.4.6.4.s.s.s.6.4.I I 0.I 0.4.0.0.p.p.0.0.p.0.v.c.v.p.v.~.)./.Y.`.~.Y.Y.Y.Y.c.a.).`.`.`.`.).`.`._.|. X_. X X X X X{. X`. X X X X X X X X X X X X_. X}.).'.).}.).}.).).).XX].).)././.]./.Y.c.v.=.v.9.o.0.r.+.n } ....} ) X...X.| | } } | | #.@.|  .| _ } _ 5._ ) 6.X.X.X.X.X.| | } } } m ..} +.o... .X.5.*.O.O.O.| | |  . .| |  .| } _ | X.X.5._ O... .o.X.+...}  ...o.O.O. .O.O.X.o.X.5.O.X.O.O.%.X.X. .@. .| |  .+.X.|  . . .|  .X.%.%.*.| @.%.%.O.%.%.%.%.%.%.%.O.7.8.7.7.5.X.| } ' | |  .X.O.X.X.X.X.X.X.X.X.X.6._ x.5._ x.6.6.x.X.x.X.x.6._ x.*.x.*.` x.x.*.X.*._ *._ *.` _ @.@._ @.",
"l m k ..l l l k m ..) o...o...............n n ........} ..n n n ........+...4...5.o.O...o...o...o.m k o.9.r.q.q.O.5.7.7.7.8.8.7.o.+.o.o.5.O.9.o.m n n M 8 r j M 8 h h h % r g M M J 4.6.6.6.8.K.8.l.l.z.z.^.;X,X1X<X<X7X5X5XtXuXiXpXtXpXuXpXpXpXtX<X1X1X1X<X1XfX>X>X,X>X<X5X7XyX8X8X8X8XdXuXdXjXjXjXjXjXsXsXdXdXuXtXtXaX1X;Xz.d.8._ ( ` _ ` ) ` _ *.d.l.l.d.l.z.,X,XpXhXhXhXiXrX9XL.8.8.x.6.0 x.6.s.a.0.a.r.6.p.Y.a.a.a.J.K.P.Y.~.Y.c.c.p.c.c.Y.)./._././.~.)./.'.'.].'.oX'.'._.)./._.).)._._. X`.)._.`.`.`.`.`.`.`.`.`.|. X X`.{.`. X`. X{. X X`. X{.`. X`.`.{.[.W.`.E.{.`.E.).).Q.Y.Q./.!.Y././.Y.Y.~././.V.c.c.y.o.o.=.4.n c O.......X.X.| ) _ _ _ @.@.| @.@.| | _ | X._ x.X.8.*.X.7._ _ _ ' | ........X.4._ ..} .._ } | ) _ { ] | | | +.` | X.` _ _ x._ x.` / s u s / } } / X.| | | o. .O.O.......) ..X.) _ X.X. .@._ ] ' ] [ | @. .#.%.-.-.%.&.$.*.<.<.` <.-. .#.-.#.O.%. .O.%.7.O.*.5.7.X. . .O.@.%.%.%.%.X.| | X.*.*.X._ _ 6.7._ 5.x.x.x.6.x._ x.x._ x._ *.x.` x.*.` x.` *.*.*.*.X.*.@.@.*.@.@.*.",
"l k S S m m m k 6...6.m .._ ..........m ......} n k m ....5.5.5.........o.....O.......m ..o...o.o...n } 5.5.5.o.5.5.5.5.X.5.7.5.O.o... .o.9.o.=.M n m m r h j e $ r e s r r h v M J 6.6.x.7.8.a.r.a.b.L.L.S.^.1X,X<X5X7XtX7XyXpXpXpXtXpXtXtX5X<X;XfXz.z.z.z.z.z.k.3.j.d.k.z.S.%X>X>XaXaX7X8X8XdX8XhXjXjXiXdXuX8XtXaXaX1X%Xz.l.d.f.8.8.*.x.8.8.d.d.j.l.l.z.l.z.l.z.;X0XpXpXeXbX0X9X^.a.6.S x.0 r.6.~.~.L.E.~.Y.`./.E.Y.E.).).`./.)._._.)._.)._..XoX#XoXoXoXoX9X#XoX#X'.#XoX#XoX|._.).).}.).`.).).).`.`.).`.`.{.`.`.E.E.`.`.{.`.{.`.{.`.{.{.`.`.`.{.{.`.`.`.{.`.`.E.E.E.E.E.W.W.E.E.E.).R.!.Y.!.~.!././.).!./.)._./.c.y.9.0.9.M M 6...X.) X.....) | @.| | ` @.@.@.*.| | | *.7.7.*.x._ x.` _ _ ' ` } ..} } } ...._ } X.X._ _ _ | _ { ` ` ] ' ` _ | _ *.x._ ` _ _ x.| | ) |  .| | ) / _ ) / ' ) ) ) } X.X.X.| | _ _ ' ` ' ` / ` ' ` ` ` ] / ` ' ` ` ] | ` { ` ` ` <.{ | | @.#.#.X.| *.*.X.*.X.*.*._  .@.|  .| |  .| X.X.X.X.5.7.5...X.*.x.*.X._ ` x.7.7.7.8.8.X.7.X.*.*.x.*.*.x.*.*._ @._ ` ` ` ` ` ` _ ` _ ",
"S k l l x.6.x.l ..4....._ ..........m o.m m } m s k j ....4.5.5.......o.O.o.4.o.m n ..m ..o.o.o.5...m m 4.4.o.m 5.5.5.O.5.X.X.X.r.q.r.r.r.y.y.0.o.M M I N j h 8 $ r e N r h r h h M k 6.6.6.s.8.y.a.l.l.S.;X(.;X1X<X5X7X7X6X7X7XtXpXpXpXtX7X,X;X^.z.d.*.d.*.d.*.,.8.d.d.j.z.S.%X=XfX=X1X>XaX8X8X8XhXiXdXdXuX8XaXaX1X1X%XS.S.z.l.l.z.z.z.z.^.^.^.^.;X,X;X;X^.^.l.z.^.,X0X0XhXiXrXrX_.8.8._ S 7 L.~.9X9X'.9XrX9XrXoXoX#X#X#X+X@XoXoXoXoXrX@X9X#XrX9XrXrXoXrXoX#XoXoX'.oXXXoX).).).).).Q.`.`.).E.Y.`.).`.`.`.|.{. XE.E.`.{.`.{.K.{.{. X X{. X{.`.{. X X X{. X{.{. X|.|. X|.|.).).}.).).).).).)./.Q.Y.).)./.Y.Y./.)././.c.v.v.0.9.m 6.5.6..._ ) _ ) _ @.| @.@.@.*.{ @.] _ ] x.*.x.*.` x.x._ @.` ] ] | X.X...X.| x._ _ _ @.*._ *._ | ` ` ` ` ` _ @.| @.*.*.` *._ x.` *.| @._ _ ` / _ _ _ ` ` | *.X.*.X.X._ O.X.*._ *.%.*.&.*.&.&.&.&.<.{ <.` | @.` ] *.*.<.` <.<.<.<.] { @.@.$.$.&.$.*.*.*.` *.*.8.*.@.@.@.] ' ` { ( @.| |  .7.*.X.x.5.x.x.` _ ) _ ) *.*._ *.*.x.x.*.*.x.x.*.` *.` *.` ` ` ( _ ( ` ( ( ` ` ( ",
"l l l l 6.6.6.m 6.k 6...4.6.....o...o.......m ..n m n ..n n m m ........o.....o.+.m ..+.o.o.o.4.4.o.o.o.o.5.o.o.5.5.5.5.5.5.5.5...m m o.4.4.I I 0.m M I j j s $ $ r h h h % r h h l l J _ x.6.8.a.f.l.l.z.^.;X1X1X<X5X7X7X8XtXyXtXpXpXtX7X<X1Xz.z.d.d.d.*.*.*.` ` ( ` @.d.d.k.z.fX=XfXfX=X>XaXaX8XuXsXiXsXiXuXaXaXaX1X%X;X;X;X^.z.,X,X^.;X<XtX0XtX0X0X0XtX0X1X^.^.;X;X0XyXpXhX0X0X,Xa.s.x.l 0 `.,XxXxXeXxXbXbXbXxXwXxXxXzXnXwXwXoXoX@X#X@XoXoX).}.).).).).).).`.Y.!.Y././.Y.U.c.Y.P.K.U.W.).`.E.).).).).|. X`. X X X X X X X X XlX XlX X XlXlX XlXlX+XlXlXzXlX+XwX+X+XwXrX@X+X+XoX.XXXoX.XoXXX.X).XX|._.).Y.`.`.)./.R.Y.Y.v.r.0.6.6.x._ 6.6._ _ X._ _ *.` | ` *.` ( ` ` ` *.X.` *.` *._ @.@.@.*.| ..| X._ _ ` _ _ _ _ ` _ _ *.` ` ` ` ` ` ] ` ` *.` *.*.` x.` x._ *.*.*.` ( ` | ( ( ( ( ( ( ` / _ *.*.X.*.| _ ` ] ` ` | { ` { ` ` ` ` ` ( ` ( ( ` ` ` ` ` ` ` ` | ` { *.*.@.*.*.` *.*.` *.X.*.*.| ` ` ] ] ' ` ( ` _ _ ` _ _ ` ` ` ` ` ` ` ` ` ( ` ) ` ) ` ` ` ` ` ` ` ` ` x.` ` ` ( ` ` ` ( ( ( / ` ` ` ",
"S l l l 6.6.6.m 6..._ 6.X.6.X.....6.......m 4.k 5.4.4.4.....m ....k ..o...m o...4.m o...o.n o.M m o.m o.o.9.4.4.6.4...4.4.5.6.5.4...o.4.4.6.4.4.0.M v M h j h r r r h r % % r b h e j k x.x.x.8.8.l.l.l.^.^.;X;X<X7X7X7XtXpXhXuXpXpXpXaX1XfXL.z.d.d.*.d.d.8.` x.*.7.8.w.d.j.j.k.fXfX=X=X>X>X1X>X8XuXiXjXjXiXuXaXaX<X<X;X1X<X4X<X^.0XpX0X0XpXpX0XiXiXpXpXpXiXtX,X,X;X,X<X0XeXhX0X0X,XL.x.x.S 0 `.oXxXxXrXwXxXwXrXrX+X#X+X@XOX.X|.|.|.|.|.oX|.`.E.Y.U.Y.U.Y.E.Y.U.P.c.Y.!.!.!.Y.Y.!.Y.R.W.|..X.XXXoXoXoXoX9X XlX9XzX9XzXzXzXzXzXzXlXlX+XlXlXzXzXzXlXlXlXxXzXzXzXzXzXzX9XzXzXwXwXzX@X+XrX+X@X@XrX+XwX@X+X+X X X|.`.)./.).Y./.Y.c.r.6.6.6.6.x.8.7.7._ @.` @.{ *.` { ` ( ( ` ` ` *.` ` ` ` *.` ` ` ` _ _ _ _ ` _ ` _ ) ` ` ` ` ` ` x.` ` ` ` ` ` ` ` *.` *.` ` ` ` ` ` ` ` ` @.` @.*.` ` ` ` ` ` ` ` ` ) ` _ ` ` ( ( ` ` ` ` ` ` ` ` ` ` ` ` ` ` ` ` ` ` ` ` ` ` ` ` ` ( ` ` ( ` ( ` ( ` ( ( ` ` ` ` ( ( ` ( ( ( ` ` ( ` ` ` ` ` ( ( ` ` ( ` ` ( ` ` w ` ( ` ` @.@.*.` *.` @.*.` *.` $.*.*.{ @.{ { { ,.,.,.<.",
"_ S S x.S 6.6.k J 6.6...6...X.4.4...4...6.6.........I _ o...6.k ..........o.m o.+...m m M M n M M I o.I I o.4.4.j M _ ..6...5.6.0.6.4.5.0.0.0.5.I j l l h h v d h h r 8 r r h r r j l J k x.6.8.a.l.l.z.z.^.;X1X<X5X7X5X7XiXhXpXpXtX<X1XfXz.z.d.8.d.z.z.^.z.fXz.;X1X;X;X;X;X%X;Xk.fXfX=X1X1X>X>X8X8XuXuXjXjXuX7X7X7X<X1X>X5X0X0X0XpXiXpXyXpXiXpXcXcXiXhXMXAXiX0X<X;X;X,X0XpXhXeXeX0XL.K.x.x.z L.`.9X,X XoX X`.).E.R.E.E.R.!.T.P.T.U.K.E.E.E.E.U.W.E.E.E.E.W.).E.Q.Q.).}.}.).XX.X.X#XoX+XwXzX@X@XwXxXzXwXrXzXzXzXzXzXzXzXxXxXxXxXlXzXlXzXzXzXzXxXxXxXzXxXzXzXzXzXzXzXzXzXzXzXwXzXwXzXzX@XwX@XwX+XzXzXlX+XlXrX+X|. X)././.~.Y.Y.c.6.6.x.6.8.6.X.x._ | ` _ ` { { ` ` ` ` ` *.*.*.` ` ` ` ` ( ` ` ( ` ( ` ` ( ` ` ) ` ) ` ` ` *.` ` ` ` ` ` ` ` ` ` ` ` ` ` ` ` ` ` ( ` ` ` ( ` ` ` ` ` ` ` ` ` ` ` ( ` ` ( ` ` ` ` ` ` ` ` ` ( ( ` ` ` ` ` ` ` <.<.` ` <.` <.` ` ` ( ( ` ` ` ( ( ( ( ` ( ` ( ` ( ` ` ( ` ` ` { ` ` ` ` ` *.` *.` ` *.{ ` ` ` @.<.{ ` *.<.` d.d.k.k.d.d.d.j.z.d.z.z.z.k.k.k.k.k.k.k.M.z.S.z.",
"S S 6.6.m x.k m 5.6...6.6.X.4.6...4.o.m ..m m 4.k k j n j m m m o.o.4...4.4.4.5.o.o.M m o.o.m 4.m Y 4.9.I 4.4.4.4.o.6.4.4.0.6.5.o...m I 6.6.I J 0.I p.I j h j d h r % r r r % r h j k S x.6.8.s.a.l.V.L.S.^.;X>X1X<X7X<X7XyX8X5XtX,X;X;X^.z.d.z.fXL.fX1X<X<X<X0X0X5X5X<X<X>X1X1XfX=X=XfX=X1X1X>X5X7X8XhXsXjXdX7X7XaX<X<X5X7XyX0XtXtXpXpX0XtXtXpXiXcXcXiXcXAXvXtX0X,X<X,X,XpXiXqX0XrXL.K.z s.z K.`.~.`.`.`.`.K.Y.K.J.J.J.I.I.I.I.K.J.J.K.E.W.|.E. X|.|.|.+X+X+XoXoXoX+X@X@X+X@X@XlXlXzXlXzXzXzXzXnXgXbXeXxXxXzXzXzXzXzXzXzXzXzXxXzXzXzXzXzXzXxXxXxXxXzXzXzXzXzXxXzXxXzXzXzXzXzXrXwX+XwXwXwXzXzXzXlXlX+XlXlXlX+XoX.X X).`.~.Y.Y.Y.s.x.x.6.x._ _ _ _ _ _ | <.` ` ` ` ` ` ` ` ` ` ` ( ` ` ` ` ( ( ( ( ( ) ( ` w w ` w ` ` ` ` ` ` ` ` ` ` ` ` ` ` ` ` ` ` ` ` ` ` ` ( ( ( ( ` ` ` ` ` ` ( ` ( ( ` ( ` ` ` ` ` ` ` ` ` ` ` ` ` ` ( ( ` ` ` ` ` ` ` ` ` ` ` ` ` ` <.` ` ` { <.<.<.` ` <.d.<.d.<.d.d.d.d.k.3.d.j.d.d.k.d.z.z.S.z.z.L.fXN.z.k.%XfX%X%X%Xz.%XfX%X;X;X>X:X1X;X;X1X:X>X1X<X:X:X>X=X1X-X*X:X>X3X<X>X",
"_ 6.6.6.6.l S 6.x.6.6.6.6.6.6...6.4.4.6.4.4.4.4.6...4.4.6...6...4.6.5.5.5.5.5.6.4.9.0.0.9.0.0.0.v.v.v.0.0.0.6.0.0.0.0.r.0.0.r.r.a.a.a.a.a.c.c.i.c.a.c.Y.I l h $ r % h h h r % $ h l l m l 6.6.8.y.l.l.B.^.^.;X1X,X5XtXtXtXuX7X>X<X^.z.;X1XL.L.;X0XaXaX0X0XtXtXpXpXpXyXpXyXyXyXyXaXaX1X1X=X1X1X-XaX8X8XdXsXjXsXuX7X7X7X5X5XqXyXtX0X0X<XaX0X0XtXyXpXhXiXpXiXAXcXpXpXtX0X0X,XqXpX0XcX0X;X8.x.s.l s.L.L.K.E._.Y.i.E.U.U.I.I.T.E.W.[.}.).E.{.|.+X+X+XlX+X X+XlXzXzXlX+X@XwXzXwX@X+XwXlXlXzXnXzXzXzXzXzXxXxXzXxXzXzX9XzXzXzXzXzXzXzXzXzXzXzXzXzXzXlXlXzXlXlXlXzXzXzXzX XzXzXzXzXzXzXlXzXzXzXzXzXwXzXzXzXzXzXzXzXzXzXwX+XoX X).`.~.Y.~.6.6.m ..S _ l ( *.` *.` ` ` { { ` ` ( ( ( ( ( w ( ` ( ` ` ` ` ` ` ` ( ( ( ( ` ` w ( ` ` ` ` ` ` ` ` ` ` ` ` ` ` ` ` ` ` ` ( ` ( ` ` ` ` ` ` ` ` ` ` ` ` ` ` *.<.` *.*.*.<.<.` <.<.` <.<.<.<.<.<.k.<.k.<.k.fXfXk.k.<.k.fXk.fXfXfXk.k.%Xk.fX%X%XfX%X%X1X%X1X;X>X1X-X1X1X=X1X%X;X%X:X1X>X<X7XaXaXtX7XaX7XaX7XaX7XaXaXaXaXaX5X7X7X7XtXtXtXtX8XyXtXpX7X7X7X7X7X7X7X5XtXtX7XtX",
"S m S J 6.S l l S m 6.6.6.6.s.7.r.s.6.x.x.s.6.x.6.x.x.m x.6.7.p.8.a.a.a.a.s.8.r.s.a.a.a.a.a.K.a.Y.~.c.~.Y.~.~.~.~.~.~.~.~.~./.^./.^./././././.~./.)._.~.a.I e d d e h r h 2 h r g r r h S 6.5.7.8.l.l.L.;X;X;X<X5X<X<X<XtX7X5X:X;Xz.8.z.l.d.^.<X0XtXtXyXpXpXpXqX0XMXiXyXpXpXyXtX5X>X7X>X8XfX1X1X1X8XdXdXdXdXdX1XaXaX1X<XtX5X0X0X5X,X:XS.^.,XyXpXpXyXtXpXpXiXpXyXyXyXtX5X0XpXpXeXeX9X,XK.l s.z a.K.L.E.K.{.).W.}.{.{.{.{.{.lX X+XOXOX XlXlXlXlXlXZXlXlXZXlXlXxXlXlXZXlXZXlXlXlXZXlXlXlXlXlXlXlXlXlXlXlXcXlXlXlXlX@X@XlXlX@X@X+XzXlX+XlXlXOXlXOXlXlX XlX XlXlXlX XlXlX XlXlX XlX XlXlXlXlXlXlXlXlX@XOXOX@X@XlX@X@X#X@X#X!.K.)._.Y.a.k k l w z 5.) ( x.` w ` *.` ` ` ( ( ( ` ` ` ` ` ( ` ( ( ` ` ` ` ` ` ` ` ` ` ` ` ` ` ` ` ` ` ` ` ` ` ` ` ` <.<.<.` <.` <.` ` ` <.` <.<.d.d.d.z.d.d.d.d.z.z.^.;X;X%X;X%X%XfXfX%X%X;X;X1X1X1X1X1X>X>X>X<X>XaX>X>X>X>XaX>X7XaX7X7X>X3X7X8X8X8X8X8X8X8XdX8XdXuXuXuXuX8XuXuXiXsXuX8XuX8XuXyXuXdXuXdX7X8X8XuXtXuXuXuXtX8XtX7XtX7X7X7X<X7XaX7X8X7X7X8X7XaXaXaX7X7XaX>X>XaX3XaX",
"6.S _ S 6.6.6.6.x.x.6.s.6.s.s.K.a.a.s.r.a.l.a.a.K.a.a.l.K.V.L.~.`.`.)._._.`.`._.`._._.`._._._._. X_.oX'._.oXoX'.oXoXoX9X9X#X9X9X9X9X4X9X#X#X4X'.#XrX#X].c.4.j z h h h d h h % h j h 0 l _ 6.x.8.r.l.V.l.;X^.^.<X7XaX7X7XtX5X1X%XS.z.z.^.;X;X<XtX0X0X0XtXyXpXpXpX0XcXiX0XpXhXpXyXtX<XaX1XaXfX1XdX1X8X8XdXdXdXdXdXdX7XaXaX0X5X<X4X4X,X^.l.f.l.l.S.z.S.^.5XyXyXtX0X5X7X5X>X5XqXpXyXpX0X_.L._ s.z s.s.`.`.}..XoX|.|.lX{.OXOXOXlXlXzXzXzXlXlXlXlXlXxXlXxXxXlXlXxXZXlXlXlXlXlXlXlXlXlXlXlXlXlXlXlXlXlXlXlXlXlXlXlX XlXlX@XlXOXlX+X+XlXlXlXlXlXlXlXlXlXlXlXlXlXlXlXlX XlXlXlXlXlXlXlXlXlXlXlXlX XlXlX X@X@X@X@XOX@XOX@XOX@XXXQ.`.). X`.K.6.S _ l _ _ w _ ` ` ` d.` ` ` ` ` ` ` ` ` ` ` ` ` ` ` ` ` ` ` <.<.<.<.<.<.<.<.<.<.<.` 3.3.k.<.k.<.k.k.k.k.k.fXk.k.fXk.fXfXfXfXfXfX%XfXfX1X1X1X1XaX<X<X<XaXaXtXtXtXtX8XtXtXtX7XtX7XtX8XtX8X8X8XuXuXiXuXuXuXuXuXuXuXuXuXuXuXuXuX8X8X8XuXdXdX8X8X8X8X8X8X8XuXyX8XuX8X8XtXuXuX8X7X<X7XaXaXaXaX>X3X<X>X>X>X1X%X%XfX1X%X%XfX%XfX%XfX=X%X%X%X1X=X=X1X>X1X%X=X=X%X%X%X%Xk.%Xk.",
"6.s.s.s.a.a.p.s.a.K.L.K.Y.~.`.`.`.`./.`.`._._.`.9X X,X X,X X9XoX9X9X9XrXeXrXeXwXxXxXeXeXeXxXxXeXeXbXeXxXgXbXeXbXgXgXeXbXbXgXbXbXeXeXeXeXgXgXgXgXgXgXgX#X).r.l e d z d h r h h 2 h r r l m x.s.8.r.l.^.L.,X;X;X5X5X<X5X7X7X<X;XS.l.z.^.;X,X,X5X<X0X0X0X0X0XtX0X0X0XyX0X,XqXyXtX7X8X>X>X%XaX1X1XaX1XaXdXdXdXdXdXdXdXaXaXaX<X,X:X;X<X:XA.l.l.z.z.d.l.j.z.>X5X1X,X<X5X7X6X3X<XqXpXqXeX0X_.L.x.s.z s.K._. X XzX+X+XOXlXlXlXlXlXlXzXzXZXlXzXzXlXlXlXlXxXxXlXlXlXxXlXlXlXlXlXlXlXlXlXlXlXlXlX{.lXlXlXlX XlX X X XlXlX XlXlXOXlX+XlX+X+X+XlX+XlX|.lX XlXlX XlX X XlXlXlXcXlXlX XlX X XlXlXlXlXlXlXlXlX X@X@X@X@X@X@XOXOX.X.XoX).`.).)._.~.p.s.6.6.x._ _ 8.L.8.d.z.z.d.z.z.k.d.d.k.fXz.z.d.k.k.k.k.%XfXfXfX=X=XfXfXfX%XfX%X%XfX%XfX1X1X1X1X1XaX1XaX1XaXaX1X8X1X8XaXaX8X8XaX7XtXtXtXuXtXtXpXtXtXtX5XtXtXtXuXuXuXdXuXiXuXiXuXuXuXuXuXuXuXuXtX8XtX7X8X7X7X7XuX8XuXuX8X8X7X8X7X3X8X8XdX8X8XaX8X8XaXaX7X7X7X3X7X7XaX7X7X7X>X1X=X%X=X%X%X%Xk.fX>X1X1X1X;X%X%XfXfX%XfXfXfXfXz.fXk.k.k.z.k.fXk.fX%X%Xk.k.fXk.k.k.%Xk.z.z.",
"K.~.Y.`.`.).`.`.).). X XoXoX9X9X9X9X9XeXeXwXeXwXwXeXwXwXwXeXeXxXxXnXmXmXmXmXBXmXbXbXMXbXbXMXbXnXbXbXbXMXbXbXbXbXxXbXbXbXbXbXbXbXMXgXeXgXgXbXbXbXgXgX@X#X_.a.S h h h h h h 2 h r e d 0 j l x.8.8.a.V.S.^.,X,X<X5X7X<XaX<X5X>X%XS.l.^.;X^.,X,X,X;X<X<X,X;X,X,X,X,X,X0X,X:X,X4X,X>X7X>XaX%XaX1XaX1XdX8XdX8XdXdXdXdXtXaXaXaX5X<X:X^.^.l.j.d.f.d.w.d.;Xl.l.%XS.k.B.1X3X5XtX7X0XyXeXyXpXeX^.L.S x.l 6.K. XrX+XzXzXlXzXlXlXlXlXlXlXzXzXzXzXlXlXlXlXlXlXlXlXlXZXlXlXlXlXlXlXlXlXlXlXlXlXlX{.lXlX XlXlXlXlX XlXlXlXlX XlXOXlXlX@X+X+X+X+XlX+XlXOXlXlXlXlXlXlXlXlXlXlX XcX XlXlXlXlXlXlXlX X XlX{.lX{.lXlX@X@XOXOXOX@XOXOXoXXX].XX).K.K.).).(.~.~.~.^.^.^.,X1X1XL.1X1X1XaX1X<X1X1X>XaXaXaX>XaX1XaX3XaXaXaXaX8X8X8X7X8X8XdX8X7X7X7X8X8X8X8X8X8X8X8X8XdX8X8X8X8XdX8X8XdX8X8X7XtXtXuXtXtXdXdXtXtXtXaXtX7X7XaX7X<XaXaX7XaX7X7XaX<XaX<X<XaX>X<X>X>X>X>X>X>X1X-X>X1X1X=X=X1X1X%X=X=X=X-X1X=X=X=X=X=X=X1X%X%X1X*X1X%X=X%X%X%X%Xz.%X%X%XfXk.k.k.k.z.z.k.z.z.z.k.z.k.k.d.k.d.k.k.k.d.k.<.k.d.k.k.k.fXk.k.k.k.k.k.<.d.j.d.d.",
" X X X X+X+X9X+XwXrXzXwX@X@XlXlXzXwXxXxXxXwXxXwXwXeXeXwXxXwXxXeXrX+XwXwXwXwXwXwXxXxXxXxXxXzXxXxXwXwXwXwXwXwXwXwXwXrX@XwXwXwXwXwXrXrXrXwXwXeXgX#XgX@XrXrX_.i.I l d z e e h e h h h d e l _ 6.8.r.a.V.~.^.,X<X,X5XaX<X<X>X>X>X:X%X^.,X,X;X:X,X,XA.:X,X^.z.z.l.z.S.^.,X,X^.,X4X:X<XaX>XaX%X>X1XaX1XaX7XuXdXdXkXkXdXaXtXaXtX0X0X,X1X:Xl.d.8.&.*.*.*.z.d.j.z.j.d.d.z.%X:X5XyXyXyXpXgXeXcX_.L.x.m z S L. X9X+XwXwXlXlXlXlXlXlXlXlXlXlXlXlXlX+XlXlXlXlXlXlXlXlXlXlXlXlXlXlXlXlXOXlXlXOXlX{.{.lXlXlXlX{.OX+XlXlXlX XlX X@X@XOXlXOXlXlXOX+XlX+XlXlXlXlXlXlX XlXxXzX XzXlXlX XlXlXlX XlXlXlX{. XlX{.{.lXlXOX@XOX@XOX@X#XOX@XoXXX'.).P.P.)._.rXeXeXeXpXeXMXcXcXpXpXtXtXaXcXtXtXdX7XuXuXdX7XdX8XuX8XuX8X8X8XdX8X8XdX8XdXdXdXuX7XaXaX8XaX8XaXaX8X8XaX7X8XaX7XaXaXaX8XaXaX1X1X1X>X1X1X1XaX1X1X1X1XfX1X;X;XfXfXfX%X%XfXfX%X%XfXk.z.z.z.fXz.z.fXfXz.k.%X%X%X%XfXz.fXk.fXk.z.k.k.k.k.fXk.k.=XfXk.fXk.k.fXk.fXk.%X%Xk.z.k.z.k.k.j.z.k.k.k.k.k.d.k.d.d.d.k.k.d.k.k.k.d.d.d.d.d.d.<.d.<.d.d.k.<.k.k.k.k.d.k.k.k.<.k.<.,.,.<.",
"+XwX+XwXzXwXzX+X+X@X+X+X@X@XOXlX+XrXwXwXrX+X+XrX+X+X+X+XoX+X+X X+X+X X+X+X+X X+X X X X X.XoX X|.XX}.XX|. X}.}.XX|.|.|.|.|..X|.|. X X).}.XX.XoX}.XX].}.oX).p.J Z h h g h h h h e h r j j k l x.r.f.~.z.^.,X<X<X<X5X<X>X>X1X:X1X:X;X;X(.^.^.,X(.z.^.l.j.8.8.*.7.8.l.;X1X,X5X<X>X5X<X>XaX1XaX%XaX1XaXaXuXdXsXAXkXdXdXtXtXuXaX,X1X,X<X^.l.d.d.*.*.<.w.k.%X;Xz.z.d.z.&X:X6XpXgXhXyXyXqXcX^.`.6.x.l S K. X X X+X+XOXlXlXlXlXlX XlXlXlXlXlX XlXlX{.+X+XlX{.lXlXlXlXlXlXOXlX{.lXOXlX{.OXlXlXlXlX{.lXlXlX+XlX XlX XlX XlXOXlXlXOXlXOXOXlX+X X+XlXlX X XlXlXlXlX X XzX X9X XlX XlX XlX XlXlXlXOXOXlXlX{.lXXXOX@XOXOXOXOX@X#XXXXXoX).U.P./.).eXMXMXSXMXpXAXcXcXvXAXvXtXtXaXtX7XaX8XtX7X7X8XaXaXaXaXaXaXaXaX1X=X1X>X1XaXaX8XaX1X1X1X=X1XfXfXfXfXfXfXfX1XfX=X1XfXfXfXfXfXfXfXz.z.fXfXfXk.k.fXd.k.d.d.k.k.d.d.k.d.d.k.d.d.d.d.<.<.<.d.d.d.k.k.<.<.<.<.<.d.d.d.d.3.3.d.k.3.k.k.k.k.3.3.k.3.k.k.3.k.k.k.k.%XN.fXk.k.k.%Xz.k.k.k.d.d.d.k.k.d.k.d.k.k.z.k.z.z.z.k.k.k.k.k.k.k.k.k.k.d.3.<.d.k.k.k.k.<.k.k.k.k.k.k.j.k.k.k.",
"+X+XOXOX+XOX X|.|. XOX|.|.|.[.OX|.|.|.|.}.}.|.|.W.`.{.W.W.W.E.E.E.E.T.E.K.E.T.T.E.U.U.T.U.R.R.T.R.U.T.U.T.U.I.U.U.T.T.I.U.U.I.U.P.K.K.U.Y.!.Y.!.!.I.Y.R.Y.6.S l h z h h h h h N r e j j ) ) x.r.8.L.B.^.,X<X<X<X<X<X<X>X,X>X:X;X^.^.B.z.B.S.l.8.l.d.*./ / ) _ @.l.,X0X5X5X:X:X<X;X>X7X=X1X=X1X1X1X8XtXdXkXvXkXdXtXaXtXtXaX,X1X1X;Xz.l.f.*.( ` *.d.;X<X<X1XS.z.z.3X5X6XhXyXyXqXqXqXcX^._.6.l S l 6.E. X X+X+X XlXlXlXlXlXlXlXlX+X XlXlXOX XOXOXlX XlXlX XlX X X XlXOXOXOXOXOXOXOX{.{.lX{.lXlXlX X{.lXlX{.lXlXlX XlXOXOXlXOXOXOXOX X+XlX X XzXlXzXlX XlX X+X X XlXlXlX X X XlXlX X XOXOX+XlX{.lXlXOX@X@XOXOXXXOX@X.XXX}.XXW.!.Y.!.Y.rXrXrXbXcXqXqXcXaXcXcX1X1XfXfX1XfX%XfX1X1X1X1X%X%XfXfX%XfX%XfXfXfXfXfXfXfXfXfXfXfXk.k.k.fXk.fXk.k.k.k.k.fXk.k.fXk.k.<.k.k.k.<.d.d.k.d.<.d.d.d.fXk.k.z.fXfXk.d.<.<.<.<.<.<.<.<.<.<.<.d.3.d.d.d.<.3.k.k.k.k.k.k.d.k.k.d.d.k.k.d.k.k.3.k.3.3.k.k.k.k.k.fXk.fXk.z.k.k.z.k.k.k.k.d.d.<.d.3.d.k.<.k.k.<.<.d.d.k.d.k.k.d.d.d.d.k.k.k.d.d.k.k.k.k.k.k.d.k.k.d.k.d.<.k.d.j.d.d.",
".X.X|.}.|.{.{.{.}.{.}.[.W.W.[.[.K.E.E.E.K.T.E.W.U.J.K.I.K.J.K.J.T.T.J.H.K.J.J.H.J.Q H.H.J.J.J.J.I.J.P.J.J.H.J.J.Q Q H.Q ! ! Q E u.u.Q Q u.! ! ! $XU W P.J.S h d h h e j h e e h j r j j l ) _ 8.y.l.L.^.4X<X,X<X>X<X5X<X>X1X;X;X:XA.S.A.A.l.&.*.w.X.( ( w ( ` _ ;X0XiXpXtX:X%X:X%X1X8X1X1X1XaX1XaX8XdXdXkXkXkXdXdXuXuXpXpXaXaXaX3X:X%XS.d.` ` ` d.;X7X>X;X1X<X>X7X6X8X8XqXhX8XhXeXMX_._.s.l l z l K.`. XrX+X XOX X+X XlX X X XlXlX{.{.+XOX+XOX{.lX{.{.lX{.lX XlX{.OXOXlX{.lXOXlXlXlX XlXlXlXlXlXOXlXlX{.lX{.lXlXOXOXlXOXlXOXlXOXOX+X XlX X XzX X XlX XlX XlXzX X X X XlXlX{.{.lXOXlX+XOXlXlXOXlXOXOX@X@XOXXXXXXX+XXX}.Q.Q.!.Y.P.~.oX~.a.,X9X_.,XfXz.fXfXx.L.fXz.d.d.k.k.k.k.k.k.k.k.k.k.k.k.k.d.fXk.k.k.k.k.k.k.k.3.<.k.k.<.<.<.<.3.k.<.<.<.k.k.k.<.<.<.k.3.<.<.k.d.d.d.k.<.<.<.d.<.<.d.<.d.d.` d.<.d.<.d.k.k.k.d.d.d.<.<.<.<.<.d.d.d.d.d.d.d.3.k.k.k.k.k.k.k.k.k.3.k.k.fXfXk.k.k.fXk.k.k.k.k.k.k.k.%X%Xk.d.d.<.d.k.k.d.k.d.k.k.k.k.k.k.k.k.d.d.k.k.k.k.k.k.k.k.k.k.k.d.k.k.z.k.d.k.k.k.<.k.<.d.k.k.k.k.",
"|.{.{.[.[.XX[.!.[.[.T.[.!.!.[.T.T.Q.Q.Q.T.T.T.T.J.J.H.I.I.T.J.H.T.I.J.H.T.T.J.T.T.H.H.H.H.H.H.H.H.J.J.H.H.H.i.H.~ ~ H.E ~ ~ ~ E E ~ ~ ~ G B ^ F H H F J J J h l z 0 $ d h M N 0 j e e k ) ) _ 8.l.l.^.:X,X<X,X,XaX<X<X<X>X,X%XS.;X;XA.B.l.d.*.| *.( ) _ ( q ( *.l.<XiXiXpX8X:X&X1X8X8X8X1X=X1X1X1XdX8XdXsXAXsXkXdXpXtXdXaXcXaXaX7X<X>X%Xd.<.<.k.%X1X7XtX7XaX7X8X-X8XhX8XhXhX8XhXiXbX,Xr.l.s.z d z a. X X X X+X+X X|.{.+XlX X+XOXOXOXOXOXOX{.OXOX{.lXlX{.lXlX{.lXOXOXOXOXlXOXlXOXlXOXlXOXlXOXOXOXOXlXOXlXOXOXOXOXOXOXOXOXlXOXOXOX+X+X+X+X@X@XOX@XOX+X+XoX9X+X+XlX@XOXXXOX@X@XOX#XOXOXlXlX{.OXOXOXOXOXOXOXOXOXOX#XXXXXXXXX[.Q.I.v.Y.a.0.Y.~.a.) X.7.x.d.d.z.d.d.d.d.d.<.d.d.d.k.k.d.d.<.d.k.d.k.<.k.k.k.k.d.k.k.<.k.<.k.<.k.<.d.k.k.k.<.k.k.<.k.k.d.<.k.k.d.k.<.<.d.d.<.d.d.d.d.k.d.d.<.d.d.<.k.<.<.<.<.<.d.<.<.<.<.<.<.<.3.k.k.d.d.<.d.k.d.k.k.k.k.k.k.k.k.k.k.k.k.3.k.k.z.k.k.k.k.k.fXk.k.fXd.k.z.z.M.k.k.k.k.<.k.k.j.k.k.k.k.3.d.d.d.k.k.3.d.3.d.d.k.3.k.3.k.k.d.k.d.k.k.k.k.k.k.d.k.3.k.d.k.d.k.j.d.k.",
"OXOX|.|.OXOX[.[.[.OXlX[.XXXX[.OX[.[.XX[.}.[.[.XXOXOXXXOXOX+XOX|.[.W.{.Q.T.{.E.Q.T.T.H.H.J.T.J.J.J.H.J.I.H.H.H.I.~ H.! H.H.~ H.H.E E E ~ ~ G ^ B B F g J J I S Z j d e e h j e h j e i k ) _ x.8.a.l.^.^.,X<X<X<X7X<X<X>X>X;X;XS.^.^.S.z.l.j.w.*.8.*.@.*.` y ` *.d.,XpXpXyXyX5X2X1X1X8X8X1X1X=X1XaX8XdX8XsXAXkXkXdXdXdXtXdXtXtXaXtX7X5X>X;XfX%X=X1X>XaX8XtXuXuXdXjXhXhXjXhX8XhXhXpXiX9XL.L.8.z z S s.`. X X X X{.|.|.{.OX{.lX X XOXOXOX{.OXOXOX{.lX{.lX{.{.lXOXOXOXOX{.OXOXlXOXOXOXOXOXOXOXOXlXlXlX{.lX{.lX[.lXOXlXOXlXOXOXOXlXOX+X+X+X+XOX@X@X#X+X+X+X+X+X+X9X X#X@XXX#XOX@X@XOXlXOX{.lXlX|.OXOXOX#XOX@XOXOXOXOXXXXXXX).).Q.I.i.).c.4.4.l s i p w ( ` 8.x.d.d.d.d.<.d.<.k.k.d.d.d.d.k.d.<.k.d.k.d.k.k.d.k.d.d.k.<.d.<.k.<.k.d.d.k.<.k.<.d.d.<.d.k.<.<.d.k.d.<.<.k.<.k.<.k.k.d.d.d.d.d.d.d.d.k.<.d.<.<.<.3.d.d.d.<.<.<.<.d.d.3.j.k.3.d.d.k.k.d.d.k.k.k.k.k.k.j.d.k.k.k.d.k.z.k.k.k.k.k.k.k.k.fXk.M.z.k.z.z.k.d.<.j.k.d.k.d.d.k.k.k.3.d.3.d.3.d.k.k.k.d.k.d.k.d.d.k.d.k.k.d.d.j.k.k.k.k.d.d.k.k.k.j.j.j.j.",
"lXOXlXOX@X@X#XOXOXlXlXlX@XOX@X@XOX+XOX@X+X+X@XOX{.W.W.W.}.}.[.Q.}.[.[.[.[.[.[.[.{.T.J.T.T.T.U.I.J.J.T.J.H.J.J.J.! ! H.H.Q Q Q H.E H.~ E ~ G H F b b g v J J k l d i e j h e e r j e z l ) k x.w.a.l.^.^.,X<X<X>X5X<X>X>X>X>X;X%X:X;XZ.S.z.j.f.f.j.w.,.w.*._ *.d.z.<XyXtXyXyX6X8X8X>X1X-X1X=X1X=X1X7X8X8XdXkXsXdXtXdXtXdXdXtXdXtX7X5X3X7X7X>X1X>X7XaX7XtXuXsXsXsXkXjXjXjXhX8XhXhXeXMX0X^.l.s.z z x.K.`.,X X X X+XlX{.OX XlX X+X XOXOXOXOXOXOXOXOX{.lX{.lXOXOXOXOXOXOXOXOXOXOXOXlXOXOXOXlXOXOXOXOXOXOXlXOXlXlXlXlXOXOXOXOXOXlXOXlXlX X+X+X@XOXOX#X+X+X+XoX+X+XOX+X@XXXXXOX#X@XOXOXOX+XOXlXOXOXOXOXOXOXOXOXOXOXOX@XXXXXXXXX}.}.Y.i.)./.a.e 0 7 0 p w ` x.*.d.d.d.d.<.<.d.d.d.d.j.d.d.d.d.d.d.d.d.d.k.k.k.d.k.k.k.d.d.<.<.<.d.d.k.d.fX<.<.k.k.d.d.d.k.d.<.k.d.k.d.<.d.<.<.d.k.d.d.d.<.d.<.d.d.<.<.<.<.<.<.<.d.<.k.3.<.<.<.<.3.d.d.d.k.k.d.k.d.3.d.d.k.d.j.j.k.j.k.k.k.k.k.k.k.k.k.k.fXk.k.k.k.fXd.k.z.k.k.k.k.k.d.d.d.d.d.k.d.k.k.d.k.d.k.3.d.k.d.3.k.d.3.k.d.3.3.d.3.d.k.d.k.k.k.k.d.k.k.k.k.k.k.j.d.k.j.j.",
"lXlXlXlXlXlX@X@XOXOXlXlX@X@X@X@X@XlX@X@X@X@X@X@X@X@X@XlXzXlX@X@XXXXX}.W.[.[.[.{.Q.E.T.T.T.T.T.T.T.I.I.T.I.J.J.I.J.Q J.H.J.Q u.Q H.E E E ~ ~ ~ F ~ F J J S j h z e i h z r r 8 r i e p p w ) _ d.l.l.^._.,X,X<X>XaX<X>X<X>X>X:X%X:X;X^.;X%XA.z.k.z.z.k.z.j.d.j.z.;X5XyXyXyXyX7X8X8X-X1X=X8X1XfX1XaX7XdXdXvXkXdXdXdXdXtXdXdXtXcXtXtX7X7X7X7X<XaX>X8X8X8XuXsXsXkXAXkXjXhX8X8XhXjX8XpXiXyX,XL.x.x.x.x.K.`.9XlX XlX X X+X{.OX{.lX XOXOXOXOXOXOXOXOXOXlX{.lX{.OXOXlX{.OXOX{.OXOXOXOX{.OXOXOXOXOXlXlXOXOXlXOXOX[.lX{.{.lXlXOXlXOXlXOXOXlXlXOXOXOXOX@X#XoXoX+X+XoX+X+X+X@XOXOXOXOXOX#XXXOXOXlX|.OXOXOXOXOXOXOXOXOXXXXXXX#XXX).[.).}.Q.J.Y.).Y.l z 0 j w _ ` x.d.x.d.d.d.d.<.<.<.d.d.d.d.d.d.d.d.d.<.k.d.d.k.d.k.<.d.<.k.<.k.k.d.<.k.d.d.<.k.<.<.3.d.d.d.<.<.<.k.k.d.<.,.d.k.k.d.d.k.j.j.d.<.d.<.<.d.d.<.3.<.k.d.3.d.3.d.<.<.<.<.3.d.3.,.d.d.3.d.k.d.k.d.d.j.k.d.d.k.d.d.k.3.3.k.k.k.k.k.k.k.k.k.k.d.fXk.z.k.k.k.k.j.2.<.d.d.k.d.d.3.d.k.3.3.k.d.3.k.d.k.3.3.k.<.d.3.d.<.d.d.,.j.d.d.3.k.k.k.k.d.j.k.d.k.2.j.d.d.",
"zXzXzXzXzXzXzX@XlXlX@X@X@X@X@X@XlX@XlX@X@X#XOX+XOX#XOXOXOXXXXXXXXX}.W.W.[.W.).W.T.Q.T.R.T.T.U.R.T.T.R.U.K.P.I.J.I.J.J.i.J.u.Q E H.H.E E R ~ ~ ~ P P I v M j i 0 e e h e r 8 8 r e t s k w ) x.l.t.l.^.;X,X<X<X,X<X<X>X<X>X,X>X;X:X1X;X&X%X%X%X%X%X%X%X%X%Xz.%X%X;X7XtXtX8X8X-XaX8X1X=X1X>X-X1X=XaXdXuXdXkXkXsXsXvXdXdXdXtXvXdXtXiX8X7X8X8X8X8X8XuXuXuXdXdXkXkXjXkXjXjXhXjXjXhXiXiXiXeX0XL.x.x.x.x.K.`. XzX X X{.OX{.{.lX X+XOX X{.OX{.lXOXOXOXOX{.OXOXOX{.lX{.lXOXOX{.{.OXOXOXOXOXOXOXOXOXOXlXOXlXOXOXlX{.lXlXlXOXOXOXOXlXOXlXOX{.lXOXOXOXOXOXOX+XOXOXOX@X+X+X#XOXOXXX#X#XOXXXOX#XXXOXXXOX#XXXOXOX#XOXOXOXXXXXXX#XXXXX!.}.XX!.v.a.Y./.J m j k p z _ *.*.d.8.d.x.d.d.d.<.,.d.f.,.d.j.d.f.d.d.d.d.j.j.d.d.3.k.j.d.d.<.k.d.,.j.d.d.<.<.d.<.k.<.,.,.<.d.d.d.k.d.d.<.k.k.<.<.d.j.2.d.,.,.,.,.d.<.k.<.<.<.3.3.<.3.<.<.<.<.$.<.<.3.,.<.<.<.<.d.d.d.k.,.d.k.d.k.d.k.k.j.<.d.k.3.j.j.j.l.z.f.z.j.d.z.z.d.k.k.k.k.k.d.<.<.3.d.<.d.d.d.d.d.d.3.3.3.<.d.3.d.d.3.3.<.<.3.<.d.d.d.d.d.d.d.k.d.k.k.d.k.d.k.d.k.d.f.f.f.",
"zX@XzXzXzX@XzX@XzXlXzXzX@XnXzX@X@XzXzX@X@XOX+X#X@X@X@X#XOXXXXXXXXX).}.W.).W.W.Q.E.T.E.R.U.T.T.U.U.T.Y.U.I.J.J.P.P.J.J.J.i.u.Q R Q Q ! E T ~ J K I J M M m l l j p j w d r r r r e e i s p _ *.8.l.l.~.,X,X,X<X,X7X<X<X>X<X<X>X:X1X:X1X>X>X>X>X1X1X1X%X1X;X;X1X>X1X7X5X7X8X8X>X3X>X=X=X>X8X1X=X1XaX8XdX8XjXAXAXsXvXdXdXvXdXvXdXtXuXuX8X8XuXuXdXiXuXuXdXjXkXjXdXjXkXjXjXjXjXjXjXiXiXpXpX0XL.8.d.8.8.K.`.aX X X X{. X+XOX{.+X{. X XOXOXOX{.OX{.OX{.lXOXOXOXlX{.OX{.OXOXOXOXOX{.OXOXOXOXOXOXOXOXOXOXOXOXlXlXlXlXlX{.OXlXlXOXOXOXOXlX{.lXOXOXOXOXOXOXOXoX#XOX#XOXOXOXXX#XXXOXOXOX#XOXOX#XOX#XXXOXXXOXOXOXOXOXOXXX#XXXXXXXXXXX_.XX).i.Y./.~.U m m ..p x.*.x.8.d.d.d.d.d.` *.<.,.8.d.&.f.f.f.d.k.<.d.d.j.d.j.2.j.j.d.j.d.d.k.<.j.d.j.2.<.k.d.d.<.<.,.,.<.<.<.d.d.d.f.,.<.d.3.d.f.f.,.1.1.1.,.3.<.<.<.<.<.<.<.<.<.<.<.<.<.<.<.>.<.3.<.<.<.<.<.d.j.d.d.d.,.<.d.d.3.d.d.j.k.<.<.d.j.j.f.f.d.j.d.l.z.d.z.z.k.k.d.k.k.d.d.<.<.<.<.<.<.,.j.<.3.d.<.<.<.3.<.3.<.<.<.3.<.d.3.3.3.d.d.3.d.<.<.d.3.d.d.j.d.k.j.3.,.f.,.f.",
"@X@X@X@X@X@XzXzX@XzXzXzX@X@X@XzX@XgXwX@X@X#X@X#X#XOXXX#XXX).Q.).).).W.E.E.Q.E.!.Y.R.E.R.U.U.U.U.R.Y.Y.U.P.J.K.P.P.v.J.i.J.a.u.W Q Q E T P G K K F M l I 4.m ) l l j 0 0 r e e r i e 9 p _ _ _ 8.a.l.~.^.,X<X<X,X<X<X>X<X<XaX>X>X1X>X>X>X>XaX<X>X>X>X1X>X>X>X<X7X<X7X7X5X8X7X>X8X8X=X=XaXaX=X=X>X8XdXdXuXdXjXsXsXdXdXdXdXvXvXvXvXdX8XtXuXuXuXuXdXdXdXjXkXjXjXjXjXkXjXjXdXjXjXsXiXvXtXtX0XL.d.L.L.1X`. X XzX X X X{.+X{.lX{.{. X+X{.OX{.OXOXOX{.OX{.lX{.OX{.lXOX{.OX{.OXOXOXOXOX{.OX{.OXOXOXlXOXOXOXlXOX{.{.lXlXlXOXOXOXOXlXOXOXOX|.OXOX[.OXOXXX#X+X+XOX@XOXOX#X#XXXOX#XOXXX#X#XXXOXOXXXOXOXOX#XOXOXOXOX#XOXXXXXXX}.XX#XXX).|.).P.c./.Y.v.0.0...5.8.w.d.d.8.x.d.d.d.*.d.*.f.f.&.w.j.j.d.j.d.d.k.d.f.f.d.1.j.j.k.j.d.d.<.d.j.f.j.f.<.<.k.<.d.<.d.<.<.<.<.d.k.j.1.&.f.,.<.<.1.1.,.&.,.1.<.<.d.<.<.<.>.<.<.<.<.<.<.{ <.{ <.<.<.<.<.<.<.,.<.,.<.d.,.,.,.d.,.d.d.d.d.k.f.f.d.3.f.j.f.d.8.d.l.d.d.l.d.d.j.j.d.d.d.d.<.*.*.<.<.<.d.,.,.,.<.<.<.<.<.<.<.<.<.<.<.<.<.<.3.d.<.d.<.d.,.j.,.d.d.d.d.d.2.d.d.,.f.,.,.w.",
"@X@X@XzX@X@X@X@X@XlX@X@X@X@X@X@X@X@X@X@X@X#X@X#XoXXX#X#XXX}.).).).Q.R.!.U.Y.U.U.Y.R.Q.R.R.U.U.E.U.R.E.Y.I.J.v.J.J.J.J.i.P.P.J.i.Q ! E T P P F v K F M 4.J ..6.k l e 7 + $ e e 9 i 9 9 p _ _ X.8.l.l.^.;X,X<X,X<X<X<X<X>X<X>X>X>X>X>X>X>X3XaXaX<X1X>X>X>X<X7X<X7XyXuX7XaX7X7XaX8XaX1X=X-X1X%X%X8XdXAXkXjXkXkXsXsXdXtXdXvXvXdXvXdXjXhXdXuXdX8XuXuXuXjXAXkXdXdXkXkXkXjXdXsXjXAXAXsXcXtXtX0XfXL.fX`.9X X`. X X X X X+X{. X{. X X X{.OX{.OX{.{.OXOX{.OXOXlX{.lX{.OXOXOXOXOX{.OXOXOXOXOXOXOXOXOXOXOXlXOX{.{.lXlX{.{.lXOXOXlXOXOXOXOXOXlX[.OXOXOXOXOXXXOXOX#XOXOX@XOXOXOX#XXXOXOXXXOXOX#XOXOX#XOXXXXXOXXXOXOXOXOX#XXXXX}.XX#X]. X}./.Y.W Y.c.~.a.r...5.8.8.8.8.8.d.d.x.d.d.*.d.,.8.f.8.j.j.j.j.j.k.d.<.1.f.f.j.f.d.d.k.3.3.d.d.f.2.f.f.k.<.<.<.<.<.<.<.<.<.d.d.3.d.,.1.1.1.<.<.,.&.$.$.w.,.<.d.<.<.d.<.<.<.>.<.{ { <.{ <.<.<.{ $.,.<.$.d.,.<.,.,.d.<.&.<.,.,.,.3.j.d.3.1.1.,.d.f.f.f.f.w.w.8.d.f.l.z.d.k.j.k.k.d.d.<.<.*.*.<.<.<.,.,.,.<.<.<.<.<.<.<.>.<.<.{ <.3.<.,.d.<.<.<.,.,.d.,.d.<.,.,.d.<.d.<.,.,.f.,.,.",
"lXOXlXlX@X@XOXlXOXOX@X@X@X@X@X@X@X@X@X#XOX@XOXOXXXXXXXXX[.[.Q.Q.[.T.$XT.T.!.T.T.T.!.T.T.U.U.U.J.J.T.T.T.J.J.J.J.P.Q i.J.i.J.u.W u.R R U W W Y P J U M M I J z l d i z e 0 0 0 0 7 q w w ) p ) f.x.L.L.,X,X,X<X0X<XaXaXaX>X1XaX7X>X>X>X7X7X5XaX3X7X<X3X7X7XtX8XtXdXaXaXaX8X8X8X>X7XaX-X1X-X1X8XdXdXAXGXkXdXiXsXsXsXsXdXiXsXAXAXjXAXkXkXkXjXhXdXdXvXdXvXkXdXvXvXkXvXkXvXkXkXkXvXkXpXtXiX,X,Xa.`.,XL.xXzX XlX X{.{.XX|.XX|._.XX|.).{.OX{.OXXXXXXX.X X.X|.OX|.|.OX|.OXOXOXOXOXOXOXOXOXOXOXOXOX{.OXOXOX|.OXOXOX.X.XOXOXXXXX+X+X+X+X+XOXOX@XOX@XOXOXOXOX#XOXOXOXOXOX#XXXXXOXOX#XOXOX+XOXOX#XOXXXXXOXXXXX#XXXXX#XXXXX).XXXX].).).).`.Y.U U./.c.4.O.r.O.X.8.8.d.8.8.d.d.*.8.,.&.,.d.,.w.f.,.f.,.f.f.f.f.1.2.j.2.d.d.1.1.:.<.,.<.$.,.$.<.,.1.<.1.1.<.1.1.$.<.1.<.,.1.1.1.1.1.<.1.,.1.,.,.,.w.8.,.,.&.,.,.*.<.$.<.*.<.$.<.&.<.&.,.,.,.1.,.&.d.d.<.d.&.&.,.,.,.<.$.<.$.<.<.1.,.:.,.&.w.f.f.f.f.w.w.d.8.f.,.f.d.d.j.d.2.,.*.&.,.&.&.d.d.d.1.<.{ <.$.<.<.$.<.1.1.<.1.<.<.:.<.d.d.,.d.d.j.1.f.,.,.2.d.j.d.j.j.,.f.d.f.",
"lXlXlXOXlXlXlX@X@XOX@X@X@X@X@X@X@X#X@XOX#XOX#XXXOXXXXXXXXXQ.Q.[.!.T.T.T.T.!.[.T.!.T.T.T.E.T.T.K.T.K.E.K.J.J.I.T.J.J.J.i.P.i.u.W W s.I U U W Y H F P K J 6.6.l S z e 0 z 0 z 0 0 0 z w j _ ) _ a.L.L.;X,X1X,X<XaXaXaX7XaX7X7X8X8XaXaXaX7X7X7X7X7X7X7X5X7X8XyXyX7X8X8XaXaX8X8X8X>XaX=X=X1X1X-X8XdXAXGXGXAXdXsXAXsXsXjXsXsXjXjXjXAXAXAXAXkXkXAXjXjXdXdXdXdXdXkXdXkXkXvXkXvXAXvXkXvXiXtXMX1X,XL.,X,X9XxX`.L. X X{.lX|.|.}.}.XX).}.|.{.{.{.{.|.|.XX.X.X|..X.XOXOX|.lX{.OXOXOXOXOXOXOXOXOXOX{.OXOXOXOXOXOX.X|.|..XOX|.+X+XOXOX+X+XOXOX@XOXOXOXOXOXOXOXOXOXOXOXOXOXOXOXOX#X#XOXOXOXOXOXOXOXOXOXOXOXOXOX#X#XXX#XXX#X#XXX].XXXX).).).Y.Y.p.v./.~.0.4.q.O.*.*.d.x.8.d.8.d.<.*.*.,.&.f.,.f.w.,.,.w.,.,.&.1.,.d.d.2.2.2.2.,.<.<.$.1.<.1.1.<.,.<.:.1.<.1.<.<.1.1.,.1.1.1.<.1.<.1.1.<.1.&.&.f.d.,.d.,.&.,.&.,.$.*.*.$.$.$.&.<.&.<.&.&.&.,.&.f.d.&.d.8.&.d.,.,.,.1.1.<.:.3.1.1.1.:.<.:.&.1.d.f.d.8.f.d.w.,.8.f.f.d.1.d.j.1.<.*.,.<.<.,.f.d.f.<.<.<.$.<.$.{ <.$.<.<.1.,.:.$.<.$.2.,.&.,.f.d.d.,.d.d.d.d.1.d.d.1.d.f.d.,.",
"lXlXlXlXOXlXOXlX@X@XOX@X@X@X@XOX@X@X@XOX#XOXXXXXXXXXXXXXXXXX[.Q.!.!.T.T.!.[.!.[.!.T.T.T.T.U.K.T.K.T.T.T.T.J.J.K.J.J.J.P.J.i.i.Q u.6.P P U W Y H F K J J I I l _ l l p e p l p z w p z p _ _ _ 8.z.L.`.1X,X<X0X<X7X7X7X7X8X8X8X8X8X7X8X7X7X8X8X7X7X5X7X7XyX8X8X7X8XaX8XaX7X8XaXaX8X1X1X>X-XaXuXjXAXGXAXkXiXsXjXiXAXjXAXjXjXjXAXAXAXAXAXAXAXAXAXAXvXkXdXvXkXkXkXdXvXkXvXAXAXAXAXiXcXyXcX1X0X`.pX,XzXzX`.K. X{.{.|.|.[.}.}.}.).).).[.[.OX{.|.XXXX.X|..XOX.XlX|.|.OXOXOXOXOX{.OXOXOXOXOXOXOXlXOXOXOXOX XXXOXOXOX.XOX+XOXOX.XOXOXOX.XOXOXOXOXOXOXOXOXOXOXOXOXOXOXOXOX.XOXOXOXOX+XOX+X#XOXOXOXOXOXOXOXXXXXXXXX#XOXXXXX_..XXX].).).`.Y.c.p.P./.v.9.=.O.*.*.d.d.d.8.8.d.*.&.,.&.&.,.&.f.f.,.w.,.w.,.w.,.1.1.1.d.d.2.,.,.<.:.1.<.1.1.$.1.<.:.<.<.:.<.1.$.<.:.:.<.<.1.1.<.,.3.<.:.,.,.&.d.&.,.,.d.&.,.<.$.*.$.$.$.&.$.*.&.<.&.&.,.,.&.,.&.&.8.d.&.&.d.,.&.1.1.1.1.1.<.<.:.<.1.$.$.&.w.f.f.f.f.f.w.f.f.&.,.2.d.f.f.d.,.<.*.,.&.*.&.,.f.f.,.$.$.$.$.$.$.$.<.$.1.<.>.<.$.$.<.,.,.&.,.f.,.,.&.f.d.f.,.,.f.1.,.,.d.d.&.",
"lXOXlXOXlXlXlXlX@XOX@XOX@X@XOX#XOXOX#XOXXX#XXXXXXXXXXX[.!.[.[.Q.[.!.!.T.[.T.!.!.!.!.T.T.R.R.T.I.K.T.K.T.T.J.U.J.H.P.i.J.P.P.i.! W R P P U U P P F I I I 6.S l S k S l l z z l _ 0 w w p m _ x.a.z.L.;X,X,X0X<X0X7X7XaX7X8XdX8X7XuX8X8X7X7X7XtX8X8X8X7XyX8XtXtX8X8X8XaXaX7X7X8XaX8XaX=X>X>X7XuXjXAXkXkXiXsXvXjXjXjXAXAXAXjXiXjXjXAXkXAXAXkXAXAXkXkXkXvXdXvXkXvXdXkXvXkXkXjXjXjXiXpXpXvXfXtX,XcX X`.1X`.`.lX X{.lX|.|.}.|.}.}.}.).[.{.OX[.}.}. X.X.X|.|..X{.{.lX|.OX{.OXOXOXOXOXOXOXOXOXOX{.OXOXOX.XOXOX.XOX XOXOX+X.XOXOXOX+X+XOXOX#XOXOX@XOXOX@XOXOXOXOXOX@XOXOX.XOXOX+XOXOXOXOXOXOXOXOXOXOXOXOX#XXXXX#XOX#XXXXX|.XXXX).). X).Y.Y.p.c./.~.9.=.O.7.%.x.8.8.d.d.d.,.*.&.&.&.&.,.&.&.,.&.,.&.,.&.,.,.,.2.,.2.,.2.1.1.<.1.,.1.<.1.<.<.<.:.<.,.$.<.<.<.<.<.,.1.<.1.<.$.:.<.<.,.<.8.,.&.*.&.*.$.&.$.$.$.*.*.&.*.<.&.&.$.&.&.*.&.&.&.&.&.,.*.d.&.&.,.&.1.,.,.,.1.3.1.1.>.>.&.1.,.&.d.w.f.,.8.,.8.,.f.w.d.1.,.f.f.,.<.@.<.$.<.<.,.,.,.&.$.$.<.{ <.$.$.$.<.$.<.$.<.$.$.<.&.$.$.&.&.,.,.<.2.f.1.f.f.,.f.,.f.d.f.d.",
"lXlXlXOXlXlXOXOX@XOX@XOX@X@XOX@XOXOXOXOXXXXXXXXXXXXX[.XXXXQ.Q.Q.!.!.T.T.!.T.!.[.!.T.T.Q.T.T.U.K.{.K.T.J.J.T.J.I.I.J.P.J.P.P.v.J.u.I U P U W U K F U I J x.S z x.S 6.7.6.l z z l 7 w q w _ _ _ l.z.L.1X,X<X<X0XtX5X7XaXtXuXuXdXuXuXuX8X8X7X7X7XtX8X7X8XuX7X8XtX8X8XaXdX8XaX8X8XaXaX=X1X>X>XaX8XdXdXsXuXuXdXjXjXjXAXAXAXAXjXiXAXAXAXkXkXAXkXkXAXAXAXkXdXdXkXkXkXkXkXAXAXjXAXjXjXhXcXaXvX`.cXaXvX1X`. X X X X X{.|.|.|.[.|.|.).}.}.[.lXW.[.XXXXXX|.|.|.|.OX|.|.lX{.OX{.OXOXOXOX{.OXOXOXOXOXOXOXOXOXOXOXOX|..X.XOX|..XOXXXOX+X+X XOXOXOX@X#X@XOXOXOXOXOXOXOXOX#XOXOXOX+XoXOXOX+XOX#XOXOXOXOXOX#XOXXXXX#XXXXX#XXXXXXXXX).XX).|.'.).E.Q.I a././.a.9.O.q.%.@.&.8.8.8.8.&.*.$.&.&.&.&.*.&.&.&.*.&.&.&.$.:.<.<.1.,.1.1.1.1.,.1.1.1.1.1.1.:.$.<.$.:.$.<.:.$.<.$.:.$.1.,.1.1.$.$.$.1.$.w.,.*.&.&.&.&.*.$.*.{ &.$.*.&.*.$.&.$.*.&.$.*.&.&.&.*.*.,.&.d.&.&.,.&.1.1.&.1.<.:.1.$.$.:.$.&.&.w.d.w.d.w.8.d.,.f.&.f.,.f.,.f.,.&.{ $.$.*.$.&.,.&.<.$.{ @.<.$.{ <.$.$.$.$.$.$.&.$.$.<.*.*.<.<.&.,.&.f.f.f.,.,.,.,.&.,.f.d.f.",
"OXlXlXlXlXOXlXOXOX@XOX@XOX#X@XOX#XXXOXXXXXXXXXXXQ.[.XX).Q.XXQ.[.[.!.[.T.T.T.!.!.T.[.T.T.Q.Q.T.I.T.T.K.T.U.U.U.J.P.P.P.P.P.P.H.$Xu.W U Y W W U P I W 6.J S l S x.r.l.~.~.a._ l p w w 7 w ) _ X.l.8.L.,XaX0X<X<XtX<X7X7XtXuXdXjXjXsXuXuXuX8XtXtX8XtXuXtXtXtX7X7XyXaX8XaXaX8XaX8XaX8X1X=X1X>XaX3X7XdX7XpXuXhXhXhXjXAXjXAXhXjXjXAXAXkXkXAXAXAXAXkXAXvXkXvXdXkXvXAXkXAXvXAXAXjXhXiXuXcXaXcX1XcXlXcXL.1XzXaX X`.{. X X[.|.[.[.}.).).).{.{.[.[.[.).}.|.|.OX|.|.lX{.{.lXOXOXOXOXOXOXOXOXOXOXOXOXOXOXOXOX|.OXOXOXOX X.XOXXXXX|.|.OXOXOXOXOXOXOXOXOXOX@XOXOX@XOXOXOXOXOXOX.X.X.X+XOXOXOX.XOXXXXXOXOXOXOXOXXXXXXXXXXXXXXXXXXXoX).|. X.X).~./.p.p.)./.v.r.o.y.X.| 8.d.8.*.d.*.$.*.*.$.*.$.$.&.&.$.$.*.$.&.$.$.$.:.1.1.,.1.,.:.<.$.1.$.,.$.,.$.$.$.$.<.&.$.$.$.:.$.<.:.<.:.<.:.<.1.$.$.,.&.,.,.*.&.&.*.$.$.<.*.$.*.$.$.$.*.&.$.*.*.$.*.$.$.&.*.&.*.*.&.&.&.&.,.&.:.<.$.,.$.<.>.$.<.$.w.,.&.&.,.8.&.d.w.8.&.w.&.,.&.,.1.,.$.*.<.*.*.<.&.<.&.{ { <.*.{ $.*.{ *.$.>.&.{ $.$.<.$.<.&.*.&.&.,.&.,.,.,.,.,.,.&.,.,.d.d.&.d.",
"lXlXOXlXOXlX@X@X@XOXOX@XOX@XOXXXXXXXXXXXXXXX[.[.).XXXX[.XX[.[.!.[.T.!.!.T.T.!.T.[.T.!.T.T.T.R.U.E.T.T.T.U.T.I.P.P.J.P.P.P.P.P.J.p.u.U p.p.! W Y P s.I S _ l x.x.L.^.^.`.^.a.5.) ) w 9 q ) ) _ l.L.^.,X0X0X5X5X<X5XaX7X8XuXuXkXkXiXiXuX8XuXtXyX8X8XtXuX7X8X7X8X8X8X8X8X8X8XaX8X8XaX>X1X-X>X1X>XaX<X5X7XtXpXuXuXpXjXiXhXiXiXiXMXsXAXkXAXkXAXAXAXAXAXAXAXkXvXvXvXAXAXAXAXsXkXhXiXuXcXaXvXaXcXaXaX X1XlXxX X`.{.lX{.{.|.|.[.|.).}.}.[.[.[.[.).}.}.|.|.OX|.OX|.{.|.lXOXOXOX{.{.OXOXOXOXOX{.OXOXOXOXOX.XOX.XOX.XOXOX|.OX|.OX.XOXOXOXOXOXOXOX#X@XOX@XOXOXOXOXOX+XOXOXOXOX.X+XOX+X+XOX+XXXXXXXXXXXOXOXXXXXXX#XXXXXXXXX[.XXXX}.).XXoX|.Q.E.p.v.).~.c.a.5.y. ._ &.d.8.*.8.*.&.&.$.$.$.$.*.*.$.@.*.$.$.*.@.$.&.&.1.1.1.:.1.<.:.:.,.$.:.$.:.$.$.$.$.$.$.$.$.$.:.:.<.:.,.$.1.$.1.$.<.&.&.&.&.&.&.&.*.&.$.{ &.$.@.$.#.*.&.$.&.*.{ *.*.$.&.*.$.*.*.*.&.*.&.&.&.$.$.$.$.$.$.$.$.{ $.$.1.&.&.&.*.w.,.w.,.&.8.d.&.,.w.,.f.,.,.*.@.<.*.{ *.*.*.*.@.*.{ { $.$.{ $.{ $.{ $.{ $.$.$.$.*.&.$.$.,.&.,.&.&.&.,.w.&.,.w.&.f.&.,.w.",
"OXOXlXOXlX@XOXOX@X@XOX@X@X@XXXXXXXXXXXXXXXXXXX[.XXQ.Q.XXQ.Q.XXQ.!.!.T.T.T.T.T.T.!.!.T.Q.E.E.T.U.E.J.T.J.T.I.I.P.P.P.P.P.I.P.P.$Xi.p.W U ! p.W I J 6.J l l S x.K.~.L.a.L.~.l.a.X._ _ q q ) ) _ l.z.;X<X0XtX0X<X<X7X7X7XtX7X8XdXdXjXiXhXuXuXuXuXuXaXdX8XuXtX7XtXuX1XdXaX8XaX8X8X1X8X1X1XaX8X7XaX7X;X,X5X5X0X5XtXyXpXyXtXpXpXuXuXuXkXAXkXAXkXkXAXkXAXAXAXAXAXkXvXkXAXvXAXkXjXsXuXuXvXaXcX1XvX XvX X`.0XcX X`. XlX{.lX|.[.|.}.}.{.}.[.[.[.[.}.}.}.}.|.|.[.{.lXlX|.{.OXOXOXOXOXOX{.OXOXOXOXOXOXOX{.OX.X.XOX|..XOX.XOXOXOX.X.XOX.X.X.XOXOXOXOXOXOXOX@XOX#XOXOXOXOXOXOX.X+X.X+X.XOXOXOXXX[.XXXXXXXXXXOXXXXXXXXXXXXXXX[.XX_.).}.|.oX).E.Y.p.Y.Y.~.c.c.7.t. ._ &.d.8.*.*.*.$.{ *.*.@.@.*.{ *.$.$.*.*.$.$.$.$.$.&.1.:.,.1.$.$.$.$.$.$.$.$.$.$.$.:.$.$.$.$.$.$.$.$.$.,.:.$.$.$.$.:.$.&.&.&.,.8.&.&.&.&.<.&.*.*.*.$.*.$.*.&.@.@.$.$.$.*.$.*.*.*.*.*.&.&.&.&.$.$.$.$.$.{ >.$.{ >.$.&.f.,.&.8.,.8.,.8.&.,.&.&.&.,.&.&.,.<.*.@.$.@.<.*.*.$.$.@.$.$.*.{ { $.@.$.@.@.$.$.#.$.$.$.&.&.*.<.&.,.&.&.&.&.&.&.,.&.,.f.d.&.d.d.",
"lXlXOXlXlXlXOXlXlXOXOXOX@XOX#XOXXXXXQ.XXQ.XXXXXXXX[.XX[.Q.[.Q.!.T.!.[.!.!.[.T.[.E.Q.Q.E.E.U.T.R.T.U.R.U.U.I.I.J.!.I.P.I.I.I.I.v.v.! W U R P U P P I I S s.x.x.8.`.^.a.6.a.^.~.8.7.) z p ( ) _ _ l.^.>X5X5X<X5X<X8XaX7X8X8X8XdXdXjXhXjXuX7X7X7XdX7X8X7XdXaX7XdXaX1XdXaX8X1XdXdXdX7X<X1X<X<X<X<X1X:XA.;X,X5X<X5XyX0XtXiXpXtXtXpXsXtXsXAXdXkXkXAXAXAXGXAXAXAXAXvXAXAXAXsXkXhXsXiXuXiX7XtXpXcXcXaXL.L.aXcXlX`.L.{. X|.|.|.{.{.{.|.[.}.}.}.|.}.}.|.}.OX|.|.|.lX|.|.|.{.OXOXOX{.OXOXOX[.lXlX{.[.lX[.lXOX.XOX|.OX.XOX XOX|..X|.OXOX XOXOXXXXXOXOXOXOXOXOX+XOXOXOXOX.XOXOXXXOXOXOXOX[.OXOXOXXXXXOXOXOXXXXXOXXXXXOXOXOXXXoX|.}.oXOXoXXX{. XJ.i.)./.Y.a.O.t.O.X.7.f.w.d.*.&.&.&.&.&.&.$.&.#.%.$.&.%.&.;.;.&.$.$.&.$.$.$.$.$.$.$.#.$.$.#.$.$.:.$.$.;.$.$.&.$.$.$.$.:.:.:.$.$.:.:.$.&.&.w.&.*.&.&.&.&.%.&.$.#.$.*.$.*.#.#.$.#.#.*.$.#.*.*.#.*.$.*.*.%.&.%.&.#.$.{ @.>.@.>.#.$.$.>.$.$.&.&.&.8.&.8.,.8.,.w.w.&.&.&.&.&.&.$.@.@.{ @.@.@.@.@.$.{ { { #.#.{ $.&.#.{ { @.$.{ #.{ #.*.$.*.&.#.$.&.&.$.*.$.$.&.&.&.f.f.8.,.",
"OXlXlXlXOXlXlXOXOX@X@X@XOX@XOXOXXXXXXX[.XXXX[.).).XXXXQ.XX!.Q.Q.T.[.T.!.T.T.!.[.T.T.R.U.U.E.E.R.T.T.U.T.U.I.U.P.!.v.v.I.I.v.$Xv.H.i.W U Y U R P I I S m x.x.x.K.a.8.7._ 8.^.V.8.l.8._ ) _ _ 8.d.S.;X<X4X5X,X5X5X>X8XaXaX7X8X8X8XuXuXuXuXdX7XdXdX7XdX7XdXdXaX8X7XdX8X8XaXdX1X8X1X<X1X;X;X1X1XL.z.^.z.^.<X,X,X5X5X1X1X<X<X;X%XfXaX7XsXsXdXvXAXkXAXAXAXAXAXAXAXAXAXAXkXsXvXsXsXsXuXiXtXtXpXaXcXlX1XL.`.cXlX`. X{. X|.{.{.lX|.|.[.|.}.).}.|. X}.}.}.OX|.|.|.{.OX{.lXlX{.OXOXOXOXOX{.lX[.{.lXlX[.lXOXOX.X.X.XOX.X.XOXOX|.XXOXOXOXOXOX#XOXOXXXOXOXOXOX.X+X.XOX#XOXOXOXOXXXOXOXOXOXOXOXOXXXOXOXOXOXOXOXXXXXXXXXXXXXOXXXXX|.|.XXoXoX|.).).J.J./.).c.c.r.y.%.X.&.8.d.8.*.&.&.$.&.%.&.&.&.#.$.#.#.&.&.&.1.$.$.:.$.$.:.:.$.$.$.$.$.$.$.:.$.$.<.;.$.$.:.$.:.$.$.$.;.&.,.$.$.$.$.$.$.&.&.,.&.&.&.*.&.&.&.&.$.#.*.#.#.#.*.*.$.{ @.#.@.@.#.#.*.*.*.$.%.$.*.*.$.#.{ #.>.{ $.#.{ $.$.$.$.&.&.&.*.,.&.8.&.,.w.,.&.1.&.&.,.,.&.*.@.] @.@.@.@.@.{ { *.{ $.@.{ $.$.$.#.#.{ @.#.$.#.{ $.$.*.$.$.&.&.&.&.*.$.*.&.&.&.*.&.d.,.f.",
"lXOXlXlXOXlXlXOX@XOXOX@X@X@XOX#X).XXXX[.).XXXX[.XXXX[.XX[.[.[.Q.!.!.T.!.[.T.[.T.T.R.R.T.R.R.R.R.E.U.U.U.U.I.P.P.I.I.I.c.I.I.v.I.v.i.W U U U I I I I m x.x.x.x.d.r.8.6.x.8.~.^.V.~.f.*._ ) ` *.j.A.;X,X3X<X5X5X7XaX>XaXaXaX7XaXaX7X7X8XuXuXtX7X8X8XdX7XaXdXaXdXaXdXaXdX8X8XaX1X1X1X;XfX^.z.z.8.x.w.8.z.,X^.^.;X;X1X1XfX1XfXd.z.1XaXdXsXuXdXkXvXvXAXkXAXkXAXAXAXGXAXAXAXsXsXsXdXuXpXpXtXpXtXaXcXaX1XL.cXaX`. X`. X{.{.lX{.|.|.|.|.}.}.}.).}.}.|.|.|.|.|.|.[.OX|.lXOXOXOXOXOXOXOXOX[.lXlX[.{.lX[.OXOXOX.XOX.XOXOX.X|.OXXX|.OXOX.X.XOXOXOXXXOX@X#XOXOXOX+XOX.XOX.XoXOXXXOXOXOXXXOXXXXXXXOXXXOXOXXXOXXXXXXXXXXXXXOXXXXX.X|.XXOX.X|.{.W.J.J.`.).Y.~.y.r.5.O.w.w.8.8.8.&.$.#.%.#.$.$.#.&.#.&.*.$.&.&.:.$.#.$.$.$.#.#.$.$.:.;.#.#.$.:.$.:.:.$.$.#.;.$.:.$.:.#.:.:.:.$.#.:.:.;.$.:.:.&.w.&.%.&.%.&.%.#.%.#.$.#.*.$.#.$.#.&.*.@.#.#.#.@.#.@.%.*.*.*.%.#.#.#.#.#.#.#.{ #.#.$.{ $.$.&.*.&.&.&.8.&.,.,.&.,.8.;.f.;.w.&.;.$.@.@.{ ] @.@.@.@.@.$.@.#.{ #.#.#.:.#.{ { { { #.{ { %.$.$.*.&.%.#.&.&.$.$.#.&.&.&.&.&.f.&.f.",
"lXlXlXOXlXlXOXlX@X@X@X@X@XOXOXOXXX[.[.[.Q.XXXXQ.Q.XX[.[.).[.Q.Q.T.!.[.T.T.!.!.!.Q.R.E.U.E.T.U.R.U.E.U.U.Y.P.P.Y.I.I.v.I.!.v.I.$XP.i.W W U U W I S I _ S x.x.x.K.a.l.l.y.y.L.^.^.z.l.8.*._ ( 7.l.S.^.:X>X>X<X5X5XaX8X>X>XaX1XaX>X<X3XaX7XtXuXdX8X7X7X7XdX7XdXaXdXaX8XaXaXaX8X8X1X1X;XfXL.d.8.` ` ( ( f.^.z.f.z.S.1Xd.x.` ` ` d.1XaXuXuXtXvXkXdXvXAXAXkXAXAXvXAXAXAXAXvXkXvXsXiXiXuXiXpX0XtXlXaXcX XL.tXlXfX X{. XlX{.{.|.|.{.|.{.}.).}.).}.}.}.|.|.|.OX|.lX{.lX{.OXOX[.[.OX{.OXOX[.{.[.lX[.[.lX[..X.X|.OX|..XOX|.OXOX|.OXOXOX.X.XOXXXOXOXOXOXOXOX+XOXOXOXOXOXOXOXOXXXXXOXOXOXXXOXXXOXXXOXXXOXXXXXOXOX[.OXXXXXXXXXXX|.|..X.X|.|.[.E.K.U.E.Y./.~.c.r.5.*.7.w.8.8.&.*.@.#.*.*.#.*.#.$.&.#.$.&.&.&.;.;.;.$.:.$.:.:.;.#.#.$.:.:.$.#.:.$.#.$.:.:.$.$.$.:.#.$.:.:.&.$.$.:.$.,.:.;.&.-.w.%.&.%.&.%.&.#.$.#.*.$.%.#.*.*.#.#.@.#.*.$.@.#.#.@.X.#.%.#.#.*.%.#.#.#.#.{ #.#.>.$.>.$.$.&.&.*.*.*.&.*.&.8.&.&.,.&.&.;.,.f.;.&.#.@.@.` @.@.{ #. .$.{ { #.{ { #.#.#.{  .] #.#.#.{ $.*.%.$.&.$.&.&.&.&.*.#.&.,.:.&.w.,.w.&.",
"lXlXlXlXlXlXOXlX@XOX@XOX@X#XXXXXXXXXQ.[.XX).XXXXQ.XX[.).[.).Q.!.Q.T.[.[.!.Q.Q.T.W.Q.Q.Q.E.Y.R.U.R.Y.U.Y.T.I.U.P.v.I.I.I.I.c.I.v.P.i.! Y U W p.U I s.m x.x.x.x.8.L.^.~.l.l.^.^.^.^.^.z.l.w.*.j.S.%X&X:X>X4X3X<X3XaX3XaXaXaX>XaX>X<X<XaX7X8X8X7XaXdXaXdXaXdXdXdXaXaX8X8XdX7X7XaX1X^.;X^.d.d.x.` z w w x.l.8.d.z.L.d.` ` ` ` ` z.fXaXuXtXtXdXdXdXdXkXvXvXAXAXAXkXkXkXkXsXsXsXiXdXuXuXiXtXaXcXtX XvXaXK.vX X`.aX{. X{.|.|.{.[.|.[.|.}.}.).}.}.}.|.}.OX|.|.|.[.lX{.lX[.lX[.OXlX[.lX[.lX[.lX[.|.lX{.lXOX|.|.OXOX|..X|.OXXXXXOX|.OXOX.XOXOXOXXXOXOX@XXX#XOXOXOX#XOXOXXXOXOXOXOXOXXXOXXXOXXXOXXXXXXXOXXXOX[.OXOXXXOXXXOX.X|.XX|.OX|.|.|.[.T.U.U.~././.a.r.9.O.7.w.8.*.&.*.#.*.#.#.@.#.@.%.%.#.#.%.$.&.$.%.:.:.:.$.#.#.:.:.#.:.#.:.#.:.#.:.:.#.:.#.:.$.#.#.#.#.#.:.:. .>.$.:.$.:.;.;.-.w.%.%.#.%.#.#.#.%.*.#.#.#.@.#.*.%.@.*.#.@.@.#.#.@.X.%.%.%.#.%. .@.#.#.{ #.>.[ #.{ $.>.{ $.$.*.*.&.&.*.&.*.&.&.&.&.f.&.;.;.w.&.%.#.] ] ] @.@.@.@.{ :.#. .{ #.#.>. .#.] ] {  .>.#.#.%.$.%.&.&.%.&.&.&.&.#.%.&.;.&.&.&.d.&.,.",
"lXlXOXlXOXlXOXlX@X@XOX@XOXXX#XXXQ.).[.Q.Q.[.[.[.).[.[.).Q.[.[.Q.Q.T.T.!.Q.T.Q.Q.[.W.W.Q.Q.R.R.U.R.Y.!.U.Y.P.Y.P.I.P.v.!.!.!.I.I.P.i.v.W W W U U J s.S x.x.x.x.8.l.L.l.~.L.^.^.^.^.^.;X^.z.l.S.^.,X4X3X3X3X<X>X>XaX8X>X>X>XaX>X>X5X3X<X3X8XaX7XdXdXdXdXdXdXaXdXaXdXdX8X1X>X1X1X1Xz.fXL.d.x.x.` ` ` ( d.8.*.d.z.z.fXd.d.d.d.d.fX1XaXtXdXtXdXdXdXdXvXkXkXvXAXAXvXkXkXvXvXsXiXsXuXdXuXiXtXtXcXcXaXvXcXL.cXaX`.lX{. XlX{.lX{.OX|.XX}.}.).}.).}.}.}.}.|.|.|.|.lX{.lX[.OXOXOXOX[.OX[.[.[.lXlX[.OXOXOX[.|.OXXXOX|.OX|.OX|.XX|.|.OXOX.X.XXXXXXXOXOX@X@XOXOXoX.XoXOXXXOXOXOXXXOXXXXXOXXXOX[.OXXXXXXXOXXXOXOXOX[.XXXX[.OX[.XXXX.X|.|.[.[.|.|.E.K.K.Y.).`.0.r.q.%.w.8.7.*.8.@.#.#.*.#.#.*.#.#.&.*.%.#.%.%.&.#.:.#.:.#.;.$.:.:.:.#.$.:.:.#.:.#.#.:.:.:.#.#.:.:.#.>.:.:.:.#.#.$.:.:.#.$.;.&.&.%.&.%.%.-.$.:.#.%.#.@.#.#.#.#.#.#.#.#.#.#.@.@.#.%.#.*.#.%.@.#.@. .#. .{ { #.#.[ $.{ $.*.*.$.&.*.&.*.&.*.*.&.&.8.-.&.%.&.w.&.#.@.` @.| ] @.] @.| $.#.[ { #.#.>.[ { [ {  . .#.#.{ #.%.%.#.#.&.;.#.-.&.%.$.-.&.;.-.w.&.w.8.",
"OXlXlXOXlXlXlXOX@XOX#XOXOXOXXXXXXXQ.[.Q.[.XXXXQ.[.[.[.[.[.Q.Q.Q.!.Q.Q.T.T.Q.Q.!.Q.Q.Q.E.E.E.E.R.R.R.Y.!.!.P.Y.v.$X!.I.v.c.!.I.v.P.H.! W W W U U 6.s.6.S 6.x.x.d.l.l.l.^.^.^.(.^.^.A.S.S.A.B.Z.,X3X3X3X2X3X3X<X3XaX>XaX>XaXaXaXaX3X5X7X7X8XaXaXdXdXdXdXdXdXaXdXaX8X8X8XaXaX>X1X1XL.1XfXz.8.d.d.8.d.8.d.z.8.z.z.z.fXfXfXd.fXfXfX1XaXdXdXdXdXdXtXdXkXdXkXkXAXAXvXvXvXvXdXsXsXiXuXuXuXiXtXtXtXaXaXcXaX XaX XfX X X X|.|.{.lX[.|.XX[.).[.).}.[.}.[.|.|.|.|.OX{.lX|.lX[.OXlX[.OX[.[.lXlX[.[.lXOX[.OX|.OX|.XX|.XXOXOX|..X.X}.XX|.OX.X|.XXXXXXOXOX@XOXOXOXOXOXOXXXOXOXXXOXXXOXOXOXOXOXXXOXXXOX[.XXXXXXXX[.[.XXXX[.OX[.OXXXXXXX[.[.|.{.|.|.{.K.J.Y.oX_.9.r.9.7.8.&.*.*.w.%.#.%.#.%.$.%.*.&.&.#.#.*.$.%.#.;.:.$.:.:.:.$.#.$.:.#.:.$.:.:.#.#.:.#.#.#.#.#.:.$.#.#.#.:.$.>.#.#.#.#.#.:.#.%.&.%.;.%.&.#.%.#.#.#.#.@.#.%.#.@.#.#.#.@.#.@.#.*.#.%.*.#.X.@.#.| #. .{ >.[  .#.#.>.{ >.@.$.$.*.*.*.*.&.*.&.*.&.&.*.&.%.#.&.&.;.#.@.| { | @.| @.@.{ ;.#.{ [ #.#.#.] { ] [ { #.#.#.{ %.#.$.%.;.%.&.&.;.&.$.%.&.w.;.&.&.f.&.w.",
"lXlXlXlXOXlXOXlX@XOXOXOX#XXXXXXX[.XXQ.).Q.XX).XX[.Q.Q.).[.[.[.Q.Q.Q.T.Q.Q.T.Q.R.T.T.T.R.R.R.Q.Q.Y.!.!.!.P.I.I.!.!.v.I.!.c.!.!.v.P.v.! W W W W p.s.p.6.x.8.x.x.L.L.l.l.^.^.^.^.^.,X^.^.^.^.;X:X<X:X:X;X:X:X>X5X7X>X-X1X>X>X1X>XaX>X3X7X7XaXaXaXdXaXaXdXaXdXdXdXdX8X8XaXaXaX8XaXaXfX,X1Xz.d.fXL.L.,X;X,X,XfX;X1X;XfXfXfXfXfX1XdXtXdXdXdXsXiXaXdXvXkXkXdXvXAXAXkXkXsXdXdXdXiXuXuXtXuXpXaXtXcXaXaXcXaXcXcX X`.`. X{.{.lX{.|.[.OX}.XX}.).}.).}.|.[.{.|.OX|.|.OX|.lX{.OXOX[.OX[.lXlX[.[.lX[.{.OXOX[.OX|.XXXX.X|.|..X|.|.XX|.|..X.XOX|.XXXXXXXXXXOXOX#XOXOXXXXXXXXXOXXXXXXXOXOXOXOXXXOXOX[.XXOX[.OXOXXXOXXX[.XXOX[.OX|.|.OXXX|.|.[.|.|.|.E.J.J.Y.oX_.9.q.7.q.w.w.X.*.&.&.#.&.#.#.%.$.%.&.%.&.#.#.#.$.%.$.;.;.#.;.:.;.:.&.#.:.:.&.#.$.;.$.#.$.#.:.$.:.#.:.#.:.#.&.;.#.#.#.#.>.#.#.#.%.%.#.#.-.#.&.%.$.#.*.#.%.#.#.*.%.*. .@.#.@.#.#.#.#.#.#.*.O.#. .@.] #.#.#.#.{ #.#.{ $.{ { $.*.#.#.&.*.*.*.*.&.*.*.&.&.#.#.&.&.&.@.| ] | ] @.] @.] @.:.#.[ [ #.#.{ ] { ] ] [  .>.#.#.$.*.&.&.&.%.&.&.;.&.%.&.&.;.,.w.f.w.f.f.",
"OXOXlXlX@XOX@X@X@XOX#XOXXXXXXXXX}.[.).W.}.}.}.}.E.W.{.W.W.W.E.Q.T.T.T.Q.!.T.!.[.!.!.!.!.!.!.T.!.!.!.!.!.I.I.!.I.v.I.I.v.Y.P.Y.I.P.v.W W W R R R E x.s.s.x.x.x.8.L.^.z.L.^.9X<X;Xz.z.z.^.;X^.^.:X,X>X%X:X<X5X:X5X>X>X>X>X>X<XaX>X8X7X5X3X7X7X8XuX8X8XdXaXdXdXdXaXaX8X1X1X1XdXaXaX1X1XfXfX;X;X^.z.;X;X;X,X1X;X;X;X1XaXaX1XaXaXtXdXuXjXjXiXdXuXdXuXhXkXdXjXkXkXjXkXAXsXuXuXdXuXuXuXuXuXyXtXtXtXtX0XvXcXcX XL.zX{.{. X{.|.|.{.OXOX{.).).XX].[.Q.).[.).}.}.XXOXOX X X.XXXOX|.OX|.OX|.OX|.OX|.OXOX|.OXOXOXXXOXXXXXXX#XXXXXXXXXXXXXOXXXOXOXXXOX#XOX+XOXoX.XoXXXoXoXXXXXXX#XXXXXXXXX#XXXXXXXXXOXOX[.lX{.[.OX[.OX[.XXOXOX[.OXXXXX[.OX[.[.}.E.E L U.`.Y.a.7.X.X.| #.#.$.:.&.&.{ @.$.*.#.@.*.$.@.@.$.$.$.%.&.;.,.-.&.:.,.-.&.;.;.#.&.#.&.&.$.&.&.&.&.%.&.$.&.&.;.,.&.&.&.$.$.#.>.#.:.$.$.{ $.-.$.#.&.%.*.$.$.%.*.&.#.%.#.#.*.@.%.#. .>. .#.#.#.#.#.$.#.{ #.$.#.$.#.$.#.$.#.#.#.#.#.#.&.%.&.*.&.%.*.&.X.*.%.%.#.%.-.;.;.%.%.| ` ' ' ]  .@.| >.#.>.[ >.#.{ ] { @.` $.{ @.<.{ @.{ @.@.$.{ $.$.,.;.1.&.;.1.&.;.&.&.;.;.",
"OXlX@XOX@X#X@XOX#XOXXX#X#XXXXX[.).}.W.}.}.}.}.).W.).W.W.).E.W.W.R.!.T.T.T.T.T.T.!.T.$XT.!.!.!.!.!.!.$X!.!.I.$X!.!.I.!.!.P.!.!.c.v.$Xv.W W W Q E s.s.s.s.s.x.x.8.l.L.^.L.;X0X,Xz.^.^.,X,X,X,X>X4X2X>X=X;X5X>X:X<X>X>X>X>X>XaX>X>X3X<X3XaX5X7X8X7XtXtX7XdXaXdXdXaX8X8X1X8X1X1XaXaXdX1X1X1X;X;X;X%X;X;X1X,X<X<X<XaXaXaXaXtXaXpXtXpXuXjXjXdXuXuXuXuX8XkX8XdXGXkXjXkXkXdXuXdXuXdXuX8XtXuXtX7XaX0XtXpXcXcXcXlXL. X X X|. X|.|.OX{.|.OXXX).Q.XX).XX[.).XX).XXXXOX XOXOX|..XXXXXXX|.[.OXOX|.XX|.|.|.OX[.XXXXXXXX#XOXXXOXXXXXXXXXXXXXXXXXXXXXXXOX.X+XoX.XoX.XXXoXXXXXXX'.XXXXXXXXXX#XOXOXXXOXOX|.{.lX{.lXlX[.OX[.OX[.[.XXOX[.XXXXOX[.|.XX|.E.J.s.Y.).~.a.r.5.|  .#.:.1.$.$.*.$.*.*.$.$.@.&.{ @.@.*.&.*.$.&.;.&.&.&.&.;.&.&.;.&.;.&.&.&.&.&.&.&.&.&.&.&.*.&.&.&.8.&.&.&.&.#.>.>.$.<.:.$.{ #.$.$.$.%.$.$.#.&.#.#.*.%.*.X.%.#.#.| #. .>.{ >.>.#.#.$.{ #.@.$.$.@.#.$.$.>.$.#.#.#.#.%.%.%.%.#.@.X.8.7.*.%.8.w.%.%.$.;.w.-.;.#. .] ] ] { @. .{ #.{ { >.{ >.{ { { { { $.<.{ <.*.@.{ @.$.*.$.*.$.&.,.&.1.,.;.f.&.;.w.&.-.",
"@XOXOX@X@XOX#XOX#X#XXXXXXXXXXX!.).}.).[.}.}.}.}.W.W.).W.W.W.W.W.Q.T.Q.T.!.!.T.!.T.T.T.T.!.!.!.!.!.v.!.!.$X!.$XI.I.I.I.I.I.P.Y.P.I.! i.W W W Q E E s.s.s.s.x.x.8.a.L.;X_.,XaX;XL.L.fX1X5X,X:X:X,X5X,X:X:X5X>X=X<X<X>X>X>X3XaX>X>X>X:X>X7X7X7X7X7X7X8X7X7XdXaXaXaXaXaXaXaX8XaXaXaXaXaX1X1X:X;X1X;X;X1X<X0XaX0X0XaXtXpXpXpXvXiXiXvXiXjXjXjXdXuXuX8XdXjXjXjXkXkXjXkXjXhXuXuXuX7XuXuXuXtXtXtXtXtXtXtXcXcXcXaXL.9X X X|.|.|.|.|.|.{.OXXX).XX).).!.).[.).XX[.XXOXOX XoX|.XX|.OX|.OX|.OX|.|.|.OX|.OXXX[.#XXXXXXXXXXXOXXXXXXXXXXX.XXXXXXXXXXXXXXXOX+X+X.XOX.XoXoXXXoXXXXXXXXXXXXXXXXXOXXX|.OX|.|.lX{.lX[.OXOXOXOXOXOX[.XXXXOXOXXXOX|.|.[.{.).U.u.~. X/.6.a.5.X. .&.;.1.$.$.*.@.$.&.$.$.*.$.$.@.@.$.&.&.#.;.&.,.;.1.&.,.;.;.&.&.&.;.&.&.#.&.%.&.*.&.&.&.&.&.*.&.&.&.&.&.$.$.{ { $.>.$.$.#.$.$.#.#.#.$.%.$.$.*.*.%.%.%.*.@.@.#.#.{  .{ >.>.{ #.>.{ @.>.$.#.>.$.$.#.#.#.$.#.@.#.%.#.#.%.%.%.#.%.%.%.*.O.8.&.&.%.%.;.;.;.#.#.{ | ` ] | #.@. .#.{ { [ #.#.{ { { ] @.{ ` { @.<.*.@.@.@.$.$.*.&.&.1.1.,.&.1.,.;.&.;.w.;.",
"OXOXOXOX@XOXOXOXOXOXXXXXXX].XXXX}.}.{.).).}.}.}.W.).W.W.W.W.E.W.T.T.[.T.T.T.[.!.!.!.!.!.!.!.!.!.!.!.I.I.!.I.!.I.I.!.$X!.I.c.!.Y.P.v.i.p.Q Q Q R s.E s.s.s.x.x.x.8.^. X,X,X,X^.z.z.^.4XtX5X,X,X<X3X5X:X:X3X>X:X>X<X>X>X>XaX3X3XaX>X>X>X3X7X7X7X7X7X8XuXaXaXdXdXaX8X8XaX>X1XaXaX1XaX1XaX1X,X1X:X;X,X<X<X0X0XaX0XtXpXpXiXiXcXiXpXdXiXjXkXhXdXjXjXuX8X8XhXhXkXkXjXjXjXjXdXdXdXtX7XuXuXuXtXtXtXtXtX0XcXcXcXlXK.zX`.{.{. X|.|.|.|.|.|.XX).).XX).XXXX).}.).).XX.X+XOX.XOX|.OX|.|.OXXX[.XXOXOX[.XXXX.X.XXXXXXXXXXXXXXXXXXXXXXXXXXXXXXX.XOXXXXXOX.XoX.X.XXX.XXXXXoXXXXX'.#XXXXXXXXXXXXXXXOX[.OXOX[.OX[.OXOXOX[.OXXXOXOXOXXX[.[.OX|.|.[.|.|.|.E.u.Y. X_.0.a.7.|  .;.;.$.$.$.*.@.@.&.&.&.#.$.*.@.*.$.*.&.$.,.;.;.&.&.w.&.w.&.&.&.&.&.$.&.#.&.&.&.&.&.*.&.&.&.&.*.&.&.&.&.&.$.>.$.$.:.>.#.{ #.>.$.*.#.#.*.*.$.#.*.#.*.%.*.#.%.#. .#.>. . .[ #.{ #.@.$.@.$.{ $.$.@.$.{ $.@.{ | #.#.#.#.#.%.%.@. .%.*.5.*.%.7.-.#.&.&.w.&.%.#.| ] ] ' | #.#.#.>.>.[ >.{ >.#.{ @.{ @.*.<.<.@.@.$.{ { *.$.$.$.$.1.&.1.;.1.&.1.;.w.&.w.;.",
"OXOXOXOXOXOX#XXXXXXXXXXXXX].XX!.}.).{.[.).|.}.).{.).).E.W.W.W.E.[.T.T.T.[.T.T.T.[.!.!.T.!.!.T.$X!.!.!.!.!.$XI.!.v.!.v.I.!.I.P.P.P.$Xv.H.p.i.Q E E I s.s.s.6.x.s.l.^._.0X,X,X^.z.z.,XyXMXiX0X3X4X4X3X,X:X5X:X%X>X>X>X>X>X>X<X>X>X5X>X>X3X<X5X8X7XaXdXaXdXdX8X8XaX7XaX>XaX<X<X<X<X<X<X,X,X1X:X,X:X,X<X<X<X0X0XaX0XtXpXcXsXvXiXvXpXiXsXsXsX8XkXjX8XjXhX8XjXjXjXjXkXhXjXuXuXuX7XuXdXdXuXtXtXtX0X0X0XcXcXcX XL. X X X{.OX|.|.|.OXOX{.).XXQ.Q.).XXQ.XX}.}.}.XX.XOXOX.X|.OXOX[.OXXX|.OX|.OXOX|.OX|.OX[.XXXXXXXXXXXXXXXXXXXXXXXXXXXXXXXXXXXXXXXXOXOXXX.X'.XX.X.XXXXX].XXXXXXXXXXXXXXXXXX[.OXOX|.OX|.OX|.[.OXXXOX[.OXXXXX|.XX X|.|.|.|.{.}.).E.u.p.oX9Xa.a.7.X. .%.;.$.*.#.@.@.#.&.&.$.&.&.*.@.#.$.&.&.&.&.w.&.&.&.1.&.&.&.&.;.$.&.%.$.&.$.&.&.$.&.&.&.&.$.$.*.*.&.$.&.$.$.>.>.$.:.$.$.{ $.#.@.$.$.#.#.@.$.*.*.*.*.%.%.@.@.#.#.#.#.{ { >.#.$.{ $.{ #.>.@.$.$.*.@.$.{ #.| { { #. .#.#. .#. .$.*.X.X.%.%.&.&.&.&.;.;.-.&.@.@.{ ' |  .@.@.|  .[ [ { { #.{ #.` *.{ *.@.{ <.*.$.*.#.$.$.%.&.&.w.,.,.;.w.,.;.,.w.;.w.;.",
"OXOXOXOXOXOXOXXXXXXX].XXXXXXXX].}.).W.).}.}.}.|.).W.W.).E.W.W.W.T.Q.[.T.[.T.[.T.[.!.!.!.T.!.!.!.!.!.!.$XI.!.I.$XI.I.!.I.I.I.!.P.P.v.P.$Xi.i.Q Q E E s.s.s.6.8.8.a.^._.,X,X;X^.^.;X<XuXhXhX0X5X4X>X5X3X:X5X>X:X>X>X>X:X>X>X<X>X>X5X3X>X:X>X<X3X7XaXaX8X8XaXdXdXaX7X3X>X>X<X<X0X4X,X,X0X,X,X,X>X<X<X<X0X0X0XaX0XaXtXcXpXcXvXvXtXtXuXiXiXiXjXjXuX8X8XkX8X8XjXdXuXjXdXuXuXuXuXuXtXuXiXuXtXtXtXtXaXaXaXxXcXzXL. X{. XOX{.|.|.|.{.|.|.XX).XX].).).).[.}.}.|..X.X.XOX X|.|.|.|.|.XX|.OX|.XX|.|.|.XXOX|.XXXXXXXXXXXXXXXXXXXXXXXXXXXXXXXXOXOXXXOXXXOXXXXXXXXXXXXXXXoXoXXXXXXXXXXXXXXXXX#XOX|.|.OX|.OX|.OXOX[.XXOXOX[.[.OXXX|.|.|.|.|.|.|.|.Q.Y.K.s.`.9X~.r.q.%.%.@.#.*.$.$.*.*.$.&.&.&.#.&.*.@.#.%.&.&.#.;.&.&.1.&.w.;.&.&.&.&.&.&.#.$.*.&.*.&.&.*.&.$.&.*.$.*.$.&.&.&.&.{ >.$.$.$.>.#.{ @.{ $.#.*.*.*.#.#.#.@.#.#.%.@.*.%.@. .{ #.#. .>.$.{ #.#.@.$.{ { { >.@.>.#.@.{ { {  .#.#.@.#.#.#.| X.#.%.@.X.*.%.-.-.&.-.-.&.#.| #.' @.]  .#.#.#.{ >.{ [ [ { #.{ { { @.{ @.*.*.*.@.*.$.#.&.&.&.&.w.;.w.,.w.;.f.&.w.w.w.&.",
"OXOXOXOX#XOXXXOXXXXXXX).[.XXXX!.}.}.{.).}.}.}.).W.).W.{.).W.W.W.[.[.T.Q.T.T.[.Q.[.!.!.T.!.!.T.$X!.$X!.I.!.I.I.I.I.v.I.I.!.!.I.Y.P.P.i.v.i.i.Q Q u.R E s.s.6.s.6.r.V.,X9X4X,X;X,X,X<XtXpXyX6X,X:X,X5X3X<X5X:X&X,X>X:X=X>X>X>X>X:X>X>X>X>X>X>X7XaXaX8X8XaXaXdX8XaX>XaX>X<X<X,X0X,X,X,X,X<X<X:X,X<X,X,X0X0X0X0XtX0XtXtXtXcXcXpXcXaXtXuXiXiX8XjXjXhX8XjXkX8XjXhXdXdXjXdXuXuXiXuXuXuXiXuXtXtXtX0X0X0XcXcXcX0XK. X`. X{.OXOX|.{.OXOX{.XX).).XX).[.[.).}.}.}.|.+XOX.X.XOX|.OXOXOX|.|.XXOX|.XXOXXX|.|..XXXXX).XXXXXXXXXXXXXXXXXXXXXXXXXXXXOXXXXXXXOXXXXX}.|.XX].].oXXX].!.#X].XXXXXXXX!.[.XXOX|.OX[.OX|.XXOX[.[.[.[.OXXX|.|.|.|.|.|.{. X|.U.E.Y.6.Y.oX~.a.y.8.7.X.@.$.&.#.| @.#.&.-.&.#.%.#.@.#.$.&.&.%.&.;.;.&.;.&.&.&.#.&.#.&.&.#.#.*.$.$.$.&.*.$.$.&.@.{ @.@.$.$.$.<.$.>.#.{ :.<.$.{ { $.{ @.@.$.#.@.$.*.@.*.X.%.X.#.@.#.#.#.#.{ >.{ { #.$.{ { $.$.$.$.#.$.@.{ { @.{ {  .[ #. .#. .#.| #.%.@.@. .*.%.-.&.&.-.;.;.#.@.@.| ] | #.#.#.#. .[ [ [ { #.#.#.@.@.*.*.@.$.*.$.#.%.%.%.%.&.8.&.w.f.&.&.&.&.w.w.&.w.w.w.",
"OXOXOXOXOXOX#XXXXXXX[.].XX].XX).}.}.).).{.}.}.}.W.{.W.W.E.W.W.E.T.T.[.T.!.Q.T.!.!.!.!.!.!.!.!.!.!.!.!.!.!.$X!.I.I.!.!.I.I.v.P.P.P.v.J.P.J.u.Q R J.u.E 6.s.6.6.6.4.a.:XrX9X,X,X<X5X5X5XtXtX5X3X4X:X3X2X>X5X:X:X>X:X:X1X:X>X>X>X>X;X;X:X>X3X7X>X<XaX8X8XaX8XaXdXaX7X5X>X<X,X<X<X,X,X,X,X9X,X,X:X,X,X,X,X0XaX0X0XtXaXaXtXtXvXiXcXvXtXuXuXuXjXjXjX8XjXjXjX8XjXuXuXhXjXhX8XuXsXiXiXiXiXtXtX7XtXtX0X0XcXcX0X9XK. X`.9X{. X{. XOX{.|.OXXX).).).XX).).).).}.}.|. XOXOX.X|.XX|.XX|.OXOX|.OX|.|.OX|.OXXXXXXXXXXXXXXXXXXXXXOXXXXXXXXXXXXX.XXXXXXXXXOXXXXXXX).XXXXXXXXXXXXOXXXXXXXXXXXXXXXXXXXXX|.XX|.OX|.OX[.[.[.XX[.[.[.[.|.|.|.|.{.|.}.`. XP.).E.U K. X~.r.a.l.7.%.@.&.w.#.#.@.#.&.&.-.&.&.#.#.@.%.#.&.&.&.,.w.&.,.&.;.:.&.&.&.#.$.#.$.*.*.&.$.&.$.&.$.$.{ @.$.*.$.$.$.$.$.>.>.$.$.>.#.>.#.{ $.#.@.@.#.@.#.#.@.*.#.*.@.@.%.@. .#. .{  .>.$.{ #.*.$.{ #.@.#.$.{ #.{ @.{ ] [ {  .{ { #.@.#.{ | %.@.@.@.X.%.-.;.&.;.w.%.#.] #.@.] ]  .#.#.#.#.[ [ [ [ #.#.#.@.{ @.{ *.*.*.*.*.#.&.%.&.%.&.&.&.w.w.w.w.f.w.&.f.w.;.w.",
"OX.XOXOX.X X.X.X#X).).XXXXoX).).).[.}.}.).}.).}.E.W.E.).E.).W.W.Q.{.Q.T.Q.R.R.Q.!.!.T.!.!.!.!.!.!.I.I.!.$X!.$X!.v.!.P.P.P.P.!.I.v.P.J.i.Q ! H.! u.Q R I s.6.S _ 4.a.4X'.6X4X5X^.,X5XtXtX6X5X5X5X:X:X:X:X3X,X:X;X:X>X:X>X:X>X:X%X;X-X1X:X>X>X<X3XaXaX8X8X8X8XaX8X5X3X<X>X:X,X^.,X,X,X9X,X,X,XaXaX,X,X5X0XtX0X0X,XaXaX0XpXpXpXtXaXiXuXtXtXtXtXpXpXtX8XuXuXdXuXsXkXhXuXuXuXuXuXpXuXpXiXiXtXpXpX,XtXxXcXcXxXL. X{. X{.|.{.{.OXOX{.{.}.XX).XX).).).[.XXXX|.|.OX.X|.|.OXXX|.OXXXOX[.|.|.OX|..XXX|.[.|.XXXXQ.[.XXXXXXXXXXXXXXXX#XXXOXXX|..XXX X.XXX'..X).XX}.XX].XXXX).XXXXXX].XXXXXXXXOX[.[.XX[.XXXX[.OX[.[.OXXX[.[.|.XX[.|.|.|.|.{.}.W.}.E.E.6.`._.~.a.6.r.f.7.*.d.&.%.#.#.#.%.#.%.#.%. .#.#.#.#.#.%.&.&.&.;.&.w.,.f.$.%.$.&.$.%.#.&.$.$.$.{ $.$.$.@.>.$.$.$.:.$.$.:.$.{ $.{ $.{ { $.#.{ @.$.@.$.*.#.*.@.@.*.#.%.%.*.@.#. . .>.{ >. .$.$.{ #.@.#.>.{ &.$.#.$.#.{ { { { ] {  .{ #.#.#.| #. .| #. .#.%.&.-.&.#.%.-.&.] ] ] | | @.#.#.#.#. . .#. .| | { @.@.#.*.@.@.*.%.%.%.&.7.&.w.&.w.w.%.*.&.w.w.w.&.w.d.w.w.",
" X.XOX X.X.XXX|.#XXXXXXXXX).).W.).{.}.}.}.}.{.}.).W.W.W.W.W.W.).T.T.Q.{.Q.Q.Q.R.[.T.!.T.!.!.!.!.$X!.!.$X$XI.I.!.I.P.!.!.!.U.U.v.H.v.v.i.v.H.! H.Q E R s.6.s.6.6.9.c.(.'.6X4X,X:X:X<X5X5X5X5X3X4X4X2X:X:X3X4X3X,X:X:X:X:X>X>X1X:X>X>X:X>X>X>XaXaXaX8XaX8X7X7XaXaX7X3X>X>X:X,X,X,X,X,X1X,X`.,X,X,X<X<X0XtX0XaXaX<XaX0XaXtXtXdXvXaXpXuXpXiXdXdXpXdXuXuXtXuXuXuXiXsXjXuXuXuXiXiXiXpXiXiXiX0XpXpX0X0XcXcXcXxXK. X X X|.{.OX{.{. X XOX}.].XX).).XXXX).).|.|.|..XOXOX|.|.OXOXOXOX|.OX|.OX[.OX|.|.|.XX[.[.XXXXXXXXXXXXXXXXXXXXXXXXOXXXXX.X|..X.XXX.X|..X).}.).XXXXXX].oX].XXXXXXXXXXXXXXXXXXXX[.XXXXXX[.[.XX[.[.[.[.XX[.XXXX|.|.[.|.{.}.R.).).E.0.Y./.`.a.6.8.8.*.7.w.&.%.#.#.%.@.#.#.%.#.#.#.%.#.%.#.#.&.&.&.:.1.;.f.;.*.&.&.#.&.$.&.#.$.@.$.$.{ $.*.$.{ { *.$.$.$.:.<.$.>.{ >.{ >.#.#.{ $.#.$.#.@.#.@.$.#.*.#.#.%.%.#.%.#.{ >. .#.[ >.{ #.@.$.$.@.@.{ $.$.$.{ { @.{ | ] { [ >.#.#.:.#.@. .@.{ @.@.%.%.&.;.;.%.-.;.;.@.| ] ] @.#.| #.#. .>.[ [  .] ] ] @.@.*.*.@.@.*.*.&.%.%.&.7.&.w.w.8.w.&.w.w.w.w.8.w.w.w.w.",
"OX.XoXOXoX.X.X.XXXoXXX].XX).).Q.).}.).}.}.).}.}.W.E.W.W.W.W.W.E.{.T.T.E.R.E.Q.E.!.!.T.T.!.E.!.!.$X!.I.I.!.!.I.$XI.!.I.P.U.P.P.Y.P.P.v.P.i.i.J.! Q T R R R p.I M r.v.V.'.6X4X,X:X,X:X3X5X5X5X4X>X4X2X:X;X&X:X,X>X*X;X:X>X>X:X2X>X>X1X>X>X>X>X<X3X8X8X8X8X8X7XaX>X5X>X<X:X,X;X_.(.9X,X,X<X1X1X0XaX0X<X5XtXaX0XaXaXaXaXtXtXvXtXvXdXpXpXdXiXpXdXaXtXuXtXuXuXuX8XuXuXuXhXuXuXiXiXiXuXiXpXiX0XpXpX<X0XcXcXvXxXL. X X X{.{.{.{.{.|.{.|.XX).).}.XX).}.}.).}.|.|. XOXOX X|.OXOXXX|.[.XX[.[.XX|.[.[.|.[.[.XXQ.XXXXXXXXXXXXXXXXXXXXXXXXXXXX|..X.X.X X.XXX|.XX}.).XXXXXXXXXXXXXX!.XX!.!.#X#XXXXXXXXXXXXXXX[.XX[.[.[.[.XX|.[.|.|.|.|.|.{.|.`.U.).E.).I Y./._.L.5.7.a.8.*.8.8.@. .#. .#. .%.#.#.#.#.#.O.%. .#.%.&.;.&.;.&.&.;.%.$.$.&.*.$.&.$.$.$.{ $.$.$.{ $.{ $.{ $.$.$.$.<.>.{ >.#.$.>.$.{ $.#.#.*.#.@.#.$.#.*.*.#.*.&.*.X.@.#.#.#.#.{ >.#.>.@.{ $.$.$.>.#.{ $.@.@.{ { { | { [ >.#.>.#.#.#.| { ] #. . .%.%.&.;.;.&.&.w.-.@.] ' ] | ] #.#. . .{  . .[ { | ] @.#.%.#.*.X.*.&.%.7.7.%.w.w.%.q.w.w.8.r.w.w.8.w.w.w.w.w.",
".XOXOXOX.X.XoX.XXXoXXXXXXXXX).).W.}.}.}.}.{.).W.W.W.E.).W.E.W.W.Q.E.Q.E.Q.Q.R.Q.!.T.!.!.Y.!.!.Y.!.!.!.I.I.$Xv.!.I.I.!.P.Y.Y.Y.Y.P.v.I.$Xv.i.H.H.R T R I I 6.I M 9.v.V.9X4X4X(.,X:X:X>X5X5X5X3X:X2X:X:X:X:X:X:X:X:X:X>X:X:X:X>X>X>X>X>X>X<X3X>X7X1X8XaX8X7X8XaX>X5X>X>X>X1X,X,X,X,X,X9X<X,X,XaXaX<X0XaXtX0X0XaXaXaXaXtXtXaXvXaXvXiXpXtXtXaXtXaXaXtX7XtXtXtXuXuXuXhXdXuXuXpXiXiXiXcXpXiXtX0XeX,X0XvXcXcXcXL. X{. X XOX|.OX|.OX{.|.}.).XX}.).).}.).}.).|.|.OXOXOXOX|.XXXX|.OX|.|.|.|.[.[.|.|.[.|.[.[.XXQ.XXXXQ.XXXXXXXXXXXXXXXXXXXX|.|.|.|.XX|.|.XX|.}.].XX}.].}.}.#X!.#X].#XXX#X!.XXXXXX[.XXXXXXXXOXXXOX[.XX[.[.XX[.|.|.|.|.|.}.|.U./.Q.).I Y.`._.L.7.7.y.8.8.d.*.%.#. .#.%.#.%. .=.#.%.=.#.#. .-.#.&.&.&.&.;.&.f.&.$.%.*.$.%.%.$.{ { $.$.{ $.$.{ { { $.{ $.$.$.$.>.$.$.>.$.#.>.#.@.$.{ $.$.#.@.*.#.#.@.*.%.%.%.@.%.@. .#. .>.[ >.@.@.>.#.{ { @.#.$.#.$.{ @.@.{ { {  .{ [  . .>.#.{ | #.| @.#.#.%.&.-.-.&.;.w.;.#.` ] ] ] | #.| #. . . . .[ ] ] ' | @.@.X.@.X.*.%.&.7.%.w.7.w.w.w.w.w.w.w.w.h.l.f.w.d.f.f.",
"oXOXOXOXOXoXOX.X).XXXXXXXX}.).XXW.}.}.}.}.{.W.).W.W.W.E.W.Q.E.E.{.T.{.Q.Q.E.E.E.Q.E.R.Y.E.E.R.Y.!.!.I.!.!.$X!.$XI.I.I.!.P.P.!.P.P.P.P.i.H.v.H.H.! Q W R I I J M N e.b.gX9X4X:X4X:X>X2X5X6X5X5X:X5X4X3X4X2X3X5X4X:X,X,X:X:X:X:X,X3X>X<X<X>X3XaX<X5X5X5X8X7X7X3XaX<X>X>X>X;X1X;X,X,X1X,XaX1X XaX1X,X<XaXaXaXaXaXaXaXaXaXaXaXcXaXaXtXcXtX0XaXaXtXtXaX7X7X7X8XyXuXuXjXhXuXpXuXiXiXiXcXiXpX0XpXpX,X0XvXBXvXcXK. X X X{.|.{.OXOX{.OX{.).).XX).}.).}.).}.|.}.}.|.OX[.OX|.|.OX[.[.|.XX[.[.|.[.}.[.[.[.}.[.[.XXXXXXXXXX[.XXXXXXXXXX[.XXXX|.XX|.|.|.XX}.XXXX).}.XX}.].XX}.!.#X!.#X!.XXXXXXXXXX[.XXXXOXXX[.[.XX[.OXXX[.XX[.|.}.|.|.}.|.`.|.W.).Y.).I K.~. XY.r.7.r.8.8.8.X.@.#. .#. .%. .-.#.#.-.#.-.#. .%.%.&.&.&.&.&.f.&.&.#.&.$.$.*.&.$.$.$.$.$.$.{ $.>.$.$.$.$.{ $.{ $.#.$.$.$.$.>.$.{ #.$.$.{ @.#.@.$.$.*.*.*.*.%.%.#.@.#. .#.#.>.[ #.>.@.@.#.{ $.{ $.#.#.@.@.>.@.{ { [ >.>.[ { >. .#.[ { #.#.] #.#.#.#.;.;.&.;.f.w.#.] ` [ | @.| @. .>.+. .[ [  .+.| | #.%.*.*.*.*.7.%.7.%.%.8.w.8.w.t.w.w.y.t.h.h.y.t.t.f.f.",
".X X XOX.XOXoXOX}.XXXX].].XX].XX).}.).[.).).W.E.).W.W.W.E.Q.E.Q.E.E.E.E.E.Q.Q.E.W.Q.Y.R.!.Y.Y.!.!.!.!.$X!.I.I.!.v.T.I.I.Y.U.U.P.P.v.P.P.P.Q $XH.J.! Q W W I m M s N v.'.4X6X6X5X4X5X5X5X7X5X3X,X3X3X5X5X3X4X3X2X>X3X3X>X:X;X>X>X<X3X3X>XaX3X7X3X5X5X7X7X7XaX3X7X>X<X:X:X,X1X X1X,X X,XaX1X1X1X1XfX1X1X1X1XaX1X1XaX1X1X1X1X1X1X1X1X1X1X1XaXaXaXaX>X>X<X<X7XyXuXiXjXhXpXpXpXhXsXMXvXiXpX0XeXiX,X0XmXcXmXxXL. X X XOX|.OX{.{.OX{. XXX).).}.).).W.[.}.}.}.|.OX[.[.{.|.|.|.|.OX|.[.|.|.[.|.[.[.|.}.[.XX[.[.!.!.XX!.XX[.[.[.[.XXXX[.XX|.|.}.XX|.XX|.|.).XX}.).}.).).).#X!.#X!.#X].XXXXXXXX[.XXXXXXXXXXOX[.[.[.[.OX[.XX{.}.).|.|.|.|.}.).Q.Y./.R a.~.9X~.8.r.8.8.8.8.8.| |  .#.#. .#.#.-. .#.%.#.#.-.#.#.#.#.&.&.;.&.;.$.%.$.%.&.$.%.#.$.{ { $.$.$.@.$.$.{ { $.@.$.$.{ >.>.>.$.:.$.$.$.{ { *.#.*.#.#.@.#.*.@.#.%.%.*.*.%.@.@.#. .>.>. .$.{ $.$.$.{ @.$.{ { $.{ @.{ #.#.{ { [ >.[ >.>.[  .{ #.] #. .%.%.#.;.%.%.%.;.;.#./ ] ] ] ] | {  .+. . . .| ] ' |  .#.X.X.X.@.O.*.%.w.w.7.w.w.8.w.f.t.y.f.f.t.y.f.f.f.f.t.",
".XOX+XOXOX#XoXOX).XXXXXXXXXX}.XX).[.).}.[.W.{.).W.W.W.E.W.E.E.E.Q.E.Q.E.E.E.E.E.W.R.!.Y.R.Y.Y.!.!.!.!.I.I.$X$XI.I.I.c.!.!.P.U.U.c.P.P.v.P.H.H.H.H.i.u.W W 6.K m N c v.V.4XqXyX0XqX7X8X6X8X4X3X3X4X4X3X,X:X:X:X,X:X4X>X:X*X:X:X3X7X3X5X<X3X<X3X5X7X7X5X5X5X7X5X3X>X1X1X,X;X,X1X X,XfX X1XfXfXfXfXfXfXfXfXfXfXfXfXfXfXfXfXfXfXfXfXL.fXfX1X1X1X1X1X1X;X1X>X<X7XuXuXhXsXpXuXpXiXiXvXAXcXpX0XpXpX0X0XMXvXvXxXL. X{.|. X|.{.OX{.|.OX{.}.).XX).}.).W.).}.}.}.|.[.OX{.{.[.XX|.[.|.|.|.|.}.|.[.|.[.|.}.}.XX[.XX[.XXXX[.[.!.XX[.XXXX[.[.XX}.|.|.|.XX}.XXXX}.XX].}.XX).).).!.XX!.].!.#XXXXXXXXXXXXXOXOXOXOX[.OXOX[.XX[.|.}.}.[.|.|.|.|.|.|.).!.Y.).p.a.~._.`.a.8.a.8.8.8._  . . . . .-. .-.=.#.#.=.-.#.#.%.#.&.$.&.&.&.1.&.#.&.&.#.%.$.&.$.$.{ $.{ { >.{ $.{ >.{ { { { { { >.>.$.:.$.>.$.$.$.#.@.$.*.#.*.#.#.#.*.*.#.%.#.%.%.@. .{ [ >.#.{ @.@.@.{ *.#.$.{ { @.{ @.$.$.{ { >.{ { { [ #. .{ {  . .{ ] #.#.#.#.%.%.#.%.1.-.#.' / ' ' ] #. .@. . . .+. .+.| '  .X.*.%.X.X.7.*.%.7.7.7.q.r.y.w.l.8.8.h.t.l.f.y.f.w.h.h.",
".X XOXOXOXOX#XoXXXoXoXXX).).).).}.).{.}.).W.W.E.W.W.).E.E.Q.E.E.T.E.{.E.Q.E.E.E.).Q.E.Y.R.!.!.Y.!.!.!.I.!.!.!.v.I.I.I.I.Y.P.U.P.I.v.I.H.v.$XP.i.Q Q u.W p.U U 9.N c 9.y.4XqXhXqXyXhXpXyX5X3X3X5X3X5X4X5X,X,X3X3X:X:X3X,X:X1X>X5X3XaXaX3X<X7X5X3X7X7X7X3X<X3X<X3X<X1X,X;X1X;X1X X1Xz.L.z.x.d.z.z.z.z.z.z.L.fXfXz.fXfXfXfXfXfXfXfXz.z.L.1X,X1X;XfX;X;X%X%X1X<XtXpXjXiXpXyXiXiXsXhXAXcXpX0XeXcX9X0XcXMXcXxXK. X X+X|.|.OX|.OX|.|. X).[.).[.}.W.).).}.}.}.}.{.lX[.T.|.[.[.OXXX[.XX[.XX[.|.}.}.[.|.[.[.XX!.[.XX!.[.[.XX[.[.[.[.[.XX[.}.}.}.|.).XX).).).XXXXXX).}.}.}.#X!.#X!.XXXXXXXXXX!.XXXX[.OXOX[.OX[.XXOX[.XX|.|.[.|.|.|.|.|.`.|.W.Y.c.oXp.K.a.`.^.8.s.8.8.8.d.` @.|  . .#. .#.#.%.#.-.#.#.-.%.%.@.$.%.&.&.;.&.&.&.*.$.&.#.&.%.$.{ $.$.$.$.$.{ $.$.@.{ $.{ $.@.>.>.$.$.1.:.$.$.$.{ #.#.$.#.@.$.@.#.#.@.@.%.*.X.%.@.#.#.#.#.#.#.#.$.>.{ $.$.{ @.$.$.@.{ $.@.{ $.@.>. . .#.>.{  .{ ] | {  .{  .#.%. .#.#. .&.-.-.%.' ` ] ] | | @.X. .[  .+.' | | | @.X.%.*.X.X.*.8.8.%.w.w.8.w.8.w.y.f.w.y.w.l.t.8.l.h.l.f.",
"XXXXXXXXOXOXOXOXXXXXXXXXXX!.XX!.XX).).).XX).[.}.W.W.W.E.W.E.E.{.{.E.{.W.`.E.W.E.T.T.Q.T.[.T.Q.T.T.!.T.I.I.I.I.I.I.Y.!.I.Y.I.U.Y.!.I.$X$Xv.$X$X! ! ! U U s.p.6.l j q 9./._.eXMX0XyXpXqXyX5X,X,X3X:X<X,X<X5X<X<X:X&X>X3X:X%X*X3X5X5X3X7X5X5X3X5X7X<X5X7X5X>X:X>X>X<X:X;X;X;X;XfX^.z.L.z.d.d.d.d.d.z.fXz.L.fXfXfXL.fXfXfXfXfX1X1X1XfXfX1X X<X<X;XfXfXfX;X1X,X>X7XyXhXjXhX8X8XhXhXhXjXjXhX6XqXcXcXpXpXMXgX_.`.).`..X{.{.OX{.OX{.{.lX{.{.[.[.{.[.[.Q.W.[.}.[.XX[.{.lXOX[.lX{.[.[.[.[.[.[.XXXX!.XX[.XX[.!.[.[.XXXX[.[.[.[.[.[.[.[.XXXX[.}.XX|.).).|.XX}.}.}.}.}. X).XX).}.XX).XXXXXXXXOXOX[.OX[.OXOXOX[.OXOX[.OX[.OXXX[.|.|.|.}.}.|.`.).!.Y./.Y.a.Y.9X^.l.r.r.8.w.8.*.@.| @.@.#.#.&.&.%.*.@.%.%.%.&.%.&.#.&.%.&.&.&.;.#.*.#.$.&.;.&.#.#.#.>.[ [ >. .>.>. . .{ >.[  .>.@.$.&.&.$.#.#.$.#.%.#.#.$.*.#.$.#.O.@.#.#. .@.#.#.#.#.%.#.#.#.#.{ $.<.*.<.*.*.*.*.{ @.{ *.{ $.{ %.#.@. .#.#.O. .%.%. . .#.#. . .#. .#. .:.-.%. .| | / | | | ) / -. .' }  . .| ) | X.X.*.*.5.X.*.*.*.*.8.w.w.d.w.w.f.l.a.j.l.l.l.y.l.8.l.",
"XXXXXXOXXXOXOXXXXXXXXX].].XX).[.).).).XXQ.).[.[.W.W.{.W.W.W.E.E.E.{.E.W.E.W.E.W.[.T.T.Q.T.Q.Q.T.T.T.!.!.!.I.I.I.I.I.I.T.T.Y.I.Y.I.v.$XI.I.$X$X$X$X! W I 0.s.I l ) p 5.V.^.9XgX9XrX9X_.,X,X1X:X;X;X:X>X<X<X<X:X>X:X<X5X>X:X:X3X5X7X5X5X3X3X7X<X3X5X5X5X5X>X:X>X>X<X1X%X%X^.;XL.z.z.d.z.d.d.d.L.z.fXfXfX1XaX1X1X1X1X1XaXaXaXaXaXtXtXaXaXaX<XaX<X,X;X;X;X;X1X1X<XtX8XhXhX8X8XhXjXhXhXhXpXqXeXpXeXqX0XhXqX_._.}.{.OXOXOXOX{.OXOX{.lX{.lX[.{.[.[.[.[.W.XXXX[.XX|.{.lX[.OX[.[.[.OXOXOX[.[.[.[.[.[.XX!.[.XX[.XX[.XXXX[.[.[.[.[.[.[.[.[.[.}.|.|.|.).}.}.}.}.}.}.}.).XX).}.).).XXXX].XXXX[.OX[.OXOX[.[.OX[.XX[.XX[.OXXX[.|.|.|.|.|.{.{.|.}.Y.R.).Y.a.K._./.a.7.7.8.8.*.8.@.@.@.@.*.%.%.*.*.#.*.$.*.&.&.*.$.%.$.&.&.&.&.&.#.#.@.&.&.&.&.#. . . . . . . . . . .>.=. .#. .=.] *.&.:.&.#.$.&.#.*.*.$.*.#.*.#.@.#.#.#.@.%.O.#.%.#.@. .%.#.#.#.<.*.@.$.{ @.<.$.<.` <.*.@.@.*.@.%.%.X.@.*.X.@. .%.%. .|  . .=. .=.:.=.#.%.%.%. .} / ) } | X.X.} =. .+.}  .X.| | X.X.X.X.X.7.8.X.*.*.&.*.,.f.w.d.w.d.w.d.f.w.f.j.l.f.f.l.",
"OXXXOXOXXXOXOXXXXXXXXXXXXX].Q.].XXXX).Q.).}.).[.{.).W.W.E.W.E.W.).W.E.E.W.E.{.).!.!.T.T.Q.Q.T.Q.!.!.T.T.!.I.!.$XU.T.I.!.Y.U.U.I.I.I.I.$XI.$X$XP.i.! Y U 4.s.I z 6...5.6.r.,XeXrX9X,X^.^.(.,X,X:X;X;X>X,X>X>X,X>X>X<X>X;X:X<X2X,X3X7X5XaX5X3XaX3X3X3X7X3X5X>X>X,X:X;X%Xz.z.z.z.d.d.z.d.L.L.L.fX`.fX1X1XaXaXaX1X1XaXaXaXaXaXdXdXpXcXpXcXaXtXtXtXuXaX<X1X1X;X1X<X8X8XjXjXhXhX8XhXhXhXhXhXhXeXqXeX0XqXrX4X_. X|.}.|.OX{.OX{.{.OX{.{.{.lX{.lX[.XX[.[.XXW.[.}.[.OX[.{.[.[.lX[.[.OXOX[.XX[.XX!.[.XX!.XX[.!.[.[.[.[.[.XX[.[.[.Q.[.[.[.[.W.}.}.}.}.}.}.}.}.}.}.}.}.|.}.|.).).XX).[.XXXX).[.[.[.[.[.[.OX[.XXXX[.OX[.OXXX[.|.[.|.|.|.|.|.|.)./.Q./.Y.p.a.~.`.l.r.8.w.8.*.*.@.@.*.*.&.*.&.&.#.*.#.%.$.*.&.*.#.&.*.&.&.&.&.;.#.*.#.&.&.;.&.#.#. . .#.#.{ >.+. .#. .#.#. .#.#.] @.&.&.&.&.&.&.$.#.$.#.#.#.#.#.%.#.%.#.#.#.#.#.#.%.#.%.#.#.#.X.*.@.$.*.*.$.*.$.{ @.@.@.<.` @.@.$.*.*.@. .#.#. .%.#. . . .#.#. . .#. .#.-. .-.| / / / | X.@.X.|  .| ] +.| | | } | *.*.X.*.X.*.*.*.*.*.&.&.w.d.w.w.&.w.;.8.w.w.w.8.8.f.f.",
"[.OX[.OXXXXXOXXXXXXX].XXXXQ.XXQ.).Q.).).[.).Q.).W.W.).W.{.W.E.{.W.E.`.W.E.E.W.E.T.T.[.[.Q.T.Q.T.T.!.T.T.I.T.T.!.I.I.I.I.T.I.U.I.I.I.v.I.$XP.$X$XW v.W U 6.s.R l J 4.6.M 0. XeXwX_._.`./.,X4X<X,X(.;X;X1X,X,X<X>X>X>X>X:X:X5X3X2X5X5XaX5XaX3X5XaX7X7X5X7X5X3X>X>X;X;Xz.z.z.z.z.d.z.L.fXfX;X1X1X1X1X1X XaXaXaXaXaX1XaXaXaX1XaXaXaXaXtXtXtX7XtXiXdXpXpX7XaX<X>X7XtX8XhXjXhX8XhXjXhXhXhXMXeXyXeXqXeXqX_.`._.).|.|.OX{.OX{.{.OX{.lX{.{.{.{.[.Q.Q.[.Q.W.W.}.}.|.[.|.lX[.[.{.{.[.OX[.OX[.XX[.XXXX!.XXXX[.[.!.!.[.[.!.[.!.[.[.[.[.[.[.XX[.}.}.|.|.).|.|.). X}.}.}.}.}.).).).).).).).}.}.OX[.[.OX[.[.[.[.[.[.[.[.[.[.XX[.}.}.|.|.|.|.|.`.).W.Y.).Y.p.a.~.^.a.r.8.8.8.*.*.%.@.*.#.*.#.*.*.*.&.*.&.*.&.%.&.&.$.#.&.$.&.&.&.&.$.%.$.&.&.&.#.#.#.#. .#. . .#.#. .#. .#.#.#.#.*.#.&.&.&.;.&.$.*.#.*.#.*.*.$.#.#.#.#.#.%.#.%.#.@.#.#.#.%.#.#.#.*.$.*.{ *.$.#.#.@.@.@.*.$.{ @.*.#.@.@.] @.#.@.#.#. .| |  .=. .#.#.#. . .#.%.#. ./ / / | | |  .@. . .[  .] | | | _ | | @.X.*.X.*.*.*.*.&.&.,.8.w.&.&.&.&.8.&.&.8.8.w.8.a.",
"[.OXOXOXXXXXXXXXXXXX].Q.XX!.XX!.).).!.).).).[.Q.W.}.W.W.W.).W.E.E.W.E.W.).E.W.E.T.T.T.T.!.!.!.!.!.!.!.T.T.!.$X!.I.I.U.T.T.Y.U.I.c.I.I.$XI.$X$X$X! ! ! p.u.p.s.4.l 6.I j p.`.oX#X X_. X_.,X,X,X0X;X,X,X:X<X<X<X<X<X3X>X<X5XyXqX8X5X7X5X3XaX5X3X5X8X5X5X7X5X5X>X>X%Xz.S.z.S.z.z.^.fX1X,X<X1X,X1X,X1XL.fXfXfXfX1X1X1XaXaX1X1X1XaX1X1X1XaX8X7X7X8XdXsXuXuXuX8X7X7XtX7XyXuXhXhXuXiXMXAXMXAXpX0XeXeXpXeX(.~._.).}.|.OX{.lX{.lX{.lX|.|.}.[.}.).XXQ.].Q.}.}.XX}.{.lX|.[.OXOX[.[.[.OX[.[.XXQ.XX!.[.XXXXXX[.[.!.!.!.!.!.!.T.T.[.[.Q.XXXX[.}.}.|.|.XX|.XX_.}.}.|.}.}.}.}.).).).!.).Q.XX).[.[.[.[.[.OX[.[.[.[.[.[.[.[.[.XX[.}.}.|.|.|.|.|.|.`.!.Y.Y.~.a.K.V.^.K.w.8.d.*.*.*.*.%.$.*.%.*.&.%.*.$.#.*.%.&.&.*.%.$.&.&.&.&.&.&.$.#.$.&.&.;.:.&.#.>. . .#.#. . .#. .#. .#.#.#.#.&.$.&.;.&.&.%.*.*.$.#.*.$.#.$.*.#.%.#.#.#.#.%.#.#.%. .#.%.#.#.#.{ *.#.#.#.#.#.#.*.*.#.#.#.#.#.#.*.@.{ { @.#.#.#.{  .[ [  . .#. .>. . .>.>.#. .] ( / ' | | | ' |  .[  .| ' ] | | @.`  .*.*.*.*.*.X.#.@.#.&.-.&.&.#.%.$.%.#.#.&.#.&.8.&.8.",
"OXXX[.XXXXXXXXXXQ.XX[.XXXXXX].XX).).).).Q.).Q.).W.[.).{.E.E.W.W.W.E.).E.E.W.Q.W.[.!.[.T.T.!.[.!.T.T.!.T.!.I.T.T.I.!.T.Y.Y.U.T.Y.!.$Xv.I.$X!.v.$XY v.p.p.p.p.p.s.M I J l 6.a.Y.`. X9XrX9X9X4X,X0X,X,X,X,X,X<X<X<X;X,X,X>X5X8X8X5X5X3X7X3X5XaXaX5X3X5X5X5X7X3X>X>X%X;X;X%X;X;X1X;X1X,X1X,X1X1X1X1XcXaXaXaX1X1XaX1X1XfX1XfXfXfX1X1XfX1X>X8XaXaX8X8XuXpXuXiXuXtX7X7X7XtXyXpXhXiXiXhXhXAXMXeXqXeXcXcXeX`.`.).`.).OX|.{.lX{.{.{.|.|.|.[.}.}.XXQ.XXXXXX.XXXXXXX[.{.lXOX[.[.OX[.[.[.[.[.[.Q.[.XXXX}.[.[.[.[.T.T.!.!.!.$XT.T.T.T.[.[.[.XX}.).}.}.|.XX|.}.}.}.}.}.}.}.|.}.).XX).XXXXQ.XX[.[.[.[.[.[.[.[.[.[.[.XX[.[.[.[.XX[.}.}.}.`.|.).|.Q.).Y.`.Y.Y.K.Y./.l.a.f.8.x.8.d.&.*.%.*.*.&.*.*.*.%.*.&.&.*.%.&.$.&.%.$.&.&.&.:.&.&.#.&.&.;.&.%.#. .#.{  .#.#.#.>.=.#.#. .#. .#.;.;.&.1.;.&.#.{ #.#.*.$.#.*.#.#.$.%.#.%.#.%.#.#. .#.#.%.#.#.%.#.%.#.#.#.#.#.O.#.@.#. .#. .#. .#.{ { [ ` { #.#.#.#. .| ]  .#. .>.:.[ [ #. .#. .] / ' ] | | ' _ | ]  .[ ] | ' ] @.| | @._ _ *._ @.%.@.@.#.&.&.&.#.$.#.#.#.#.#.@.#.&.w.7.8.",
"XXOXXXXXXXXXXXXXXXXX[.].].[.].!.Q.).Q.).).Q.).Q.W.).W.).W.W.W.E.E.W.E.Q.E.Q.W.E.!.!.T.!.!.!.!.!.!.T.!.!.!.I.T.T.I.I.I.Y.T.I.U.I.!.v.!.$Xv.$X$X$X! $XH.! s.p.0.s.I p.F j R P L J..X9XrXrX'.,X9X0X,X,X,X1X,X;X1X>X;X:X:X1X>X5X5X5X5X7X3X<X3X3XaX3X7X5X5X7X7X5X<X:X:X:X1X;X1X:X1X:X,X1X;X,X`.;X;X`.1XL.L.z.L.z.z.L.fXfXfXfXfXfXfXfX1X%X1X>X>XaX8XaXtXtX8XuXuXuX7XtXtX5X5XpXuXiXcXMXpXMXpXqX0XpXcXeXeX`.`.).J.{.|.{.{.{.{.{.{.{.{.{.W.W.[.Q.!.].!.).XXXX[.lXlX{.OX|.OX[.[.[.[.[.[.[.[.XX[.XXQ.Q.!.!.!.T.T.T.T.T.T.$XT.$XI.T.!.!.[.[.W.W.W.}.}.}.[.W.}.).|.}.}.}.}.}.XX).Q.).[.).Q.[.[.[.[.OX[.[.[.OXXX[.[.XX[.[.[.[.W.{.}.{.|.{.).{.).Q.E.Y.Y.P.c.l./.L.a.l.8.8.x.d.&.*.&.&.&.*.*.$.*.#.*.*.&.*.&.*.&.#.$.%.$.&.%.&.&.$.&.&.w.f.&.&.#.#.#.#.#. .#.#.#.#.#.#.#.#.#.#.;.&.&.-.f.1.&.@.#.$.$.#.*.$.%.*.#.#.#.#.%.#.#.%.#.#.#.#.%.#.O. .#.-.O. .:.=. . . . .#. .>.=.=.#.#.{ ] { { >.@.{ { ] ] [ [ =.#. .=.#.+.>. .#. .] ( ( ' ' | | |  .] [  .[ ' ' | @.| ] ` @.@.*._ @.#.#.{  .#.:.%.#.:.#.$.#.$.#.$.#.%.w.%.w.",
"OX[.XXXXXXXXXX[.!.XX[.XXQ.XXXX!.Q.).].!.).).Q.).).).{.{.).W.E.).`.Q.Q./.Q.Q.Q.Q.T.!.!.T.[.!.!.!.!.!.!.T.!.!.I.!.I.I.T.T.U.U.U.U.c.I.$XI.I.I.!.$X! v.v.p.W 0.R I I p.Z g R Z C K. X). X X_._._.`.,X_.,X,X,X;X(.;X;X1X>X:X,X5X5X5X7X3X7X5XaX5X7X3X7X5X7X5X7X7X>X>X>X<X>X>X:X1X1X>X;X1X;X;X1XfX;X1X1XfXfXfX1X1XfX1XfXfXfXfXfXL.fXfXfX%X1X1X1X>XaX8X8X7X7XuXtXtXtXtXyX5X0XqXhXpXpXpXpXeXqX0XeXeXeXeXrX/.{.|.K.{.|.T.{.T.{.{.{.{.{.{.Q.!.Q.!.!.!.!.!.[.|.[.[.[.{.|.[.OX[.[.[.[.[.[.[.Q.[.[.XXQ.!.I.P.!.$XT.$XT.T.T.T.H.I.$XI.T.!.!.Q.W.W.E.E.W.).).Q. X}.).}.|.}.}.|.).XXXX).XXXXQ.XXOX[.[.[.[.OX[.[.[.[.[.[.[.XX[.[.{.E.W.}.`.|.|.{.).).E.Y.~.Y.L.Y./.L.L.l.8.8.8.d.&.%.&.*.%.$.&.%.$.%.$.%.*.$.%.&.$.%.&.$.&.;.&.;.&.%.&.&.1.&.&.&.#.#.#. .#.#.#.=.>.#.#.#.#.#.#.#.&.&.&.&.f.;.&.*.#.*.#.*.#.#.#.#.%.#.%.%.#.%.#.%.%.#.%.@.@.#.#.#. . . .#. .#. .-.#.O.#. . . .#. .{ { { { #.#.$.#. .] [ '  .>.#. .>.[ #.[ #. .] ' y u ' | | |  .%.'  .#.| ] / |  .` _ X._ *._ *.*.%. .|  .-.#.#.#.;.#.$.#.>.$.{ #.%.8.8.8.",
"XXOX[.OXXXXXXX[.XXXX!.XX!.#X!.].].].!.Q.!.Q.Q.Q.).Q.Q.).W.W.Q.Q.Y.Y.E.!.!.Q.Q.!.!.!.!.Q.!.!.!.!.!.!.!.T.!.!.T.T.T.T.T.T.U.R.I.P.I.v.v.I.I.I.I.I.$X! U U 0.0.U U I J W Q F C G Z u.J.Y.).`.a.a.^.,X4X^.^.,X<X;X;X;X;X^.;X,X5X5X3X5X>X:X:X>X>X,X>X-X>X5X5X7X5X3X:X>X<X>X>X;X;X1X:X:X;X1X:X1X;X,X1XL.L.L.fXfX^.fX;X;XL.fXL.fXfXfXfX=X1X>XaX>X>X<X7X<X<X<XpXpXyXtXtX0X0X0XeXpXpXyXqXeX0X,X9X9X9X4X9XrX_.U.J.I.E.T.J.T.J.T.T.J.K.T.J.I.I.J.I.P.P.U.I.!.!.).).{.|.{.|.[.OX[.[.XX[.XXXXW.[.).Q.Q.Q.Q.Q.T.T.T.$XI.$XJ.J.H.P.H.H.J.I.!.!.E.W.W.W.E.Q.)..X|.}.).}.W.{.).W.}.}.[.).}.XX[.[.[.[.XX[.[.[.OX[.[.[.[.[.[.[.[.[.[.[.[.[.{.|.W.W.W.R.`.Y.`.`.Y.c._.~.a.8.8.8.8.d.*.*.*.#.*.#.&.#.*.*.*.#.&.%.&.*.#.&.$.&.&.&.&.&.%.&.;.&.&.&.&.$.#.#.#.#.#.{ #.#.#.#.#.#.#.$.#.#.%.$.&.;.&.&.&.$.*.#.#.#.@.#.@.#.#.%.#.#.%.#.%.#.%.#.%.#.%.#.%. . . . . . . .=. .=. . . . . . . .{ { { { { { { [ $.[ y [ ] |  . . .-.:. .] -.w.-.%.' X.%.) } ) t y b.O.-.g.y }  .%.w / ( 7.l.( x.%. .X.%.q.%.-.:.-.;.$.:.$.:.$.$.&.&.8.%.",
"OX[.XXXXXXXX[.XX[.[.XX!.XXXXXX!.!.XX].).].!.].!.).!.Q.Q.W.).Q.Q.!.!.!.R.Q.Q.).Q.!.Q.!.!.!.!.!.!.!.T.T.!.!.$X$XT.T.$X!.$XR.U.U.P.I.P.P.I.v.I.$X$X$X! ! U W U U I R P W I F C G G S L I p.0.6.6.~._.,X:X^.,X,X,X;X1X;X;X;X:X,X,X<X5X>X>X<X>X:X:X<X>X5X7X6X7XyX8X5X>X>X>X*X1X%X:X1X<X,X1X;X;X;X;X;X1XfX;X;X;X;X;X1X1X1X1X1X1X1X1X;XfX%X%X=X>X<X5X7X7XaX0XtXpXtX0XpXpXeX0XpXyXrX9X_.9X_.~.~.~./.~.~.K.K.R R Q H.H.E H.H.H.H.E E H.D Q R Q W ! p.i.v.i.P.U.R.T.T.{.{.[.[.[.[.W.W.W.Q.W.W.!.!.!.I.P.$X$XT.T.T.I.J.$XI.$XH.$XP.H.I.J.I.R.E.W.W.E.W.).|.}.}.}.).}.W.|.).}.[.Q.}.|.XXXX[.[.[.[.[.[.[.[.[.[.[.[.[.[.[.[.[.[.[.[.[.}.{.`.W.W.E.E.Y.Y.`.~.L.`.^.a.l.8.8.8.x.%.$.%.*.#.*.*.*.#.*.*.&.*.&.%.&.&.&.*.&.&.#.&.&.&.$.&.&.$.;.&.&.#.#.#.#.#.#.#.#.#.#.#.#.#.#.#.#.$.&.&.&.;.&.#.#.@.#.@.#.$.*.@.#.%.#.#.%.%.#.#.%.#.#.#.#.#.#.#.#. .=. .=. . . . . .=. .=.#.=. .>.[ [ >.#.] { [  .#.' / +. .} O.-. .-.-. . .q.w.%.y t a } ) X.t.t./ e.u ' q.k | } X.p 5.) _ 8._ 8.7. .+.O.-.%.%.;.;.;.;.$.$.$.$.$.%.%.w.%.",
"OX[.XXXXXXXXXXXXXXXX!.XX#X!.XX].!.XX!.Q.!.XX!.].).Q.Q.Q.).Q.).!.R.Q.R.R.!.Q./.Q.!.Q.!.!.!.!.!.!.!.T.!.T.T.T.T.$XI.I.T.T.U.R.U.P.I.v.v.I.I.I.v.$X$X! ! W W I I I p.K W P g g P G C h l J l l ..a._.4X,X_.,X,X^.,X;X;X;X;X;X:X;X,X:X:X3X4X2X:X:X:X:X:X5X5X5X7X5X5X1X:X1X:X*X=X>X>X<X>X1X;X^.;X^.;X;X;XfX^.;X1X1X,X,X1X,X1X1XaX1X<X1X=X%X%X>X7X7X5XtX5X5X0XpXpXpXbXpXpX0X0X,X_.~.L.L.r.r.0.0.s.4.U I P L T T ! T ~ H.H.E D ~ E G G G G A L P P Y U Y W i.J.J.J.J.J.T.!.T.[.W.W.W.Q.W.Q.!.P.I.$Xv.! $XT.T.$XP.i.I.Q P.P.I.P.v.H.$XH.J.U.E.W.W.E.W.}.|.}.}.}.).}.).{.).[.}.).[.|.|.[.[.[.[.[.OX{.[.[.[.[.[.[.[.[.[.[.[.[.[.[.|.`.}.`.).Q.Y.Y.Y.E.Y.Y.^.`.l.a.8.8.d.*.*.#.&.*.&.*.*.*.*.*.*.*.*.&.*.&.&.#.%.$.&.&.&.;.&.;.$.&.&.&.&.%.{ #.$.$.$.@.#.$.#.{ $.@.@.@.$.@.#.&.&.;.&.&.&.*.$.@.#.*.@.$.#.*.*.#.#.%.#.#.%.#. .#.%.@.#.#.%. .#. .#.#. . . . . .#. .O. . .#.=.#.[  . .#.#. . . .' } |  .X.O.q.+. .| c +. .} s } ..5...) n ....o.9.9 s ..} ..} ) 4.8._ p 7.7.8.5.X...O.7.%.w.t.-.-.%.$.$.$.$.&.&.8.%.%.",
"OXOX[.OXXXXXXXXXXXXX!.XX!.#X!.!.].!.].).].!.).!.).).Q./.Q.).Q.Q.R.Y.!.!.!.!.!.!.!.!.!.!.!.!.$X!.T.!.!.!.T.T.!.T.T.I.I.I.U.R.U.J.I.I.I.$X!.v.!.$Xv.! ! U W p.W I U I U P F Z G F g Z g j d 0 l a.~.9X9X,X,X,X;X1X;X;X;X^.;X^.:X:X:X,X5X5X3X&X&X:XD.&X;X*X2X3X,X&X*X1X*X:X;X1X:X<X>X;X;X;X;X;X1X,X;X;X;X;X;X1X<X0X<X1XaXaXaXtXaXaX8X7X>X>X>X7XtXtXpX0X0XqXcXMXcXpXeX9X9X_.`.L.a.7.0.4.M M I M M K v J I U ~ T T T ~ D H.H.U E E R F G F F K K K P K P P T E H.H.H.T.T.T.T.E.Q.Q.R.!.!.I.v.v.I.I.P.!.T.$XT.I.P.P.P.I.I.I.I.I.I.I.P.J.J.R.Y.E.E.W.}.}.}.}.}.}.}.}.}.XX}.[.}.|.[.|.[.[.[.[.[.[.[.[.[.[.[.[.[.[.[.[.[.[.[.[.[.).{.{.{.E.Q.E.`.`.Y.~.L.`.L.L.8.8.8.8.8.&.*.#.*.#.*.$.%.%.$.%.$.#.&.*.&.$.%.$.&.&.;.$.&.$.&.&.;.%.&.;.&.#.#.#.#.#.$.#.@.#.$.@.*.$.#.#.$.*.&.&.&.;.&.$.%.*.#.@.$.#.#.@.#.%.#.#.#.#.%.#.#.@.%.#. .#.%.#.#. . . . . .>.=. .#.=.#.#.#.=. .#.[ #.>.#. .%.%.%.| +.X.........4.t.a.t.r.q.9.4.k 9 i k k 5.5...4.r.=.e t n } m j k 0.L.7.l x.6.6.4.4...5.5.X.7.w.&.-.&.%.&.$.$.*.%.%.%.&.",
"[.OXXXOX[.OXXXXX!.XXXXXXXX!.#X!.Q.].].!.Q.].!.XXQ.).Q.).).Q.).!.Q.Y.!.!.!.!.!.!.!.!.!.!.!.!.!.!.!.T.T.!.!.$XT.!.I.I.T.I.!.I.U.I.P.P.P.P.P.P.v.$X$X$XW U W W U U I I U W J F L g d h l h 0 7 9 6.L.9X0X,X,X;X^.;XfX;XfX;X^.;X(.1X:X:X5X6X3X(.Z.D.D.A.M.D.2X5X5X&X%X&X%X%X%X%X:X>X;X;X:X>X<X>X1X1X;X;X`.1X,XaX0X0XaXaXaXaXtXpXpXtX8XtX7X7X0X0XpXiXMXpXeXpXeXeX0X,X/./.L.a.s.0.6.4.4.I M I I M M N N I Y K H K ~ ! ~ ~ T P T P R R T L L J P H P I P P P G G T E E ~ $XH.H.T.T.R.U.I.v.u.i.i.v.P.i.T.$XI.P.I.I.P.i.P.I.I.T.I.P.I.H.I.J.P.I.U.T.W.[.).}.}.}.}.}.}.W.W.).}.{.|.}.|.[.[.[.[.[.[.[.OX{.[.[.[.[.[.!.[.[.[.[.!.[.[.[.W.E.E.E.E.).`.Y.L.K.L.^.L.l.8.8.8.x.*.*.%.$.#.*.&.*.&.*.#.*.%.&.*.&.%.$.&.&.&.&.&.&.&.&.&.;.&.&.&.&.{ $.{ $.{ { *.$.*.{ $.$.@.*.*.$.#.$.&.&.&.&.&.$.#.#.*.#.*.$.@.#.@.%.#. .O.#.%.#.#.#.#.%.%.#. .@.#. .#. .#. . .#. .#. . .#. .#.#.#.[ #.:.#.-.O.O.O.5.X.o.o.o...m O.r.r.r.5...) k i l z r 6.5.l z m M M M j M m m 6.a.a.6.6.6.6.S 6.6.6.6.5.5.5.8.8.%.&.%.&.*.&.&.&.%.%.-.",
"OX[.XXXXXXOXOXXXXXXX!.XXXXXX!.!.XXQ.!.].!.[.].Q.].!./.Q.Q.).Q.Q./.Q.!.!.!.!.!.!.!.!.!.!.!.!.!.!.!.!.T.!.T.!.$XT.I.I.I.I.I.!.U.P.P.c.c.P.P.!.$XI.$Xv.$X! p.U U 0.I N 0.p.P J P g h J J l e 0 t k V.9XwX9X9X,X^.;X^.;X;X^.;X^.;X:X(.&X>X5X,XD.S.;XS.S.k.C.:X5X4X:X%X%X%X%X%X%X%X1X%X;X1X>X1X,X1X,X,X1XaXaX0XtXtXpXaXtXtXpXiXiXiXiXuXuXpXpXyXpXhXMXMXcX0X0X9X_.K.K.s.4.6.S 4.I I M R M M K U I U v.Y K Y K K K Y U E ~ Y Y P P P P R T P P K J N K U P J G G G D G ^ ~ H.H.Q H.i.! P.J.p.! ! ! $XH.T.$XH.i.P.U.I.J.v.J.I.J.P.P.J.v.I.J.H.J.J.U.E.E.W.E.).}.}.}.}.).XXW.W.}.}.}.|.[.[.[.[.[.[.[.[.[.[.!.[.[.[.[.!.[.[.[.[.[.[.Q.{.E.E.R.E.).`.`.K.a.L.`.L.a.8.8.d.8.*.%.*.*.#.*.*.#.*.#.*.&.*.&.*.&.&.#.#.&.:.&.&.;.&.&.&.#.&.&.&.$.&.&.*.$.$.&.$.$.$.$.*.$.$.$.$.$.$.%.&.&.:.&.&.#.{ @.#.*.#.@.#.*.#.#.#.%.@.#.#.#.%.#. .#.#.#.#.%.%.#.%.#.#. .#.-.%.#.%.#.#.O.#. . . . . .O.O.O.O.9.5...m 6.6.6.k e k o.4.l e j l 6.6.0 7 6.4.e z h r 0.I j I s.r.a.p.6.6.s.6.7.S l 6.7.s.6.6.6.8.7.%.%.%.&.&.&.&.&.%.%.&.",
"[.OXOXXXXXOXOXOXXXXXXXXXXX!.XX#X].!.].XX].].!.!.Q.Q.).Q.).).!.).!.!.!./.!.!.!.!.!.!.!.!.!.!.!.!.!.T.!.T.T.$X!.T.!.I.I.I.T.I.U.P.Y.P.P.P.I.v.$XP.v.! p.W W U U I U M U 0.I K P g J L M z z s p k a.9X0X9X0X0X,X1X;X;X;X^.:X;X^.S.A.C.D.:X:XD.A.D.S.S.A.A.(.:X:X:X%X%X=X%X:X%X:X>X1X:X,X>X<X<X1X,XaX<X0X0X0XtXtXtXtXpXpXcXvXiXiXiXpXpXiXpXiXgXcXcXMXpX9X`.L.s.x.x.l S l l J I M J I N K K Y N N Y Y K Y K Y Y Y Y ! ! Y Y Y Y I I P P P J J J K J U P J F G L D G ~ ~ ~ ~ G P P G T ! W W v.v.i.v.T.I.$XP.P.P.v.i.J.P.P.v.J.v.H.P.P.J.J.J.J.I.J.I.U.E.E.W.}.}.}.}.W.}.W.[.[.|.[.[.[.lX{.[.[.[.[.[.[.!.[.!.[.[.[.[.[.[.[.[.[.{.Q.{.R.E.E.`.E.~.K.a.K.`.~.8.8.s.d.x.%.#.#.*.&.*.%.*.#.*.*.#.&.*.&.%.&.&.#.&.&.&.&.&.&.&.&.&.$.&.&.&.&.$.$.&.$.$.*.&.&.$.&.$.$.$.&.$.%.$.&.;.&.&.&.#.*.$.*.$.#.*.#.@.#.%.@.%.#.#.%.#.#.%.#.%.@.%.#. .#.#.#.%.#.#.#.#.@.#.#.#.#.%.*.#. . . .=. .o.X...5...j z m s.6.S J 4.0.0.4.l l J 0 h + 8 L.Y.s.a.I h v.p.M 0.p.Y.`.a.l I s.h S z l S 6.r.8.6.6.r.5.*.7.8.*.&.&.&.%.%.%.%.",
"OX[.XXOXXXOXXXOXXX!.XX!.XXXXXX!.!.].[.!.XX!.XX].).).!.).).).Q.Q.Q.Q.Q.!.!.!.Y.!.!.!.!.!.!.!.!.!.!.!.!.T.T.!.T.T.I.I.I.I.!.T.U.P.P.P.v.P.P.P.I.i.P.$X$XW W p.W U p.M I U F K R j F j h r i s i s v.9XeX9X0XeX0X,X,X;X;X;X1X,X;XS.l.j.B.S.;XD.;X(.D.:X:X;XD.D.D.:X:X>X:X1X>X>X5X5X>X>X>X<X<X<X0XaX<X0XaX0XtXtXaX0XpXpXpXpXiXiXpXyXhXhXpXpXcXiXeXpXeX,XL.a.S l S S F l F J I 4.U I K K M Y K K K U N b N K Y Y K H H H H ~ P K Y Y P L L K P K P P I P F F L E E ~ ~ ~ ~ B F A G F F 5 F P ! ! $XJ.$X$XH.i.P.I.I.! T.T.I.P.P.J.I.I.J.J.J.I.J.I.J.J.T.R.W.W.).[.}.W.).[.W.}.|.[.[.[.[.[.{.[.[.{.[.[.[.[.[.[.[.!.!.[.[.!.[.[.{.Q.E.Q.E.E.E.E.Y.E.Y.a.a.^.L.l.8.8.l.x.*.*.*.&.*.#.*.#.$.#.*.&.#.#.&.$.#.$.$.&.$.#.$.;.%.$.&.-.%.&.&.&.&.$.$.&.$.$.<.$.$.$.$.<.$.$.$.$.$.&.&.&.&.&.&.$.@.*.{ #.@.$.@.#.@.#.#. .#.#.@. .#.#.#.@.#.#.%.#.%.#.#.*.#.&.#.#.$.%.*.%.#.%.%. . .o. . . ...o.o.k l 0 7 l 6.6.z l l l M h 0 + + + l z J _.`.s.p.c.K ).v.v a.a.R.).K.d S Z + 0 d h l 6.p.0.6.8.a.6.7.*.*.&.8.&.&.&.%.&.-.",
"|..X|.OX.X.X.X.XXX).XX).}.XX}.}.].!.XX).!.].).[.].!.!.).!.).).!.!.!.T.!.!.!.!.!.!.!.T.Q.!.T.!.!.!.!.R.R.!.T.I.I.T.U.U.U.U.U.U.P.Y.Y.P.Y.Y.Y.I.P.$X$XW W i.i.i.v.Y U U U U Y J J j l h r j r 9 n c.'.qX9X0XqX0X<X,X,X1XaX<X;X;X^.z.l.l.z.^.:X;X&X:X,X,X:X:X3X3X,X,X>X,X:X,X>X<X5X5X5X<X7X7X<X5X<XtX5X0XtXtXtXpX0XtX0X0XtXcXpXcXaXcXaXcXcXcXrX0X0X9XL.6.l S l S J 4.I Y U I K K K U K K K N M v v K I I J H K K K H Y Y Y N H N Y K P Y Y P K P Y P K K J J J L F F G G A G A Z Z A Z C Z L E u.J.v.P.Y.Y.I.I.U.R.J.T.J.U.P.P.J.i.P.I.I.H.I.I.J.I.!.!.!.[.[.[.[.[.W.{.[.{.[.[.[.Q.[.[.[.[.[.[.[.[.[.[.[.[.[.[.[.!.T.[.[.[.T.I.E.).E.P.W.I.`.Y.Y.s.L.^.~.l.l.8.8.X.*.] @.@.#.#.#.#.#.#.#.>.@.@.{ { #.>.$.{ #.$.:.#.%.$.-.#.%.%.-.;.$.$.$.<.>.$.1.<.$.$.$.$.$.{ $.$.$.$.&.,.1.$.@.{ { $.@.{ $.@.*.{ #.{ #.#.#.#.#.$.#.#.] @.| { | ] $.$.#.@.] { <.*.,.*.*.*.8.w.%.X.| } X. .o.+.m o.M j 0 7 j 5._ z z j v J e O 0 I h h 8 h 6.R l M j v p.4.g 6.p.h Y.e O 0 d O O r e l 6.r.r.6.x.8.7.7.8.7.%.%.&.&.%.%.%.%.",
"XX|..X|..X.X.X.XXXXX).XXXXXX].).Q.XX!.!.XX!.XXXXQ.Q.).Q.).Q.).Q.[.!.T.!.[.!.!.!.T.!.!.T.!.!.T.!.T.!.R.!.R.U.I.I.U.U.R.U.E.U.K.U.P.P.P.P.P.U.v.I.i.i.! p.i.i.! ! Y Y Y ! U Y P L L L v j j r 8 c 0.).9X9XrXpX0X9XaX,X`.1X,X;XfXL.z.l.j.l.z.^.^.^.A.D.S.S.S.(.:X:X5X,X3X<X<X5X0X0X5X5X<X5X<X5XaX5XtX0X5X0X0XtXtX0XtX0X0X0X0XaXaXzXaXzXaXcXpX0X`.^.s.S e h S J J l N N F N N v v N N J v v b b g g g g g F I I Y Y H Y H Y ~ ~ ~ Y H H K P K H J K K I L L J J Z F Z A G G F G A G L G G S G T W Q Y $Xv.U.J.K.J.K.J.K.T.J.K.J.P.J.P.J.J.I.J.$XJ.I.$X!.!.!.!.[.Q.Q.}.}.W.[.[.[.[.[.[.[.[.[.[.[.[.[.[.[.!.[.!.[.[.[.!.Q.[.{.T.E.Q.{.E.P.).Y.Y.Y.Y.6.Y.`.~.8.a.8.8.7.@.@.*.{ @.#.#.#.#.#.#.{ { { @.{ { $.#.$.$.#.#.#.#.-.%.-.-.%.%. .$.$.$.<.<.1.$.3.$.<.>.<.<.<.>.<.{ ,.&.&.&.$.$.@.{ *.*.$.*.$.*.$.@.#.#.#.#.#.#.#.#.#.#.#.@.#.#.#.#.#.*.$.*.*.*.<.<.*.*.*.7.&.7.*.X.....5.9.o.4.I M j + + 0 S 6.S v h d e 0 $ 0 g I I h l 6.I g J d $ d $ O e v O J $ . $ r + O $ 8 0 l 4.6.4.6.a.7.7.O.*.X.#.#.$. .%. . .",
"|..XOX.X.X.X X.XXX].XX).XX].).).XXQ.Q.].Q.XX].Q.XX!.Q.Q.).).Q.Q.!.!.T.!.!.T.!.[.!.!.!.!.!.!.!.!.!.Q.!.!.R.!.I.I.U.U.R.U.U.U.U.I.U.P.P.I.!.U.I.I.J.Q ! W ! H.v.! ~ Y Y U U P P I L 6.I l M r 8 r I Y.oXrXeXMXcX0XtXaX,X,X,X,X1X;Xz.l.l.l.S.^.^.A.>X,X4X:X:X4X6X5X:X:X:X:X,X>X3X<X<X3X5X<X5X<X5X<X5X0X5X0X0X0X0X0XtX0X0X0X0X0X0XaXxXaX0X,X0X_.L.7.z 0 0 h I J j f r x h % h r 5 % b h h g 2 2 2 2 h 2 f v F P K K K b x H Y ~ K H H K Y W Y P P K P J J J J J F J Z Z F Z Z G F A G L Z G G L L L F P p.p.J.u.u.J.J.K.K.I.K.P.J.i.$XP.P.i.$XI.J.$XI.T.!.!.!.[.!.Q.[.).[.[.[.[.[.[.[.[.[.[.[.[.[.[.[.!.[.[.[.[.[.[.[.T.Q.Q.{.E.E.W.W.U.).Y./.Y.Y.6.a.^.~.a.l.8.8.8.*.@.*.*.%.@.%.X.#.#.#.#.@.@.{ { #.#.@.$.#.#.#.;.-.%.-.%.%.-.-.%.$.$.$.$.$.<.$.:.,.$.$.&.>.$.,.$.$.&.,.:.,.$.#.$.&.$.$.$.$.*.$.$.@.#. .#.#.%.#.#.$.%.#.#.%.#.%.#.#.#.%.%.&.8.*.d.8.&.7.%.*.7.7.5.O.5.5.5.=.4.4.4.M j $ O 7 h S 6.I r O O $ $ $ r 6.p.I J 4.J h I I r 0 2 $ r j $ + O O O O $ O + 0 d l 4.6.6.r.a.r.7.*.O.%.&.%.X.#.O. .%.",
"OX|. X.X.XoXoX.XXXXX).XXXXXXXX).).XXXXQ.).!.Q.XXXX).).!.).Q.).Q.[.!.T.!.!.!.!.T.!.!.Q.!.!.T.T.!.!.T.T.!.U.T.Y.T.T.R.U.U.U.K.U.U.U.P.P.Y.P.U.P.I.v.H.i.! ! H.v.! Y T Y ! W P E L L T F l M s 8 r M c._.9XeXcXxX0XcXxXaX,XaX0X9X,X;X^.L.z.B.z.l.l.f.l.l.j.f.h.B.h.;XD.^.;X(.;X:X:X<X,X<X<X,X<X<X<X5X<X5X,X<X0X<X,X4X<X0X0XaX,X,X0XaXxXaX`._.l.J e z d 0 h h h h 2 % % % $ O 6 6 $ % % % % % $ % % f h h v F F v b H b x N H Y Y H K Y U Y P P P P P P P K J L J J Z G A G Z Z Z Z G G L G G G G F h g P R R E E u.J.J.J.J.J.J.J.J.J.H.P.H.I.H.J.i.I.$X!.!.!.[.[.Q.W.W.[.[.[.[.[.[.[.[.!.[.[.[.[.[.[.[.[.!.[.[.[.!.[.T.T.T.W.{.E.E.W.U.).U.`.Y.Y.6.L./.^.a.a.8.*.8.*.*.*.*.*.@.%.*.O.#.#.X.*.$.$.*.$.$.$.%.:.&.-.&.%.%.-.%.7.%.5.7.&.&.&.&.;.&.&.&.&.&.;.,.$.&.&.&.$.$.&.&.&.&.&.#.$.*.*.{ $.$.@.$. .#.@.@.#.#.#.O.-.%.%.%.%.%.%.%.-. . .%.&.&.*.*.*.*.8.8.7.O.O.5.X.5.5.4.I 0.4.K h h $ O + d l l m % . O O $ O $ F I F l J M h U I $ O $ O O $ O . + $ + O $ $ O e e l S 6.m x.a.a.r.5.%.7.&.&.*.@. .#.@.",
"|.|.OX.XOX.X.X.XXXXXXX'.XXoX].).).XX!.].XX!.).Q.Q.Q.Q.).).Q.Q.Q.!.!.T.!.!.!.Q.[.Q.T.T.!.!.I.!.!.T.!.T.!.!.Y.T.R.Y.Y.T.U.U.K.U.U.U.P.P.U.Y.P.P.v.v.i.p.! i.i.! i.U T ! T E E E E L I h h 6.S h r l p.~._.9XxXcX0XcXxXaX1X,XaXaX,X,X,X^.^.L.l.l.8.l.S.^.B.S.A.A.S.S.A.D.D.^.:X:X:X:X:X:X:X>X>X>X:X,X:X,X,X,X,X,X<X,X,X,X,X,X,X,X,X XaX,X~.l.6.z 7 e $ O O O # $ # O . O 6 O . . . O O O O . # # @ g 2 2 g v g h 2 b x 2 b N N Y b H v v g b b M Y K P J I I J I J L L L G F Z Z Z Z F G G G G S F b j F J S E E E H.J.J.J.J.u.J.u.J.J.i.J.i.H.P.P.$XH.T.T.T.!.[.[.W.W.W.W.[.!.[.[.[.[.[.!.[.Q.[.!.[.[.[.!.T.[.!.[.[.T.T.T.{.{.E.E.R.J.).Y.`.Y.~.0.a.`.^.y.a.8.7.8.*.%.*.*.*.X.*.*.*.O.*.*.*.*.*.%.*.&.&.&.&.&.&.8.%.7.7.7.7.7.7.7.&.&.&.%.&.%.&.%.&.-.&.-.&.&.&.%.&.&.;.%.&.;.&.&.#.*.$.%.{ #.&.*.@.O.@.#.X.@.*.@.%.%.%.%.*.7.8.%.y. . .O.%.*.O.8.*.7.8.8.r.5.5.....5.9.I 4.4.0.N h r % O O O d d r 6 . . $ . . . 2 h h % h d h I h O . $ + . + + + $ ; + O + O + $ + 0 l S l l m r.8.8.8.8.f.w.w.#. .#.X.",
"OX.X.XOXoXOXoXOXXX).XXXXXXXXXX}.XX!.[.Q.Q.Q.Q.).XX).).Q.).[.Q.!.!.T.T.!.!.[.!.T.Q.!.T.[.T.T.!.I.!.T.T.T.T.U.!.U.T.U.U.U.U.U.U.U.U.P.P.U.!.Y.U.P.P.i.! p.i.i.i.W ! Q Q H.E H.D D S E S h R 6.l l Z p.Y.`.,X9XxXcXcXcXcXxXxXxX0X9X9X4X,X(.~.l.f.8.O.%.8.8.8.h.f.%.w.f.j.l.S.Z.(.;X&X(.;X;X(.:X;X:X;X(.:X:X^.(.(.,X,X,X,X,X_.^.^.,X,X`.`.a.6.l r 8 r r $ O O . O . . . . . . . . . . . . . . . . . f O $ h v g 2 2 b h 2 2 h b b 2 b b h 2 2 h I U I K K I I I K I R T T L L G A G A G S L L L G F J v h g Z E E s.H.H.E E J.u.s.u.! J.i.Q J.i.! Q H.$X$XI.I.!.!.!.W.E.{.E.[.[.[.!.!.[.[.[.[.[.[.[.!.[.[.[.[.T.T.[.!.T.T.T.E.E.E.E.U.J.W.U.Q.Y.).6.a.`.~.a.r.8.X.8.8.8.8.8.*.8.*.X.5.*.*.8.*.&.&.*.&.&.&.&.&.8.8.w.7.7.7.7.7.7.7.8.7.q.7.-.%.%.%.7.%.7.7.%.7.7.q.&.%.%.&.%.&.%.&.&.#.#.%.#.$.*.#.#.@.@.@. .@.| | @.*.X.%.*.O.*.*.O.y. .} %.7.*.X.*.7.5.O.7.r.r.o.k o.6.4.I M I m b f % $ # O O O $ . o . . . . . . @ % $ 6 % . . h h $ $ d $ $ $ ; O O O O . O $ O O O + h l S l x.x.s.8.r.8.8.8.8.X.#. .#.",
"OX XOXoXOX.X.XoXoXXXXXXXXXoX].).XXQ.Q.XXQ.).).!.XX).[.Q.W.W.Q.Q.[.!.!.T.!.!.Q.!.[.T.!.!.!.T.T.I.!.!.!.T.I.!.R.!.U.U.U.U.E.U.U.P.U.P.P.I.U.Y.P.P.P.H.i.W p.! p.! Q Q H.H.J.E E E G H.S D J I S I J p.~.`.`. X,XxXcXcXcXcX0XxXeXpX0XqX0X5X,X^.B.a.y.8.7._ 7.8.8.X.' | %.&.f.h.h.B.S.A.Z.^.D.;X&X:XD.(.^.(.^.A.^.^.(.^.^.^.^.^.^.`.`.L.a.0.6.l l h h h h % # $ O 6 . . . . . . . . . . . . . O . O 2 .   % g f 2 f % % % % $ % $ % x h 5 2 h b J U J I I I I I I K T P L L L L P L L G G G L Z L F J M J j S E S E E E E J.Q s.u.W u.J.i.i.H.i.i.H.H.$XJ.I.I.I.I.I.E.R.E.E.T.[.!.!.!.[.!.!.Q.Q.Q.!.[.T.!.!.!.[.[.T.[.T.!.T.E.E.E.E.U.J.E.Y.`.c.`.6.a././.l.8.8.X.8.8.d.8.*.8.*.8.7.X.7.8.X.8.*.8.8.*.8.&.8.w.8.8.8.7.7.8.7.r.s.8.7.q.7.%.7.q.%.7.%.8.%.7.7.%.q.7.%.%.-.%.#.#.%.-.;.%.%.#.%.%.#.%.%. .X.@.|  . .| X.| | X.X.X.X.X.X. .k n 9.y.7.X.X.8.X.) ) 6.5.I j l 6.I l M K M h 2 % . . @ . O .       . o o .   . . . . $ . . $ O . + O O . O O + O O + $ O + O O O $ d z h d z l x.r.8.8._ *.8.@.*.#. .",
"|.OXOX XoXOXoX.XXXXXXX'.oX.XXXXXXX).XX!.Q.).!.!.XXXXQ.XX).W.Q.Q.T.!.T.!.T.[.T.!.!.!.!.!.!.!.I.T.!.!.T.I.T.T.R.Q.U.R.U.U.U.K.U.U.U.P.P.Y.U.P.P.P.J.v.! p.! i.p.! Q Q Q H.H.H.H.E D H.J.A h Z h J J u.Y.`.L.L.L.`.`.aXxXxX0XxXxXcXxXeXbXeX9X_._.^._.^.y.5.w.l.y.O. .O.%.w.e.f.g.h.S.S.^.S.Z.^.Z.^.S.(.(.^.V.V.V.~.l.a.a.l.L.^.^.~.`.8.x.6.6.I I m r h h % O $ 6 O . . . . . . . . . . . . . . O . f . . # h % % % $ $ % $ 6 o . O O % $ % % h v K K K I K I I I I J L L T T P R R L P L F F G F F J v F F S D S D D E E E Q s.R R u.u.i.! i.i.Q ! T.I.I.I.I.H.I.I.U.I.I.I.T.T.T.T.!.!.!.!.T.T.!.T.T.[.T.[.[.T.[.[.T.[.T.[.T.E.K.E.U.J.E.c.Y.K.Y.S a.~.^.a.w.8.x.8.8.8.8.8.6.8.x.7.7.X.*.8.*.8.8.8.d.8.8.8.w.8.8.8.7.7.8.7.8.7.8.0.8.q.q.7.7.7.5.7.O.5.%.O.7.O.5.%.%.#.#.O.%.-.-.-. .#.O.@. .O.#. .@. .X. .| X.X. ._ | ) _ _ X._ X.a r a r.l.7.X.X.y...z j o.4.m j l 4.4.j g J K g 5 .   . @ X . # o       o 6 6     . . . 6 . . # O $ O O . + $ O O O . $ # + . O $ O . + + @ 0 z z _ s.8.8._ _ *.%.%.#.X.",
"OXOXOXOX+X.XoX.X.XXXXX.X.XXXXX}.Q.).).[.[.[.Q.).[.[.W.W.W.W.W.W.!.T.T.!.!.Q.T.!.Q.W.Q.E.!.Y.R.!.T.R.!.!.R.!.R.R.I.U.U.U.U.U.U.I.Y.P.P.!.P.U.Y.P.I.i.i.u.i.i.! p.! Q H.H.J.H.H.E D J.H.L Z f g J g p.P.P.L.K.~.Y.L._.9XrX0XwXrXrXrXrXrXqXrX9XoX4X_.^.l.l.~.l.l./.F.V.B.t.e.w.h.l.l.B.B.l.l.d.d.L.t.B.V.A.V.l.a.l.V.l.a.l.L.~.l.l.a.5.6.M M I 0.u.K K N j 4 2 % % O % % # O . . + f O ; ; . @ ; . # $ . . . . . O % $ . o . O O 6 6 O % % % r N N M K K I I I I J P J J H P P P P J F F F K F F J h j h J S Z S u.E S E E s.s.E s.T E u.J.u.u.u.J.! H.v.H.I.H.H.! ! u.J.P.J.P.I.T.I.H.I.I.$XI.I.T.T.T.T.T.T.T.T.T.T.[.T.T.T.T.E.E.I.P.P.P.Y.Y.a.a.L.`.(.a.x.7.8.8.d.x.8.X.X.8.8._ X.x.x.8.x.X.8.*.d.8.8.8.8.8.8.8.8.s.8.r.8.8.a.8.7.5.r.q.7.5.5.5.r.8.r.r.7.7.r.7.O. .O.#.%.%. ./ | | ' | ` +.' ` -.-.%. .| ) ) p _ ) k ) _ _ _ k n r s O.5.k ) ) y.6.) l l j e e l k J h v I F % 2 6 .       .                             . . . . O O O O O O O O O O . O O + O O O O O $ + + + z 0 l _ x.x.*.*.@.@.#. .",
".XOXOX X X.X.X.XoX.X].XXXXoX].}.Q.XX[.[.).[.[.[.).}.}.W.}.W.W.W.!.T.T.T.!.Q.Q.!.Q.Q.Q.!.R.R.U.!.R.!.R.R.R.R.!.R.I.T.U.R.E.U.U.U.!.Y.P.Y.Y.!.P.Y.P.I.i.! i.i.! ! Q Q Q H.H.H.H.E H.H.E ~ T J g v g p.a.Y.Y.Y.K.L.L.E.`.`.).`.`. XrX9XoX'.9X9X_._.9X,X_._.,X_.^._.(.(.A.V.h.t.t.h.h.t.h.j.l.l.^.L./.(._._.(.V.~.V.a.a.a.a.l.a.r.6.4.I l M m 0.p.v.I I J I P F h d d h d r 2 $ $ ; f $ $ d ; d g @ @ X @ ; 2 ; O . O # O $ % % r % . . O % r h j g 5 r s h m M M M F Z g v Z F J J F g f f f f g h U K J J L A D E D E D E E E I s.R R R Q u.u.i.J.P.Q H.$XJ.i.! ! J.Q Q W T Y T ! Y T ! ~ ! ! $XH.$X$XH.T.T.T.T.T.T.T.Q.T.E.T.E.`.E.R.!.Y.Y.Y.K.K.a.~.~.r.X.8.w.8.8.8.8.8.8.8.6.7.8.8.*.8.*.8.*.x.8.*.d.8.8.8.8.6.8.8.r.8.6.x.6.6.5.7.7.5.7.5.5.5.7.O.O.X.......} | | / ' ' } ( a / / / a a u a u u / u p p y y w p w z w l z p s t 8 8 q i q k 7.^.a.7...l l j h l 6.6.l M I K g % 6     . o .                     . .   . . . . . O . O O O O O O O O O O O O O . . . . O @ @ + 0 0 _ x.x.*.x.*.@. .@.#.",
".XOX.XOXOXoXoXOXoXXX].XXoXXXXX}.XX).[.).[.).Q.).[.[.}.W.W.W.W.W.!.T.!.!.Q.Q.Q.T.Q.Y.Q.!.R.!.!.T.!.!.!.T.R.!.R.!.U.U.E.U.U.U.U.U.I.U.P.P.P.!.U.P.P.$XH.i.i.i.p.Q ! Q H.H.J.H.H.H.E E T T u.R v f b W i.a.Y.K.K.K.L.s.K.s.K.E.E.K. X/.`.Y.~.).`./._.9X_.,X,X9X,X,X_.,X:X_./.~.^.F.h.l.l.^.^.,XxXaXhXhXhXhXeXqX0X9X`.~.~.V.l.r.x.S m j e h j I 0.v.M M K J P K N h g h h h j Z h g f h @ h h f S ; @ - 2 C J J g $ x h x N M U Y m . O . $ r r % $ $ $ $ r h j h h h g f % 2 2 g F v v g v v F J K U J l J S S Z D S D D S S E S E R E R R u.u.J.i.J.Q Q J.P.i.! ! ! W T G F F H B ^ 5 ^ ^ ^ ^ H T ~ H.H.H.H.$XT.[.T.T.{.Q.E.{.T.{.E.E.Q.E.Y.Y.~.Y.r.a.a.7.7.8.8.5.*.8.X.*.8.8.7.5.7.6.X.x.x._ x.` _ *.*.` x._ _ _ _ x.X._ x._ k ) p p p i p u p p a a k p p u p y p y y t y u y t s y t y y t t t q 9 9 t q t t i w q w w p i z i s 9 8 i z w _ 8.l.a.6.z j j l l k 6.M h d j g % % 6         .               o o . . . . . . O . O . O O O + + O O O O O O O . O . . O O O O + + 7 z z _ _ x.` _ | | | | ",
" XOXOXoX.XOX.X.X.X.XXX.XXX].}.).Q.}.}.[.[.[.[.[.).}.[.W.[.W.W.W.[.T.!.T.R.Q.R.R.Q.!.E.R.R.R.Y.E.R.T.T.!.!.R.T.R.U.U.U.U.U.U.U.K.U.U.U.Y.P.U.!.P.I.v.J.i.i.! p.W ! ! H.H.J.H.H.H.H.H.T E u.P b % g U i.J.U.K.a.s.K.K.s.K.K.K.K.U.`.Y.p.K.~.`./.~.K./._._._._.9X9X4X9XrX0XqXqXrX0X_.,X4XrXyXhXvXGXHXHXHXFXSXGXSXNXeXeX0X9X9X`.a.x.l j e s h M I I p.I M J J I I L J S Z v L P I S S Z S Z Z d S u.R W W u.I.!.P.p.c.!.).XX'.].].).N h % $ $ % O O r 8 $ $ 8 h e h I P h 2 # $ % h # # $ 2 v v v v J j h h S S S S S S D D S S S S E L J s.u.J.u.Q i.i.J.! $XH.! ! W P G F G H H H B F 5 ^ ^ ^ ^ ~ ~ ~ ~ ~ ~ H.H.H.H.I.T.{.K.K.K.{.E.E.Y./.`./.`.a.Y.L.r.X._ X.X._ _ _ ) ) _ _ ) ) ) p ) w w ` z ` w ( w ( ` p ( p p p w z w z w w u t q q q q u y q q q q q q q q y y q q q y ( p y y y y y y y y t u u u / / / } ) a k k _ ) _ ) s 9 i n ) w q w ) p w 0 0 h l k S x.l 0 + $ O . $ . .   X X X               o       . . . . . O O + + O O O O O O O O + + O O . . . . . O O + + + 0 z _ _ _ *.` ` ` ( ` ",
".XOX XOXoX.XoXOX.XXXXXXXoXXXXX).}.[.}.[.[.[.Q.}.}.[.}.}.[.[.[.Q.W.R.Y.R.R.Q.R.R.Q.Y.W.E.Y.Q.R.R.!.!.Y.T.T.R.R.!.U.U.U.U.U.U.U.U.U.Y.P.Y.!.U.Y.Y.I.I.P.H.i.i.! p.W W ! v.J.H.H.H.H.H.E E P H 2 2 5 Y i.v.I.P.a.J.s.K.K.Y.K.K.J.E.Y.P.a.P.Y.`.Y.~.a.~.^.`._. X,X9XrXeXcXMXBXAXBXvXMXMXAXSXGXKXJXIXIXIXIXIXIXJXJXJXFXFXGXSXAXxX0X Xc.a.p.0.0.6.l j a.0.6.I I I J J J Z h S I L L S A A s.Z d S S .XlXlXzXlXwXbXbXbXnXnXNXNXNXNXNXgX].!.$Xx h r % r % 8 $ r M I v.v.!.v.$XN 2 % d h x % % 2 h h g v j h d h S I S S S D D D S S J S L L L s.u.u.Q R u.u.u.J.J.! ! U P ~ P P T ! ~ H ~ ~ H H ^ H ^ ~ ~ ~ H.~ H.~ H.$XH.J.T.E.E.K.E.K.U.P.Y.Q.).).Y.c.~.a.6.l w ) / w ( w w ( w p y y q q q q w w w w q q ( w ( w y y w w w w p p z i q q q 9 q q q q q q t t t y y p y p y ( } |  .X.| | | | } | _ '  . . . .%.O.q.5.O.O.5.5.6.7.7.5.9.o.7.y.t.7.w w 7 q 9 w z _ 4.5.5.4.l z 7 $ O . . . . . .   .   o o             . . . O > , @ @ $ O + + . O O . O O O O O + O O . . . . . O O + + 7 w z _ _ _ ` ` / ` ` ",
"|. XOX.XOX+XOXoXoXXXXX'.XXoX).XX[.}.[.}.Q.}.[.[.[.}.{.[.W.[.Q.Q.E.Q.E.R.Q.E.Q.Y.R.W.Y.W.Q.Y.Q.E.T.T.!.!.U.U.I.T.U.U.T.U.U.U.U.U.U.P.Y.P.P.P.P.P.P.I.i.v.i.i.! W W W v.H.J.J.J.! H.J.Q G H 2 6 % b U $XH.J.P.J.K.K.K.E.E.K.J.J.I.P.J.P.U.Y.Y.Y.Y.Y.K.`.^.9X9X9X0XxXcXNXSXFXGXKXKXFXHXKXJXIXIXIXIXIXJXIXIXIXIXIXJXIXIXIXIXLXKXVXvXeXeXrX9X_.~.p.6.I J R 6.6.T S l Z Z Z S S L S J Z l U.A h E L zXCXDXPXCXCXPXPXPXDXDXHXHXHXHXFXSXNXgX'.c.v.W 0.U e M M 0.~.XXgXgXgX#XXX!.i.U U i.v.$XU I K v v v J J l h S L E D s.D x.E S E I E S S L R s.R R T u.Q Q i.i.J.! ! P R R W ! T P H ! ! Y ~ H ~ ~ ! H.H.H.~ H.H.H.H.H.T.T.Q.E.E.`.E.U.P.K.Y.)._.~.K.L.r.k w w w p p w w q q y y y w q q q w w ( ) ( ( ( ( ( ( ( ) / ( p p ) ) ) X.) p y y u y ( / / ` / ` ) _  .*.X.%. .X.X.8.8.w.w.%.7.7.%.&.q.w.w.-.:.-.q.q.-.q.q.r.7.7.5.8.r.s.7.V.y.q.7.7.*._ w 9 q z _ k 6.6.6._ x.) l e $ $ O . .       . X   o           . . # ; f A D D S S d d ; ; $ O + O $ O O . O O O O .   . . . O + + + 0 p _ _ _ ` _ ] ] ` ] ",
".X|..XOXoXOXoXOXoXXXXX.XoXXXXX).}.[.}.[.[.W.W.[.}.[.XXW.W.W.Q.[.).E.Y.W.E.Q.R.Y.R.Y.!.E.E.Y.R.!.U.T.T.T.!.U.!.U.U.U.U.U.U.U.U.I.Y.P.P.!.P.Y.!.Y.!.P.P.Q H.v.p.W U p.! H.P.J.J.H.! H.T H x % 6 % b U v.v.Y.P.a.a.K.K.K.E.U.J.J.J.I.U.Y.Y.U.Y.K.Y.Y.a.K. XeXeXeXcXGXSXKXJXLXLXIXJXKXJXIXIXIXIXIXIXIXIXJXJXIXJXIXIXIXIXIXIXUXIXJXKXFXFXFXFXNXgXoX/.6.I J 6.S I J l S j S S Z Z A S S S p.A S E h +XCXPXIXPXPXPXUXIXPXHXPXHXHXHXHXSXHXDXmXgX#X)./.].c.!.].gXMXNXHXHXCXCXNXnX@X#XwXgX#XXX).!.P.p.K h j J S h A S S S E E E S E E S S I E E L L L E R Q Q Q Q i.J.u.Q W W W W U W ! ! P.$X! ! Y ~ $X$XT.H.H.H.H.T.T.H.J.H.J.T.E.`.`.E.U.U.Y.R.`.E.Y.~.K.a.0._ p l _ _ ( ( ( ( / / / / ( p ) / ) _ ` _ ` ' _ @.` *.@.X.8.*.O.7.7.w.7.7.w.w.f.h.f.f.h.h.-.-.w.w.&.w.w.w.%.8.w.w.y.f.w.8.7.w.7.w.7.w.w.q.-.=.-.-.-.-.q.q.q.7.5.7.7.7.5.X.} } / q 7 7 q q q w ) _ m ) 4..._ ) l l e 0 $ $ . . .     . .   .     o # ; ; f L R s.i.K.{.K.{.a.i.p.R I J Z l h 0 @ O O O O . o   . . . O O + 7 7 z z x._ *.` @._ ` @.",
"|.XX.XOXOXoX+XOX.XoX).XXXX].).}.[.).[.W.XX).W.[.}.[.W.[.[.W.[.).W.!.R.!.Q.R.E.!.R.W.Y.!.E.W.Q.R.T.!.!.U.T.T.!.U.I.U.E.U.U.E.U.U.!.Y.P.U.U.P.U.P.Y.P.I.H.v.p.! W W ! ! v.i.i.J.H.! T H C b % O 6 Y ! $Xi.Y.Y.J.i.s.E s.u.J.R.E.U.I.Y.Q.Y.K.a.Y.~.Y.s.L.rXMXmXMXVXKXKXIXIXUXIXIXIXLXIXJXIXIXIXJXJXJXJXHXLXIXIXIXJXJXJXIXIXIXUXIXIXIXUXUXIXLXSXhX9X).L.6.J k I R 6.g l J S Z h l S h Z S d S S @ P.zXCXPXPXPXPXPXPXHXHXHXHXDXSXFXSXIXHXHXNXgXgXrX#XgXgXmXVXHXIXIXIXIXIXPXHXCXCXDXCXCXCXNXmXMX#X).Y.h h l h z S S D S S S S E x.S S I E L S Z D I u.R W Q Q i.i.u.u.Q u.! ! W ! P.!.H.I.$X$X! $XJ.T.T.H.H.$XT.H.H.~ H.H.H.K.K.E.E.K.U.E.E.!.c.Y.~.).~.~.a.8.7._ _ _ _ _ ( ) O.O.%.X.X._ _ _ ` _ _ _ | @.*.*.%.7.8.%.t.r.w.8.y.l.y.w.| @.%.&.8.&.w.*.f.w.f.f.f.w.w.&.w.w.7.8.w.7.%.X.| | X.#.X.*.X. . . . . .=.O.O.%.q.5.5.5.5.O.6.....r.r.) q 9 q ( ( _ _ x.x.....6.x.x.6._ i 8 + $ . . .   . . .   o X & ; 4 C L E J.K.E.). X+X X XoX.X X).`.Y.Y.J.S h ; O O . O .   o . . . . O O 7 0 p _ *.X.X.` | { | | ",
"XXXXXXOXXXOXOXOXXXXXXX#XXXXXXXXXXXQ.[.).[.[.XXQ.XX[.Q.).Q.[.Q.Q.Q.Q.Q.Q.[.T.T.T.Q.!.R.R.Q.R.R.R.R.Y.!.!.Y.Y.U.U.R.!.Y.R.U.U.!.U.U.P.!.U.P.P.!.Y.I.U.v.v.H.! ! W p.! ! i.i.P.Q T i.R G ~ f o # g F Q P.p.Q P.i.R J.i.J.K.J.K.Y.E.).Y.p.p.p.P.P.P.Y.K.Y.`.9XVXLXLXIXKXIXUXKXIXIXKXGXKXIXIXKXKXJXKXIXHXHXHXHXHXHXHXHXHXIXIXHXJXIXUXIXIXIXHXHXLXSXeXgXF.$X$XN +.I I h M h h I J h J Z C Z L L h d # $XXXCXPXPXCXDXPXIXPXDXHXLXFXFXFXAXDXKXSXVXNXNXVXNXHXHXHXIXIXHXHXIXCXPXUXPXHXIXUXUXCXHXPXDXNXnX#X0.N r e h J J S h E S d E E D S S L L S A C I W R W Q Q ! ! W W i.! i.! i.! ! i.H.Q $X$XH.$XH.$XH.H.H.$XH.H.i.H.i.H.J.J.U.E.E.).`.).K.Y.|.~.a.).~.~.~./.V.y.8.t.7.7.r.r.r.8.q.r.7.%.8.8.%.*.&.w.*.8.&.%.%.*.O.O.7.7.%.7.7.%.%.O.*.O.*.%.X.7.%.*.%.O.*.%.%.%.*.8.%.7.*.*.%.%.*.%.O.*.%.@.%.%. .%. . .O. .O.#.O.O.}  .O.5.4...X.5.6.a._ 7 w w q ( *.X.*._ _ 5...k i j k ..m e 8 O $ . O # X # &   * < = : D H.J.K.{.{.+X+XzX XlX XrX|.+X X#X|.oXE.U.I h 2 $ O O . . . . # $ O + + + w z p X.x.` *.| | ` @.",
"XX[.[.XXOXXXXXOXXXXXXXXX#XXXXXXX).[.[.[.XXQ.[.[.Q.XXQ.XXXXQ.[.Q.Q.!.Q.Q.!.Q.!.!.T.!.T.Q.R.Q.!.E.R.Y.R.Y.Y.!.Y.U.!.Y.R.Y.Y.!.Y.U.P.U.P.Y.Y.P.P.U.I.P.P.H.Q ! ! Q i.i.i.J.v.H.! T T F 2 2 $ . X 4 G ! J.! Q J.J.Q u.u.u.u.i.K.K.Y.R.Y.i.p.J.P.Y.a.P.p.a.K.oXmXLXLXKXIXIXKXKXUXUXKXPXKXGXKXSXKXKXKXHXHXHXHXHXHXHXLXHXHXHXHXHXHXIXIXJXIXIXHXHXJXSXMXgX].v.$X+.N I m M K v h J v l W h h h S S f ; f < $X#XCXPXPXPXPXIXDXCXCXFXHXHXJXVXKXLXFXHXFXHXHXIXHXHXHXIXIXIXHXIXPXIXUXUXIXIXPXPXCXPXUXPXHXFX#Xc.U h h j h h j h s.S S S s.S s.E S L L L Z Z Z L P P U W ! i.! u.! ! J.J.! $XH.$XH.i.H.$XH.$XH.$XH.$XH.$XH.H.P.Q H.J.J.U.E.`.{.Y.Y.c.Y.E.c.v.Y.9XgXMX4XV.r.*.p 5.0.5.5.5.7.7.7.X._ | _ ` _ _ | | @.X.%.8.w.y.w.%. .O.%.%.q.7.O.5.%.O.%.%.*.%.%.7.*.%.%.7.*.%.%.7.*.7.*.*.%.*.%.X.%.%.%.#. . .#.%. . .%. .O.#.X.} X.5.O.O...O.4.6.r.l 7 w w q ( *.*._ @.*.X.) ) ) p k k l j e r $ . . o o - 3   X = V B H.T.{.{.{. X+XlXlX+X XlX X|.wX@XwX XwX X@X).Y.I d O O % . . . . O . O 7 + 0 p z *.x._ *.` @.@.] ",
"XX[.OXOXXXOXOXOXXXXXXXXXXX#XXXXXQ.XXXXQ.Q.Q.XX).XXQ.[.[.[.Q.[.Q.Q.Q.!.!.!.!.T.!.Q.T.Q.!.Q.Y.E.R.Y.Q.!.Y.R.Y.R.!.R.Y.Y.U.U.U.U.Y.P.!.U.P.Y.P.P.!.I.P.P.Q v.Q v.Q P.i.J.i.J.i.Q U W g - # & . % g F ! J.! W i.J.J.s.R s.R u.i.K.J.I.P.i.i.v.I.Y.J.a.p.J.K.`.xXKXIXKXIXIXKXKXKXIXKXIXKXCXKXSXKXIXIXIXHXIXUXHXHXHXHXIXHXHXLXHXHXIXHXIXHXIXJXJXHXFXNXNX#X].F.=.N N M v J M g v j P p.f g J P J g Z F 6 x $X#XCXCXKXPXUXUXPXPXHXJXFXNXSXLXKXKXIXIXPXIXUXIXIXIXLXLXPXIXPXHXPXUXPXIXPXDXHXDXHXHXFXHXHXNX].~.0.N M e d d d S L E E E S E I S A J L I Z ; Z F F P U ! i.v.Q Q Q Q ! ! H.i.H.$X$XH.H.$X$XH.H.$XH.H.H.i.H.J.! Q Q u.K.U.E.).).Y.R./.Y.P.Y.c.c.rXhX/.r.r.h.5.5.5.5.5.O.5.O.5.q.w.w.w.w.&.w.f.X.X.%.#.%.&.8.*.| | | | O.%.%.%.X.%.%.@.*.%.*.#.*.X.%.*.X.*.*.*.%.*.*.*.*.*.*.*.%.#.#.#.#.#.#.#. . . .O.%.#.O. .} X.O.5.O...X.O._ 6.z 7 7 w w ) _ *.@.X.X.X.) ) ) a k a j m M l h . . .   & * o   V ~ ~ T.{.{.K.|.{.{.+X XOX+XlX X|.wX@X+XoXzXwX).E.Y.W h . % h O . . . O . + $ + z z l *.X._ *.@.` | ` ",
"XXXXOX[.XXXXXXXXXXXXXXXXXX#X!.XXXX).Q.[.Q.XXQ.[.Q.XX).Q.[.).Q.Q.!.!.Q.!.Q.!.Q.!.T.Q.!.Q.Y.Q.R.R.Q.Y.E.R.Y.R.U.R.Y.!.R.U.!.U.U.I.Y.P.P.Y.P.Y.P.U.I.J.v.P.H.! ! ! i.i.u.i.u.Q ! W Q F 2 2 2 f g F G ! J.J.W Q i.i.Q R E u.u.s.p.J.J.P.J.v.J.P.P.c.P.i.a.u.Y.zXDXIXKXKXKXKXUXKXSXKXKXKXKXKXDXGXKXIXUXIXIXIXIXIXHXFXUXIXIXIXHXIXHXHXJXJXIXIXHXHXFXSXNXgX#X].v.N N N M v J J J v P W Z j Z J L Z S S b x ^ $X@XZXCXKXPXIXPXPXHXIXIXJXKXIXLXKXIXIXIXHXHXIXUXIXLXHXLXUXPXPXDXDXHXPXPXDXHXHXDXNXNXFXCXNXrX].Y.0.M h 0 2 h l S I s.S S S S Z C S R T F g C g F F ~ ~ Y ! W ! Q ! ! i.i.Q $XH.H.$X$X$XH.$XH.H.H.$XH.$XH.$X! Q Q J.J.U.E.Q.XXU.Y.).Y.c.Y.0.U /._.5.i o.7.4.6.5.o.o...X.5.%.X.%.O.X.| | *.X.&.#.*.| | ' ' ` #.| | | %.%.O.#.*.#.*.X. .%.%.X.*.%.#.*.*.&.*.*.*.%.*.%.*.$.%.*.$.*.#.{ #.{ #.#.#. .-.#.O.O.O.O.O.X.5.%.5.X.4.4.4.l 0 7 9 w ( ) *._ _ X.X._ ) p k } k k n m I J h O   . . X &   = G H.H.J.T.J.H.{.K.{.{.|.{.{.zXoX|.zX XoX XzXwXwXwXrX).p.h $ O . . . . O O + + + w z p x._ _ *.| | ] @.",
"OX[.OXXXOXXXXXXXXXXXXX#X#X#XXX!.XXQ.).[.Q.).[.[.[.Q.[.Q.Q.).Q.[.!.!.!.T.!.!.T.Q.!.R.R.Q.W.Q.Y.E.Q.Y.Q.Y.Y.R.R.Y.U.U.!.U.Y.I.I.Y.P.Y.P.U.!.Y.P.Y.P.v.P.Q p.W W Q ! u.i.i.u.! u.i.W F Z F J ~ G H ~ ! I.P.! ! W E R R E Q p.J.J.J.i.i.i.P.Y.K.K.J.E.a.J.J.K.9XCXPXKXDXSXKXUXIXKXIXKXvXKXKXGXBXKXKXIXHXHXHXIXIXHXHXIXHXIXIXIXIXIXHXHXHXIXIXJXHXHXFXNXNXgX6X!.=.N N M N M U I I U I J h h h Z Z h h K b h F u.W.wXmXKXPXIXKXFXLXIXIXIXIXKXKXKXIXPXPXHXPXIXIXPXLXLXIXPXPXHXCXHXPXPXPXCXHXHXDXNXHXCXnXgX]./.v.M r r x S d L S s.S s.L Z J J J J J J L F g g F F P P Y E R W W Q Q Q i.J.! i.$XH.$X$XH.$XH.H.$XH.$XH.H.Q Q Q J.I.U.E.E.).v.I.!.v.v.$XN M Y m n n o.4.+.o.m M o.o.O.O.O.} } | ' ' ' +.c [  .] [ | ] | { #.#.@. .#.#.#.#.#.#.%.@.#.@.@.#.$.#.*.$.*.$.*.&.*.&.*.*.$.*.{ $.{ $.<.>.>.{ $.{  . .%.O.#.O. .O.O.O.O.7.5.O.o...I z 7 7 q w _ _ _ @._ _ _ | ) ) ) ........6.M h h O . - - * < = V E H.H.H.J.H.H.{.H.H.{.{.{.{.{.zX+XzX XoXoXzX XzXwXwX@X).P.F % .   . $ $ + @ + + w z z *.X.` x.@.` ] @.",
"XXOX[.OXXXXXOXXXXXXXXXXXXX!.].XXQ.XXQ.[.[.[.Q.).[.[.Q.[.Q.[.[.Q.T.T.!.!.T.Q.Q.!.R.E.!.!.E.R.Y.!.Y.Q.Y.Q.!.R.Y.R.Y.!.U.U.I.U.I.Y.!.P.Y.!.U.P.!.P.U.P.P.! ! u.W ! Q ! i.Q i.i.i.P.Q ! Q u.i.u.! T T ! J.J.J.Q E P Q R R s.u.J.i.s.u.i.i.P.P.P.P.J.Y.K.K.a.p. XBXKXIXIXKXBXPXIXUXIXKXKXBXSXKXKXJXKXHXHXIXIXHXHXIXIXIXHXHXIXIXIXUXJXHXJXJXJXIXHXJXFXNXNXNXgX].].v.N j $ 2 K J U p.J I g # h S Z g g f b b 2 2 v u.E.xXDXUXIXLXLXHXHXIXIXPXKXKXIXPXIXPXHXDXPXUXIXLXDXPXIXPXPXPXPXDXHXCXDXHXHXHXHXHXNXgX#X].!.v.v.$X$XK.J s.s.6.A s.S l J R I S Z J T F F F F F F H G P T E ! Q J.$XH.Q H.H.$X$XH.H.! $X~ H.$XH.H.H.$Xu.u.H.u.J.K.U.R.!.!.!.!.!./.!.$XN s N v.v.v.4.o.m +.=.+.o.4.o. .O.q.q.%. .=.:.e.#.#.#.#.{ | ] ' #.#. .@.#.#.| ] @.@. .@.#.@.#.@.#.*.$.*.$.*.*.{ %.*.*.$.$.@.*.$.<.{ { { { >.@.$.#.#.O.%.O.O.%.%.q.O.O.5.5.5.X.....7 7 9 0 p _ _ *._ _ @.X.| ) ) a ..X.....4.m z h O $ 4 ; 3 H ~ H.T.T.H.H.H.E E H.E H.K.{.lXlX{.wX XzX+XzXzXzXE.).`.)._.)./.P.L @ . . O ; @ + + + z w l x.X._ *.| @.@.` ",
"OXOXXXOXOXXXXXOXXXXXXXXXXXXX!.XX).[.[.Q.Q.Q.[.Q.Q.Q.Q.[.[.[.Q.Q.!.T.!.!.T.!.!.Q.R.R.Q.Y.R.E.W.R.!.Q.Y.Q.Y.Q.Y.R.U.U.!.I.Y.I.Y.U.U.P.Y.P.U.!.U.P.U.P.I.v.v.H.i.i.i.P.P.J.i.i.P.P.P.P.I.Y.I.P.P.P.J.! ! ! ! i.! E ! U R W J.J.u.Q u.i.J.J.J.K.i.J.E.K.K.s.s. XBXDXIXUXIXKXVXIXIXIXKXDXSXSXSXIXIXKXHXHXIXHXHXHXIXIXIXHXIXIXIXIXIXLXJXHXJXHXHXJXJXHXNXNXNXNXhXgX].F.p.% r N h I p.v I F e g J J J P 2 h h f h 4 h d H.|.mXDXIXUXIXIXKXIXIXKXPXKXKXPXIXPXDXHXIXIXPXDXDXUXPXPXPXHXCXPXHXHXDXNXNXDXCXFXMXgXgXbXgXgXgXgXgXoXrXoXu.Z S S f F R R J j F L J F F L L F F F T T R R Q ! ! J.v.$XH.Q H.H.$XJ.H.H.$XH.$XH.$XH.J.H.u.J.J.J.J.J.v.Q.].!.Q.Q.[.XXXXQ./.!.Y.v.Y N 0.0.v.y.r.9.o.o.+. . .+.+.[ +.>.:.:.:. . .[ ] ( { [ ] [ {  .] ]  .#.@.#.] #.{ @.{ *.*.#.$.*.$.$.$.$.*.&.$.$.$.$.{ { <.{ { { $.{ #.O.O.%.%.%.O.O.7.O.5.O.5.5.O...k + + w w p 5.` @.` _ _ X._ ) k a ..X.k ) 4.I e e O $ 2 - 4 T J.{.{.H.H.T.K.H.E E H.H.H.{.zXlX{.+X|.zX+XzXzXzXE.@XoXoX).).`.P.I f # . . + + + + + w z p *.X._ *.| ] | | ",
"[.OXOX[.XXXXOX[.].XXXX].#XXXXX!.).[.[.).Q.[.Q.Q.Q.[.).Q.Q.Q.Q.[.!.T.T.!.!.Q.Q.T.R.!.R.R.Q.W.Y.R.Y.`.Q.E.Q.Y.!.!.U.U.U.Y.I.U.I.P.P.Y.P.Y.P.P.P.Y.I.I.I.U.P.I.P.P.P.U.Y.I.P.J.P.I.J.I.Y.P.P.J.J.P.P.! T ~ ! Q ! ! ! E R E i.K.u.Q u.i.i.J.i.i.K.v.U.u.J.s.J. XMXCXKXKXIXUXVXKXKXLXKXKXKXSXBXKXUXKXHXHXHXHXHXIXUXHXJXHXIXIXHXIXIXHXHXHXFXFXHXIXUXJXHXHXHXHXHXFXNXgX#Xv.0.U h M U h J h g g Z j J U v b g v P L A X D E ~.wXNXHXIXIXKXIXIXPXPXKXKXKXPXPXPXLXPXKXPXPXPXIXIXPXIXHXDXIXHXPXHXCXHXHXNXNXFXCXDXHXHXHXHXIXLXDXDXDXY.I l Z $ r M I I J J J F j F J P F F F L L T W Q u.i.i.H.H.$XH.H.$XH.$X$XH.H.H.H.H.H.H.u.J.J.u.u.u.u.J.v.!.!.!.Q.!.!.@XgX#X].)./.].'.'.c.c.c.c.c.y.9.O.o.+.o.+.+.[ +.=.' ' [ [  . .#.#.' [ ( ] ] { #.] { @. .{ #.#.@.*.$.$.$.{ $.{ *.{ *.*.#.{ *.{ *.{ { <.{ { <.<.{ $.#. .-.-. .O.%.O.q.O.O.5.7.5.5.m J + 7 i w _ 7.) @.| _ | _ ) ) p p | X.k k 4.o.d d . O # X & E R.{.H.H.H.{.{.K.H.H.K.K.K.K.lXlXlXOX X X|.+XrXzX XoXoXXX).Y.).E.i.J % . . O @ + + + 0 z p x.*._ *.` @.` @.",
"XXXXXXXXXXXXXXXXXXXXXXQ.XXXX!.).XX!.).[.!.[.[.Q.[.[.Q.[.[.Q.Q.Q.!.!.!.T.Q.W.!.T.R.!.Q.Q.W.).Q.).Q.Q.Y.R.Q.E.U.P.Y.R.Y.U.U.I.U.U.!.Y.P.!.!.!.Y.Y.!.Y.Y.I.P.P.P.P.P.I.U.Y.Y.Y.U.P.P.U.R.P.i.Q u.P.! ! ~ ! ~ ! ! ! Q i.Q J.Q u.J.Q J.J.u.u.J.J.J.J.K.K.K.J.`.oXbXBXBXKXUXLXSXSXKXKXIXVXVXDXCXDXIXIXIXHXHXIXIXHXHXHXLXIXUXIXHXHXHXHXHXJXJXNXJXIXIXHXJXHXJXIXHXHXFXNXmX#Xc.Y N =.N N N 0.N F I J h I p.J g J Z ; > S D d S E.wXmXKXUXIXPXPXPXPXIXIXIXKXKXKXUXIXIXPXUXPXPXIXIXIXKXKXKXCXHXCXCXHXHXHXHXHXIXHXHXIXUXIXUXIXUXIXDXnX/.r N v j j h m K K F F L P L F Z Z F L L L J T u.J.i.J.! Q i.P.Q ! ! ! H.! H.H.H.H.! Q J.Q J.J.J.u.Q p.i.P.#X#X#X#X#X@X#X#X@X#XgXwXrX].]./.F.F.v.v.v.v.=.N =.=.=.=.=.=. .+.[ N >.=.+.c [ c [  .#.#.#.| ] ]  .#.%.#.#.%.#.&.$.$.*.@.@.#.*.#.*.$.#.$.$.<.{ $.{ <.{ >.<.#.O.O.O. .-.O.%.O.%.O.7.5.5.o...i 7 + q j 5.8._ _ *._ X.X.| ) k ) } ..X...6.k l h 0 , # , G J.H.{.T.T.H.H.{.T.{.{.H.H.H.H.{.lX{.{.{.{.E.E.|.+X{.W.E.U.).s.Y.).E.J @ . $ . O @ + 0 0 z x.8.8.*.*.*.` | @.",
"[.XXXXXXXXXXXXXXXX[.[.XX].XX].Q.Q.XX}.[.).Q.Q.Q.[.Q.[.Q.[.[.Q.!.Q.!.T.T.Q.Q.!.!.U.Y.!.Q.E.Q.Q.E.).W.Q./.).Q.E.Y.T.Y.R.!.Y.U.!.Y.Y.U.P.P.P.P.P.P.Y.P.P.P.J.P.P.P.P.I.P.I.I.I.J.i.T ! u.Q T P W ! ! ! ! ~ ! ! ! ! i.! i.Q u.u.u.i.u.s.J.J.J.s.J.J.K.u.s.p.K.).xXCXKXBXmXDXIXIXDXBXDXDXDXLXFXVXHXIXIXHXHXIXIXHXHXIXIXHXHXLXIXHXHXHXJXIXIXNXSXFXIXUXUXHXFXFXHXUXIXNXNXgX#X/.$XN N N N U J h K J g J I v J R I d A E D d S s.`.rXBXLXUXIXIXIXPXPXPXIXPXKXKXKXPXPXKXSXKXKXKXIXIXPXKXKXCXHXHXHXPXPXIXIXIXIXIXHXIXIXIXPXHXUXLXIXLXNXp.x e r % r M I 0.0.l J S F J G F Z L C C E Q R Q i.J.! Q ! ! H.! ! H.$XH.H.Q $Xi.H.H.J.Q J.J.J.u.R W Q P.XX@XgX#X#XgX@XgX#XgX#XgXwXrX#X#XrX#X].]./.F.v.v.v.v.=.=.=.+.c c c =.=.+.+.c c [ [ | O.#.| -. . .O.%.%.%.O.#.@.%.%.&.*.&.%.%.O.%.#.X.@.*.{ <.@.@.$.{ <.{ { #.#.#.O.%. .%.O.O.O.5.5.5.5.X...l 7 7 q w *.8.X.*.@._ *.X._ _ ) } _ ) X.X.6.k S h $ $ @ , L U.T.T.T.T.T.H.T.{.H.H.H.H.K.H.D H.{.`.K.E.K.E K.|.K.{.K.K.E.P U.E.Y.W % . @ O O + + z 9 z _ x.X.X.*.@.] @.` ",
"XXXXXXXXXXXXXXXXXXXXXX].XX].XX!.[.Q.[.[.Q.[.Q.[.[.Q.Q.[.Q.[.!.Q.Q.!.T.!.!.Q.R.T.R.!.R.R.R.E.Y.E.Q.Y.Y.!.Y.Q.Q.E.P.I.U.U.U.!.Y.!.I.I.P.v.P.Y.U.U.v.i.u.i.i.i.v.i.P.J.J.P.i.i.Q R T R U P G P P ! T ! ! ! ! ! ! ! ! J.J.! ! i.u.u.J.J.J.J.J.J.K.s.P.K.J.K.K.K.wXVXKXSXBXSXKXIXKXBXVXDXDXLXHXFXDXIXIXIXHXHXHXIXIXIXIXJXFXIXIXIXIXHXHXIXIXHXJXFXIXIXIXJXHXHXLXUXUXIXCXNXMXgX].N N N I J h h J J j J h b L L S Z S S s.S A A L K.oXmXPXIXIXIXPXPXPXIXIXPXKXKXPXKXVXxXcXZXCXKXPXIXIXIXPXPXHXHXIXPXHXPXIXIXIXHXIXIXHXHXIXIXHXHXHXHX#X/.j h $ r h M I I P J Z F L L L S L A h T R R E i.i.! ! ! ! H.$XH.$XH.H.$Xi.H.H.H.J.J.J.J.J.J.u.Q W U i.).@XgXzX#XzX@X@XgXzXzXxXgXgXgXgXgXgXgXgXgXrX].].].].F.F.!.$X=.=.M =.N N N =.n n +.O.X.X.| -.=.O.O.O.-.-. .%.O.%.%.%.&.&.8.O.%.%.%.%.#.X.&.*.$.*.{ <.{ <.` #.O.#.O.O.=.%.O.5.O.5.O.5.O.....l 8 7 7 w _ 8.*.*._ _ *.X.X.) k ..) X.X.x...J l h 0 @ . . L {.|.lX[.T.H.{.{.{.{.H.H.{.K.D D E H.D E H.D > E L.E.K.u.S J.I `.`.).i.h . @ O + O + 0 0 z _ *.X.x.*.| @.@.@.",
"XXXXXXXXOXOXXXXXXX!.!.XX[.).XX[.).[.).Q.[.Q.Q.Q.}.Q.[.Q.[.Q.[.Q.!.T.!.!.!.Q.!.T.Q.R.R.Q.E.Y.!.Y.R.R.U.U.Y.U.Y.!.I.P.P.I.Y.U.T.Y.P.P.P.I.P.Y.P.P.! p.! W W W ! Q ! W R W W P P F ~ P G F Z F P R ~ ! H.! H.! ! E i.! Q i.J.Q u.Q J.u.s.J.J.u.J.J.K.J.K.U.K.K. XnXSXIXLXBXBXKXIXKXSXSXmXVXIXIXDXHXUXIXHXHXHXHXHXFXHXUXUXIXHXIXUXJXHXHXJXHXUXIXHXSXHXHXIXUXHXNXHXUXHXNXNXNXgX!.N N K M v J J F J N e M j d f L E E E D D f d Z i.).BXSXPXUXUXPXPXIXPXIXKXKXDXCXxX`.`.lXZXKXPXIXIXIXPXPXHXPXIXHXHXIXIXIXHXHXHXHXHXIXHXHXLXIXLXIXNXgX/.v.9.j N h h r I J J J L Z Z G S Z S A L E s.Q J.i.! ! Q P.P.i.H.! H.$XH.$Xv.H.J.u.i.J.J.J.u.Q p.U p./.wXnXnXgXnXgXnXgXnXgXbXbXnXgXMXMXMXmXgXbXgXgXqXgXgX#X].#X]././.c.v.$XG.$X4.=.m =...O.o.k o.=.o.=.9.9.q.O.O.5.%.O.X.X.%.%.5.O.5.O.O.%.%.O.*.@.*.@.@.<.*.$.%.#.=.O.%. .O.%.7.O.O.O.5.5...} z 7 7 9 p X.8._ *.*.| _ *.) ) ) _ ) ) X.5.....l z $ $ O @ L }.OXlX{.T.H.H.{.{.lX{.D D H.E D E {.E.K.{.K.S E J.E u.E Z J.J.|.).XX!.b O O O O $ + 0 7 z _ x.8.*.8.@.| | @.",
"OXOXXXOXXXXXXXXXXXXX!.XXXX].!.[.[.Q.}.[.Q.[.[.Q.Q.Q.Q.[.[.Q.Q.!.!.!.T.!.!.!.T.!.E.Q.Q.Q.Q.R.Y.R.!.Y.Y.U.U.I.U.U.Y.U.I.U.!.U.U.U.u.i.i.v.P.H.Q W T Y P G F J F F g C g C F g C g f 2 2 2 4 g F ~ ~ ! $X$X! ! ! ! ! ! i.i.J.! Q J.u.Q J.J.J.J.J.J.K.E E K.L.E. XzXVXLXLXBXmXDXPXDXKXDXmXmXPXIXHXHXIXIXHXLXIXIXHXNXHXUXUXHXGXKXIXIXUXHXFXFXIXIXJXFXHXHXPXUXUXHXPXLXHXNXNXNXNX#X!.$XM N M Y M b I I J I J h Z s.u.D E S S L A f C R  XbXSXIXIXIXIXPXKXIXPXCXxX9XL.S s.`.xXBXKXIXIXIXKXLXDXPXIXIXHXIXPXIXHXHXFXFXHXUXCXHXHXIXHXIXHXHXmXgX'.F.0.M r $ M v J I L Z Z S Z E S f f s.u.T R W Q Q J.J.! Q $XH.H.i.$XH.H.H.Q J.u.J.K.K.J.u.u.I 6.J.#XgXmXnXnXnXnXgXnXbXbXbXgXnXMXnXmXMXMXgXMXbXgXmXgXMXgXgXgX#X#X#X].].].!.v.v.r.p.r.5.4.4.I n +.M =.9.o.9.o...X.X.X.O.O.5.5.O.4.5.O.O.5.%.O.%.*.*.*.*.$.*.%. .=.#.#.O.%.O.q.O...O.5.O...l 7 + 7 p k *.8._ *._ _ X.X.X.) ) _ ) _ X.X.6.S l h d ; @ @ E }..X{.T.H.H.T.T.{.H.|.E D E E E E K.{.K.{.{.H.J.J.D E.K.s.W.).oXE.).).v $ # O @ + + 0 0 z _ x.*.*.*.*.@.@.` ",
"[.OXOX[.XXXXXX[.!.[.).).Q.XX).).}.}.[.).[.W.Q.W.}.Q.Q.Q.[.[.[.!.!.T.T.!.!.!.!.T.T.Y.!.Q.Q.W.Q.W.R.R.E.!.U.I.Y.!.Q.Y.U.U.U.R.I.P.i.i.i.p.Q ! L Z G G F b g g g g 2 2 - ; 2 4 4 2 - 2 2 2 f Z P ~ ~ H.H.H.H.! ! ! J.! ! H.! i.! Q J.J.J.u.H.J.J.J.K.J.J.K.{. XzXxXBXVXKXDXDXCXSXDXKXDXVXBXVXPXLXIXHXHXHXIXUXIXHXHXIXIXFXLXKXKXKXJXUXIXHXSXLXFXKXLXDXHXHXCXCXPXPXNXHXCXNXNXCXNX#X!.p.J Y 4.g j U J v m M S E u.S f D D E E S f f d s.).bXDXPXIXIXIXPXPXKXcX`.K.E D D K.xXBXKXIXKXPXDXLXLXLXHXPXHXHXHXIXIXHXHXSXSXIXHXHXHXHXMXHXIXIXIXHXNXgX#X/.v.K I S Z R R L S L S R J d f E u.T T T R Q Q J.Q Q H.$XH.$XJ.H.I.H.Q u.u.J.J.J.J.J.6.R P p.!.#XnXmXnXmXmXnXnXMXmXbXnXnXnXMXMXbXbXbXMXgXgXmXmXMXgXmXnXgXnXgXgX#X#X#X/.).~.~.~.Y.L.a.=.U =.U 0.9.9.4.o.4.o...5.5.7.5.5.4.4.5.5.5.5.O.5.X.*.X.*.*.*.@.#.O.%.O.O.%.O.O.q. .X.X.5.5...a + + 0 z ) 6.8.X.*.@.*.| X.) _ ) ) _ ) X....._ k z $ 0 @ $ E }.|.{.H.H.{.{.T.H.H.{.{.{.{.K.H.H.{.K.H.E H.H.K.{.K.{.}.K.|..X+X). X).K % $ O O $ + 7 7 0 _ 8.X.x.*.@.@.*.*.",
"[.OXOXXXXXXXXXXXXX!.[.[.Q.XX).Q.[.Q.[.).Q.Q.Q.Q.).Q.[.Q.[.Q.[.!.T.!.!.!.I.T.!.R.!.U.R.!.Q.E.Y.E.I.Y.R.R.Y.I.Y.U.Q.U.P.P.P.P.p.Q ! Q U Y P P F F g g g f g g F C 2 4 2 2 f g g g g C g C F L P R ! $X$XI.! H.H.$X! i.H.! ! J.u.u.u.H.J.Q J.J.K.J.K.K.J.K.{.9XxXxXxXBXKXPXDXVXVXLXSXFXFXVXVXHXIXIXHXFXFXHXIXHXHXHXUXFXSXIXIXIXKXLXFXHXIXFXIXFXLXLXHXUXUXPXHXUXUXIXHXFXNXFXNXNXNX#X/.U I I h M 0.v h j J I L S A A E D D D S A d ; d I `.zXBXCXKXDXSXBXzX`.K.s.E s.D K. XBXKXPXKXKXSXIXIXDXFXHXCXCXHXIXHXPXHXHXFXHXNXHXIXUXHXHXCXHXIXJXHXHXNXNXgXwX`.0.l P s.I L L R L L S L L L L T T G P U ! H.H.J.$XJ.$Xi.$XH.H.J.Q J.J.J.J.J.J.u.p.v.N $X].gXnXmXnXnXnXnXnXmXnXnXnXmXnXnXmXnXMXnXgXnXmXnXgXmXmXmXnXnXnXnXnXgXgXwXwX#X#XoXoX'. X/.c.c.c.v.v.p.r.r.r.5.6.4.6.5.r.4.4.4.0.5.4.5.5.5.*.7.*.*.7.%.X.O.#.%. . .%.O.%.q.O...O.5.5.) j 8 + 0 p p 6.8._ *._ @.X._ X._ p _ ) ) ..6.6.k S h 0 @ @ ; E |.|.T.H.H.{.{.H.T.{.{.{.{.{.K.H.{.{.|.{.K.K.J.`.OX|.|.|.E. X+XrX).+XQ.J h $ O O + + 7 7 z _ x.*.7.*.@.@.@.@.",
"OXXXOXXXXXXXXX[.XX).Q.Q.].).XX).).).[.[.Q.[.[.Q.Q.[.Q.Q.[.[.[.Q.T.!.T.!.T.!.T.!.W.Q.R.R.Y.I.P.P.i.P.Y.Y.I.P.U.Y.!.P.i.Q i.i.T G K F g f g b F F g F C F F G K P G F F F F P G G P P P G ~ P P G ~ H.H.$X! ! $XJ.H.! i.i.! ! Q E J.J.Q J.J.J.J.J.K.K.K.s.K. XzXzXzXmXSXSXSXDXDXSXVXBXVXVXNXLXUXIXHXFXFXHXHXHXHXLXFXFXLXIXIXIXLXKXFXHXHXFXIXLXLXKXPXHXHXDXHXHXPXCXFXHXHXNXNXNXNXnX#Xp.M Y h K Q h J I I I l A S s.E L f d A Z f > @ + A K.rXxXBXSXxX`.J.E s.s.s.K.x.K.xXSXKXLXKXKXmXPXIXCXHXIXPXHXIXHXHXHXPXHXHXHXUXHXHXHXHXHXHXFXHXHXHXHXIXIXHXSXbXY.J Z R E I L s.g A s.u.C f R R L G Z G ! i.I.$XJ.H.H.H.H.v.J.J.J.J.J.P.K.J.u.v.v.U N $X!.gXnXnXmXnXmXMXnXbXxXmXnXnXnXnXnXmXnXmXnXmXnXmXgXgXnXgXnXnXnXnXnXnXgXnXbXgXbXeXeXeXrX#X#X].).)./.c.v.Y.V.a.r.5.O.o.9.4.4.9.4.4.5.5.5.5.5.X.5.*.%.*.*.%.#.O.O.%.O.%.O.q.O.....5.O...s 0 7 0 p p ) 7.*.X.*._ _ *.X.) ) ` } _ | _ _ l l z @ O @ ; u.|.|.{.~ ~ H.H.H.H.lX{.H.E H.H.K.{.H.K.E E E E E.+X X X+XE.oX+XoXE.+XR.K 2 ; O . @ + 7 7 0 x.8.X.X.*.*.@.@.@.",
"XX[.XXXXXXXXXXXX[.).[.XX).Q.).).Q.).W.W.W.W.Q.Q.[.Q.Q.[.Q.[.!.[.Q.!.!.!.Q.Q.Q.Q.I.T.Q.I.I.I.I.I.I.v.u.i.U.I.P.! U.P.i.u.u.W U P ~ G J H F F K H ~ G F H F P K F W P P R W ! W Q W ! I W W W W Q H.! H.! J.Q H.! Q H.i.J.Q J.J.Q i.P.Q J.J.J.K.K.P.u.p.U.`.).oXxXmXBXVXLXDXLXKXDXDXmXBXSXBXGXLXIXKXKXSXKXIXIXKXDXKXIXIXSXKXKXIXJXHXIXSXHXIXHXUXHXHXSXHXHXFXHXIXIXHXFXHXNXHXNXHXNXNXY.Y.v.U J h J I h l F h S I h d f d d d ; d f @ @ , ; A s.E. X`.R l S L I E s.S h  XDXKXKXPXKXKXDXKXUXKXKXUXCXDXIXKXPXLXLXVXDXPXCXNXPXDXHXCXHXHXNXNXPXmXCXHXIXCXgX!.p.v h I L L L P P R W P F L g g F P R R Q W Q u.u.i.u.Q W J.i.u.J.J.J.J.J.K.J.a.J.T R `.bXnXmXmXnXbXmXmXnXZXnXnXnXnXnXZXnXmXnXmXnXnXnXnXnXnXnXnXnXnXnXnX#XbXxXbXxXMXMXMXMXgXgXgX#X#X].)._.F./.c.b.t.y.t.t.y.r.0.4.5.9.q.q.%.5.*.*.%.8.*.*.*.O.X.X. .X.7.q.O.n n +.o.=.9.e 8 + + 0 ) O.X.5.O.X._ ` } X._ ) ' } _ ..X...l l 6.d @ > = H.|.OXlX{.E E E H.H.J.T.D H.{.OXT.D J.E V E.f S )..X)..X).E.J.oX#XwX).u.F ; O O . + 7 + 8 z x.7.8.*.x.` | | @.",
"[.OX[.XXXXXXXXXX[.[.XXQ.}.).[.[.[.W.W.[.W.W.Q.Q.Q.W.Q.[.[.Q.!.[.[.Q.Q.T.T.T.Q.Q.T.E.R.H.Q H.H.J.P.H.! i.v.I.! U W W Y W W W Y P U U W I R U R W U U I I W W P U W R W W p.i.p.W U T U ! W W W W ! H.Q Q Q Q Q J.Q H.J.Q J.Q i.J.$XH.i.$Xs.i.i.i.J.p.K.P.i.K.|.xXzXVXBXbXDXDXSXDXSXmXBXFXFXFXKXDXIXIXKXGXLXIXLXKXKXIXUXIXIXSXKXKXHXLXFXHXHXHXUXIXHXHXIXUXIXHXIXHXHXHXCXNXCXHXCXCXVXwX#XXXa.K.g L 4.I M I h J I Z S J I J I S J Z R L D > ; ; ; ; f $ , d S I E s.s.I zXSXPXKXIXKXKXKXKXKXBXDXIXBXKXUXKXKXDXLXVXDXIXHXmXUXBXNXHXBXDXNXmXHXDXHXDXCXLXmXgXwXY.p.6.Z J F F J L P T I G J L R P P U W W U U W p.i.i.u.u.Q Q Q Q J.J.J.K.i.K.J.p.I U.#XwXbXnXnXnXnXmXbXnXmXnXmXnXmXnXmXnXnXnXnXnXmXnXnXnXnXnXnXgXnXwXgXbXbXbXMXxXbXxXbXnXnXnXgXgX#XrXrXrX6X'.'._.F.V.V.V.c.v.y.a.y.r.q.%.O.X.@.*.@.@.] %.8.7.%.7.%.7.O.O.} o.O.n o.o.s 0 + + 0 j ....} O.| ) _ _ X._ _ _ ` ' | ....m j l ; . > & H.|.OX{.H.H.H.H.H.H.K.J.J.{.J.E.|.J.J.|.H.u.@ R |.zXwX XU.+X). XU.E.E.J.F # # O . O $ + 7 p x.x.*.*.*.*.@.@.` ",
"OX[.XXXXXXXXXXXX[.).).[.}.}.}.).W.).W.).W.W.Q.Q.W.[.Q.Q.!.[.[.!.}.W.R.T.T.T.R.Q.T.T.T.Q ~ ~ ~ ! ! ! i.i.p.Q R P F F J P W Q W U u.p.! ! Q p.! i.u.W W ! u.! Q W W P Y W W ! Q W R U U T W W W W ! Q $Xi.! Q u.Q Q i.Q i.Q J.i.i.! J.! i.J.i.p.J.s.J.K.J.J.U.).XX9XDXBX@XVXSXVXKXSXBXmXFXIXIXKXKXLXJXKXKXKXIXKXKXSXKXUXIXIXDXKXKXNXHXHXIXSXVXPXHXUXHXHXHXIXHXVXFXHXHXCXmXFXIXNXCXDXHXBXbX).oXI I I v I I r h S l 6.R p.K.Y.Y.K.K.L T L f A Z f $ d ; S K.Y.`.`.`.E.`.mXVXPXDXIXDXDXPXPXKXBXKXIXCXCXIXDXCXHXPXVXVXPXPXgXUXmXmXHXVXNXnXmXFXNXCXDXHXLXDXCXCXwX~.p.h L J L Z F J P W g v I P F Z J T J F F F H P R R T T L E E u.u.J.u.u.a.P.a.E J.Y.).wXnXnXbXnXMXnXnXnXnXnXmXnXmXnXnXnXmXnXnXnXnXZXnXnXnXnXnXnXbXmXbXMXbXbXcXxXxXbXgXnXnXbXbXgXgXwXgXgXgXgX6X4X(.~.(.(././.~.V.t.r.7.7.7.X.X.*._ _ X.X.7.8.5.X.X...O.o.9.5.c n M q 0 7 + e k ..} } O.| | _ _ _ _ _ ` | | } ...._ S h ; . > & H.{.OX{.H.H.{.{.K.T.[.J.{.{.E E {.E.H.|.E.J.E ).).+X+XE.u.lX[.U.R.}.}.P.G # . @ O . + + 0 z _ x.d.x.*.` @.@.@.",
"XXXXXXXXXX[.XXXX).[.XX[.XXQ.).[.W.W.W.W.W.W.W.W.[.Q.Q.Q.[.!.[.[.W.Q.R.T.Q.Q.T.R.T.T.I.T H B G T W Q i.p.Y P G J G P P U ! p.i.i.p.! p.! p.! i.H.p.! W W Q p.! W P P P P P U R P E U R R W U W W ! H.J.! i.i.Q i.i.Q i.Q i.! Q H.i.$XQ i.i.p.J.J.K.a.J.J.). X_.Y.).BXVXMXSXVXVXLXSXSXMXVXIXIXFXKXKXIXKXKXKXIXJXKXKXSXKXCXKXIXIXKXFXFXUXUXHXSXHXHXUXFXNXVXIXHXMXNXHXHXNXNXHXUXnXNXCXIXDXCXrXnX!.0.J j J I g h S J J s.p.Y.`.|.`.Y.J.J.R C g Z A @ ; ; I E. XoXoXoX|.wXDXVXDXSXPXCXZXPXIXPXDXPXUXCXKXIXDXDXPXUXDXDXHXHXwXLXCXDXCXHXCXmXmXVXNXmXCXHXSXCXPXHXbXoXY.M I L F J J F P ! F T R I L J P p.J v F F F v Z Z Z Z Z G E Q u.H.u.s.J.J.J.u.u.s.E. XwXbXnXbXnXnXmXmXnXZXnXnXnXZXnXnXnXnXnXmXnXnXnXnXgXnXnXnXnXZXnXxXnXxXbXxXgXzXgXzXzXnXbXbXbXgXgXgX'.gXeXeXqX4XoX#X'.oX'._./.~.V.a.a.h.y.w.w.%.X.X._ x.5.5.5.o.5.o.9.4.j k j 8 7 + + q k } ' | | +.` | _ *.*._ ` +.| ........l l h O : , H.E.OX{.T.T.{.{.T.J.|.T.T.T.E D J.T.J.K.+XK.}.zXJ.R.E.J.T .XD A }.wXE.I.F @ . O O O + 7 7 z x.x.x.8.` *.@.@.` ",
"XXXXXXXXXXXXXXXX[.).XXXX}.).XXQ.Q.W.).W.W.W.W.Q.[.[.!.[.[.[.!.[.T.T.R.Q.Q.Q.R.T.!.I.H.~ B 4 ~ T Q u.! P F F C H U W p.! i.u.! i.i.i.u.! ! p.i.! u.! ! W Q p.W W P P P P P W P P U W U W W T ! W Q J.i.Q J.J.u.i.i.i.! i.u.i.i.! ! Q i.! i.p.i.p.K.p.p.J.Y.oX|.).).oXxXSXSXSXCXSXSXSXBXAXKXKXGXKXKXUXKXKXKXLXIXIXIXKXKXvXKXIXUXSXHXNXHXIXNXNXHXHXHXSXmXSXIXSXeXmXHXNXgXnXDXIXnXNXCXIXHXCXbXmX@XY.I h I 0.I j J J J I R u.K.p.p.R s.W G f ; f d @ @ @ f K._.zXxXzXoXmXDXCXCXDXKXCXbXLXIXPXDXPXIXCXPXIXDXVXDXIXCXmXHXHXnXVXHXIXgXHXPXNXmXDXPXCXmXNXmXVXPXHXmXbX#X!.R S C Z J S J s.Z J J h d h h f J J P P P L Z g f C C A G E Q Q u.R p.J.J.a.J.u.i.Y.|.wXxXnXnXmXZXZXnXmXnXnXnXnXZXnXnXnXnXnXnXnXnXnXnXnXzXzXnXnXxXbXxXbXnXbXnXzXnXnXnXnXnXbXbXbXnXgXgXgXgXMXgXgXrXrXrXeXwXrX9X_.,X_.`.^.^.^.^.l.l.a.s.6.8.s.r.0.r.4.6.4.4.6.6.e 7 + + 9 a } |  . .@.| ` ` _ _ *.+.| } X.} ..m J S Z X , X E J.OXlX{.{.{.E.J.J.{.{.|.{.H.V H.{.H.K.{.D H.|., A E J.D {.D = J.lXJ.J.C O . $ @ O + 7 7 w x.8.x.x.*.` *.@.@.",
"XXXXXXXXXXXXXXXX[.XX[.).XX).XX[.W.W.E.W.W.W.W.W.!.!.[.[.!.[.!.[.I.T.R.Q.W.W.T.I.T.H.T H b B G T W W U G g g F P ! i.i.i.! ! p.p.i.i.i.i.i.p.i.v.i.p.! p.! p.W W W W R P ! T W P U T W T W U W W i.i.Q J.u.! i.Q ! i.J.Q Q ! u.! $XQ ! i.i.i.i.u.u.K.K.u.s.K.).@XxX/.oXDXDXKXDXMXMXSXSXFXLXKXKXLXKXKXIXIXIXKXKXKXJXIXIXDXKXKXIXDXNXgXCXHXHXVXNXNXSXNXgXgXFXFXMXVXHXCXgXgXNXDXNXmXmXDXCXNXgXbXbX).0.j v I j h h h j S S M J S g h 2 2 2 h C F L L ; $ f s.`.wXxXxXwXBXDXDXDXKXKXDXBXIXPXKXKXPXIXDXDXPXNXDXHXPXNXVXCXDXVXbXCXIX#XCXCXBXNXNXDXmXNXDXNXVXHXDXVXVXVXbXY.I Z j F J I u.Y.E.Y.p.u.p.R P g g F P I P J C f 4 f A A T E E Q s.p.i.J.P.K.J.s.R a.W.@XbXbXZXnXmXnXnXnXgXnXnXnXgXnXnXnXgXnXnXnXnXnXnXnXnXgXzXnXxXbXxXgXnXgXnXnXnXzXnXnXnXgXnXnXnXgXwXgXgXbXgXwXgXwXbXgXgXeXrXeX0XrX0X9X9X9X_._.L.l.a.a.a.a.r.6.J _ 6.0.p.r.z 7 7 7 t a k  .%.] @.@.| _ ` *.X.} } ....m ..J 6.h j . X & G J.+X{.|.|.{.{.E.{.|.|.lXOXH.& H.|.E [.OXH.H.lXE Q H.J.H.{.K.H.B {.{.R f . . @ O O + + w z x.x.d.x.*.*.@.@.| ",
"XXXXXX[.XXXXXXXXXX[.}.[.[.).Q.XXE.Q.).W.W.W.W.W.[.!.[.!.[.!.[.[.T.T.T.Q.Q.Q.!.I.I.! ~ C C C F ~ F K F F F G P I ! u.i.J.p.! ! i.i.i.i.i.i.i.H.v.i.p.Q W Q W W W W W P W U W W Y W T U W W W W W ! i.i.i.u.i.i.i.i.u.u.u.u.! p.! i.! p.i.u.u.p.i.p.a.i.p.T s.Y.wXxX XwXCXDXDXDXbXBXBXKXJXKXIXIXIXGXKXKXIXUXIXGXKXKXKXKXKXKXGXKXJXHXNXHXIXIXHXNXFXHXHXgXgXVXKXVXBXCXPXNXnXmXmXHXmXmXNXNXCXoX#XNX@XY.K j v j h h h h h h h d 0 h h J g Z L J 2 d h ; ; d d E `.+X9XzXmXDXCXIXPXPXKXDXUXIXKXKXPXIXDXDXPXCXLXIXUXDXPXNXVXDXmXCXHXNXVXbXCXHXbXNXnXCXPXVXSXDXDXVXHXPXmXbXW.I L J J L s.I i.K.p.L M g h h g Z F P F Z g f f C C G L E E E W Q u.a.P.i.i.u.L P P..XwXnXxXnXnXnXnXnX@XnXnXnXnXnXnXnXzXzXnXnXnXnXnXnXnXbXnXnXxXxXnXgXnXnXnXnXnXnXnXzXnXzXnXnXgXgXwXgXwXgX@XbXwXwXgXbXxXgXxXbXxXeXeXeXrXrX9X9X_._.`.`.`.~.Y.a.0.s.p.s.p.p.l i 8 9 9 u a | -.] ] @.@.| ` *.*.| o.......m I 4.h Z . @ @ C G .X|. XOX|.|.OX+XOX{.OX|.H.& E lXH.H.K.H.H.|.A D E {.T.T.|.{.A {.|.S ; . . O O O $ + 0 z x.*.x.d.` *.| @.@.",
"XXXXXXXXXXXXXXXX).[.XXXX}.XXXX[.Q.E.E.W.W.Q.W.W.!.[.!.[.!.[.[.!.Q.Q.Q.!.R.R.T.I.R.T B 5 B 5 B H g g F F P R U W W ! P.v.i.i.i.P.! p.! p.! i.! u.! W W U W W U P W W P P R U R P W U W T W W W W i.i.! i.i.J.! i.i.u.i.! u.u.W ! ! ! ! ! p.! p.i.J.Q p.J.a.p.P.).`.oXbXmXDXCXDXSXDXSXKXKXSXDXKXGXIXKXSXKXIXKXKXKXLXBXKXKXIXBXFXIXUXSXFXVXHXVXbXSXVXPXHXNXFXJXBXxXgXHXDXNXmXNXUXNXCXmXmXHX/.XXNXgXrXv.M I J M I S h h h d $ $ h h f % h F g $ # Z S I s.E I K. XxX+XMXDXCXIXKXLXPXCXIXPXKXPXPXPXDXDXHXVXPXPXHXnXNXCXVXPXCXmXmXPXmXgXHXPXnXHXDXDXmXCXCXDXVXBXHXHXmXDXnXY.R L S J R a.).#X.X`.E.Y.J.P F P P J G Z C C f C C Z G G L R R Q u.J.i.J.i.I.R L P.oXwX@XwX#XnXnXnXnXnX@XnXzXzXnXnXnXzXnXnXnX#XnX#XgXnXnXzXnXnXbXbXnXnXgXnXlXnXnXnXnXnXnXzXzXnXnXnXgXwX#X#XwXbXzXwXwXbXbXbXbXxXeXxXeXeXrXrXxXrXrXrXwXeXwX9X).`._.`.a.p.a.S l q 9 q s u +.#.' ] @.@._ @.*.*.X.} ..o.m k I 4.h J . $ X 4 4 R.}.+XOX}.}.+XoX{.|.{.J.J.V D lX|.|.zXzXOXlXH.{.zX{.lXH.K.{.D lXH.4 # . X $ . O + + 7 ` x.x.d.x.x.` @.] ` ",
"XXXXXXXXXXXX!.!.OXXXXXXXXXXX[.[.W.W.W.Q.[.Q.[.[.[.!.!.!.[.!.[.!.Q.R.T.T.R.!.T.J.I.! ^ F G H ^ C g g F P W W W P Q ! i.i.Q $Xi.u.v.H.! p.! i.! p.W W W p.! i.Q U R P T U ! Q W W R P P R U U W W W Q u.p.! p.! v.! W Q Q ! W p.! p.! ! p.p.u.p.p.p.i.a.u.u.a.I.K.|.9XbXSXDXVXBXSXBXSXKXKXKXKXKXGXLXKXKXSXKXIXKXKXFXBXDXLXIXFXSXKXHXPXFXSXLXFXVXFXKXJXKXBXGXIXSX0XNXHXHXNXnXNXUXmXgXgXbXCX].#XgXmXgX/.p.0.$XN =.N Y M F h h h d d % h b h h h g F S R u.J.J.K.`. X}.wXBXDXKXPXPXKXCXIXKXDXPXDXPXCXLXDXDXPXHXCXCXVXNXNXDXBXmXmXPXNXmXCXHXDXnXIXPXmXCXmXCXmXNXCXCXNXSXCXnX}.P ; d S J.U.Y.Y.E.`.Y.p.W P F g g L Z 2 A g C f f A A g Z L s.Q R W u.P.Y.u.P W E.oX@X#XnXnXnXzXnXnXnXnXzXnX@XzXnXzXwXzXnX#X@XnXnXnXnX#XnXnXnXnXnXnXnXnXnXnXnXnXnX@XzXnX@XnXnXnXnXgXnXnXgXzXzXzXzXgXzXgXeXxXgXzXwXwXbXwX#XwXwXgXzXgXbXwXrX9X X X`.`.K.p.4.l 8 9 n =.+.[ +.] ' | @.*.8.7.} o.o.+.m I M I j $ . O X . C J.E.|.#X.X.XXX).U.{.A H.{.H.H.lX{.{.lXlXlX[.D T.lXT.{.B {.[.J.J.K.4 ; $ . . O O O 7 7 w ) x.8.x.` *.@.@.| ",
"XXXXXXXXXXXXXXXXXXXX[.XXXXXXXX[.).W.W.W.Q.Q.[.[.!.[.[.!.[.[.!.[.T.I.T.I.I.I.H.! H.T A B A C B 5 g C G R W W W P W p.i.i.H.v.i.i.P.P.i.i.p.! ! W ! W Q W ! p.! W U R R U W Q W W W P W U E W p.! W u.u.! p.i.i.i.! ! p.W W W ! W ! $XW W W Q W u.K.p.u.i.p.K.J.P. XwXbXVXVXBXmXVXBXVXGXFXKXJXKXKXKXIXKXSXGXBXSXIXDXSXGXKXKXFXFXDXHXUXIXFXIXIXFXFXFXKXDXBXVXKXIXKXHXHXHXNXgXNXPXmXrXrXNXIXbXbX#XgXgX)./.Y.v.$XN 0.M M F l h h h h N b h b b g J J g s.a.K.p.K.U.`.`.rXmXSXDXDXKXSXBXKXKXKXIXKXKXSXDXLXLXPXPXHXDXDXMXCXVXmXCXmXLXCXmXCXDXDXMXPXLXNXHXVXCXVXDXCXSXHXCXSXmXwXP.j h Z O # f S p.Y.).E.p.p.W F F P F f f C f A A g A A C L P W R W Q J.J.P.P.J.Q P.Q.#X#XnXnXnXzXnXzXnXbXnXzXzXzXzXzXnXnXnXnX@X@XnXnXnXlXnXnXlXzXnXzXzXnXnXnXnXnX@XnXnXnXnXnX@XzXnX#XnXzXzXnXgXnXzXnXnXwXbXbXwXgXwXeXbXgX@XwXwXwX@XwXwXwXwXrXwXwXrXoX_.c.0.m k n c ' c ' | |  .X.7.*.O.k j o.M m M m J v $ . @ .   - G U.W.XXXXQ.P.u.Q H.G I.|.J.J.zX|.{.[.lXlXH.H.lXT.{.{.~ T.[.H.H.H.; # X . O . O O + 7 z z x.8.d.*.` | ` @.",
"XXXXXXXXXX!.XXXXXXXXXX[.XXXXXX[.W.W.Q.[.[.[.!.[.[.[.!.[.[.[.[.!.!.!.T.T.T.I.J.! ! ~ H F B 5 4 F g F P W W W U W W i.i.v.! Q i.W v.P.! ! i.i.p.! p.W W W p.! ! W U R P T W W W W W W W P W W Q ! W ! ! p.! ! i.p.$XW W W ! ! ! W W W W $XW p.p.W i.u.s.i.a.p.p.Y._.wXbXVXDXCXVXBXSXVXBXSXLXJXKXKXSXKXKXIXKXSXBXKXDXSXBXVXKXKXFXSXSXHXDXBXFXKXLXFXFXFXDXDXKXIXIXSXCXDXHXCXNXNXIXCXmX#XMXFXMXgXrXgXgXgX'.#X].v.$X$XF j v l h h h b h h r h h h M J J a.E.`.K.K.`.W.).wXBXBXBXCXBXbXxXmXMXmXKXCXKXKXKXLXDXHXLXDXCXCXVXHXmXCXHXmXPXHXZXDXHXHXNXDXDXDXCXHXNXCXDXVXNXDXCXSXCXmXoXK.S h h L I 6.s.s.p.p.I.I.P.i.W U J Z g C f C f A C C 4 g P P P R ! u.u.I.Y.J.P U Y.XX#X#X@X@XzXzXnXzXbXwXzXzX@XzXzXnXnX#XnXnX@XnX@XnXnXnXnXnXnX@XnXzXnXnXnXnXnXnXnXnXnXgXnXgXnX#XnX@XzXnXzXnXgXzXzXgXbXgXbXbXbXgXgXbXwXwXwXwX@XgX#XwX XoX+XwXwXwXoX X'.).~.c.v.q.v.v.O.+.| X.X.) _ _ n m 4.o.I m I K b $ . $ - . @ 4 i.!.XXoXQ.u.Q J.E E T.OXH.H.OX|.{.H.lXT.H.[.zX^ T.T.H.~ T.E ~ B @ X . . . O O + + 7 z _ x.d.x.x.@.@.@.| ",
"XXXXXXXXXXXXXXXXXXXXXXXXXXXX[.XXW.).[.Q.[.Q.[.[.!.!.!.[.!.!.[.!.T.T.P.T.T.T.P.H.~ ~ G G B 3 5 B g H W u.W P R Q W ! H.J.v.! p.i.H.i.Q i.i.i.i.p.! p.W Q ! p.p.W U T P U W W W W P W W W W ! W p.! v.W W ! v.W ! p.W p.W v.W W $XW $X! ! p.W p.W P.0.0.i.J.W J./.`.+XbXmXDXDXSXVXKXSXSXFXKXKXFXFXSXSXGXKXIXFXBXSXSXSXBXBXSXDXFXBXDXHXDXDXSXKXIXIXVXSXKXLXIXLXFXBXNXCXPXIXDXSXPXHXHXgXgXgXgXMXgXMXgXgXgXgX#X].].].p.0.p.I I I I N N N h h N v N K p.Y.|.).`. X+X9XxXmXCXVXBXmXxX`. X|. XzXSXBXDXLXPXLXCXNXDXVXNXVXCXCXmXHXHXmXPXCXNXDXHXPXDXCXVXHXCXIXmXHXDXmXnXDXBXDXDXSXnX_.s.Z $ d S Z J J J J v.Y.W.Y.P.u.T L C f C f A C A C 2 f C G L P P R Q i.i.i.u.u.P.!.XX#XXX#X#X@X@X#X@X@XzXwXgX@X@X@X#XnXnX#XnXnX@XnXnXnXnXnXnXnXnXZXnXzXnXnXgXnXnXnX@XnXnXnXzXnX#XgXzXgXzXgXzXnXnXgXwXbXgXzX@X@XgXwXzXwXwXzXwX@X#X@XwXwXwXeXxXwXwX9XoXrX#X'.].]./.F.y.q.O.X.) j p k m m 4.I I I I 4.h $ . @ # @ @ - K v.).@XXXI.P.W.H.K.K.{.H.H.{.{.{.H.lXH.I.OXOX6 H.{.T.D G A B 3 X .   . . O O O + 7 w l x.x.d.*.*.@.` @.",
"XXXXXXXXXXXXXXXXXX[.[.XXXX!.XX!.W.W.W.).[.[.!.[.[.!.!.[.[.!.!.!.I.I.H.H.I.H.Q T C G G ^ B 3 1 4 g J W Q W P Y W W p.i.i.i.$Xi.i.v.i.! p.i.v.H.! ! p.! ! p.! W R W P P R W W W P T T ! W W W W i.v.! W $X0.v.p.U W W W v.! W v.Y $XW W $Xp.W p.p.u.p.p.p.p.L i.oX).oXwXMXCXKXDXVXDXDXSXDXFXSXSXSXKXCXCXBXVXmXMXSXVXBXBXMXMXmXVXMXmXMXVXSXBXmXVXKXVXSXSXKXSXVXKXPXVXDXIXUXDXVXVXHXHXgXNXNXNXFXNXFXNXNXNXNXgXgXnXgXoX'.XX].).).)./.c.v.$XW v.v.I.!.`.lX9X9XrXxXxXZXZXMXmXmXxXwX).s.K.K._.xXKXCXCXKXPXDXbXmXDXDXmXmXHXmXmXUXVXmXUXCXCXHXCXLXFXCXNXVXCXIXBXHXHXCXVXHXVXCXKXDXBXwXL.L @ d h S J S l Z W v.W.).!.i.R R C g A f C A C C ; 3 f b F H ~ K P Y U ! P.P.H.! E.W.E.).[.[.XXXX|.oXwXnXnX@XlX@X@XnX@XnXnXnXnXnXnXlXnXnXnXnXnXnXnX@XnXnXgXnXnXgXnXnXnX@XnXnXnXnXzXzXnXzXzXgXzXzXwXzXzXgX@XwXwXwX#X@X@X#XwX@X@X@XwX@XrXoX#X+XoXoX_.#XrXoX'.'.#X].V.c.v.0.o.n l k m M M M c M v I h @ . . O . . . b K I.].oXQ.!.W.J.E.J.J.H.H.{.K.T.H.#X$XQ.Q.!.$XT.OX!.! < < X 1 .   . . . + O + + 7 0 z 8.x.d.x.` *.@.@.",
"XXXXXXXXXXXXXXXXXXXXXX[.XXXX[.XX).W.W.W.[.T.[.T.[.[.T.[.!.[.[.!.!.T.I.I.I.H.T G H B G A 4 1 2 g g F P W U W R W Q ! i.i.i.J.W i.H.p.! ! ! p.i.! p.! W p.! Q W W W R Y R U W W P U U P W U W W U $XW W U ! ! ! Y ! v.W p.W ! U ! p.! v.W W p.W p.p.s.p.p.I P P._. XrXwXbXBXSXSXVXKXGXDXDXFXBXMXNXGXBXZXcXBXSXmXBXcXcXMXxXxXxXbXbXBXZXSXKXSXMXAXBXKXBXcXBXSXDXDXKXDXKXIXLXCXCXmXHXIXHXSXHXFXFXFXHXSXFXFXFXFXNXNXNXVXNXNXNXmXmXMXbXgXgXgX#X#X#XwX#XxXxXxXxXZXBXDXKXKXDXCXDXSXVXnXzX9XE. XoXSXCXCXDXDXDXmXmXPXPXmXmXIXmXCXUXCXCXIXHXCXCXVXPXCXHXVXCXCXHXVXDXLXCXCXLXVXDXDXDXCXbX).s.s.s.I I s.S d ; v P P.!.Y.u.R R g A C C f A A C 2 2 2 4 5 4 C C F T i.P.! ! ! H.P.J.I.I.!.!.I.!.U.W..X+XOX@X@XOXOX@X@XnX@X@X@X@X@XnXnXnXnXzXnXnXnXnXwXnXnXgXnXzX#XgXgXnXnXgXnXgXzXgXgXwXzXgX@XgX#XgX@XgXgX#XwX#X#X#X#X@X#XwX#X#X XoXXX_.'.)._.oX)..X#X.X].#X].)./.c.c./.a.4.) S I M M M N j M J F r . . # . # . % 5 Y Y.).].).|.R.+XE.T.T.{.{.{.T.T.[.$XXXT.!.XXOX[.XXT.< <     . .   . . O O O + 7 w x.x.d.d.` *.@.*.@.",
"XXXXXXXXXXXXXXXXXXXX!.XXXX!.XX!.W.W.W.E.!.[.T.!.!.T.T.!.T.T.T.T.!.T.I.I.J.$XT ~ ~ A B H B 5 5 B g C F R W W W W W ! v.H.i.i.u.i.Q ! W W ! ! u.p.p.! ! p.p.! ! U U R Y P E U P P R P P P Y W W W v.! U W ! v.! P ! 0.! $Xv.W W ! W $X! ! u.W p.p.p.p.u.p.0.p.i.Y._.+XxXcXBXBXBXVXDXDXSXKXSXMXMXBXBXBXxXxXSXKXBXxXxXxXxXxXeXrXxXxXcXrXcXmXxXzXxXrXCXBXxXcXSXDXVXvXSXVXVXSXCXHXmXSXHXUXNXSXgXNXHXHXFXFXHXHXHXHXFXHXHXHXHXHXHXCXFXCXFXSXNXNXVXCXCXBXSXDXCXBXCXKXPXKXVXmXBXCXBXbXnXMXmX.X|.`.ZXDXBXKXCXDXmXMXLXDXbXmXUXCXFXHXHXIXHXPXHXFXCXHXVXHXHXCXSXNXCXVXDXDXDXHXCXDXDXDXSXmXoX`.6.g @ d h h 0 # h f J u.u.I J L g C C A A C A Z 4 4 2 1 4 2 5 5 H T ! i.! ! ! v.i.i.u.J.i.i.$Xi.Q i.I.!.!.!.!.!.[.XXOXOXOXOXXXOX@X@XnXnXzXnXnXnX@XnXgXgXgXgXnXgXnXnXgXnXgXnXgXnX@XgX@X@XgX#X@XgX#XgX@X#X#X#X#XwX#X#X#X#X#X#X#XoX#X#XoXoX#X'.oX#X}..XXX/.Q.].]././.c././.~.6.J 6.I I I M M v v M j 2 # O # . O . O $ h Y Y..X#X@XOXnXlX|.lXlXOX|.OXOX[.[.@X[.XXzXlXT.Q.$Xo 3 o   . . . . . O O + + 7 w _ x.x.8.x.*.@.@.@.",
"XXXXXXXXXXXXXXXXXXXXXXXX[.XX!.[.W.E.W.E.T.[.!.!.T.T.$XT.T.T.T.$XI.H.! ! I.H.Q ~ ~ ^ F B F 4 4 F g C F P W Q U P W p.H.v.i.! i.i.W i.W U p.p.! W i.p.! ! p.W T R U P P R U U W P P P P P P Y Y Y H.! U p.v.! ! Y W $Xp.W ! ! v.! ! ! W W u.W W u.W s.p.u.i.K.p.R E. XxXBXSXMXBXBXBXvXBXSXVXMXMXNXvXCXcXxXcXmXcXxXrXxXxXcXxXrXeXcXcXxXeXxXrXxXcXxX0XZXSXBXxXcXBXKXSXBXVXVXDXIXhXNXNXUXNXFXgXNXPXHXNXFXFXHXHXHXFXFXLXLXLXLXHXHXHXHXIXPXHXHXHXPXHXDXKXKXCXBXCXKXKXBXVXBXSXPXDXmXmXSXVXrXoX/.cXKXVXSXHXPXmXbXSXNXwXmXPXCXMXmXCXUXmXIXHXCXVXHXmXHXPXDXHXmXPXNXDXDXCXVXKXKXCXSXSXmXwX).`.s.0 d h h d d ; # 2 g F g g Z A g A g C C A Z g 5 1 # 1 2 2 4 ~ F G ~ T Q i.i.i.u.u.Q Q W W Y ~ U E Y H H $X$X$X!.!.!.!.!.!.!.[.XXOXlXlXlXlXnXgX#X#XgXgXnXnXgXnXgXnXgXnX#XnXnXzXzX@XgX@XwX@X@X#X@X#XgX#X#X#X#X#X#XXX#XXX}.].).).).).].)./.Q./.).).Y.P.c.).)././.!.c./.c.I k I s M M J M h r d O O . . . . .   . 6 % 2 p.).#X@XzXCXnXlXZXzXzXlXlXnX#XnXZXOX@X#XOX~ I.^ o % %   X . . O O O O O + 7 w x.8.d.d.x.*.@.*.*.",
"}.XX}.XXXXXXXXXXW.}.|.XX|.|.|..XE.E.R.T.I.J.J.I.T.J.J.J.J.H.H.H.v.H.! ! i.i.P F ~ C f 5 g C g 2 g F P W Q W W W U W ! p.$XH.i.i.i.! ! W $Xp.W p.U W p.U W U W U W R I R W W T U Y T U ~ K ~ Y ! v.W W W v.W $XW U ! W U W ! W ! p.Q u.u.u.u.J.J.s.S J.S K.s.E.s.`.).eXmXmXmXVXVXmXVXMXwXbXVXNXwXxXMXcXeXxXxXxXzXxXwXwXxXxX X9XwXwXzXrXrXxXxXeX XxX9XmXxXeXcXxXSXKXMXMXSXFXSXNXMXMXFXNXeXgXmXmXFXNXNXgXDXCXHXNXmXHXIXIXDXDXLXHXPXDXPXPXHXPXHXCXCXDXCXmXgXbXmXNXCXBXVXVXLXVXbXDXBXmXxX9XK.VXVXKXVXKXKX XzXZXcXlXxXxXxXzXxXKXIXCXIXKXBXBXCXBXZXKXKXKXvXKXCXBXIXvXBXDXDXCXBXKXKXvXlX XL.S $ + d h j g ; @ # f L L F L G A C A Z Z Z 2 2 4 2 ; # # % 2 g F P U i.u.p.u.i.P.J.i.! u.i.i.F 2 g F C F R G R ! Q W Q ! P.U.W.XX.XoX.X@XgXgX@XnXgXnXnXnX@XnXnXnXgXzXgXnXlX@XzX@X@X@XzX@X@X#X@XOXoXXXXXXX).XX].XX].).].).].XX]./.!.!.!./.Q.).Y.P.v.Y./.~.Y.!.]./.Y.c.s.I 4.Y M J I j + + ; + O + . . X @ $ $ . . % K p.Y.).#X+XrX@XwXwXwXwX@XgXwXoX.XoX).U.i.P h o . . . O . . . . . O O O + + 0 x.x.x.x.d.d.&.&.&.",
"}.|.}.XX|.XX XXX}. XXXXXXX}.W.E.W.U.T.K.J.J.H.T.J.J.J.H.H.J.H.J.i.i.! ! i.u.P F L v 4 h g g f 2 g F P W W W W ! U W p.i.J.v.i.! W v.$Xp.W 0.p.$XW W U $XW U $XU R W W W W W U P T Y Y Y H ~ Y ! $XW W p.$XW 0.p.U p.W ! W 0.$XW ! Q u.u.J.u.s.J.J.E J.s.K.s.K.J.E.`.9XMXMXBXBXmXmXBXmXwXbXmXMXgXcXmXmXxX9X9X9X9XeXwX9XxXeXwX9X9X9XwXrXrXxXxXxX0XxXrXMXxXxXeXwXBXBXFXGXMXVXFXSXNXMXFXSXSXDXmXgXNXmXmXNXDXNXHXSXNXNXDXHXDXDXKXDXDXDXHXFXCXDXHXDXDXCXNXmXnXmXNXmXmXmXmXmXCXmXbXSXBXMX X`.`.SXxXcXBXGXSX XzXcXxX XxXCXcXzXxXBXPXvXIXIXCXvXBXvXZXvXZXCXBXBXBXBXIXZXKXCXDXDXBXBXKXZXxXzX`.S , $ f h F . @ # ; C R E G T L F Z Z Z C Z 2 2 f 4 2 # # # % 2 g F Y U ! ! u.i.i.J.i.u.p.! ! F C P W G g C G T W Q Q Q p.Q P W i.P.J.Y.W.XXOX#XOX#X#XzXgXnXzXzXzXzXzXnX@XgX@X@X@X@X@X@X@X#X#X#X#XXXXX].XX).)././.!.!.!././.!.!.!.v.c.Y.c.!.Y.Y.P.Y.Y.Y.P.P.0.Y.Y.~./.c.9.s.4.N h j d + + + @ + @ O O . o . . . . O % v J U `./.). XoXoX X9X).oX).Y.Y.!.p.I h % @ O O O . . . . . . . O O O + + w x.d.8.x.d.8.&.&.$.",
"XX|.|.|.|.XX X|.}.XX.XoX}.W.U.J.K.J.Q H.H.H.E Q H.E H.Q Q H.J.Q i.u.p.! i.i.U P P J g 2 g g g f g F P R W W U T ! W ! i.i.i.i.v.W ! 0.! W $XW ! W 0.! W $XW U U W I R R W s.U R P P ~ ~ ~ ~ Y Y $XW W ! ! i.U $Xv.Y $X0.W v.v.! Q Q Q u.J.Q E J.J.s.J.s.J.s.J.s.Y._.9XnXnXmXmXMXmXmXMXbXwXwXgXbXxXxXxXxX9X9X9XzXrX9X9XrXxXxXrX X9X X9X9XzX9XrXxXxX9XwXxXxXrX9XbXSXJXVX0XeXNXSXFXrXgXbXSXHXNXgXNXNXgXgXNXmXFXDXCXnXVXDXPXPXDXDXDXPXHXNXNXCXHXDXDXVXmXnXmXNXNXNXmXMXBXBXBXMXmXDXCXxX`.K.L.BXxXxXcXCXIXvXBXCXBXxXCXPXZXlXcXBXKXZXKXKXBXcXZXZXZXZXvXBXKXcXZXBXIXBXBXBXDXSXBXCXCXBXvXzX`.E d $ d f g L T Z ; ; P J.Q R T L G g C C Z 4 g f f 2 ; 2 - @ # 2 g F P W W U Q W p.i.i.p.W u.~ L u.P.Q P P I U W p.P.P.! p.J.i.J.P.I.!.W.[.[.).XXXXXX#X@XbX@XwX@XzX@XzX@X#X@X@X#X@X#XOX#X#XXXXXXXXX}.).).)./.!.Q.Y.!.c.!.Y.I.c.v.!.P.Y.Y.Y.Y.Y.P.Y.Y.Y.c.p.0.Y.c.Y.).Y.r.0.p.M r r 0 + + $ + + O O . . . .   . 6 O O $ # # J T s.i.K.Y.E.Y.! P.Q H U U g % . . . . # # . . . .   . O . O . + + 0 x.d.8.z.z.w.&.$.*.",
"XX).XX|._.|.}.|.).).|.|.).W.T.J.J.E G ~ ! E E E H.H.H.J.J.H.J.J.i.i.! p.i.! W P P H g g g g g g g C ~ U U I R W W ! i.i.i.i.i.! $X! v.W ! ! v.! W $XW p.0.U ! 0.W R W W W W U P H K H ~ H Y Y ! v.U Y ! v.U U p.W ! W W ! Y W ! Q Q u.u.H.s.J.J.s.u.J.E K.E s.s. XoX+XwXmXBXmXbXmXmXMXbXbXrXrXgXrXxXrXxXwX9XxXxX9X9X9X X0XxXeX XxX9X XzX9X X,XxXrX X X0XxXxX9XMXbXMXNXVXSXMXMXeXSXNXMXNXHXNXnXgXNXmXgXgXmXSXHXNXmXBXDXPXPXDXDXDXHXPXHXCXDXCXNXVXDXNXmXbXmXVXCXCXmXVXVXBXBXVXCXcXoX_.K.S xXxXBXcXSXIXBXBXBXBXxXZXPXcX XBXKXKXvXKXKXvXxXZXZXvXBXKXKXIXZXvXBXKXBXZXvXCXDXBXCXCXCXBXcXzX`.S g r % % ; C f X @ T J.P.E R T L C A g C 4 g g g 5 2 2 2 . # # h v K Y U K F G Y ! i.i.! v.! W Q J.v.P.Q.Q.W.).|..XoXXX}.).).!.I.!.U.Y.I.W.Q.).XXOXXX#X@X#X#X@X#X@X#XOX#XOXXX#XOX#XXXXXXXXX[.Q.Q.).).E.Y.Q.!./.Y./.!.!.!.I.!.c.!./.Y.!.E.Y.Y.Y.Y.Q./.Y.P.P.c.p.c./.~.p.a.0.I h h d + + + + + O O O . . . . . O # @ . @ $ O $ # h C l S S 2 F h # d 2 X . # . . . # . X .   . . . . . . + + + 0 x.L.8.L.z.d.&.*.*.",
"|.XX}.|.|.}.}.}.}.}.).W.W.E.U.J.J.H.T T Q Q ! Q J.H.i.H.J.H.J.Q i.! u.Q Q ! ! P P P F g g g g g f F F P P P R U R W Q p.u.p.! p.p.W 0.! W W W v.W W U p.W U U U W W I W W W P P F F H F H Y Y ! ! U Y ! ! Y W W ! v.Y ! W $X0.p.u.Q Q Q u.E u.s.s.s.K.E K.E E s.oX9XwXrXVXBXNXbXbXbXbXbXbXrXoXwXxXeXxXxXrX9XxXcXwX9XrX9X9XxXxX0XxX9X9XxXrX X,XzXeXeX X9XbXxXwXmXeX0XmXSXgXbXSXNXHXVXbXgXNXNXMXgXNXnXNXmXgXgXCXNXmXnXNXFXDXDXDXCXCXHXPXCXNXZXmXmXDXCXmXMXnXmXCXHXBXCXBXxXBXCXcXzX`. XK.l oXMXcXzXBXKXcXZXxXZXxXzXCXzXlXBXKXKXBXKXKXZXlXxXZXKXZXBXCXIXlXvXBXKXBXvXZXCXCXBXCXCXBXCXVXnXoXY.U v % O . C T L L R R C T T T G Z C C C C C f f g C 4 4 o # # 2 g F P R P L P U u.i.p.W p.! Q Q ! v.Q.XXXX.X#X#X#XoX#XwX@X.X}.).).W.I.v.!.!./.XXXX].XX#X#X#X#XOXoX#XXXoXXXXX#XXXXXXXXXXXW.).Q.E.E.E.Y.E.E.!.Y.R.Y.E.E.Y.!.!.R.R.R.Y.Y.Y.Y.Y.Y.Y.~.Q./.!.v.v.W p.~.Y.a.a.M J m M d 7 + 0 + + + O O . @ .   . o . .   . # . . O . @ @ @ @ . # X . # & . . - # . . X . . . . . . . . . . O $ + z s.L.z.z.L.f.8.*.` ",
"|.).|.).}.}.}.}.OX|.W.E.U.I.J.Q H.~ G E Q E E Q Q Q Q Q Q E Q Q T W W W W W I P P P G F F g g g f b F P P P P W I ! Q ! Q W Q U U W $XW v.U W W W W U U W Y U W I T R I R I P F F F B b H Y Y ! ! ! Y p.v.! W ! U U W U W ! ! W E Q J.Q u.J.H.s.Q u.s.E `.E s.s.`.xXmXwXMXxXMXBXgXwXrXwXbXwXrXwXwXeXeXeXeXrXxXrXrXzXzX9X9XrXxXxX9X9X9XxX0X X`.9XwXxX). XcXrXrXxXeXeXSXNX9XgXFXSXNXNXbXgXgXCXSXMXgXnXNXNXgX#XbXNXmXMXmXmXCXDXDXVXNXHXDXNXmXnXmXCXVXVXVXBXmXmXNXCXSXBXmXxXxXBXzX X`._.K.K.eXxX0X`.vXCXlXcXcXZXxXxXZXxXzXCXBXZXBXKXKXZXlXcXCXKXvXCXKXKXZXZXCXKXBXZXBXCXBXBXCXCXBXBXVXZXgX#XY.p.v # C G L L T T G f P L Z G S Z C C B f B C C C g f # # # 2 2 g F P W W U Q i.u.Q W Y ! P.v.u.i.P.Q.Q.).XXXX}.XXoX@X@X#X#X#X+X#XXX).Q.Y.Y.}.XXXX).XXXXXXXXXXoXoXXXXXXXXX!.XXXXXXXXXX).W.).).W.).E.Y.R.E.E.Y.Y.U.U.E.P.Y.U.E.R.Y.Y.U.K.c.P.i.P.Y.Y./.v.I.p.p.Y.a.m M r M I m h e z e 0 d O O O O # . O # 6 .     . O @ @ @ . . O O @   # .   , # . o X . . X . X X . . . . . . O O . 0 + z x.K.L.z.L.l.f.*.| ",
"XX).}.}.}.[.}.)..X}.E.U.J.J.E G E G D ~ ~ T T Q E W ! E W E E W T U I P P P P R P P P F F g g g f C F F L P P P P W U W W W W U W W U W Y W W U U U U U U U Y Y R I P P P P F F F g 5 F H Y ~ Y ! U U U ! Y U U U ! W v.v.! W ! u.u.u.Q E E u.u.u.J.u.S `.S E `.E.BXSXmXbXbXwXmXxXwXrXwXeXbXeXwXrXzXxXrXzXxXxXrXxX0XxXxXwXrXxXnX9X9XzX9XrX9X X9X9XMX X_.xX9X,XoX_.eXNXSXSXNXgXeXHXHXHXNXMXVXHXNXNXgXNXFXNXgXgXmXmXmXmXmXVXDXCXBXCXHXDXCXmXmXmXCXVXVXCXCXCXCXCXNXKXCXmXzXxXMX`. X`.`.`. XxXrX`. XcXxX`.cXxXxXzXzXCXCXzXCXZXcXBXKXKXZXZXZXKXBXZXKXKXZXxXZXKXBXZXvXCXCXBXBXCXSXBXBXCXVXmXnXwXXXY.W g @   . ; A L R G Z C C G G C f C B 4 f C C g 4 ; - - # 2 h g F P P W W U U W U Y W W ! ! ! i.i.R.).).XXXX.XoX@X).).XXXX.X.XXXXX).!.I.W.}.).).XXXX].XXXXXXXXXX).XXXX!.[.XXXXXX!.W.W.E.W.Q.E.E.E.R.U.E.U.R.E.E.T.!.U.U.U.U.U.E.U.c.K.P.a.i.Y.U.Y.Y.!.v.v.c.p.M M j M J M o.6.6.6.I z $ O O O . . % 6 . . . . O . @ @ O @ @ @ @ @ . @ X . # @ . - . . X X X . . . . . . . . . O O @ + z x.L.fXL.fXl.f.*._ ",
"}.|.|.}.).}.}.}.|.W.R.U.I.Q G C ~ L T E E T E J.E E E E Q Q Q ! P T U P P P P P L P P P F g g f f g F J P P P W P P U W W W P P W U U U Y Y W U Y Y U U K Y U K T P L J P G F v g 5 5 F H Y ! ! i.U Y p.v.W U p.W W Y ! W W W ! u.Q Q s.u.u.s.E E K.E E K.s.S  XrXSXBXmXBXVX+XrXmXMXbXrXwXbXeXeXxXcXxXrX0XxXxX9XxXxXeXxXxXwXeXxXxXxXxXxXzXrXrXzX9XBX9X9XxXrX9X XMXeX_.qXHXSXrXmXmXSXFXMX#XgXVXHXNX#XnXNXPXNXmXgXnXCXNXMXVXDXVXmXZXCXCXNXmXmXmXNXBXVXVXVXDXDXCXCXDXBXBX9XzXzXK. XL.|._. XrXwX XxXZXcX XZXZXxXxXxXCXcXzXCXBXZXKXCXZXBXZXvXKXZXvXZXKXlXcXZXKXZXBXZXBXBXZXBXBXBXBXBXCXVXCXCXmXgXoXQ.).u.C Z G C f 4 Z f ; f G L Z 4 A f 4 C A C 4 2 2 - # # - 2 g g 2 b K P Y K U W p.W K P p.I.v.i.Q ! v.Y.Q.W.Q.R.XX}.oXoX#X+X#XwXwX).U.Q.XX).).XX!.Q.Q.!.).W.W.Q.[.[.XXXX!.XX!.[.Q.Y.Y.Y.E.E.U.Y.E.E.E.U.E.U.E.E.U.R.U.R.R.E.E.E.P.P.Y.Y.P.P.v.c.p.v.0.U a.Y.a.~.p.0.4.I 6.a.K.a.r.S 0 O O O . . .     . O # . . . . . O @ @ @ $ @ ; X . , @ . @ @ X @ . X . .   . O . O O O O O + + z s.L.`.fXL.z.j.*.` ",
").}.W.).}.}.XXoX.X}.E.U.J.Q Q E R T L G G G G G Y T T P T P G G P F P P L P P P P J F F F P G J F F F F F P P P U U T W W W ! Y W U U Y U U U Y Y U U U U W U Y P J L J P F g g g f 2 H H H K ! v.Y U U p.! W Y U W U ! W $X! v.E Q E J.u.H.E J.s.J.s.s.K.S E 9XnXCXBXrXVXSX9XbXwXwXbXbXbXbXxXxXeXxXmXxXcXxXMXMXxXMXMXcXxXbXcXcXmXmXMXxXxXbXcXxXeX9XxXMXbXcXeXrXMXMXpX9XSXNXMXgXNXHXNXNX#XgXCXNXNX#XmXNXHXNXgXnXVXNXnXmXbXVXVXmXBXBXBXCXDXCXBXBXVXVXSXDXKXDXCXCXZXKXBXzXzXzX XK.K.zXzX X9XzX X,X X XK. XxXzX XzXZXlXZXKXZXZXCXCXKXZXZXZXKXZXxXZXCXZXxXBXKXZXZXZXBXBXCXBXZXmXZXZXCXBXNXCXZXNXZXmX@X[.$XH 4 2 2 2 f > ; 4 Z A Z g C f 4 C C Z C C f - # # # # % f F v v F K Y K K Y P U Y I Y U U W J.P.P.J.P.U.E.).}.XXoX.XoX#X#X@XoXoXXXQ.}.XXY.).!.Y.W.Q.Q./.Q.XXQ.!.XX}.Q.).Q.W.Q.E.R.Y.E.E.E.R.T.K.T.E.K.E.T.T.T.K.T.K.T.T.U.U.P.P.Y.Y.K.c.i.P.i.a.v.P.a.V.`.a.c.a.6.r.~.~.s.s.l 8 O + O .   . . . . . O . . O O O O O @ @ $ @ @ @ O X @ O @ . . O X O O . O O O O O O O O + 8 z l 7.~.^.L.^.S.l.d.8.",
").}.}.|.|.}.}.}.}.E.I.J.Q T G L T P G G P P G G ~ T T P G G G G C g g F F F J H ~ F Z F F F F F b F F F F F L P T U ! W W W T U U U U U 0.U U Y U U Y U U U U K L L J P L F b f b 5 5 g H H Y ! ! ! U U W v.W Y W U v.Y U p.! v.u.Q u.u.u.J.s.s.E u.S E u.D H.rXmXSXMX XmXKXbXeXeXeXbXmXMXxXgXbXBXMXbXxXBXmXBXmXZXcXnXBXBXBXMXBXFXBXcXcXMXVXBXMXZXcXbXcXxXxXbXzXbXNXNXeXNXVXFXFXgXHXHXHXgX#XFXHXHXgXNXNXFXNXNXNXmXVXCXHXmXNXmXVXSXCXSXDXDXVXBXBXBXCXCXSXCXCXDXCXDXKXCXxX X X`.`.K.L.L.K.L.{.L.`.`.L.K.`. XK.s.{.zXlXlXzXlXlXZXZXcXlXlXlXBXlX XcXxXxXZXCXKXBXZXZXcXZXZXBXmXmXBXCXZXmXZXmXNXZXCXNXZXnX@XQ.J.R Z 4 g C C f C G L G f g C g C C C g 2 - # # # @ 6 h v g v N K I Y K Y P U Y U U U U P ! i.i.i.J.P.!.).).XX.XXXXX.XXXXXW.).Q.!.).XX).Q.U.Y.W.).).Q.Q.Q.[.Q.Q.).}.[.Q.).E.).E.E.Y.Y.E.R.E.E.E.E.T.K.T.K.K.T.K.T.T.K.K.Y.Y.P.P.c.Y.P.v.v.p.p.v.c.p.c.~.a.c.Y.a.a.~.~.a.s.k + + O O O . . . . . O O O . O + @ @ + @ + @ + @ + @ O O + @ O O O O O O O O + + $ $ O O + + + 8 i 6.L.z.z.;Xz.l.w.*.",
"}.}.}. X.X|.}.W.W.U.! E T G C G G G G F G P P G G G L G G F F C Z v g F F F F F J F F g F F F g g F Z F F F L P P P T W W W R I W ! U U W W U U U U Y U U U K K L J J J F F g f F 2 % 5 ^ H Y ! ! ! Y U W p.U Y W ! U W W ! W i.s.Q H.u.u.J.J.E s.s.E S s.D J.9XnXVXxXrXxXmXmXxXbXeXbXbXMXMXMXmXVXmXMXcXSXMXBXSXVXvXcXVXFXFXSXSXDXVXBXBXSXFXSXBXBXBXSXMXbXMXMXeXNXNXFXMXMXSXHXFXmXCXHXIXgXgXHXHXFX#XNXHXPXDXCXNXbXNXVXLXBXVXmXDXCXCXVXVXCXBXmXmXCXBXVXBXBXBXBXBXBXBXBXxX`.`.9X9X`.L.E E K.K.K.K.K.K.s.K.K.J.E E {.{.{.{.E K.OXlX{.{.{.{. X{.{.{.{.{. XzXlX XlX XzXzXzXxXxXZXBXCXBXBXZXmXZXNXCXCXKXCXZXnX#XE.T f f G L f f Z G C 4 g C F g g g g 2 % % % # # % 2 2 h h b K Y Y K K K U K Y Y Y I F P W W ! Q i.I.!.Y.Q.).}.XXXX).].W.).).Q.XXoX).!.U.Y.W.W.Q.).).XXQ.[.[.[.}.[.).E.Q.Y.Y.E.E.).E.E.U.E.E.T.K.E.T.E.T.T.T.T.K.U.R.Y.P.P.Y.Y.P.P.i.P.p.p.p.i.a.c.Y.4.v.c.a.a.a.L.a.5.l 0 + + O O . . O . O O + O O + O @ + + + , + + @ + , @ + O + O O O + O O O O + + + + + + + 7 + 9 i 7.l.^.L.;XB.j.d.*.",
"}.}.}.|.|.|.).R.E.J.Q T G A A ~ G F F F G G P G F F F F F F F C F F F F g g f g F F g g g g g b g g g F F G K F P R W W W W W Y p.Y U U U ! U U U K K I P U K K L J F J F F g f g 5 1 x H H Y ! p.W Y U W U U U 0.$XW W W v.$Xp.Q Q Q s.J.E u.H.J.J.s.E E E K. XmXmXbXBXbX XmXBXmXbXwXeXNXVXVXMXMXmXSXSXDXMXVXLXDXBXBXFXKXFXFXDXmXSXDXDXSXSXSXDXBXVXSXMXBXSXVXwXSXGXFXMXbXSXIXAXFXNXHXIXnXNXHXPXHX#XNXFXFXNXHXHXmXNXbXVXCXHXVXCXVXBXZXxXBXBXZXBXBXBXmXnXxXxXxXzXzXzXxXxX X XlXzXK.K.x.E x.D D x.D x.D x.K.K.J.E D D H.H.D D K.H.H.K.H.D E D E E D K.K.K.K.H.K.{.K.{.|. X+XzXxXnXBXZXmXZXZXZXCXZXDXHXCXCXnX.XJ.Z C L P C 4 g A f 4 g C g C f f g h # % % # . @ % % % h b K K I Y U Y K U I K U Y F P E W W W u.i.W Q i.P.R./.W.).XXXXXX).).).OX).R.Y.Y.Y.Q.).R.).Q.XXQ.[.}.).).W.!.E.Q.E.Y.Y.E.Y.R.E.U.R.E.T.E.U.E.K.K.T.T.E.U.U.K.Y.Y.a.P.Y.P.c.v.v.p.v.a.p.r.p.r.p.r.5.s.r.r.0.s._ d + O O O O O O O . + O + O + + + $ + + 7 + 0 + 7 7 + + + + + O + + + + + + + + 7 7 7 + 7 7 8 t _ 8.^.^.z.;XS.l.d.&.",
").}.).W.}..X|.Q.I.Q T G A C C G G C F F G ~ P P C F C F Z F C C g g g f f g g f F C g f g f f 2 f 5 g F F F H J P P I W W W W W U U U U 0.! W U U P P K K P K F F J Z Z F v f 2 5 2 1 b ~ Y ~ Y $XU U W W W U U W $X0.! p.W p.! Q Q u.J.E J.s.s.E E S E S s.K. XxXmXmXDXmX#XmXBXmXVXmXxXMXSXDXBXBXBXDXSXKXBXBXKXDXSXBXDXKXDXSXKXBXFXKXSXBXmXSXKXSXVXMXxXxXSXCXxXMXMXFXMXMXNXUXNXNXNXDXPXnXNXNXHXFX#XNXFXNXNXNXDXVXVXgXmXDXPXVXDXBXBXcXZXBXBXBXmXbXbXwX+X X`.`.L.`.{. X X`.{.`.{.s.D s.K.E x.D D S S I S D s.E S D D H.H.E H.H.D D E H.D D D E E E H.E E D D E E E H.J.K.K.{.|.|.@XlXlXlXnXNXZXCXCXCXCXCXBXbX}.I.g G T G Z C Z f 2 g g b f f g h 2 % % % $ 6 O % % % % r v K Y U K U M Y Y U U Y R R R ! U E W Q Y P R W J.Y.Q.).).).).Q.Y.Q.XX!.Q.Y.U.Q.W./.!.Q.).XX!.XX[.).[.W.Q.E.E.R.R.Y.E.E.R.U.E.U.U.R.U.U.T.U.U.U.U.I.U.U.U.Y.c.K.Y.P.c.i.U.v.p.p.p.a.s.0.v.r.4.M 4.6.7.6.0.4.e 8 O O O O + + + + + + + + + 7 7 0 0 7 0 0 0 8 0 0 0 7 7 + 7 + 7 7 7 7 7 7 7 7 9 9 0 9 9 9 p ) 7.y.S.z.z.^.%XB.j.f.",
"}.}.}.W.}..XXXE.H.T Z A C C f C F F C C G P J G F C F Z F C F C g F g F F F H J F g f 2 2 2 2 2 2 h g g F L G F L P U W W W W U W U U W U $X! U U Y K K K K K F F F Z F F b f % 2 # 1 F ~ Y Y H U W U U U U U U W W W W W W U W E u.u.Q J.u.u.Q s.E s.s.J.K. X XrXxXxXmXmXVXVXbXmXDXDXmXMXVXDXSXGXSXSXSXIXFXVXGXSXSXSXSXSXSXSXSXVXSXFXFXSXVXBXcXBXBXMXcXxXAXmXrXrXgXFXMXgXgXHXgXgXgXFXIXNXNXgXDXNXgXHXHXCXgXgXnXmXVXnXmXBXDXnXZXBXSXCXCXVXVXnXwX X`.`.K.J.E E E s.s.E s.K.K.K.L.D x.s.`.`.{. XL.S 6.K.s.d D Q H.D H.H.E H.H.K.E E D K.D H.E K.E E E D D E E E D D D D E E H.J.Q H.$X!.Q.#X@XnXnXnXnXBXCXCXZXbX@XS C C Z G C f g b f h f g b h 5 h 2 % h % O 6 % $ % % x v N N J N N Y Y I N Y K W W W T ! W W R Q W W W Q i.Y.R.!.R.Q.E.P.Q.).).Q.U.!.E.Q.!.!.!.!.Q.!.!.).W.Q.!.E.E.Y.R.Y.E.Y.E.R.Y.U.U.U.U.U.U.K.I.I.U.U.I.U.K.Y.P.P.Y.c.Y.P.a.I.v.p.v.c.p.0.0.c.a.4.o.6.8.5.6.r.4.l d 8 $ 8 $ 7 0 7 7 + 7 + 7 7 0 0 z z z z z w z w i w 9 9 7 w 0 9 9 9 0 9 0 q w w w p p / ) ) *.8.j.z.z.z.%X^.B.j.w.",
"W.}.}.W.|.oX).P.E G A C C 4 4 C F C C v F J F F g F Z F F F v F F F F F K F G H F g f 2 2 ; % ; ; 2 g b F F F F P P Y W W W W U p.U U W p.W p.W U K K v K F F N Z Z j Z Z g f 2 2 # # g Y Y Y Y U W U U U U Y U $X0.v.W W U W p.Q Q Q J.J.E u.u.s.E s.E E K. X9XoXwXbXxXmXDXVXMXNXSXDXDXBXMXVXDXKXVXVXBXLXKXSXBXVXSXDXBXBXVXSXSXSXBXBXSXDXDXmXrXxXMXVXMXxXMXbXeXrXeXSXbXgX#XmXgX#XgXNXHXNXNX#XNXHXNXNX#XnXgXgXNXmXSXxXwXxXVXxXZXZXCXCXxXxXwX XK.J.s.E S S S A D D E D D K.{.{. XK.K.{.zXxXcXcX Xs.S s.s.f C E E H.H.D E H.H.H.K.E D K.D H.E K.E H.s.s.H.K.K.K.K.E E E E E G L A ~ ~ $X$X$X!.!.#X.X@X@XbXZXmXmXnXU.L f L L f 2 f F h % % h v b 2 2 % % x % O 6 $ % % % r h N v N U M N U Y N I Y ! W W W W Q Q W T W ! i.! W J.U.P.P.!.U.P.R.].W.R.Y.Y.E.Q.!.!.Q.Q.Q.!.Q.Q.Q.Q.!.!.R.R.Y.R.Y.E.Y.R.Y.!.U.R.U.U.Y.U.P.U.U.Y.P.U.U.Y.K.P.Y.Y.Y.Y.p.U.v.p.a.c.c.a.r.v.a.r.r.a.y.s.7.r.x.l l j h M h j j j z e 0 0 w z z l l z l l z z p p z l w w w l ) k z p ) p ) p ) _ _ _ O.%.8.7.w.f.j.S.k.d.;XZ.z.f.f.",
"}.|.XX[.XX+XW.Q ~ F C C C 4 5 C F F g F F F F F C F F F F F F F F F F g g f h 2 g b 2 % 2 2 # # % 2 f Z F F F F H P Y W W W U U U $XU U W W W U U U K F v K F F F F C Z v g 2 1 g % o 5 H Y Y Y U U W U U Y U U W ! Y U U ! W R Q s.u.E u.u.u.s.J.E s.S D J.`.|.xXeXmXmXVXDXmXCXVXbXmXDXFXBXMXSXBXBXVXcXDXDXFXDXBXSXSXBXvXBXSXVXKXCXcXcXcXBXBXmXcXmXVXmXrXeXBXNXgXgXNXgXgXgXmX#XgXgXNXNXHXHXgXHXFXnXNX#XNXnXgX#XVXDXrX XeXVXcXxXxXcXxXzXE.E.K.E D d D S E S S S D L.s.D  XxX XxX`.L.`.xXZXDXCX XK.0 d S Z D L : D D D H.K.H.D H.E D E E H.D K.E E E E s.H.D D E H.K.H.H.Q E G A ! R ~ ^ ^ x $X$XU.Y.Q.XX@XnXnXnXzXU.L u.u.C ; F K g $ 6 g v b 2 5 % r r % 6 O 6 % % % r g M N N K Y M I Y I Y K W R W W Q Q W Q g P Q i.W W i.I.i.p.P.P.s.P.Q.!.Y.P.P.!.Q./.Q.).!.!.!.!.Q.R.R.Y.E.Y.E.Y.U.E.Y.E.Y.R.Y.Y.U.Y.U.Y.U.U.U.I.I.Y.U.P.Y.c.P.P.v.Y.P.v.v.p.0.a.Y.Y.c.a.0.0.y.c.a.r.r.r.7.6.o.j M M M M J k ) k j i j z p z ) x.x._ x._ k ) ) _ ) p w w _ _ _ _ _ _ _ _ _ _ *.*.8.w.w.h.f.l.k.z.S.z.z.;XZ.S.j.f.",
"[.XXOX[.[.[.T.T.^ ^ ^ ^ = 5 ~ H C F F H P G Z g P F C g C C F G g Z K H F f f 2 2 2 # # # 2 g b ; g F J F Z b Z F F F P P U I P U U U W p.W W U U Y K N K F v v F g h b g g 5 2 2 2 2 g H P W W W U T ! U W U W ! W W W ! W W W W W u.W u.u.p.s.W E E s.x.E K.+XwXMXmXSXVXVXLXBXmXVXmXVXDXVXmXVXVXFXGXBXVXLXLXSXSXvXCXKXSXBXBXSXBXIXBX9XBXKXVXmXcXxXSXKX XrXmXMXMXxXcXMXeXeXxXxXeXrXmXVXFXVXgXDXDXbXeXMXmXNXMXoXbXmXbX9XoXbXbXwXxX+X{.K.K.u.E S x.s.D D S K.D D `.K.`. X XzXcXcX|.K.`.zXzXwX XK.s.A ; d A d ; d > S E E J.K.H.H.K.E D E Q D S J.K.K.E D K.H.E K.E S E R R u.R T K.W G C S E E G W W s.i.Q.oXnXbXxXnX@XY.s.I L F 4 F g f Z g ; h f v b h % 2 % % % $ % % g v v f v K I K P I U U P P T T T E U T P W Q W P Y U Q U P P I u.v.I.U.i.P.P.Y.E./.W.Q.Q.!.!.!./.!.Q.Y.!.Y.E.Q./.Q.W.).Y.R.Y.Y.U.I.K.U.I.U.T.U.U.I.U.I.Y.c.P.P.Y.v.P.v.$Xv.p.p.a.V.a.r.a.a.a.c.c.a.y.9.t.5.k s k m o.k m n k ......) ) 5.6.6.8.7.x.7.5.6.8.5.6.x.8.s.8.8.8.8.8.8.8.l.d.d.8.&.f.f.l.j.f.z.n.B.S.S.z.S.;XD.S.S.S.",
"[.[.XX[.[.!.T.$X^ < ^ ~ < 5 H x P G C C F G F C Z C g C F F F F g C H F g 2 2 2 % # # 2 ; 2 2 f g g J ~ P F F L F F P P W Q ! U U P P U W W W U W Y K J F K K v g g 2 g g g h # # # h g G P W W U U W W W W T W W Q W ! p.W p.! W Q W p.p.u.u.u.u.R J E E E K. X XxXMXCXVXBXDXVXNXVXmXNXDXFXmXNXSXKXKXBXBXKXKXFXSXBXBXBXSXMXvXBXVXKXKXcX9XcXSXSXVX9XxXSXxX0XxXMXSXeX,XwXMXBXMXoXeXrXxXbXDXSX#XmXMXNXrXeXVXmXwXwXeXbXnXwX@XwXxXoX}.W.J.J.s.E E S D E D E D s.K.zXxXxXxXzX9XzXzXzXK.E K.`.K.{.{.J.A d d g d @ @ > > E D E K.K.{.{.{.K.E D E S D H.K.K.E E H.K.E H.J.E E s.u.u.u.W Q R L P E s.u.R u.R L Z J p.Y.W.rXxXwXoX`.Y.a.s.f f # ; Z g 2 g b f 2 h r % 6 $ $ % $ % h g v v K K P Y U U K P U E T T ! W W ! R W W W R Y U W W U L P W i.J.I.P.P.P.P.Y.Q.).).Q.!.!.!.!.!.!.Y.Y.!.Y.Y.Y.Q.Y.Q.E.Y.U.R.U.U.U.U.U.U.K.I.U.U.U.U.P.P.c.P.Y.P.P.v.i.v.p.r.a.c.a.a.0.s.0.r.r.a.q.5.y.7.o.} O.O.......) ) .._ ..X.) _ O.7.8.7.8.8.7.8.y.8.l.l.l.l.l.l.l.l.l.l.z.L.l.z.j.j.k.M.S.M.z.S.S.S.S.Z.S.S.&X;X&XS.S.",
"[.[.XXXX[.[.T.~ ^ ^ ^ ^ x B H 5 Y G Z F P G C 5 2 5 g Z G F F C f g g h f 2 h 2 2 2 f 4 f f 2 % f f g g g g g F g g F R W ! W P U U U U W v.Y Y Y K F F K v v g g f 2 f g f 2 # # 2 4 g F P W ! Y W R W T W R W W W W p.W W W W W I W W W u.u.p.i.E S s.s.J.K. X`.rXnXSXVXmXDXSXSXSXBXmXDXDXVXMXSXKXKXSXAXBXSXFXVXBXBXMXBXMXMXMXSXmXDXKXcXBXDXBXSXrXxXBXVXxXxXxXMXxXxXxXbXmXbXoXrXrX+XrXVXVXoXwXwXDXrXrXSXbXrXbXwXbXbXxXoX X).E.p.s.T L E E E S D K.D D > V D K.xXBXcXzX`.K.K.x.D , d d ; A D , X @ d A d , , A d E D E J.{.{.{.{.K.E D D G D E T.{.J.E H.{.K.E J.E H.E E E u.s.T R E u.J.J.J.H.J.i.W L F T p.U.).+XwXzXwXxX X`.Q Z @ ; g 4 2 F h $ # 5 b % $ h % $ # $ $ % v I K I U U P K P P Q ! E T E T R R ! R T U W U U U u.W J F L I u.i.P.Y.K.Y.Y.Y.Q./.!.!.!.!.Y.Y.!.!.!.!.Q.Y.!.`.Y.R.E.R.R.U.U.U.U.U.U.U.U.U.U.U.U.K.P.c.c.P.c.v.v.v.0.p.v.0.a.l.a.8.6.I o.4.5.5.5.5.5.O.X.o.O.5.X.) ..) ..X._ 6._ _ 7.7.8.8.8.8.8.d.7.w.a.l.l.V.z.l.^.z.L.z.L.S.^.^.S.S.z.S.S.%XD.Z.S.M.C.S.S.Z.S.;X;X&XS.z.",
"XXOXXXXXlX[.$X^ ^ < ^ ^ ^ 5 F H G L T T P F f 2 4 2 f C F F F C f 5 f f g f g b F v F F b f 2 2 2 2 g v g F Z F F F F P I W U P U U Y U W W Y Y P K J v v F v b g f 2 2 2 4 2 # # 1 h g F P W W W R W U U U W U W u.W W ! W W Q p.U W W W u.s.u.s.E S I H.K.K.`.`.+XMXCXCXmXBXSXDXDXVXBXFXFXVXmXSXFXFXSXBXmXBXVXBXBXBXvXMXBXVXBXSXcXVXLXVXBXSXcXmXMXBXcXVXMXcX XwXMXBXMX9X#XbXMXoXoXrXwXbXbXwXrXeXDXrX'.bXrXeXmXwXxXxXoX).K.a.R L L S L E s.E S D x.D D D K.s.`.ZXCXxX XK.x.D D D D d > @ > f @ . $ f A > @ ; f > D D D K.{.K.{.`.K.s.D > D E S J.{.K.H.H.{.K.H.H.H.E E u.Q E E E E u.u.J.E E H.L P L L L L I L s.Y.oXwXbXbXxX+X XJ.F C 2 O ; g f . . h v % % h $ ; % % # % g J K K K I I U P P R E E T P P K ~ T P P T U Q W U Q I L L P R I W p.i.i.Y.Y.R.).Q.!.Y.!.!.!.!.!.Y.Y./.Y.Y.E.R./.E.Y.U.U.U.U.U.U.T.U.I.U.U.U.U.I.U.U.c.P.P.P.Y.P.$Xp.v.p.0.a.a.a.6.l l l j ....5.O.| | }  .5.O.O.X.X.O.7.5.*.5.7.7.7.8.8.f.l.l.8.l.8.r.h.l.l.l.l.l.V.S.L.^.~.S.z.A.B.S.B.S.S.S.S.S.C.z.S.S.S.z.M.%XS.S.z.z.",
"XXXX[.[.[.[.$X~ F 5 5 5 ^ ^ ^ ~ G ~ P P F f g C Z g g C Z F Z g f 2 2 f g F K P P P L P F G F K g v P I ! W P P W P P P R U W ! U U P U W U U P P K F v v v b g g 2 2 2 f 2 % # # # 2 g F P W W R W W W U W W W p.W W W p.! W W ! U W s.W Q u.s.E I I E S s.K.{.`.wXMXBXSXCXmXVXDXDXDXVXVXSXSXNXVXVXBXSXVXBXmXMXBXMXMXMXBXBXSXSXBXMXBXSXBXcXbXSXMXVXNX9XMXBXmX_.MXxXeX9X).9XmXVXgX].#XwX_.wXmX#XwXMXrXrX9XoXbXMXeXoX).Y.i.s.L L E L L I E E E S s.E d s.K.K.s.`.zXxX XE D s.D S S s.S d d A A f f d 2 f , X @ @ , D D L K.{.K.{.{.K.U.Q , f L S E {.{.K.K.{.H.K.H.K.T.J.T.J.J.H.Q J.J.J.H.H.H.E L P P T R P Z h g I K.}.wXnXbXbXnXoXQ.J.4 . $ 1 v % @ h h O . # # % 2 % % $ % f F F J J I P U I U E T T T ~ P P T U P P U W U Y U I P P R P P J I U i.P.R.Q.Q.Q.!.!.Y.!.Y.!.Y.!.!.Y.!.Y.Y.E.!.Y.E.U.U.U.U.U.U.U.U.U.U.U.U.U.U.U.Y.c.P.P.I.I.P.v.v.v.p.p.a.a.r...l z l z k _ 6.O.X.X._ | 7.8.w.a.7.7.8.8.7.7.8.8.8.8.8.l.d.l.8.l.l.h.h.h.h.h.l.l.l.z.z.B.l.k.l.k.M.n.j.k.z.S.B.k.M.k.j.k.j.j.j.Z.k.j.j.d.",
"OX[.[.[.[.!.T.~ ^ ^ 1 3 F 5 5 U P L F g 2 4 C T L F C g C g C C b g g f F H P P ~ P F J P U p.i.~ P P W u.Q W P P F v g F F F P U U U P U U K K K F v v v v h b g 2 2 2 2 g % # # # 2 g F P R ! R W ! T R W ! T W ! W p.W W ! p.I W R W p.Q s.u.E E E L S E K.K. XzXmXmXDXDXmXVXCXDXDXDXVXVXDXVXSXNXMXVXVXVXBXMXBXMXMXMXmXcXMXNXSXSXMXBXDXBXxXmXSXVXxX9XMXSXBXbXeX9XwXwX+XwXMXmXmXXX[.gXXXwXNX).rX_.eXbXrXwXbXeX_.E.u.s.p.I I R T T E E I S S S E J.D s.D D D J. XzX`.D x.D z D , d ; @ ; > ; f 4 d $ , ; ; ; > ; A D S K.E.{.{.`.{.}.K.> d E A D K.{.H.H.K.H.{.H.H.{.{.{.T.T.J.J.K.J.J.J.J.H.H.J.i.u.u.u.u.R Z ; f I K. XwXmXZXZXnXnX#Xi.C 4 O # . O ; % O . % # # % d 2 ; % # g g g F F K P R T E T E R T U E W E P U U U P K R U P U W R P F ~ P Q J.Y.Y.Y.Y.!.!.!.P.!.Y.!.!.R.Y.U.R.R.Y.U.Y.U.U.U.U.U.K.U.U.U.U.U.U.I.U.U.U.P.P.P.c.c.I.v.$X$Xv.v.a.a.a.s.k p l l p p ) _ *.| | _ ` _ 7.8.f.*.8.d.w.8.8.8.d.8.d.l.d.z.d.d.d.j.h.w.w.f.h.j.M.l.j.j.h.j.h.j.j.k.k.j.j.k.j.k.j.j.j.j.j.f.f.j.j.l.j.d.<.",
"OXOXOXXX[.[.$X$XB H 6 2 H F 5 ! ~ F 4 2 2 F F G L G F C F F F F F g g F F P P F F F F F P U Q u.W U P P P P F F F g 5 f f F F F U Y U P U U U K K F v g v v h 2 g 2 2 2 f f 2 # # # 2 f C P U T U U E U U E W U ! W W ! p.W W W U U R W W W u.W s.E S E S s.J.K. XeXmXbXCXKXmXmXSXVXDXDXBXNXVXVXSXBXBXmXMXVXBXMXMXmXmXBXmXcXxXmXDXVXMXmXKXKXMXeXFXBXeXbXMXVXCXVX X9XbXVXbX@XwXbXmXgX).#XgX#XbX).@XY.gXmXgXbX XoXY.R J R I P P i.J P P T E L E L D S D E D D D `.xXcX XL.`.K.D E d S ; @ Z C ; L 2 ; ; 2 f Z A G A A A Z J.T.E.K.E.E.).J., A E f H.K.H.H.{.K.{.{.J.K.T.T.T.K.{.T.T.K.{.T.{.T.K.T.Q Q ! T U E G C ; d d L J. XxXBXBXZXmXnX|.Q.J.- @ # 2 % # % % h # # # % 2 d 2 # g g g g v F P L ~ R T E U W ! Q U W W U P P P P U T P P P W P P K P U ! J.P.Y.P.!.!.P.!.P.!.!.Y.!.Y.!.Y.Y.Y.Y.Y.U.U.I.I.I.K.U.U.I.U.U.U.I.U.U.U.I.P.P.I.!.v.I.v.! v.v.p.a.a.a.x.z k l ) z p ) _ ` ) _ / ) ` x.7.*.8.d.f.&.*.8.8.d.d.d.d.d.d.d.8.f.-.;.-.f.f.g.h.j.j.h.j.j.j.f.d.j.j.d.j.j.j.j.f.k.d.,.d.,.&.f.k.d.,.&.*.",
"lXlXlX@XXX!.T.~ ^ B * 5 ! H 3 Y g 2 2 f ~ P F 2 G F F F G G F F K F g F F P F Z F J F F L ~ P P i.W L F F v F g Z g g F F F P K U U K Y U U P K K v v b g g b h b f 2 2 f 2 2 # # % 2 f F K U T W U W W U W U W Q W W ! W W W Q ! I W I p.W W s.R I S S s.K.K.K. XxXMXwXVXLXmXmXVXmXVXDXNXNXVXVXVXSXmXxXcXcXmXMXMXcXmXVXmXxXxXBXSXBXBXbXMXVXSXmXbXmXmXBXwXmXmXmXBXxXbXmXMXrXwXbXnXZX#X@XnXXX).#X#Xc.gXbXwXrXR /.R l J W W G L J.J L L L L L E E E D d x.S D d J.{. X{.{.zX`.E s.S S ; ; G f @ F J L T L S A S Z S L A > E J.J.J.K.J.U.E , Z J.A H.H.E E {.{.K.{.{.{.{.{.{.{.{.OX{.{.{.{.{.{.T.H.I.I.P.J.Q R L G ; ; f S E Y.@XmXBXZXBXZXzXwX.XC g L P g % O # @ $ . O # % f h ; g g h g g g F F G G G ~ T E W W R W Q W K K K P T U P P P P P R U I P Y U Q v.P.P.!.!.!.P.!.Y.!.Y.Y.Y.Y.Y.Y.Y.Y.U.I.K.I.I.I.U.R.T.K.U.U.U.U.K.I.I.v.I.v.!.I.v.$X! p.i.a.a.c.a.6.p l _ l ) p ( _ _ *.` _ _ ) _ *._ 8.8.8.*.*.*.d.8.d.d.d.d.8.d.8.&.;.;.;.g.g.j.b.f.j.f.f.f.f.2.f.j.j.j.d.j.j.d.,.j.f.d.,.<.*.,.j.&.&.@.` ",
"lXlXlX@XOXW.I.! ~ F H F F H B 5 C 4 F F 4 g P R ~ C g F E ! R G G J P P P P P R P F F F F L P P g Z b g 2 2 2 4 ; # 2 2 v F F F P U U U U U Y K K K v v v v h b f 5 2 f 2 h 2 2 # # 2 g Z H I U R U W W W W W W W W W W W Q Q p.U p.W s.W W p.W J.S S E S J.K.K.rXBXCXbXBXBXSXVXVXMXVXDXVXmXVXNXBXBXmXcXwXbXmXBXmXmXSXMXBXBX,XMXBXSXCXbXMXDXDXmXNXNXDXDXoXeXBXNXmXgXnXNXnXgXnXmXmXwXmX#XwXXX!.gXbXwXrXoX#X~.i.J $ ; Z L F P i.Q G P I R G F L L E A A S S @ d E J.s.E. XwXoX`.S f Z R h L Z P C T F F F Z Z G P Q T T R Q Q Q J.R J.J.P A G S C E H.E E {.{.H.{.T.T.{.{.{.{.{.[.[.{.[.[.|.[.[.[.W.R.R.T.T.J.~ C C , @ f L J.`.zXnXCXCXCXBXmXzXW.u.P h % - 2 # $ @ @ X # 4 g f # f C C g g C Z G G ~ T T T T R R T R T Y P U U U U ! Y ! U ! Y ~ T U Y T ! i.i.v.!.!.!.!.!.I.Y.!.).Y.Y.Y.Y.).Y.Y.T.U.U.U.U.U.U.U.U.U.U.U.U.U.U.U.P.P.P.Y.v.I.c.I.! P.c.p.a.K.r.x.z p z ) _ l _ ) ` ` ) ( ) ) _ 7.8.*.*.,.8.d.*.d.d.d.d.d.d.d.d.*.&.;.:.:.1.2.2.f.f.1.1.d.2.2.d.2.j.j.j.d.d.j.j.d.3.d.f.d.d.j.k.k.j.j.d.&.",
"lXlXlXlX@X@X[.R.! T P P H H H g g g G P f C P G I T R R W W U P J ~ P F P P P P P W R P Y P P P F F v g % # # # 2 2 2 g F g g f K P Y U U U K K K v v g v v b 5 f h g 2 2 f 2 2 # # 2 f F P R U P R U R W W W W W W U W W W W ! W W W W W W Q s.s.S E x.E E K.`.oXnXSXMXVXmXVXVXVXnXNXCXVXVXVXmXeXMXNXBXMXMXcXcXFXBXcXxXmXVXmXmXcXVXSXmXbXNXVXmXBXmXCXDXnXbXmXNXCXnXwXnXNXmXnXgXCXgX@X#XnX#XXXgXbXgX#Xv.oXp.l v 0.P p.W L J T G P P ~ F Z C Z S L f d A d , > s.K.L s.a.oXK.p.L J S s.Z Q G P F U I G g g g G F G F D A D G A A C C Z C g 4 A T E H.E E K.K.H.T.T.T.J.{.T.{.{.{.{.[.{.{.{.[.{.[.T.T.J.I.U.I.J.Q G B > f A Z E U.lXnXZXZXZXBXZXZX.XE.Q v 2 # # # @ . . @ - h 2 ; 4 h f C g Z Z L G G L G P T P R Y R P R U U U P T ! T Y Y T Y Y T Y ! T ! ! $XH.!.I.P.I.!.I.Y.!.Y.Q.!.Y.Q.Y.Y.i.U.U.U.T.U.U.U.T.U.U.T.U.U.U.I.K.P.P.P.P.P.P.I.I.v.v.P.p.p.a.0.6.l z p l ) ) ) ( _ _ ) ( ) ` _ *.*.*.*.8.<.*.d.*.d.d.d.d.d.d.d.d.,.:.&.1.1.f.1.g.2.2.f.2.d.d.2.d.j.d.d.j.j.j.d.j.d.j.d.,.,.,.j.k.j.f.d.&.",
"zX@X@XlXnXzX@XXXQ.I.P.u.! U ~ v F Z ~ T F C P F R U R R P F G P F G F F P P ~ P P P W U P G g 2 f f g 2 # @ # # @ # 2 g F F v g K K P U P P K F F F b b g g x h g 5 5 h 2 2 2 % # % 2 g F F U I U U W W W R W P U ! R W U U W W W I W W W W s.W E S S E S s.K. XrXnXSXVXSXmXmXVXmXMXmXmXmXVXVXbXxXxXMXBXBXMXmXVXDXSXxXeXMXVXFXBXrXmXVXVXmXmXVXCXnXgXbXBXmXgXbXbXCXMX#XgXCXNXnX#XCXnX#XQ.mX@XXX#X@XgX).J ).I % J R J I ! J G P F v g 2 % 2 2 f f C ; d A g ; d E Z Z Z Z K.d . O S d J Z u.G T Y F K N b f g g f 4 f 4 4 2 ; ; - 4 X # 2 ; o 4 Q E H.E E J.J.H.H.J.J.H.T.T.{.{.T.{.{.{.{.{.{.T.T.Q.T.I.I.T.R.T.Q.Q L S G D f C T {.|.@XnXZXBXCXCXmX@X}.i.Z ; - # # @ @ X @ # @ - ; 4 f g A Z G L G ~ G E T T P T T R P U U Y P U U ! ! Y Y T ~ ! ~ Y Y Y W ! ! i.I.i.I.$XI.!.I.!.Y.Y.Y.Q./.E.Y.Y.U.U.T.U.R.U.T.K.I.U.U.U.U.I.U.U.P.P.P.P.P.I.$X$XQ P.c.p.a.a.s.6.z p z k ) _ ) ) _ _ ( ( / ) ) _ *.*.8.&.8.*.,.*.d.d.d.d.d.d.d.d.&.;.;.1.;.f.f.f.f.j.j.2.j.d.d.j.j.j.j.k.k.3.k.d.j.d.j.,.,.j.j.k.z.f.d.&.",
"zX@X@X@X@XlX@XXX.XXXQ.!.T.P.! P P G P R F F P G G ~ ~ G F F F G F F F F F J F P F F P G J g 2 2 2 2 2 g f f 4 g # % # f g F g b F v K K K K K F v v h f b h h g h f 2 2 2 2 2 2 # 2 f g F ~ R W W T W ! T U W P U I P P T R U W U U R R R s.Q W E E E E S E K. XxXbXBXmXDXmXnXmXmXmXmXMXmXNXNXMXMXbXcXmXBXNXBXVXVXFXBXmXxXcXLXBXbXmXBXVXmXbXnXNXmXmXNXNXHXVXBXmXmXmXnXgXmXZXnX#XnXNXnX#XCXNX#X#X/._.Y.F c.K J W F 2 g P F F P F 5 % @ . $ % ; 2 O X ; f > @ . @ Z Y.Y.Z p.d + ; g @ A h W b ~ T # % h 5 f F f o # ; 4 - @ & X X 2 . . ; -   - T E E D D E H.H.J.H.H.H.H.H.T.T.T.T.T.T.T.H.T.I.T.T.T.I.I.T.T.R.T.H.H.Q Q L A Z E K.J.Q.@XnXZXmXBXBXZXzX}.J.Z - $ 2 ; - ; # X X # ; 2 f f f C F L G G D G G P T P P P T P P U P Y Y Y T Y T Y Y Y Y T Y T Y W ! ! ! $X$XP.c.!.!.!.!.P.Y.R.Y.R.Q.R.U.U.K.U.U.U.U.U.U.U.U.J.U.U.U.U.I.P.P.P.P.v.I.I.i.v.p.p.a.K.r.I l l z k k _ ) / ` ) _ z ) ) ) ) *.` *.*.*.d.8.*.8.8.8.d.d.d.d.*.&.&.f.;.f.1.f.1.j.f.d.2.j.j.j.j.d.k.d.j.d.k.j.k.,.d.,.j.d.d.3.k.j.j.d.&.",
"@XlXlX@X@X+X+X@X@X#XXXXX).Q.P.i.u.P P P g F R G G F F F L P T T F F F F F G J F F F F F b Z g g v F F P P W W U K F g 2 2 2 ; % g M F K P K K F v g h g b h g 2 2 2 2 2 2 2 2 ; # 2 2 g F P P ! W W W U W P P R P R T P P R R U W U I R W W s.R S s.S S E E K. XxXxXxXxXDXmXmXmXmXVXNXbXbXMXMXmXmXMXMXBXSXVXbXwXMXFXSXVXxXcXKXSXmXmXnXmXmXnXbXbXBXmXnXbXVXmXbXgXgXnXbXgXMXnXbXgXnXDXCX#XnXnX#X!.0.U p.v.j U p.U I f v P g g g 2 b % $ 6 $ % 2 # - ; f Z Z d d f s.wX@XJ W h S J 2 $ f ; g . 2 5 6 . . o % % %   - 2 - . X X - o - .   # o . . 2 C G B C E H.D H.T T ! ! H.I.i.I.T.I.H.I.I.J.J.I.H.J.H.$XH.H.H.H.J.H.J.E D V C D E A E |.zXnXZXZXmXZXZXgX|.u.f . ; @ # ; ; @ X # ; 2 f 4 f C C Z D G G G G G P P T P P P P P P Y ~ ~ Y ~ ~ ~ Y Y Y ~ Y ~ Y Y ! ! ! $X$XP.I.!.!.Q.Y.Y.Y.Y.U.Y.R.E.U.U.U.K.U.U.U.U.K.U.U.U.U.I.U.U.P.P.H.P.I.$XI.$XP.P.i.p.a.U.a.x.h z j j k k k a ) ) ) p a ) ) / _ @.@.*.&.&.*.&.*.d.*.,.x.d.*.d.f.&.f.1.,.f.f.&.f.d.j.d.d.d.k.d.k.d.d.k.3.d.k.d.d.d.<.d.<.d.k.d.j.j.8.&.",
"@X@XzXlX+X+X@XzXzX@X#XoXoXXX).!.Y.! W P g g ~ F F g g C G P P P F J F F F F F G g f g h g g F F P H P P W W U P P H g 2 2 2 2 % v v F H H J N v v b h g h g b h f 2 2 h 2 2 2 # # 2 f g F P R W U T T W W P P P P Y P T P U R Y W U P P W u.I T I J.E D x.E J. XbXbXbXeXCXNXmXMXmXVXVXbXbXbXbXmXGXBXcXZXVXFXBXcXBXVXBXcXxXMXDXCXNXnXbXmXVXVXBXNXCXCXmXbXmXbXwX@X#X#XXX#XbXbXgX@X@XHXBXW.#XXX].!.h h J c.O K p.g K 2 2 F g 2 4 % f % 6 # # @ # . g g Z C S E E u.J.bXBX).Y.p.J ; ; O 2   2 o % . % .   . # # o 1 ~ F 3     - - . . .   o # # & o - 4 1 1 D V B D B F ^ ~ ~ ~ ~ ! H.H.$X$XH.$X$XH.H.H.H.H.H.H.H.H.Q H.H.E Z B B S V : A H.|.@XzXnXnXmXZXZXwXQ.G # -   . - > # @ ; 2 4 4 f 4 f A Z A G G G G G L P P P P P P P P K P Y Y Y Y ~ Y Y ~ Y ~ Y Y Y ~ ~ Y $X! P.P.Y.Y.!.!.!.!.Y.P.c.Y.Y.U.U.U.T.U.U.I.U.T.I.U.U.U.U.U.U.P.P.I.I.I.P.P.I.$XP.i.p.a.K.p.m z e e s j k k a a a / a a k k ) ) | @.%.&.*.&.*.*.*.&.,.d.d.d.*.,.8.8.,.w.w.f.d.d.f.d.f.d.d.d.d.k.d.k.d.d.k.d.3.3.d.k.d.d.d.d.d.d.d.<.*.",
"OXlX@X@X@X@X@X@XwX@X@X@X@X#XoX).W.I.P.Q F Z F g C C C C C F ~ U ~ P F F J F H F f 2 g g g g F F P P P P U W P G L F f f f f g g g b F K K K F F v b b h g v v g 2 2 2 2 % 2 % 2 2 2 2 b J P W W W T W U Y R P P U R I U P W U T U I J T R p.s.P S u.I D s.E J. XbXmXVXxXVXmXmXMXbXmXmXMXmXgXeXMXNXBXmXxXMXSXSXmXBXxXxXxXMXmXbXBXmXnXbXMXVXCXNXmXgXrX)./.XX).Y.c.~.p.p.Y./..XXX).XXgX#Xv.v.N !.$Xg M v 0.$ K I h F # # 2 3 % 4 2 # % % % 6 @ # # ; f d 4 f Z S f U.rXNXnXbXoX`.R j g C 6 ! v.P.b H 5 x ! v.H ^ ~ ).Y.F o   2 -   . . . . @ o # # X - - X - : : B - 6 1 1 3 x 5 B ^ H ~ ~ T T T ~ ! H.! H.H.H.H.H.E Q E E T G A C A A A E J.T.XXOXnXnXZXBXnX+XR.R A # . & ; # @ - - ; > 4 f C Z G F A G A G G F ~ ~ P L P P P K ~ Y K ~ Y Y Y Y Y H Y Y H ~ Y Y Y ~ ~ Y ! ! v.P.P.I.R.R.Y.Y.Y.Y.Y.U.U.U.U.U.U.U.U.U.U.I.U.U.U.J.R.J.P.I.$Xv.I.$XI.P.$Xp.p.a.Y.p._ r r r e s j s i s a a a k k k k / ] | #.%.%.*.&.*.*.*.&.,.&.d.*.&.f.8.f.d.d.d.w.d.&.f.d.d.*.d.d.d.d.d.k.d.d.d.k.<.d.k.<.3.3.d.d.d.8.*.*.",
"@X@XlX@X@X@X@XOXbX@X@X@XwX@X#XoXoX).R.I.R L G 2 G P W R F F R u.J F F P G F J F F F F ~ P L L F W R U u.i.i.Q U P J F b g h 2 # g v F H J K K v v g g b g v v g 5 f 2 2 2 2 - % # 2 f g G P W W W U W U P P P P R Y P Y R P W ! Q I L P R W E I C s.S A J.s.E  XxXVXSXbXmXmXBXmXbXmXbXbXBXbXrXbXxXBXBXMXcXBXMX9XxX0XxXeXbXMX9XMXVXmXMXbXbXgX#XXX).!.U p.~.Y.p.p.I h J I U Y v.!.v.!.0.$X$Xx $XN g W j h v U g g P # . 2 # o # % . 6 g b v b b v C T W R Q E Z @ W I !.).oX.XwX#XY.J.v.Y OXnXnX!.Y K P.gX@X!.v.!.nX.X! # X 2 2   o 6 o .     o &   - X   & o X 3   .   o o o # * * 3 B ^ H H H b ~ ~ ~ A ^ ^ B ~ D ~ E ~ E D A : G E E ~ G E T.Q.zXnXnXBXmXnX+X).J.f X @ - X X @ @ - ; ; 4 C A G A F C G G G G G P P P G P P P P H ~ ~ ~ ~ Y ~ Y ~ Y K ~ H ~ Y ~ H H ~ Y ! ! ! p.Q v.Y.Q.Q.E.Y.!.U.I.K.I.U.U.J.I.U.U.U.T.K.U.U.U.P.P.P.I.I.$XJ.v.P.v.i.p.i.L.a.S d r % e z s s i s s a a a c n / / ' @.X.#.&.%.*.*.$.&.8.*.&.8.d.w.d.f.,.8.w.w.d.w.d.d.,.d.d.d.d.,.d.3.d.3.d.d.d.d.d.d.k.d.d.<.d.d.<.<.*.",
"lX@X+X+XlX+X+X@XoX#X#X+XoXoX#X#XOXXX).!.W F F F G C C Z F P R W P F F P P P F F Z F Z Z F P P W W W R W W ! P ~ P K Z g f f f 2 f v F H J F F F g f 2 b g f h 5 f 5 f f 2 f 2 2 # 2 2 f F H P W ! W U P U K P K U K P U P U P U P I R I E I E s.s.S R I D a. X XoXmXSXBXxXbXmXnXVXmXbXbXmXBXmX@XbXxXxXxXMXmXxXrXeXeXrX9XrXwXeXeXxXmXmX9X). X XE.K.a.I S J p.u.0.g h h F N I U P.! v.U N W v.Y 2 J S Z g g d 2 ; ; # # ; 3 2 4 ; . % f v F F Z C F F G T Q T g X 4 f 2 ; u.wXbXwXW.wX).oXZXVXBX}.W v.#XbXgXv.~ Y ].W.U # . 2 ;   4 .   & 5 -       . & o     o .     . . 6 . 6 . # # o # % 5 g 2 - g G ~ ~ G D ~ H.D V A G G A 4 A T Q W G G ! P.U.@XXXmXmXBXPX!.Y.G L f ;   X ; ; ; ; ; 2 4 C Z C C A G G D L G T E G T R T T P U P ~ P U ! W P F P P P ~ P P ~ K H H H H Y ! $XP.I.I.!.Y.!.Y.Y.U.I.U.U.U.K.I.U.I.T.U.U.U.U.I.K.P.P.P.P.Y.P.P.P.v.! P.Y.a.K.a.S r $ $ h N s e M e s y t t s s u / ' _ ] @.@.*.` *.*.*.<.*.&.&.*.f.w.&.d.f.d.d.f.&.,.d.,.d.d.<.*.3.<.<.<.<.,.d.<.k.k.d.d.d.d.d.d.,.,.<.*.",
"@XOXlXOX+XOX+X+XXXoX@X#XXX#X#X#X+X#XXX).!.P.Q P F F F F F G L P P P P P P P F F F F F b F F P P W P P P W W I P P L F g g g g 2 2 g F P K F v F F f h g g g 2 g 2 h 2 5 2 2 2 2 # 2 g F P P R U W U U Y U P K K P P U K I Y U Y T R R E I E R R E S I s.s.`.xXxXbXBXmXxXwXbXBXmXmXbXbXxXwXmXMXwXoX'.rXxXxX,X`.9X9X9X9X X`. X XoX9XwXwX`.a.a.Y.K.s.R J Z Z L P p.H b g N Y U p.v.v.I.p.U U U b 2 ; d d f d f d 4 . X @ ; 2 2 ; # F v F H F F P L G F C C A C - X 4 C G F u.J.R 3 g J.G T Y.W.).P % x U v.I.N 6 5 p.Y 2   # b Z 6 4 o   - 4 - X   & o 6 - # & * * . . . @ . # # # # # . . # # - # . ; C C B B D D H.D B B D D C f C T ! G g F F G Q i.Y.W.XXnXBXzXnX.XE g - C # @ - # @ - ; 2 f f > 4 Z L T T G A G L L T T E T G U P P P W ! W U P Y P P P K P P H H H H H H Y ! H.v.P.P.Y.R.Y.R.T.U.U.U.U.I.U.U.K.U.U.U.U.I.U.U.P.P.P.P.v.I.I.P.P.i.K.P.K.a.a.J 8 $ $ r r r r t s t s t y u u u / ' ] @.@.@.@.<.` <.*.@.<.&.&.&.,.,.<.&.&.,.,.,.<.,.<.<.<.<.<.<.<.<.<.<.<.<.<.<.,.d.,.d.k.d.d.d.d.<.*.<.",
"OXOX+XlX+X+X.XoXXXoXoX@X#X#X#X#X@X@XOXoXXXW.P.P P R W W R P R ! P P P P R P P F F F F Z F F J P W P P P U R P P W P F F v g 2 2 2 g P P L F g F b g 2 g g g g f 5 h 2 2 2 2 2 2 2 2 F P W W P P W U U U P U P K U K K P K U K U T T E T R E E I E S S s.K.9XnXBXxXxXbXxXxXmXbXxXbXmXmXbXwXnXmXeX9X9XwXeXrX`.`.9X_. X9X_.`.L.).oX`.).`.K.E 6.u.a.I L I L J S I i.P.! U v.P.P.I.v.P.W U U K b h % ; ; d f f f C g # - 2 g Z F g 4 P K F g C F F F F C g 4 ; > ; : - ; 2 4 C Z C ; 2 G 4 2 C A R F 6 h % N K K b v K F 2 % g W P g g - & 2 1 # & 1 3 3 3 3 4 3 4 4 2 2 1 2 2 % 2 2 # # . . . . . . . o - 2 : V B D D V A A ~ B B A 4 L P Z F E W G R f !.U.XXBXnXnXCXnXU.L Z P 4 ; @ X . X - f h A 2 4 A G L T G L T G T T T E T L T P P P W T R U W W P P F G H ~ ~ ~ Y H H F H ~ I Q i.P.Y.!.Q.Q.U.U.U.U.T.U.U.U.U.U.U.U.K.I.T.U.P.Y.P.c.v.I.v.I.v.i.a.P.a.K.a.l $ $ + 8 8 8 8 9 s s s t t u u / / ' ` | @.@.<.@.<.@.*.@.&.w.&.%.&.&.*.&.,.,.,.,.*.<.*.<.<.d.<.<.<.<.<.<.<.<.<.<.<.<.d.d.d.j.j.d.d.,.&.*.",
"lXOXOXOXOXOXoXOXXX.X.X.X#XOXoXXXoX#XoXOXXX).I.W W Q Q ! T T ! u.R P P R W P L F F F F F F G P P W W W P P P W U W P P F F g b 2 2 C P W P g C F C f 2 g b 2 2 f 2 2 f 2 g 2 2 2 2 g F P W W P P W U U Y U U Y K K K Y K Y P U P P R I T I E I E E S S I E.+XxXMXwXxXbXbXmXmXbXrXbXBXCXmXxXmXmXxXxXbXrX`. XeX0X`.`.`.`. X_.`.`.~.K.a.p.s.s.R u.a.u.I R I R P p.Q.Y.I.v.P.!.v.Y b H 1 b N % O % h h h f h h h f f g g C F L K ~ F v g h % 2 2 4 g g C C g 4 C G T R Z 4 ; @ X X 2 @ ; @ X # . - 2 % h % % % K h % f g b g Z F f 1 C 5 5 5 4 - 1 5 F 4 2 5 F F F 5 g g f f f f f 2 f 2 2 2 2 # # . . . O X X & , > B V V A A 4 4 4 g G G g G i.i.P F - p.! Q.wX!.nXnXnX@XQ.E.Z f g . .   . > C Z Z A Z f 4 C A T R E L G L T R E G T P P P U U P R Q R P F F F J F H K ~ K P H K H ~ P p.i.U.Y.Y./.U.U.U.U.U.U.U.T.U.I.U.U.U.U.U.I.c.P.P.P.I.c.I.I.P.i.P.P.a.K.s.l 8 O O $ 8 8 8 9 e t i u y u / / ' ' ] | *.` *.*.*.*.*.<.*.&.&.%.&.<.@.$.&.&.,.*.<.<.<.d.<.<.d.d.<.<.<.<.,.<.<.<.d.d.d.d.d.d.d.d.d.&.*.<.",
"OX+X+X+X+X+XOX#X.X#X.X#XoXoXXX'.XX.XoXXX).).!.J.P P T G F F U Q W R P P P P F v g g F F P P P W W W R P W W U Q W Y P P L F g 2 2 g P P L F g b v f f f f 2 1 2 b g f g g f f f g F F F P U U W W U U P U P P K P K P P P P P P I T L T R R I L L I A S `.+XwXwXwXxXwXxXnXmXmXmXxXmXVXVXnXmXmXeXVXVXbXrXxXNXMXeXbX0X9XxXmXbX).p.s.S S 6.s.s.I s.p.I L I U u.Y.).).Q.Y.Y.v.P v h b $ # h $ . h b g h h h h d h % Z g f 5 g b b b g g % % h 5 g g g F G G G G Q J.Z g g C f X   . & . . X @ X   ; b K 2 h h K 5 $ % v P W P P P ~ G F F B 4 4 5 G B B 5 4 B H H C F F F Z b g g F F C g g f f % % O O 6 . . X X & & & , B ; - ; C P R F 2 4 P P 4 G T P F Y U P.wXwXnXzXzXoXZ Z C X . . @ ; 4 f g G Z C 4 4 C G T G G G P T T P P P P Y P P P T R W P F F C v F F 5 F H H H F F F F P P u.p.J.P.U.I.U.U.U.U.U.U.T.U.I.U.U.U.U.U.P.I.c.I.v.!.I.I.v.v.i.I.P.a.K.u.l + + + + 0 8 7 0 t t t i y / / / ` ' ] @.@.*.*.<.<.@.*.*.&.&.%.*.&.$.*.*.*.&.<.*.<.*.<.<.<.d.<.<.<.<.<.<.,.<.<.<.d.d.d.d.d.d.d.d.d.d.<.<.",
"lX+XOX XoXOX+XOXoXoX.XoXXXoXXX}.XX#X#XXX).Q.R.i.R G G F L ~ R R P P G F F F F C g F F P P U W Q R W W W W P W u.R R P P P L F g f F K P P F Z g v 2 2 g b g h g F F F v g F v v J G F P T I ! Q U W P Y U U U P I H H P P P P R T T L T E R T S S E Z S {.rXrXzXzXwXwXwXwXxXnXmXxXbXmXCXVXVXBXbXNXBXBXSXSXBXBXSXxXeXwX9X X~.s.f R S J R u.s.R L p.R L L W U.).).)./.i.U F g g v h d % % $ $ h v g j g g h g g g v g 2 % 2 2 5 g f % % 2 f F C g F L E R T E E E 4 4 4 G G g 4 f ; . - # 4 g # g M Y K Y Y W N b g P u.i.Q R R ! ~ G H H C 5 C H F F F F H F C 5 P F F F F F F F P J F F v g g f % % $ . . X X X & X X , - # ; 5 P G F 4 C P P G G P.C L $XH v.[.).}.!.wX.XJ.I.C ; - @ X @ @ - # g C C F G F C g A G G G T T T G P P R R P P P P P K Z g v F g 5 1 5 5 g b g ^ F F J P W p.i.i.P.J.P.K.U.U.U.K.U.U.U.K.T.U.U.U.Y.I.I.I.I.v.!.!.I.I.! v.I.K.a.s.l + + + $ 0 0 9 q q q t t w p ( / ' +.| @.*.*.*.*.*.<.*.&.&.%.%.%.&.#.@.$.&.<.$.&.*.<.*.<.<.<.<.<.3.<.<.<.<.<.,.<.,.,.d.<.d.d.d.d.d.d.*.*.",
"|.OXOXOX+XOXOX.X.X.X.X.X#XXXoX).XXoXoX).W.).R.p.R P G P R W P G F F g f g F F F F F L P U W W Q P W ! W W Y W Q P W U R R P F g C g F F H J g f g 2 2 b F F Z F ~ P P F P G P F F G L K P P R W W P P P P W U P P P P P P P P P T L L T R Q L D Z I d D `.wXrXxXwXwXwXxXbXxXxXbXMXzXbXCXSXCXCXBXxXxXbXBXBXxXcXBXMXMXMXrX~.p.s.v.I s.s.s.s.p.p.I s.p.R J U U.R.v.v.F % O . $ O $ h h % # % h g % g g g g g b g g g 2 % % % 5 5 b h % % % g F F H P T T T T ~ L T J.W G C g 4 4 2 - . -   # 4   # 2 b F ~ W K K K g C F L P G C C T ~ ~ F F H H H F H G H F B C F P F F g Z F F F P P F F F H F F b r % % - # - & , X X X # @ # 2 4 4 g F G P R Q 1 L 4 F ! F B F W J.J.+X)..XzXG - ; ; - o . @ - 2 f Z G G F C 4 F F G G P T P P P P P P P K P P W P F v F C f 2 1 2 5 g g g g g F P T R u.p.i.a.J.J.J.I.J.U.U.U.I.U.T.K.U.I.U.U.I.c.v.!.v.!.I.$XP.v.P.c.p.a.s.l + + + 7 0 9 7 9 9 q q q y ( p ( ' ' @.| @.$.*.<.<.*.*.*.&.%.%.*.&.&.*.*.&.&.&.$.*.<.&.<.*.d.<.d.<.<.>.<.<.<.<.<.<.<.<.<.d.d.d.d.d.8.<.*.",
"|.OX.XOX|. XOX.XoXXXXXXXOX#X.X|.W.).).).XXoXXXP.P F F ~ R R Z 1 g 2 2 2 f F F P F P P P W W W W F P W W R P R W P P P R W R F b F F g F P P F 4 f 2 2 F P P P W R U I P P P P P F F F F J ~ P P W U R P U ! I P J P H P K P P P T T L L Q R L Z S E A d {.rXwXbXmXbXxXbXbXxXxXmXBXwXxXCXDXSXVXmXmXNXBXmXMXcXMXMXxX Xu.l h d h r h s.p.s.J I u.p.T u.R g v Q E f ~ g $ % v F b h % g h $ v I g % f h h 2 h 2 % 2 % # 6 % % 2 % 2 H g 2 h g ~ R T R Y E U E T E E G G F C C F C ; C 2 Z # - g . 2 h b Y U v.P U W R P P ! J.P.P.! ! U ~ H G ~ ~ F H ~ ~ H F ^ b H L F F F g F F P W P P ~ P I P P b b x h 2 2 ; ; 4 X . X o . . % 2 # f P F g g P g P P L W G 3 H G Y..XzXoX@XCXP $ ; 4 2 @ X ; C 5 f g C C F F F F F F G P P T P P R R P P L ~ U Q R F F F F 2 # 5 b F F H g F F J J R R p.i.J.P.J.J.J.J.I.U.J.U.U.U.U.U.U.U.U.U.Y.I.I.I.!.v.!.!.P.! P.Y.i.P.u.l $ + + 7 7 7 7 9 7 9 9 q w w ( ( _ ] | @.*.#.&.&.*.<.$.*.&.&.%.@.&.&.{ $.&.,.&.*.<.*.*.<.<.<.<.*.<.<.<.<.,.<.<.<.<.<.<.d.d.k.d.d.d.,.*.<.",
"OX|.lX{.{.|.OX|.|.|.OX|.|.}.}.}.).Q.).].).XXXXY.W C F P F F F C b g g g g F P P ! U P R Q i.p.! U U W W W W W W P P P U U T ~ F F F F F F F g h f g g F G P P P P F F F P U P F F F F G F P P P R P U T R P T T P P P T T T P P E P ~ P T U G C C C d R E.oX+XzXbXwXwXbXnXMXnXbXmXmXVXmXbXBXSXmXVXmXBXVXnXbXbX9X_.a.S S p.i.p.J T K.s.R Y.i.J T L Q R F F h 2 g g g g h v h h % f % % h b v f $ % % ; % d % % % 5 5 2 5 5 2 5 g F b g v P P P F P P R P T G G G ~ F B F B H G ~ ~ F C 4 4 3 % # h % h K W Y U u.P P R T E E T T ~ P Y Y H H ~ P ~ K ~ H H H v F F F F F F F F Z P P K P P G P K K N v v v F C 4 4 : - # - # # @ F F F F g g C F g F P G g 4 C P u.Q.#XZX+XoXxXJ.@ Z X ; f . - . - 2 g C H H F C F B b F ~ T T H P P L P P P P P P P P G F F F F F F C F F G P P T W T T I R s.I P.J.J.J.P.U.I.I.U.U.I.I.U.U.U.U.v.I.v.I.I.I.$X$XI.$XI.v.K.c.I h + + + + 7 0 0 0 i w w t w p p ( / +.@.@.@.@.*.*.*.<.*.<.*.%.*.#.&.#.#.#.&.&.&.$.f.&.&.,.&.,.<.<.{ <.<.<.<.{ <.<.<.d.d.d.d.d.d.d.8.&.&.*.",
"|.OXlX|.lX|.{.OXOX|.|.|.|.|.|.}.}.Q.W.XX}.oXoXY.! b g F F C G F Z g g v F L P W T I W W ! p.u.Q W W Q ! ! U R P R W T R U T F v F g Z F P F F g b F J ~ P P R W v.u.W I W T P F F F F F G P P R T R U T P T T P P ~ P P P P T R T ~ T P T T G G ; 4 ; I Y. XwXBXbXxXwXbXKXDXbXbXmXBXmXxXnXmXmXmXmXbXnXMXrX).`.6.d d h 6.s.P s.Y.J._._.).oX`.R p.v.i.L 2 2 1 2 F h b h b b b f % 2 h 2 f h g f % % 2 d % 2 2 2 2 2 5 % % 5 5 x 5 F v g g F K G F G G G G G G G G G F H B F G ~ U R ~ G F C C 4 3 5 % 2 P W U P U P R T T T E T ~ G ~ P ~ Y H K Y ~ K H H F H H b F F G F F F F F P G P L K P P K K M F N F K G G C A f f f f g 2 C Z C F g g C F Z G G F C g G P G E.nXDXmX@X@XR @ g X 2 2 . - - - 2 4 b F C F F F C F F Y T P P P P ~ P P P P R P P P L J F F C F F b F F F P P I I I R R I U R J.i.i.i.P.P.J.K.J.P.J.J.J.U.U.J.!.P.Y.I.!.$X!.v.v.I.$XI.P.c.R h O + O + + 7 7 7 e q q q w y p y ' ` | @.] ` <.*.*.*.*.<.&.&.%.%.&.#.#.&.&.;.&.&.,.,.f.,.,.<.&.<.<.>.<.<.<.<.<.<.d.<.<.d.d.d.d.d.,.&.*.*.",
"{.lX{.|.{.|.|.|.|.|.|.|.|.}.|.}.).Y.!.Q.W..X}.P.i.C 4 g g F F F g Z F F P P W W R W W U Y P W W W Q Q p.W R P P U U R U R P F g g F F G P P P L F J P R W W W W H.Q W P I P G C F F F F P P P W Y T T T T P T T ~ T T T T T T T T ~ ~ P ~ T G T Z C Z J.oXXXXXwXwXBXxX XmXBXxXnXmXVXnXbXVXBXbXbXwXoXoXoX`.c.s.h h S 6.s.J j I Y.).wXwX@XoXR.R s.u.u.g # # @ # b g 5 5 g g g 2 2 % % % % % % 2 h h f g f h h g g % 2 % 5 5 b ^ F v b g v g F Z C C g C C A G G G F G F F G ~ T T T T ~ ~ ~ F F 4 g 2 2 Y W W P R E W E T T ~ ~ G H H Y ~ K K ~ Y K H K F F H b H F F F F G F F F P L ~ J P G P K N N M K L T P T G G A G H G F F g C g C g g Z F g C g g f g F F # G E.zX+X@X#Xu.; 4 @ ; , . ; 2 2 1 2 g 5 F 5 F g b F H ~ ~ P H I P P P P Y R U P P P F F F F F F F F F J P P R I R 6.R R s.6.s.J.i.i.J.J.J.J.J.P.J.J.J.I.I.I.P.I.I.I.c.v.!.v.I.$XI.P.v.P.P.W j O O + + $ + 7 + 9 9 9 9 9 q y t ' | @.| @.` ` <.*.*.*.` $.%.*.#.%.#.*.%.&.%.$.$.&.&.,.&.&.,.<.*.{ <.<.{ <.<.<.<.d.<.<.d.d.d.d.<.&.<.$.@.",
"{.|.|.{.{.lX{.|.|.|.[.|.}.}.}.}.).Y.R.Q.Q.).).P.P.F f C g 4 F f g g F F P P R W P W ! W P P P P I U W Q W W P P P P R P P P F F g F Z F P P P P G P P P W W W ! Y ~ F P P P H F J F F G K P P W T T T T T T G E L P T L T P T T T T L ~ T T L Z f @ @ E wXnXzXbXxXDXBXrXeXBXBXmXxXbXnXmXVXBXbXwXY.U.a.p.I p.6.J l I J P p.Q.].oXrXwXoXW.Y.I F P g P v 2 # # . 5 h 5 h 5 g 5 5 % . 6 # # . 6 % x g b b g b b b b 5 5 2 5 5 5 x H b F J F g g C F C g g g C A G ~ H H G ~ T Y ~ T T T ~ P ~ H C 5 g % % K Q ! T P ! ! T T E E E T P K Y K ~ P Y Y H K H K H K F b G J F F F J F F P K P P P P G K K v v F K L T ~ A G G G P P K F C F Z C C C C C Z C g g g C g C Z f Z J..XnXnXW.C ; X # @ X 4 2 % 2 5 g C g F 5 f v H K P P ~ K R P P P P T U W P P P P P L F F P J L L L P P I R R I R R s.W s.u.u.u.u.i.J.i.J.J.i.J.J.K.U.U.U.Y.c.I.!.!.I.!.I.!.I.I.$XY.P.W Z O $ O O $ 8 8 8 7 8 7 7 9 9 q t c ` ] | | *.*.<.*.<.<.<.*.%.%.%.%.#.@.#.%.&.&.#.f.&.&.&.<.&.$.<.<.` <.<.<.<.<.<.<.<.d.d.d.d.d.d.,.$.$.$.",
"|.{.{.|.lX{.|.|.|.[.|.[.{.|.}.{.XX).oX).Q.).).R.I.L g F C f f 2 f g F L P U R R P W ! W P F ~ P P P U W W W W P P P P P R P P F F F F F P P R I L P P I U U W U P R P U U W U T P P F F G P L P T T T L T L T L T L T T L T T T ! ~ G P ! T F 2 G ; @ C .XbXmXZXnXxXMXZXbXDXSXzXmXoXwXMXxXbXeX).p.0.J h e v S l s.0.I p.Y.oXwX@XrXoX`.i.6.P P K f P W F g # o g 5 % 5 5 5 g 5 2 6 6 . 6 # 6 2 b F C F H F F G F b 5 5 5 4 x B 5 b F F v Z g F C Z C C C G D ~ T ~ ~ ~ T P ~ ~ G ~ ~ G ~ ~ G C 4 2 % 2 F W Q W E R E E ! E Q E ! Y Y Y K Y H K K K H H K N ~ H H F F F F F F ~ K F P L P ~ J L K N J N F F L G G A G G G T T P G P ~ G F F F F C P P G P R ~ F C T Z L Q }.bXwXE.W @ . # @ - 2 # % 5 % h 5 g b 5 2 b H ~ K K K Y P P P P P R T ! R P P P P P ~ P P P T P P P I R s.I R 6.W s.u.p.u.u.u.u.J.u.u.u.i.J.i.J.J.U.P.P.v.I.P.I.P.I.!.$X$Xv.i.P.P.P.U j $ O O $ $ 0 r $ 8 7 7 8 8 9 9 t / / ' @.@.@.*.*.*.<.*.&.&.*.%.#.%.#.#.#.%.#.$.$.&.&.&.&.*.<.*.*.{ ` ` <.<.<.<.<.d.<.d.d.d.,.,.d.&.$.$.{ ",
"|.|.|.|.{.{.|.{.|.[.|.{.|.{.}.W.}.).).).Y.!.).!.P.P F G g 5 g f v F F P R P U P R Q W R P P P P P P P T R W W W F F F P Y R P F P F F F G P P P H P P P R Y R T W T W T T W U W R P P P H J K ~ T P E L T ~ L T L T L T L T T ~ T T ~ ~ Y T C 1 G L i.P.).@XZXmXMX).wXCXbXxXCXmXBXxXxXeX).`. Xu.J W J d l I J I Y.R.).'.'.oX'.oX).Y.u.u.Q u.u.P F W W C 5 # . b x 2 % 5 5 x b 5 2 1 % 1 5 b b b H A G G H G H H b F 5 F x 5 x 5 F v v F F F G F G G F G G G E E T ~ T T P ~ ~ G P ~ P ~ P ~ H F 2 f 4 F P W Q W T T T E E Q H.Q ! W Y ~ Y Y K N K H K H H H H ~ P F F F F G P P P P P K P P P P K N v v J ~ G G ~ G T L T U P P W R P L G P F F P T P P P P F C G Z L C R W.Q.E.J.X X - X 2 ; @ 2 % 5 5 5 g 5 g g b H v H ~ K K ~ P J P P P U U W P P P P P T P R P I P R I R I R W s.I p.u.s.u.J.u.u.u.u.J.J.u.p.u.Q J.J.J.P.J.I.v.P.I.I.v.$XI.I.$XP.$XI.v.p.h O 6 . O $ $ $ $ $ $ $ 8 8 8 t t a ' ` ] ` @.@.<.@.*.<.*.&.&.%.%.%.#.#. .$.*.*.@.&.&.$.&.<.*.$.<.<.<.<.<.{ <.<.<.*.<.<.*.&.d.d.d.1.>.$.{ ",
"|.|.lX{.OX|.{.|.{.|.{.|.{.}.{.[.W.R.Q.Q.P.R.W.Y.J.P F G f 4 F ~ F ~ P P R P U T U Y I P R W U T P T P P P P W W F G P P R P J F J F g g F P P P ~ P P R U T R P U U U U T P P ~ P P P P P P P P ~ T L ~ L L E ~ ~ E ~ ~ T T E T ~ ~ P ~ G C C C   ; U.+X XnXCXCXCXbXmXSXxX#XmXSXmXBXbXoXP.p.s.I g p.K g W a.J.Y.a.`.oX9X#X#X_.).P.R I p.Y s.u.P F P H f 2 6 . 1 g 5 x x 5 ^ H b H b 5 5 ^ H H F H H H G H H H ~ F F ^ B B x ^ 5 F g g v G R P P P L T G ~ T T G T T ~ P ~ P ~ G P ~ ~ ~ ~ ~ ~ G h g Z Z F L T Q T T T E E E ! T W Y Y Y Y Y K H N H K N K K H N F F F F F J P P G L P P J K P K I N J F P P L ~ E T G T T U U T R P G P ~ P T G G G G F F G L L R G T A G u.u..XJ.. ; 4 . ; # o 5 2 % 5 % h g g b 5 2 5 b H H H F F J P P P I E P P Y R W P U U W P I P R I W R R R s.s.s.s.p.p.J.i.u.u.J.J.i.u.J.u.Q u.i.i.J.i.$Xi.P.$X$XI.$X$X$X$XP.v.P.I.Y g . .   . 6 O O O $ 8 $ $ 8 r r s u / ' | ] @.*.*.<.*.&.&.*.%.*.#.%.#.#.#.#.%.@.@.$.&.&.*.<.{ { { ` <.<.<.<.<.<.3.<.<.<.<.d.<.,.,.,.$.>.{ ",
"{.|.{.{.{.OXOX|.[.{.|.{.{.{.{.).W.R.R.R.Y.W.).!.P.~ J G 4 h P u.P P P R Y W W ! U R P P U Q U R W U P P P P P W P P P P P P F C F g g g F ~ P P P P P P P R Y P T U T U U I P U P K G K J P R P P ~ ~ E ~ L G G T L L E T T ~ T G ~ T G 3 1 F ~ F C J.@X}.xXBXBXmXBXBXnXbXxXoXoX|.mXbX).Y.R d J v p.I g p.J.a.Y.).oXoX).).|.U.g i.L T P F K W K v P v g ~ F 6 o F ^ b 5 F ^ H b ~ H ^ x H H ^ 4 G C H G H A H H B C 5 ^ 5 ^ B F b g g F P W W P T P T T T T T G ~ G ~ ~ G ~ P ~ ~ G F F G G G F 5 F G F g Z R ! T P ~ T ~ T ~ T Y Y K Y Y Y Y H ~ H H K N ~ K K P F F F F L P R P K P G P ~ L K P K H P P R E E E E ~ L ~ T P R P L G G R W E P T P L G G G W i.R 4 F P u.R ; u.P.. C g   # @ . h 5 5 % 5 5 5 5 b 2 % % g H v b F K H L ~ P U U P R R P R R T U W W W R P R W R 6.R U W R u.p.p.i.J.J.i.i.J.i.i.J.i.i.i.J.J.J.p.Q v.! v.v.$X$XP.$X$X$Xi.v.H.U b .   . . O $ $ O $ $ 8 8 r t s i s / ' | ` @.` <.*.*.&.*.&.&.%.#.#.#. .@.#.#.@.@.&.$.&.$.{ <.<.<.` <.<.<.<.<.<.<.<.*.d.d.<.8.d.,.:.$.>.{ ",
"[.|.|.|.|.|.}.}.[.[.[.W.W.[.{.W.W.E.E.R.!.E.!.).i.R F g g v ~ I P P P W W W Y R Y I U W W ! Q p.Y R P U P P K H P P G P P P F C g g v v F G P T ~ R R R P H P P U U W U ! U K b Y P P P U U U Y E ~ E ~ E ~ ~ E L ~ E ~ E E L E C C F C g Z Z 4 4 L !.oX@X#XnXCXBXBXnXMXBXmXbXzXoX).rXE.g h f Z I L J W P.)._.|. XoXoXY.i.p.P.J.s.R F Z g v v F K Y ~ F b 5 5 5 H F F H P ~ H F W P C g b F F g U G F F F F L P ~ F g g g F F F P P U U W W W p.W R P T T T T G F P Y U W Y P G G P P P P F F g F F g g F ~ R U Q W R P P P W Q U Y Y K Y K K K K K K H K F F v F F F F G P P P J H P P P P R P P P U W T W Q R G P T P T R W E R U ! E L G E T T T T ~ F A A G 4 W T F Q W P J.P.P 4 2 2 X . - g 5 5 5 x 2 % 6 6 % 5 b b 5 b F b v F F F K L P T P P T P T T P P U P U U U W I U U U W v.W W i.i.i.J.i.u.u.u.Q J.u.i.J.u.J.u.i.U W i.! ! p.i.$X! I.v.i.v.Y.p.b . 6 O 6 . O O $ + $ 9 9 8 9 w s a / ' |  .%.%.&.*.#.#.$.*.$.*.{ #.{ #.{ $.@.&.{ *.@.@.{ *.*.<.<.<.` *.<.<.<.<.d.*.<.*.,.d.w.8.&.,.&.&.$.",
"|.[.[.}.[.}.{.[.}.[.[.{.Q.W.W.{.E.Q.E.R.Y.Y.R.Q.Q L b F H F K P P I P R W R T I W W W T W W W Q U W W Q ! p.u.u.P P P P P P F v v h h b F L P T G P R P P P U U W U U W p.U P K K P K Y P P K K ~ ~ ~ ~ ~ E ~ E E E L E E D E L T G Z C C A g C 2 g P.}.nX@XzXnXBXBXmXnXBXnX@XrX.XR Q Z ; Z g Z P R i.Y.).).}.).).oX|.Y.W W s.L F C f ; f v F P K P Y H F g 4 F C F G P P P P L Y P F F F F F F I F C F ~ F G P F F g F F P G H K K K Y P U P P R T P ~ P T T ~ ~ ~ R E R R P P P P H G G F L G F v g g g F P R Y R P P R Y P U U U U U K P K K K K K K F F K F F G F F P G P P P G P P P R Y R R W R W ! W Q R T T T R U T ! T T E ! T ~ E G E E T T T ~ L P R F T F C U T F ! ! F g Z g - 2 5 v b b b b 5 2 6 6 2 2 5 b 5 b b F F N F P K P P P P T T T T E T P K Y P R I Y U U U U W Y W p.i.i.J.u.u.J.u.u.u.u.J.i.u.i.i.J.J.p.p.p.! p.u.p.v.u.P.v.p.Q P.p.h . . . . O O O $ 8 8 8 8 9 7 9 9 a k n } X. .X.O.%.#.*.&.*.#.*.$.$.@.$.#.#.$.{ { { { ` <.$.$.$.{ <.<.<.<.<.<.d.,.&.*.&.&.f.8.%.&.w.<.&.&.",
"[.[.}.{.[.}.[.}.{.[.[.W.{.W.W.W.Q.W.W.R.J.P.U.E.Q P F F P I K Y W W W W ! T U U ! W Q W W W W W P P Y W Q W Q Q P P P P P P J F g b b v F G P E F ~ ~ P P P P Y U I Y P U U U U K K K P K K K H ~ ~ E ~ ~ ~ ~ ~ G E L E E T E G E L C f C ; ; G u.u.!.Q.ZXnXnXnXZXNXmXnXnX@X).).E.Z f f ; Z J W J.U.).oX+XoXXX).}.).W.i.R R J f g 2 - $ % h F U K K H F C g 4 5 f F F Y W W R U P P F P P P P ~ P G F K F F F P F F F F F P P K P K P K K K H F P P G G L L ~ G L P P U P U P P K L F P P P P P K F g f f b J P F P W W W W P P U P P P Y K K P P K K K K K K K J ~ F P P P P P P R P R W W W W R W W W Q W W T W W U R Q ! W W T E E T L G G T ~ T E E E ! E T Q W F F W T P T R G P W R F H T H H Y Y K b x 5 b b 5 x 5 2 5 5 g v v J H I P P L P T P P T T T P P Y P P Y P Y Y U W W ! ! p.W u.J.J.Q Q u.Q u.i.J.u.J.J.u.i.u.i.p.W v.i.p.p.W W v.i.U i.v.p.g .   . . O $ $ $ 8 $ + + 7 9 9 8 k n n ....o.X.O.%.*.%.X.%.*.*.$.#.#.#.#.$.#.{ *.{ ` { <.,.,.<.{ ` <.<.<.,.,.,.d.&.$.&.*.&.,.&.*.f.&.$.{ ",
"{.}.[.[.}.{.[.[.}.W.W.{.Q.{.W.W.W.).).R.J.J.P.!.i.P F F P K K P ! W W W W U P T W W p.W W W W R P P P P P K K L J K F L P P F b g g g b F F G G F G G K J K K K K N F K K K P U K K P P K v v F ~ ~ G ~ ~ G G G E ~ E L T G L L P L g C Z @ X T u.E.XX}.mXnXnXBXnXZXZXbX@X).P.i.p.Z L I L Z L P.i.I.Q.).).E.Y.Y.Y.Q.J.R L P L g 4 4 # # % 2 g v b v F b ^ 5 4 g g C J R ! T U I P L P P I W R P P F F F P F F P F F F F P P K F K H K K P H K L ~ G G G G G G S L P P P R P P P F P P P P P P P L F g f 2 f g F F F P W Q W R P U U U U P U P K Y P K Y K K K K J P P L P P P P U W W W W W W W T ! W Q W Q W W W ! T W U E R U T ~ T T T G E ~ T E E W T T T T W E P P Q R P R P T Q i.! P R Q K Y Y Y K H H K Y H b x b b b 2 g g b b F F P F P G ~ G T L T T P P P P P P P P Y U U W W W W Q u.Q i.Q u.u.u.Q J.i.J.i.i.J.i.J.v.W p.W p.U W W W ! W U ! Q U v # # % # % % 8 % 8 + + + e i z 9 j j j m ..4.O.5.5.O.5.*.X.%.*.%.%.*.#.#.@.#.&.$.,.<.` { <.<.<.@.<.<.*.<.&.d.&.&.&.*.*.$.&.8.w.&.,.&.<.>.",
"[.{.}.{.[.[.W.[.{.W.[.W.{.Q.{.W.).}.).U.J.J.P.R.P.R F C F K F K U R W W W R P P W R W Q ! W W ! W R R I R ~ P F F F F F F F F g g f h h g C F G G G F F F b b g h 5 h 2 g v v K Y Y J J v F H Y G G ~ ~ G ~ ~ E G G E ~ E G G G A L C C C @ @ Q R W.wXzXBXZXnXnXnXZXnX#X.XY.I T g Z S T W J R J.Y.E.).E.Y.J.J.J.i.W L g C J L C f 4 h f 2 h 2 2 b b b b 5 C 5 f g g F P U W P P F P P W W U T U P F F G F F F F F F F F F F b g v b v b F v F F F C C F C G G C F F L P P G P P L P P W W P L F P F F g 4 % 2 F F G P I W W W Y U U Y I U Y Y U P P Y I K U K K P P P P P R P Y W W W W W W ! W ! Q ! Q T U R T R R P R P P P P G T E G E ~ G E E E Q Q E T ~ T G F ~ W P F F L P P T R ~ F P U K Y K Y H K Y ! U Y v b H H F b b g v v F F F F G G L G ~ L L ~ P P P P P P P P Y R U T W ! W p.u.u.u.u.Q u.i.Q u.u.J.i.i.u.J.u.$Xp.! W W W U U U p.U U U p.I F g g g g h g h h r $ O $ d e h r j h M m 4.6.0.9.5.5.5.O.7.7.*.5.O.%.%.#.%.$.%.*.f.w.*.@.*.$.&.*.<.*.*.d.,.<.*.&.&.*.*.*.&.&.8.&.,.&.&.$.",
"W.W.W.W.W.{.W.{.W.{.E.W.Q.Q.{.W.}.{.E.U.I.I.Y.R.I.W b f v F v F ~ P P P P P P P P P P W W W R I P P P P P K F F C g g b F Z b f 2 2 % 5 f g C C F Z g f g f h % 6 % % % % % h g F K K N v N K W ~ E ~ ~ ~ ~ L ~ G E T L L L S G F G g A f ; g u.}.wXzX@XBXBXnX#XgXnXgXXXE.i.P Z F I 2 G J.p.J.Y.).}.).).E.P.i.p.I J f 2 f f f f f 4 g g F b g 2 h b f g F b C 5 g F F ~ P P P P F G P P P P P T F F g F F F g v F F g b g g g 2 g f h b g g g g F C C g C F C C F F g F F J F F F P P P P P F F P F F F g # 2 Z F F ~ R P R U W U U Y W U U U U U U U Y P U U P P W P W T U U T W W W W W W W W W T I T R T P ~ P P P ~ G P G G ~ G G G ~ E T E T Q Q Q Q T T T G g P u.L C F ~ R T P G F F G P Y K b b Y Y Y $XY Y K K Y Y Y K K K P K P K H J G G G G G G G L P F P F P P P P I U U W W W Q Q Q W Q Q u.u.u.J.i.J.J.u.J.u.i.i.i.p.0.U p.W 0.Y W U I U U W U P U Y K K F N F j g h h r d r d 0 j v m I U 0.0.s.6.5.5.5.5.5.5.5.*.%.X.%.%.X.%.O.d.w.*.*.*.*.*.&.*.*.d.*.&.8.*.&.w.*.*.@.*.&.&.&.w.&.$.*.",
"W.{.[.W.{.W.{.W.{.{.{.W.Q.{.W.W.}.W.R.J.J.U.U.!.J.P f g v v v b Z F F P P P P P P P P R P P L F C g F F F F g b f 2 f g g g f 2 2 % % % 2 2 f g C 4 2 2 2 2 % $ O % $ $ # # % % h b F F F F K Y ~ ~ ~ G G P ~ E T L L L L L G G G C f ; f F i.U.nXnXnX@XnXnXnXnX@XlXXXv.u.R g f h J.Z F J.P.R.Y.Y.P.p.u.Q L Z h g f f f f g g g C C Z F F v b h 5 2 2 5 5 C B 5 F F F F F F F F F F ~ J J F F ~ F F g F F g f g F g f f f g f h h 2 h 2 5 f h 2 g g 4 g C C A g C g g g b g C Z F F F P L K H J G Z F P F 2 2 F F H P P W U R Y W U U U W U W U U U U U U Y U Y W T W R E U R R U ! R U W R U R P P T P P L F G P G P F G G G F L L G G T T T G T ! Q Q Q E T T u.g P ! F C P F P P G G P T P P Y H v H Y W Y Y K Y Y U K Y Y Y I U U P P K P F G F G G G G G G G L L G P G P P T T T T W W W Q R Q Q u.u.Q u.Q J.u.i.J.i.J.J.i.i.p.U W W p.U I U U W U R U U Y U 0.U U W I P P I I J F v h g h I K I U p.0.p.0.0.4.6.s.6.6.6.7.*.O.O.%.*.O.*.*.*.8.w.8.*.*.*.8.*.*.d.*.<.*.8.*.&.*.@.@.*.&.&.w.&.&.*.@.",
"W.{.E.Q.W.Q.W.W.W.Q.W.W.{.Q.W.W.[.E.J.J.P.R.Y.U.! F h g F F g h g g F F P P R P P P P P P P F F F F F g g g f f 2 2 2 2 g f h % % $ # # - 2 4 2 4 ; ; 2 2 2 % # 6 O 6 $ 6 . $ # % g F I K v F P ~ ~ ~ ~ ~ T ~ T G ~ L L L G S S Z f ; # 4 i.W.}.XXnXBXwXnXnXBXnX#X#X!.~ G G h ; @ P.Q R u.R P.U.U.J.u.W W R Z f ; d g F L F S Z L L F F b h b g b 2 2 5 5 F 4 4 G F g C g Z F Z F F P F F g F F F g f F F g f g g g 2 2 4 g g g b b b h g 2 2 2 g f f 4 C C C g g g f g f g g g F F F g F F P R F g F P K 2 f P F G P I W W P K Y U U U U U U U U U U U U U U U W U U W Y U U R U U E U Y R R P P R P P G G F F G F G G L F G F G D G G L E T G A G T E T T T P J.f g P f 4 F f F C F F L R P F U K H K $Xp.K b H Y U U Y H K U Y U U Y P F F F F F G F G G G G P G F P L G P ~ P T U W W W Q p.Q u.R Q Q u.u.Q i.J.i.u.u.J.i.i.p.W P U p.p.W P p.p.U U 0.U W W U Q p.W Q W p.W U W u.I K I P I P U W W W p.p.p.6.W 6.6.0.0.6.6.5.O.5.5.%.5.7.5.) O.w.l.8.*.7.8.*.8.*.8.8.8.,.*.d.&.` | @.%.&.&.1.,.*.{ ",
"[.W.{.W.W.Q.{.W.{.W.{.[.Q.{.{.W.E.I.E.E.P.P.I.u.P G g g g g f % g g v F H P P J P J P P P L F F F g 5 h f b g f f % # O % 2 % # $ 6 $ % % 2 2 4 f 4 2 2 $ % O 6 O . . % O 6 O 2 b b h v v F K K ~ ~ ~ Y T P P ~ g F L T T L Z g C . A f C U..XoXbXbXbXZXnX#XoXnX@XY.u.R ; 2 L T u.R L R i.P.P.u.s.! W J f ; 2 f g g Z Z S F F L C Z Z Z g v v F b g g 5 B H F H C F F Z F F F P P L F Z g g v g g g f f g g g g g F v g g g f g h h b h h 5 g f b g C g C f 4 f g g f g g g g g g g F F b Z L P F K P P F Z C F F F F L P P U W U Y U W U W U W p.U W U U U U U U R T ! Q Q W u.! R P P P P P P P P G P P P G L F F F F F F F F G A C C D T Q Q Q E ! Q Q Q L F C G P G g g C G T G F F R T P F K K K K H K K J P K K P U P P K U U W W U P F g g F G G G G A G G F G P G P P G W P ~ W i.i.Q ! u.u.u.u.J.u.Q Q Q Q u.u.u.u.u.u.W W U W p.W p.W Y U U U U U U 0.U U U W W v.! W i.W i.W u.i.u.Q i.p.W p.v.i.p.W R I 6.s.p.p.0.6.l ..5.7.7.6.5.8.X.7.a.8.8.7.8.d.d.d.l.8.d.8.d.d.*.*.w.f.&.&.*.&.%.*.*.#.",
"{.Q.W.W.W.{.{.W.W.{.W.W.{.W.{.Q.E.J.I.J.Q Q J.W R F g 5 h % % 6 2 f g F J ~ L P P ~ P F F F F g f 2 2 2 2 2 2 g 2 % # # 1 ; $ . . . . . X # - # 1 2 - % # 6 % O % . . . . . % 2 b h b v v F K H P ~ H ~ ~ ~ P ~ f C G P T L L Z 4   C g Z U..XwXbX@XnXBX@XXX@XOXY.G Z F ; f L J L I L R W s.Q s.F F Z d ; # f g C g Z Z Z F L L Z Z Z F F v F v g b h b 5 F H H F F F F g g C F P F v g F Z C F g g g g g g g F Z g g g g g g f f g h 5 g g g g f g g C g C B f g g g g g g g g f g g g f g b v Z F F F g g F F F F F F P P W W W I U U U W U W U W W W U U Y U T U U W U W W W I R Y R P P P P P G G G P L G G G ~ G L G F G G T G G G T T E T E T E E E G Z B g F F C g g C G G F C G T W I ~ ~ K H K K K K K K P K P U Y U K U U U U Y Y P J C F F C C F G G F F F G G G G F R G F R W Q Q Q u.u.Q u.J.i.u.R Q Q Q u.u.u.J.u.i.p.p.i.p.W v.W U W 0.W U U W W W p.W p.W i.i.i.p.! ! v.P.P.P.P.! ! ! u.H.Q I I J I 6.0.0.6.6.6.r.0.7.5.8.a.7.7.l _ 7.6.6._ x.6._ x.8.8.x.8.7.7.8.%.&.*.&.&.d.f.#.$.$.#.",
"W.W.{.{.Q.{.Q.{.{.Q.Q.W.Q.{.Q.Q.}.T.J.J.T R Q W G Z f 2 # % # . 2 2 g F F P P P P P P F F g g f f 2 % % 2 f 2 2 2 ; # # 2 2 o . . . . . . . X X . # # # # # # # % 6 . 6 . . % x h h h g g v F F F H G ~ H ~ ~ F C F L P J Z L J 4 @ C C C E.+XnXnX}.nXmX@XOXgXI.G 2 f L g Z R T Z L R T G Z L R g g g f ; f Z L Z Z Z Z Z Z L Z A F G F F F F N F N v b H H G G F F F F g g Z v F Z g g g F F g g g g g v g Z g g g g g g g g g 5 h x h g g f f g g C g f 4 g 4 g f g g g g g f b f f 5 f f g g g C g g g g F P F F F F L P W W Y U U U U U U W U U U U U U Y U W W U W W W W W R Y P T P R P P K ~ G G P P P G P ~ P L ~ L P P G T T E ! Q T ~ T ~ G G G C 4 4 g 4 f f g C Z F F F Z F P U R P K K I K K L J K I K P U P U P U U U U Y U U W W G G G F F G G G C C G G G G F F G C C G T R E Q J.u.Q u.J.J.J.W u.J.i.u.J.u.J.i.v.i.i.p.v.W Y W W p.p.W p.W p.W W W p.p.i.p.v.! p.U ! p.i.P.v.i.Q ! ! W U P P L J P I J J l J J 6.M l p m 6.l j 6.5.8.8.6.5.x.8.8.8.8.a.f.8.a.d.8.&.*.@.@.$.&.&.&.&.$.%.",
"Q.{.W.Q.{.Q.Q.Q.Q.{.Q.{.Q.Q.{.Q.}.U.I.J.G G R F F b 2 % # # $ # 2 2 g F J J ~ P P P P L F F b g b f g f f b g f 2 2 2 2 2 % % @ 6 O 6 . X # # X . X . @ # # $ % % $ . O 6 . O h 5 5 2 h h b v b H H H ~ P P ~ P F L P L g h f C Z 2 f C G XXwXmXZXoX+X@XzXbX+X~ g 2 f Z I T R I g J R T Z g C J g C S C g g Z J Z Z J Z J L J G G G G J F F K K F F H H G ~ H ~ C F Z F g g g F F g g g g g F F g g F C g F F g g F g g g b v g g x h g b h g g 4 g C 4 g g B 4 C g g g g g g g v g f f b F g f g g v g g F F F F g F F P P W W W Y U U U U U U U U U U U U U U U T T W U W W U P R P P P P P P L G F L G P G F L P L P P R E W ~ T E Q Q Q E T P G A C C C 4 f 4 2 2 5 C F G F G F F F ~ T P G J J K F K J K H K P K U I U K P U U W p.i.W W Q W R T G G G G A C F G G G G G Z F C C F G G Y Q i.u.Q u.P.I.J.Q i.u.J.J.i.J.i.i.! p.p.W W p.U W U W p.W U I U p.p.p.W W W W ! p.p.! W W ! ! T P U W Q Y J g j F p.4.J h e e l 6.r.4.6.J 6.6.4.6.z p l z p z z _ s.x.8.8.8.X.8.7.f.d.w.*.*.@.$.&.&.&.&.&.",
"Q.{.Q.{.Q.{.Q.E.Q.T.E.{.{.T.T.Q.R.J.J.Q F C C 2 g f 2 2 % % % 2 g g F L P P K L F P P P P L F G F F g Z b g g f 2 2 - % # 1 ; % # # # # @ # & # # X # # # # 6 6 O O @ % # . O % 5 % 5 h 5 b v H H H H H ~ P H P J P P F g h h g Z 4 4 C u.@XwXZXmXnX@XE.@XoXJ.Z d ; # f L P L J G L L J Z C C f f g C F Z C g g Z J Z Z G F L Z G L J G F F K K H K H K ~ F G H g g F g g g F F L F g g g g g Z F F F g g F F F F F g g g F g g g h g v g g g g g g C g C g C g F g C g g g v C F f 2 g Z F F g F F F P P H F F F C F F G P U U U U U U W U U U U P U U U U U U T U E U P R I U P P P P P P P P L F F G P P ~ L L G ~ P R W Q Q E T T E E W E T Z C 4 2 4 f f 4 4 4 f f F G P ~ P G G G G L G F F K K J J K K M K I P I K K I K Y U ! v.i.W p.W i.u.Q W T P C A A G G G G G G D G A C G G G T Q u.Q Q u.J.P.J.u.u.u.J.u.J.i.u.i.p.U p.Q ! i.v.! ! p.i.i.p.U W W v.! W p.W W p.W v.P.v.i.i.W U Y P U U K v h g v I J M h z i l m s z 8 + + + + 7 7 0 0 7 0 0 z z _ l _ _ _ _ _ ) *.w.j.f.&.*.&.1.&.&.&.%.",
"Q.E.{.Q.E.T.{.T.{.T.E.T.T.E.E.E.R.J.J.Q F C g 1 4 4 f 2 % % f g F F F P P F P G P P P P P P R P P P F F F F g f 2 2 % # $ # % 2 % % # $ # # o O - # - # # # $ O $ 6 $ % % O O % h h h 2 h b v F H H H K K H H F g b g F Z Z C C 2 2 Z P ).zX@XnXnXCXnX!.).Q ; C # f ; # Z L Z L L J C Z Z Z g f f g Z L L P L S G F L L F S F G G F L G F J F K K H K K H ~ F H g g Z F F F L P P F F g F F F g F F F F F F g g g g g F g F F F b b g v v v v g C C Z C F C A C F F F F F F F F F g g g F F F F F F P R I R F g F F F F K P P U U U U U U Y U Y U P U Y P U U U T U U U R Y T R P P P P P J ~ P G P G G P R T P G P T U T W W W Q Q T A G Z F C > ; - - > 4 4 g g g g F F G P P L P P G F G F F J J v K F J F K v F K I v v v F v K ! W U Y W W i.! Q W W T A 4 G G A G G G G G G G C A A Z A Q R Q R u.K.i.i.u.u.u.u.u.Q Q u.Q W p.W p.v.Q i.P.i.v.v.i.p.p.i.p.v.W p.p.p.i.W p.i.! W p.p.p.0.U K Y K F g h h j r j h J I I m l J l l 0 + + 0 0 7 7 0 0 0 0 w 0 z z z l S _ _ _ p ) *.8.*.*.$.1.&.#.#.%.",
"{.Q.{.T.E.{.T.E.T.E.E.T.E.T.R.R.E.I.J.i.G F F 4 f g 2 h % 2 2 f g Z F F P P L F P P P R W U R Y U P P I P I J Z g g f 2 2 # ; % % % # # # . @ X # # # $ # $ O # % # 6 % % . O % x 2 h b h v H N H H H H H F F v v g g g F J j g - f Q J.wXnX@XbXnXnX@XE.u.C . 4 # F C f J F g L F Z h f g g f h g Z S L P R R R J L L G L J S G Z L F J F F F F F H K H ~ F F H F F F F F F L P P F F F F J J ~ J F F F F F F F v C F Z F Z F v v v F N F v F F F C G G G G G G G F F L G F F K F J L F F F F P P P P P T U P F G F F F F P P P U Y U P U U K Y K U P P U Y U U ! U R P P P P P P P P P P P K P P G P P P T U Y L P R T W R ~ P R T G C C A 4 4 ; - # - 1 4 B f C C F G Z F P R G P G F F F F F F J J J K F K J g F I K g h v v h b F F F F Y u.i.Q T W Q T G A G G F C A G G G T A G A C 4 A L L R Q u.Q Q u.u.Q u.Q u.W Q W R U W 0.! p.p.! p.! i.p.p.W W W p.! p.Q p.U 0.U U P U I I Y 4.U U P K v g C v v h h r r l 4.6.M j h d 0 7 7 d 0 z d z z z x.z S z x._ l ) _ x.) _ / ` ( ( @.#.*.$.#.@.#.#.",
"Q.Q.Q.Q.Q.T.T.Q.{.T.T.E.T.Q.R.R.T.! H.T C g C 2 g 5 g 2 # # 2 g f g v F F P P P P P P R P R P P Q Q Q ! Q ! R P F F P F g h 2 # h 2 2 % # # o @ o @ @ o $ 6 % % % $ O % O 6 6 2 h b b h v v F F H K H H F b H b H h f g F J g 2 ; L Y.R.nXnX@XnXnXoXE.E.T G 4 . $ P G h Z f ; C g f f f ; f f f Z S C Z F L I L L L L G G S L D Z G F F F F F K N H H K F F C 5 F F L F F J H P P F F F G P P P H H F F F F F F g v g v b F F v v v F F F F F F F F F G G G G G P P P K P K P P P W W Y F F P P P L ~ P U I P G J F G F F F G P U U U U P K U K U P Y Y R U U U U U R Y U Y P P P K P P L K P P P L G P R T W E P R U Q W T F Z G G C C C g 4 1 4 ; - ; 4 f f 4 g F G F Z C G R F F G P G F G F H J F K M F F J h v F v g h h v 2 2 2 2 2 ^ T v.P.u.! E Q ! Q T G C C B 4 A S ~ G G G C C 4 4 Z G E u.u.R R Q J.u.Q R W R E R U U U U P P K U Y 0.W U U Y Y I U Y Y Y P Y K K K K J N I Y Y M K I F Z j j J M h M h 0 e l I l h j z d h I 6.r.s.~.^.`.`.`.,X`.`.^.`.L.L.L.z.l.r.w.X.) ` #.,.&.@.@.@.@.@.",
"T.!.!.!.[.T.[.T.[.T.T.[.[.[.T.T.I.! T ~ b 2 4 F 5 5 1 - 1 2 g 5 C F G P P G L P T P T P T U R U P E W W R Q W u.L F F g v g h h % % % % % % # $ # 6 % % % $ $ # # # # # # @ # % 2 2 2 g F g 4 g H H x H H H H F 5 F F 2 P g b g ; XXXXwXnXnXmXnX#X! !.R.F Z 2 2 f b h % 2 b F g 2 - ; C F C F T G G G D L P F Z Z C Z F G L E G W K K F K K P K K H K K K Y Y U P P P P P F L ~ P P P F F F F K K H H v F b b 5 N F F F F K Y Y P K G J F L F K G P P P R T P F P P P U U U Y U U P U U W U U U W P R W W Y P P F F K G L P P P P U R P P P P P L K P K P I U U P Y P U P Y U Y P P K K K K P P F T T T R P ~ G F P R R R P G L g g g g h # @ . . 6 % % % 2 g g g Z F F J F G J F F F F P P F P P K J v v g g g g g g g F F j g h 2 # # 2 g L R E J.I.J.R R Q T R C 4 ; C Z A g Z C G L Z ; - f Z L R s.s.Q W Q u.R R R ! R ~ G P P J F P K J H P I G H F F F F Y I Y K K K K v K K K K U J N v v g e h g l J l d h h h z d l p.4.l l a._.rX9XeX0XcXcXcXxX0X0XcXeXwX9X0X0X9X,X^.a.t.j.w.&.` | B.%.&.w.w.",
"T.!.T.Q.T.[.T.[.[.T.T.T.T.T.T.$XP.! ~ ~ F g 5 g 4 5 - % 2 4 5 g g Z P P P L L P P T U T T T R R R R R Q Q Q u.R P J H F J v b f h g f 2 2 % % # % $ $ # % % 6 $ # # # # . . # # 2 2 2 g b F g g b H ^ H ^ H H ^ F F F % P C Z Z ! #X#XzXwX@XnXlX@XH F 2   # 2 f f g f % 2 b g h # 2 C G G C A G G E D E L L J F J j F A S L G G K F K K K U P K K K K K I H I K P G F F F F F F J F F v F F F F F v b b b v b h b b b b b b F Y P P H H P P P G P P P P P P P K K K P K K Y U P K U U P Y P P P R P P P R R P P L G F K F P P P P P P P L P P K P P P P P P T P K P P K K I K P I K K P P K K K P T U R P P P R P P T R G F F g 2 2 h % % % % $ $ % 2 % h h b v F g F F F P K G F F F F F J F F F F J F F F v g J v F F F F F F 2 - - @ X # ; f Z P u.Q Q R Q L R L C g Z F Z C G C Z L Z f ; 4 Z S T E R s.Q R Q R R R E R P G ~ F F F F F F F F F J F F F F g v v b N b v v M b v M v v v g b J M g j l M S h h J J l Z z h s.Y._.9XeXeXcXMXGXGXVXAXVXcX0X9X0X,X,X,X X,X9X,X,X0X0X;Xz.&.( ( 7.&.&.&.*.",
"!.!.Q.!.[.T.T.[.T.T.T.T.[.!.T.$X! P F H H ^ 4 4 5 2 % - 1 5 C 5 C F P P P P L ~ U T P R U T T ! Q T E W W Q Q W W I P P I K v v H J F b h % % $ # # # % O 6 $ $ # # # # # . # - f 2 2 g Z g g g H ^ b H H H F b F g g # P Z F g I.Q.#XnX#X}.gX#X.XF C F 2 L G C g 2 % $ 2 h f 2 @ g G G G ~ T A D D G L L L J F J J L L T E E G F F K Y U W U K K P K K F F v v F F F F F F F F g b f g f b f 5 b b h b b b 2 5 x h 5 2 b b b b P J F J P P P F J ~ P J ~ P P U P K K K P P K P K P K K K P K K P P P P P P P P P J P F G K L L L P P P P P ~ P J P ~ L P P P Y K K P K K P H K P K P K P K K P U T P P P T U T T ~ L F C g 4 2 $ % % % % % r % % h 2 x g b v F F F F J P J K J F F C F F ~ F F v F F F J J L K J F J J P P L F C F f ; @ X - 2 4 Z L R Q u.E L W E T G G S G G G C Z S G C 4 ; g Z J E E R E T R R R T T T P G G F F F F F F F F F F v g v g v h g r 2 h h h b h b v b b h h % v h j Z M g h h h J J S l h l K.Y.'.hXNXVXGXFXIXSXvXeX9X^.l.x._ x.x.) ) x.6.8.l.l.:X,X,X5X5X;X;Xj.w.*.` ",
"!.!.!.T.T.T.[.[.T.T.T.[.T.T.$X$X! H 5 5 F 5 5 5 5 3 % 1 5 5 C 5 C F ~ R R T P L U T R W ! T U E E E R R Q R R W Q W U I Y U K I K K J v h 5 % % $ % $ # $ 6 # 6 # # # # $ 6 $ 2 h % 2 g F F g b H H H ^ H ^ F ^ ^ 5 5 1 W g b f J.i.+XnXnXOX@XXXQ 2 2 G ~ F f . b % . . % g 2 2 # F Q L G U E G E E L L R L J J T P L P T E E T P K K P U U Y K K F F v H v v v F C v Z Z g g F f f f 2 2 f 2 g b x % b 2 5 5 % % 5 5 % 2 g b b P F F F G F P P P P P L K P P P K K K K K K K K K K K K K K K K P P F P P P F F P P P G F F F F F P F F H F J J P P P P P P P P P K K F K K K K K K K Y K K P K Y T P T P R R R P F b g f 4 2 2 # # # # % 2 2 b % % g h g h v v F F ~ F L ~ L H F F F F J P G F F J L P P P R R P P P P P P P L P E R L f ; - ; g f C L R Q R Z E R R R L G G G P F A C L L f - h A S I E T I T E T P T U T T H P P F J L P F G F F F F F Z F v v b b 5 r 5 b h b h h v h N h h h h h g g j g h r h h h g h I `.rXeXMXMXNXSXSXcX0X`.l.x.x._ z w z z w w 9 w w ( q 7.j.l.,X0X,X;XS.f.&.| ",
"!.!.!.!.T.[.[.T.T.T.[.T.T.T.$X$XQ ~ 3 % 5 5 5 5 5 2 3 2 5 F F F G G P E ! R P ~ T W R U ! W W W E T W W Q E U R u.W U W W 0.U P K K K K v v b h % % % # # # # # # # - # # @ % # 2 1 2 g F F g F H ^ b F ^ H F 5 F 5 F 5 Q f 2 % Y.P.@XnXnXgX@XP.g 2 # 2 2 - 2 # h % . . % g h f 4 P T G F E T T ~ E G L I P I K I U P P R E E T R P K K K K K K b v b g b g v g g g g g F g g g f g 2 g f g 2 5 5 % 5 % % 5 5 % 5 2 % 5 % b b b F F g F F L J G W T U P P P P P K H K K K F K J K K K F F K K K G K G P P P L F P P ~ F F F F F F F F F F P ~ J G P L P P P F P P K K P K P K K H K P K K P P U P P P R U R ~ F C g 4 2 4 h 2 2 % % % % % % h 5 % 2 h g h f b v F L P P P J P G P P G P P P P J R T R R R W W R W R R R R R R L G T W E G 4 ; @ Z f 4 g L R R T L T E R T L L R L G A F L T Z ; d A A L R L L T P T G P ~ ~ T H R P P P P P P P F F F F J G F F M F v h h h v v h v v J v v h g b v v v v J I I g v r $ d h a.oXNXNXFXJXFXFXMX9X8.8.x.x.*.x.x.8._ X.| / p q q ( q ( w w x.fX;X,X:XA.j.f.",
"!.!.!.[.!.T.T.[.[.[.T.T.T.$XT.$X! F 2 1 2 2 4 5 g 5 5 5 F H H ~ P P P U T W R P T ! W T E W W W T W T E E R R R W W p.W W W W Y U U U U Y K F K h g r % % # $ % # % % # & # # % 2 2 2 Z F F Z F H H ^ H F ^ b b H g F 5 W 2 # 2 Q.Y.#XoXXX@XW.R f F 2 g 2 X h 2 5 # . $ 2 g g g F G P F C T E ~ E E T T R Y K J W I U P R R E T W K F v v F K F h g h g h v g v g g g Z Z g Z g v g b f g 2 5 h h 5 % % 5 5 % % % 5 % 5 % 5 h 5 g f 5 f g F F F I U P P L P P P P K K K K K K H P K F F F F K K P P K L P P F F P ~ P F F F F F F F F L F L L P P P P P G P L K K K K K K K K K K K K K K P K P R R T P R P C 2 f 2 - # 2 5 4 2 h % 2 % % h 2 5 h 2 b v b b F M P ~ P P P P P P Y R P P P P P P R W R W W W Q W u.W R W R u.R P L L E W R G 4 ; C ; # 4 Z T R Q G L R R L L T R G G Z Z L T F ; f d S L L T T P G G G ~ T T ~ ~ P P L F P P L L ~ L P F P H K F F v v g g g v g v v F M J v v v N v v N v M U U U K r % h 4.Y.wXrXrXNXFXMX0X,X8.8.l.L.L.;XL.L.a.*.@.@._ ( p w w 7 w w w d.L.;X,X<X,X^.B.",
"!.!.!.!.T.!.[.T.T.T.[.T.T.$X$X$X~ F 4 5 5 4 4 g C 5 B g H ~ Y ~ W P P T U T T P W W Q W W Q W Q Q Q R U W R T T W W U W U W U I U U U U U U Y K b b h % % $ % # # % 2 # # # $ 2 2 2 2 v F F v F H H ^ b ^ x B 5 F F F 2 P # 2 g P.Q.#X).Q.}.R C . g - f f   .   % 6 $ g b b v F ~ F C G G T L G T T T P R Y P K Y U K P R T ~ G K F F v v F v v v v v v v g g b g g v g v g F v F F g g g 2 f 5 5 % % % 5 % % % % % h 5 h x % % 2 2 2 2 g b Z b F F F G P P P K P K K H K H K J P K K N F K K Y P J J P P P K F J G F F F F F F F F F F P F P P P P P P P F H J K K K K K P K K F K K K K P Y U Q R ~ F G F f ; 2 - # # 2 g 4 2 2 5 h g h f h h b h v F H v F K P P P P P P P J R W P P P I P ~ R R R W W s.W Q Q s.W W W R R T Q R T T W R G C C - @ ; f Z L Q P R E L T T L E S L G Z G R F 4 f A Z L T L R P G G G H ~ T P G P F F F F F F F F J F F F F F F h g v j v v v F v v F J J F v v F v F F b v K I I K e h 0.~.9XbXFXGXJXLXpX~.~.l.,X0X0XxX0X0X,X;XS.j.h.j.f.8.X.` w ` ` ` 8.x.x.8.4X>X,X:X",
"!.!.!.!.[.T.T.[.T.T.T.T.T.H.$X~ F 5 5 g C 5 5 b F F H H G ~ Y T Q R L ~ R W ! E R W ! T W W Q W E T E W R R P R W I W I U W W Y P U U U Y P Y K F F b 2 % # # % ; # ; # # # # 2 2 2 2 Z F F F H H x H ^ b F ^ 5 F ^ H 2 F O 2 P P.XXnXoXQ.Q.2 g 2 P # 4 g . 2 # . O 2 N K F g F P Z C G R T G G T T T R R Y Y K U Y K P P T T G b v v v F F v b K K K F v v g g g Z C v F F C F F F b g h 2 h 5 x 5 % % x h 5 % % x % x % % % 6 2 2 2 2 f g g g 2 f C F F K G K P Y U I K P K K U P K F K K P P P P ~ G P P P F G K J F F F J F F F F F P P P P P P F P P P J H Y P Y K P P P P K F K K P Y K U u.W G F F C 2 # 2 # # - 4 g f 2 g g b h b v b 2 g b v v v F F K P R U P R P ~ P P P P P P P P G L P T R W W Q u.Q Q W Q Q W R P Q L Z S L T G g C ; @ - ; ; f G Q W R T R T T T C G T G L E G 4 4 f J L T E T R H F F G ~ T ~ H ~ F Z F F F F Z F g F Z Z v F C g g F F J H I I J K I P P K I J F Y Y Y K F N J M M h N Y.9XgXNXHXNXSXSX,Xy._.,X,X9X,XaX0X0X0X0X4X&XZ.M.j.d.*.` _ *.x.d.L.z.L.1X,X:X:X,X",
"!.!.T.!.T.T.T.T.{.T.T.T.H.H.$X^ F 1 1 1 6 1 2 B F H Y ! Y ! Y ! P R P R T W W W Q W W Q W W R Q R Q R Q R Q W Q W W W I W U U U U U U U U U Y W K v g % % $ . . # $ # # # # 2 2 . g 2 2 v H g g H ^ 5 5 ^ H H g 5 b H 1 % 2 g F v.W.W.XX!.P   O 2 f 2 - 2 . . # % h v H p.W g g P G C C C G E Q E ! E U U Y P Y N K K H G ~ G ~ F F F F N F v v v N F v v v v v F F C v F F F F g g g g g g g g b b g g 5 2 2 2 b 2 5 % 2 5 5 % 2 2 2 2 f h 2 2 5 f f g F J F K K K K v F F J H K P K H K K K P I U P L F P F G F F F F F J F F F F F F F F F L F P P L P P P K P P K Y P K K K P K K K Y U P K P H F g g f 4 2 # # 2 4 f g C g 5 h v h h 2 g h b h g F K U K K P P P P P R P P P K J P H P P G P R R R R u.Q u.Q Q Q Q W Q R W E R Q R R Q T G g ; @ X # ; f Z Z L R T S C G T L R L f G W L ; C f 4 f G T ~ G ~ T G H B B H H G F F F F g b g g F F Z g g 5 g h g g v F F v F F F v v F v F F Y Y H K K Y N 2 I h v 0.Y.rXNXSXFXMXqX(.V.^.9XtX0X0X0XpXcXpX0X0X8XyX8X=XN.k.1.( w ( ` 8.L.fXfXL.f.V.;X,X",
"!.!.!.!.[.[.T.T.T.T.T.T.T.H.$X^ F 2 1 1 2 1 5 5 F H ~ T T ! T U R P P T ! ! W W W ! W W Q W ! W Q Q R R R Q R Q T I Y W W U U W U U W U U W 0.U K v b h % % % % # # # # # # # # # f 2 2 v F f f F b 5 ^ ^ H F ^ 5 g g 2 f g g P R.).).I.P.Z X ; g g 2 ; 2 # # g 2 v g F U P C g G G G F G G R T ~ ~ ~ P K ~ N M K K H K G G G H F J J F F F F F K F F F F v v v F F F Z F F g C F F F Z g g g v b b b b b b b 2 h b x 5 x x % % 2 h 2 2 2 5 2 2 g g g b F F F b F v v v v v F J U K K K K P K K P P ~ P K L L P Z F F F F F F F F F G F F F F L L P P P P P P P K K K K K K K K P K K K K P K v F g 4 2 4 2 2 2 1 2 2 f g g g g h g v g b 2 g v g b v N H K K F R P P P P P P P L ~ P L P L P P R R R E Q R R Q Q W R R R E E T R Q W R R R P A Z 4 - - @ . @ 4 C G T L G G G T L T G A C E L C C C C C 4 g g F F A C H ~ H ^ F P F F F F F Z g g g F F b f g g h g v v F F F J J F F v v F N F Y H F H Y P M M K r M v.(.gXSXSXAXNX(.} 5XeX,X,XeX0XpXiXiXpXpXyX8XhXuX3X-X%XS.f.` _ x.` x.L.L.z.d.j.D.:X",
"!.!.!.[.[.T.T.T.T.T.T.T.T.H.~ ^ 5 2 2 5 2 2 5 C ^ G T Y ~ Y P P T T P T R ! R E T ! T U R W W W E R Q E Q R W R W U P W U U U U U U ! U U U U U U K v g g h h % 2 % O o X # . . % g f 2 g g f 5 ^ 5 5 g b F b 5 g F 3 f P g g W Q..XQ.F P 2 # 2 4 2 # # - # ; H v Y K K W Y J P F F G T T L T ~ ~ H F H H b b b N K F K H H F H K H K N F K F N K F F N F v N F F F Z F F F F F F F G F C F F H H H b b b b b b x b 2 h h x 2 2 4 f 2 f 2 h g 2 g f g b C Z g g v g v v b v F N K P K K K P P P K G F L P P P P F F F F F F F F F F F F g F F P P G P P P P G K K K F K K K K K K K K K K K v g g f 2 2 2 2 2 ; 4 f f g g g g g b b v b b h g v v F F F N F F K P P J P P P P P P L K P L P L P u.Q Q Q R E E T E E E T R E E T P E R T T R T Z S C C f - . X - 4 g Z L T T L P G T L C C L ~ Z f C F g 4 ; 4 4 < 2 F ~ ~ H H B ~ F F C F F F F Z F F F Z g g g b v F H K F K F K N F H J H F K F H H K N J I I I e m c.2XNXFXGXgXMX^.h.qXiX0XtXpXcXMXiXyXqXpXpXuXjXhX8X7X7X<X%Xz.d.x.` ` x.x.x._ w.B.Z.",
"!.!.T.[.T.[.[.T.T.T.T.H.$XH.~ ^ 1 - 1 5 5 4 g H H H P ~ ~ H ~ P P P P T U W T U U E W R R T T W E E R R R R R W Y R U I I W I p.U U U W U $XU U Q U K b g b 5 h 4 # . . @ $ .   . g f 2 g F f b H ^ 5 5 ^ ^ H 5 H F % 5 I g % Q }.oXP.; 2 ; - 2 2 2 . X 2 4 4 P K U Y K U K F P Z F L T T T T ~ F F F b b b b N b N b H H F H F K F K F F F F J F J H F K F J F F F F F F F F F F P P F F J H K Y K K H v v F b b b x h b b b g g g g g g 5 f g 2 h f g g v f 2 b g g g v v v v K K K K K K K K J ~ P K ~ J F P F F F L F F F F F F F F F F F P K P P F G P F K F F v F F F v F P K F K F v b g g g 2 4 2 f 4 2 g g F C C C g g g g v b h b v v g M K F F v v F P F P ~ P R P P P P L P P P P P Q Q Q E R T T T T T T E T L P T ~ R E L L T L Z F C Z C 4 @ # ; ; ; 4 Z T R E P L T P C f C S L f C C F C 4 5 F & 1 5 ^ H ~ ~ H H F F F F F F Z g v F F g Z C g F H K Y Y Y K H H H F b F F F H F K K F M J J 4.M s 9./.gXNXJXNXhXV.^.qX0X0XiXMXpXvXAXpXtXpXpXpXuXhXjX8XyXyXtX<X>X;Xd.*.` ` ` ` ` w.S.^.",
"!.!.[.!.[.T.T.T.T.T.H.I.H.H.^ ^ 1 # 1 5 F g 4 F G ~ P ~ F H ~ H T P P P R U T P T T P T T R U R R T P T E T T I P I P U Y I W W U W U W U U W U p.U Y N v b f 2 2 $ .   . % . . . 2 2 2 g C g F b F 5 x b F 5 g F b 2 5 P g 2 i..XXXU 2 # C 2 - 4 2 . 2 T P F G v K F F K v f g F G G G L G L T G ^ H ^ b b b b N N H H b F F H F K v v N J F v b M F F F F F F F F g F F K F F L K P J J H P P K H Y ~ H K H H b b b v N v b b F g g g g f f g 2 2 2 f g b g h g g v h b v F K F K F J F K K Y P P P P P J F F F F F P ~ F g g g F F Z F F F P L P K ~ J ~ J F v v F v v F F F K F F N v v v g F C g f g g 5 4 g C g Z Z g g g g g g b v b g v v F K K F g v F P F F J P P P P P P L P P P ~ P E E E E E T T T E G E G E G T T L T L L L E P G Z C C Z f ; - # @ # ; C T R E L L R T C f f Z G g g 4 C F F B 4 4 5 5 B ^ G ^ ~ G F F F F F F F g F F F F g F F H H Y H Y ~ K N H b H H b H H F K K K F v v m I l j r.4XhXSXJXhXhXt.B.pXyXyXcXpXpXjXiXpXtXiXiXuXuXhXjXjXhXuXuX8X7X<XS.l.z.l.d.*.^.:X5X5X",
"!.!.!.[.T.[.T.T.T.H.I.I.$X~ ^ < 2 # 1 g B 5 ^ F ~ ~ P ~ ~ H F ~ R T P T T T T P P P P T P T R W T T L T T T I T P P P P W U W U U U U U W U U U W U P P F v h % 4 # . . . . . .   2 f % g F g K ^ 5 b B 5 ^ 5 ^ 5 5 2 2 F F ~ U.|.Y.v 2 @ F 2 # 4 2 X 2 W W Z F g F v v P F 2 % F F F F G G ~ G F H F H H H N b b b b x ^ F B b v v v b v g v v v b v F N v v v F Z F F F P L F J ~ P P ~ J P Y Y H N Y Y H K N v H b v H F H b F F F F b g g g h 2 2 4 f g g g v g g b h b v F v F v v F F K K L P P G ~ F F C Z F F L J F F g Z F F F v C F P P K L J F F F F g v v v F F N v F v v F F v v g F F g 4 4 f 4 h f g g C C C F g v h 5 h v v v g v F J F v v v v P F F P L P P F P K P P P P P L R E T ~ E T E L G E G E L E L T L T L G L R R G T Z C Z Z 2 @ @ X X ; C L R T L T R T Z f f C Z Z C 4 4 C C 3 1 5 5 B ^ ^ H ^ ~ F F g F F F g Z g F F F F F F F H ~ N Y K H ~ H H H b H b H b H K K J v Z j l M l l l.9XhXGXGXhX5XpXtX0XiXiXyXiXiXiXiXpXuXsXvXiXjXjXjXhXjXdXhXiXyX5X;X;X;X;X;X*XMXAXNXAX",
"!.!.!.!.T.T.T.T.H.T.J.$XH.~ ^ < 3 6 3 5 b 5 F H ~ ~ P ~ H P ~ ~ T P P G T P P ~ L L L P P Y R P L T T L R T L P P P I P U U U U U U U U U U U U Y P P K K K b g f 2 $ . . . . . . 2 2 2 g g g ~ B x ^ ^ 5 5 5 g 2 g g 2 f F p.Q.W.J 2 # . 2 4 . 2 2 - f P G g F K K b g U Y f 2 C C C C C F A G F ^ F b N N N N x b b b b b g b b v b b h b g g h g g v v v v v F F g F F P P F F ~ P G J H P P K Y K K H Y K K K N F H H K H H J G F F Z g g g g g 2 2 f g g b b b h b h b v b v b g v v v v K F F ~ L K J F F F F P P L F Z g g F g F F F F P ~ J ~ J F F F F b g v v v K F K v v v v F K F v F g g g g C g g 2 4 5 g g F C g v h h b v F F F v v v F N F v v F F J H P P P P P P P P P P P T T T E E L E L E E L G T E E R T L T T G T E R L E L G L F 4 - @ O # - g Z L T T P P L S C C g C C C F B 5 2 - X 3 3 4 5 B ^ ^ H F g g g g F F g g C F F F H H H H H Y ~ ~ H H ^ H ^ F b H H ^ H G j h J J I l l j ..(.yXhXNXGXgX<XhXAXhXeXpXpXvXsXpXuXiXiXiXiXjXjXjXjXjXjXhXjXjXuXtX5X>X;X;X7XhXJXJXJXGX",
"!.!.!.!.T.T.H.H.T.H.J.H.! T 5 3 5 % 3 4 5 F H H K P ~ K H ~ P T T P L P T T P L G G T P T T E E L T L L L P P P P P P I U U U W W U U W U U U U K I P U U I v h b 5 % 6       .   2 g 2 5 f 5 H b F b g g 5 5 5 5 H H f % J i.!.Q.2 1 % @ & C . 2 g g F P F F Q K N 2 h K Y 2 % f 4 C C F F C C 4 5 x x b H b N N b b b x g ^ b g g h h x h 5 h b g h g g g v g F v F F G K P K F J J K H F P P H Y H H ~ N K H ~ H F H H Y K H J P F F F b g g F b g 2 2 g g g f h f h 5 h f h g g b g v v v F F F J P P P F F F F F L P F g g g g F v F F L K P K K K F F F v v v v v v F v J b g g F F K K F F C C g C C F F # 2 4 f g C F g F b h b F K K N F F b F J K F g F F F F F P P F P P P P P P P P W E T E E G E G G T E T E T E E T E L L L R Q L T F Z G Z f - ; X @ ; 4 A G L T L G G A Z C C C 4 5 F H 4 1 % 1 # 6 1 5 ^ C ^ B g g g g g Z g g g Z F F H H N Y H H H ~ H H H b H b B b ^ x F H C g g l J 6.I l l 7.4XhXhXGXAX6XMXA.5XMXtXpXAXaXiXuXpXiXiXuXuXjXjXdXjXjXjXjXjXjXpXiXiXtX<X5XjXJXJXJXJXGX",
"!.!.!.!.T.T.$XT.$XH.H.H.! ^ 2 o 5 1 1 5 B H ~ ~ ~ T ~ L ~ ~ F G G G G ~ E T E T L G S G E L E E I I L P I I T J P I P P I P Y I W R P R U U U U U I K K U K J M b % % % 6     o 6 O 2 b 5 f b b F F F F F F b f 2 g f # # F P.).P.1 2 # # 4 # f G L ~ L L F P F F K b M K h 6 % 2 h 2 f g g F b 5 b 5 b 5 b g b b b b g x b 5 g x r N N h b N b r h b h v g v v v v v v F K K I F F v F H K K H ~ H b x b F Y Y b F F F H H P P L P W I P F g f v f 2 g g g h 1 2 g g h 5 g g g g h g g g F F F J F F P P G F F G K P J ~ F g g g v v v v J F F K F K F F v v F v F F F F N F v F v g v v v K v g F C g 4 2 2 g 2 2 4 f g C C g Y F g v F K F v N F J F N F F F F K K K P K P K U U U Y P P P U T T T T T T L T G L T T T E R E R Q R Q E R R Q E Q E P G L A > - 2 4 ; f G L C G A Z G G L A f 2 2 Z F C 2 # o # 2 F H g 5 g F g Z F g Z g g F g g F F J K F F H b H H b H H b 5 5 b g g b b b F h J j d z I l x.L.aXBXBXvXvXcXtX0XpXyXpXbXiXiXvXiXiXiXiXvXpXdXvXsXvXsXjXAXjXjXAXhXhXuX8X8XAXJXJXJXAXMX",
"T.!.!.!.T.T.T.$XH.H.! ! ! B 3 * 1 * < 5 ^ ^ H H T ~ ~ ~ G G G G G ~ G G ~ T T E T L S L I E E S I I I I T I P I P P P P U P P P W U Y I W W 0.U U U U I I I I J b % % % 6     . . 6 % 5 g x g F H F g b C g g f f b g 2 - g W P.W # f 2 1 g 2 F G F F F F G G F v N b N K b $ $ # # % g g 2 f 2 g 5 b 5 g x x 5 g 5 x b g 5 x 5 x N r x x r x r b b h b g v v v v g g v F F H F F v g h b v g h 5 x 5 5 5 ^ ^ H 5 g b F F F K F F G P ~ K ~ L F b g f f b g g 2 2 g g g f g g g g g g f g g g F L F F P J P F b F J G P P F F b g v g v v v N F F F N F v F v F F N K F F F F v v v b v F F v F F g 5 2 ; # - # 4 2 f g g C Z F K F g v K K v b F F F F F F N v F K K K P P I Y U U U P K U Y I T T L T T T E T E L L T E T E R E Q Q E R Q E Q Q Q Q T T T G A ; 4 4 ; 4 A G Z G Z G A G A C f 1 f g F g 2 # $ # 2 g C f 2 f b g b g Z g g g g g F F F G F F F b x x b b ^ b x b g 5 b b b g v g g J J h h l z x.8.aXvXAXvXcX0XeXpXqX0XpXpXiXiXsXiXpXiXcXdXpXdXdXiXsXiXjXhXjXjXkXhXuXuX8X7XuXAXhXyX8X2X",
"T.T.T.T.T.$X$X$X! ~ E ! ~ B : 3 * 1 6 3 B H F ^ ~ H ~ G G ~ F G H A G G L T G L E L G L I E I T T L I T R R P P P P R I P R P T ! W U U W W U R U P P P U U J J N r % x % 6 . .   o % 5 5 F F H b g g g g g f 2 g Z g 2 2 F J P 4   ; 4 ; 5 2 Z F F F F F F F F g N h b N h . % % % f v v Z g g g 5 5 5 g 5 5 g x 5 b g 5 x 2 g x r x % r r x x h b b N b g v v v v b v v F K K N v h h % h % % % 6 1 1 1 3 1 % 1 1 2 5 g v Z F F F F v F P U I F Z g g g F g g g g b g g 5 g b 2 g g g g g g F F F F F L P F Z H P L P L F F F g b g v v v F F F v v F F v v v v v v F J F F v F v v v F v v v g f 2 - # # - # g g g g C F F F K v v v U K K g F F F F K v K F K K P P P Y Y U U U U U U K U Y L T T T T T T T T L T R R E W R Q R E Q R R Q W Q Q R T T R T Z f f ; - 2 C Z A A Z G A C 4 4 2 # 2 g v g f 2 1 # 2 2 g f 2 f f g g g g g g g g g Z F F F F F F 5 x x b H b 5 % b x g b b h h b h h v v h h z l x.L.aXcXcXcXcX0XpXeXtXyXyXyXpXiXiXiXuXiXdXdXvXcXhXjXvXjXjXjXjXjXjXhXuXuX8X7X7X8XpXyX5X<X",
"!.T.T.T.T.T.H.$XH.! ! ! G < 1 4 6 * 6 < 5 ^ B F G G G G G H F G ~ H A ~ ~ T G L T L L G L T T L E P P P I I P P U P P P I U U U Q U R W W W W P W U P Y U U Y N b x r x h % o   . . % % 5 g g F h g 2 g g g 5 2 g b g f F P P F 2 . 2 g 2 ; g C C C g F Z C C g h b h h v % . 6 % % 2 g F b g g b g 5 b x 5 b 5 5 g 5 5 5 h 5 x r x r r x h b h b h b h v v F v v g g v v v v v K b 5 % % % % 2 5 1 5 1 % 6 1 6 # # 1 % 2 2 2 2 g g g g C F G L F F F Z Z g g F 2 f f g 2 h g g g g g f g g Z g F F C F F F F Z F F P P P J F F v g g v v v v v v F v v v v v v v F F N N F v v F v v v v v g g 2 2 # # 2 4 f 2 C g C F C F F F F v F K P P K v J N K F F K F K I K Y Y U U U U U U U Y U U U U R T R E R T R R T T T E R W E W W R R R Q R E R R W E L L R T L C C f ; > C Z C g Z G Z f ; ; 2 # 2 g F g 5 h 2 % % g f 2 2 2 b g g g g g g g g g g F F F F F H b 5 x x x b 5 5 2 5 h 2 5 g b h h h d r h z z x.x.L.zXcXcXcXcX0XtXtX0XtXyXpXpXpXpXiXpXiXvXiXiXdXsXsXjXhXjXjXjXjXjXhXuXjXdXyX8X7XB.S.S.M.",
"T.T.T.T.T.H.$XH.! ! ~ ~ G 4 3 C 1 1 * 1 5 b ^ C F G G G F G G G G ^ ~ ^ H ~ G ~ ~ G G G G G G L P P L ~ U T P G P P P P P R P R ! T T U ! ! T U T Y T ! Y U Y ~ K b h b h % . . . o $ 2 f g C g f h 2 f g f h 2 g g 2 2 f P P L F g Z F 2 ; F F g Z g C Z g C g r h 2 h v % . 6 6 O # % 2 2 f 5 g 5 5 b g g g ^ b 5 g b b g b g b r b N N h b v v b v v v F v F F v v v v v N F v h 2 2 % 2 f 2 b ^ x 1 6 6 1 % 6 - # # # # # # 2 2 h 5 g g g g F P F F g g g g 2 4 f 2 f 2 2 f g g g f h 5 g b F g C F F P F g F F P P P L F F h b b h g v b g v v v v g v v Z g v v v F F F v v v v F v v h 2 2 ; 1 2 f g C C C F F F G Z G F F v F H U U K v N F K K K K K K I U U U U U U U U U U U U Y Y 0.R R R E R R T W E R R R T R Q R Q R Q R R Q Q R R Q R T T R Q T L Z C 2 f Z Z C A Z G Z f ; - ; # 2 g b g g f f 2 2 f g 2 2 2 f g f 2 g g b g g g Z F Z F F C b b b 5 x 2 x b 5 2 5 h 5 h h h x h g $ 0 l z 0 _ x.1XcXcXcX0XtXcXqX8XtXqX0XyXyXyXiXiXpXiXdXvXdXcXsXhXjXjXhXjXjXhXhXuXuXiXiXuXyX7X;X:X,X4X",
"T.T.T.T.T.$XH.H.H.T ~ ! G 5 4 4 1 * 1 6 5 B C b B F C C C G A F G ~ ^ G ~ ~ G G G G F F G G G F L H F H P P H F G G P P P P P P Y Y T T U T T Y ! ! ~ ! ! ! ~ ~ v N h v x O . . O O # 2 g C g f g 5 5 g g b 2 2 F g 2 # 2 v F v G L C F 2 - G g C g C g g C g v x b % x v h . O @ O . # - 2 f g g b g b g b g b g g b 5 b g b b h b b h h b v v b v v v v F F F F v F F v F F F b 2 2 % h h b b H H x 1 3 % 1 5 2 5 2 2 # # # $ . # - 2 f g g g F F L F F g g g h g g f 2 2 2 f g g g 2 f g f b g g g v F F F g Z F F P K F F F g g g g g g g g g g g v v F g b g g v v v v v F F F v F F b h % 2 2 f f f 5 4 C F F F G F G G F K F K K K K K F K F F K K K P K K K Y U U U W U U U U Y U W W U R R R R W T E R R Q Q R ! W R Q R Q R Q Q R R Q Q u.u.R Q J.u.R T T L A C F G Z Z Z F Z g 2 ; ; # 2 h g g g g b g g 2 2 2 2 g f g f 2 f g F b f g g g F F g g g b b 1 % % 5 h b h % 5 2 % x h 5 # h h j s.z + z s.0XcX0X0XcXtXcXyXyXyX8XyXtXyXuXsXiXdXiXiXiXdXdXsXsXsXhXjXsXjXhXjXiXiXuXuXuX7X5X:X:X5X5X",
"T.T.T.H.T.H.$X~ ! ~ G ~ H B 1 3 5 1 1 3 4 C F B C F C F A F G F G ^ H ^ H H H ^ G H C F C G F F G H F F ~ H F F Z F Z Z Z F Z F ~ ~ ~ P ! ~ ! T H.~ ~ H.! T ~ T v v g h % O . . . . @ 2 f Z C f f f f f g g g f g g 2 # % g F C g F 2 C 2 # F - g C C g C g g g h b h g N 5 . # # # ; 2 4 g C Z g b 5 C 5 b C g C F g F F b F v v M N v v N F v v v v F F F F F K K N J F F F K h g h b b v v v H H H ^ b b b 5 5 5 f 5 5 h 2 2 # # # 2 2 h 5 g 2 g F F F g Z v g g g g g 2 g f g f g g 5 2 g g f f g Z F F F g Z F F F F F F g g g g g g g g h g g g C g Z g v g v v v F F v v v F N J v h % % O 2 g Z f 5 f F G G F Z F F G F K K K K K K K F K F H K K P U K P K P U U U U U U Y U U U U W $XR R W R W R R R W u.W Q u.R Q R W R Q W R R R W W u.u.u.u.J.u.W R u.R J G L L Z F F Z Z C g 2 2 - 2 f g g g g g g 2 2 2 2 2 2 2 g 2 2 2 g v g f g b v F F g g g b 5 % % 5 % 2 5 % r % h h h 2 h % h d d r.l + z x.tXcXaXcXtXtXcXyXyXyXyXtX7XyXuXiXuXiXdXdXiXdXiXiXsXsXjXhXiXdXdXjXiXiXuXpX8XtX7XyXyXpXyX",
"T.$X$X$XT.H.H.~ T ~ A ~ H 4 3 * 3 1 1 5 5 C B F C B F C F A F G H H ^ H ^ H F H G H C g F C C C F F F F F G F C g f g h A g g g F J F H Y ! T ! ~ ! ! ~ ! ! ~ ~ F h v h $ . . O . . O ; C S A C g g g g Z b g 5 f g 2 2 2 Z G K g Z 1 F f - P 2 Z g C g F C C g 2 b h g v 2 . # . X # 2 5 f 4 4 C g g g g g 5 g C b b F C H F F v N v v v F N v v v J v F F F F P K F K K v K F F v b v F K P H ^ H K ~ ~ ~ ~ H C b F F C g g g g f 2 # # # 2 2 # f F F F F Z F g v F g g b g g g g g 2 g h g 2 f g g g Z F F g g F F F G F F g g g g g g g f g g g g g v g F C h b g v N F F v v v v F H b % @   - F G F g F P F F F G G F C F P P K K K F K K F F J K K K K P K P K U Y U U U U U U U U W W W W R R W R W Q R u.W W u.R Q W W R R R R W R W R R u.u.W u.p.Q P u.u.Q P P R P Z L G Z Z F Z 4 2 2 2 f g g g g Z f 2 # # % 2 2 2 f 2 % 2 g Z g f g g Z g F b g g x 5 % % 5 5 % % % 5 5 2 % h 5 h r v @ $ 6.l 7 8.x.aXxXaXcXcXtXtXpXyXuXyXtX8XyXuXdXuXiXpXsXvXvXdXiXhXhXdXsXiXhXuXuXhXjXuXuXuXtX7XpXyXyXyX",
"T.T.$X$XH.H.$X~ H.~ ^ ^ B 4 1 - g 4 4 5 C C B F g g f C S G L G ~ H H H H H F b b F g 2 f F F f C F H g 2 % 2 % # # ; ; ; d d d g F v f g P ~ F G ~ ! T ^ B ~ T ~ j g h h # O O . O ; f A A h A g v g g g g f g g 2 2 f f g g b g g C g C 4 g g g f g C C F g g b h % g b 2 % # ; - # 2 4 f Z G C g C C F C F j C b F F F F F F N F K N F v v J g v v g C C C g H K v F K K K K b N F F F J F F H ~ Y ~ ~ H Y Y H H H H F F F g Z g g g g f f f 2 f F C g 5 g g 5 f f f v F Z g f g v g g f 2 g g g g g b g F F F F F F g F F F 2 5 g F F F g 4 g g C C F F F F h g F F F v v v g h h % b b % . # 1 f g F L P F g Z F F G F F F v F K K K K P K F F K Y P Y P U U U U W U U W p.U W W U W U W U P R P W U R W W R I I T W W U R U R U I W W R U W W W W W W W W W W I Q W W U P F F F F J F g h @ # 2 f f 2 2 2 % % # # # # 2 2 # % 2 2 2 f g b g g Z F F F f 2 2 % % % % % % % b # . # 2 $ @ $ 2 $ 8 r 7 7 z 8.^.cX1X0XcXaX0XcX8XtXtXtXdXpXtXtXdXtXdXdXdXcXdXiXjXjXuXiXiXsXiXtXuX8XuXsXiXsXuX7X0XaX<X,X",
"$XT.T.H.$XH.H.~ $X~ ^ ~ H 4 - 1 5 5 4 g B 5 F C F C g C Z S G Z v b 5 x b g g x 2 g f h 2 2 h 2 g 5 b g g g g g d h h h h h h h h h h h v I J H P T ! ~ ~ ~ ~ ! P S h h f $ O . X $ $ ; d A A g g g g g g g g g 2 2 f 2 h g g g C g C g g g C g C g g g C F C g b % % h f $ # # 2 # - 2 4 B C G g g F j g F C Z g Z C v g F F F M v v v g b g v b g C g g v C g K v F N F K F F v F v F N F F N H ~ Y H Y ~ H ~ Y Y K ~ P P G F F F F F v g b g f b F F F g Z F F F v F F F F g f g g b 2 2 2 g g g g g f b g g F F F Z F F C F F C g g Z C C C F g g g C F C g g v v N v F v v b 5 5 h h % .   # 2 b Z F G G F g C C F F F F F F v N F K K K K F K K K P Y K K Y U U U U U U U U W U U U W U U P I P P R W W W W W W W W W W W R W W W R W W W ! W p.W ! p.W ! u.W W W W W U P F F F F v g 2 2 # % 2 2 g f 2 2 2 2 % # . # 2 2 ; ; # 2 2 h g g 2 f g Z g g h 5 % 6 6 % % % % % h O . % 2 $ % % h 2 h e 0 7 z l.;XcX0X0XcXtXpXpXyX8X7X8XtXtXtXtXtXdXdXpXvXdXdXpXjXiXiXiXsXsXuXuX8X7XtXtXtXtXtXtXaX0X,X<X",
"T.$X$XH.H.~ ~ ~ H.~ ~ ^ F 3 : 1 3 4 4 4 5 g C C C Z A g Z S Z C 5 2 5 2 2 5 g 2 g F g g g g h h g h 2 2 f h f 2 ; 0 0 ; d 0 d d r $ % s J v K K U P ~ ~ ! T ~ T P g g h ; $ . . @ $ , , f d S A g g g g f g 2 g 2 2 2 2 2 4 f b g C f g g C C f C C C C F C F g h ; # % 2 # @ 2 4 2 ; 4 g C C G C C C g g C Z Z Z Z Z Z F Z F F v b b b h g b b g g C C Z C C C v v g v F F F v F N v J v F F N H ~ H H H H H ~ Y Y Y ~ P P P G P P P F ~ J F F v F G P L F F P P P P F ~ F v g g f g 2 2 2 f f 2 g 2 g 2 g f g F F F F F F F F F g 4 ; 2 4 g C C C g C C g g 4 b v F F F F v v v 2 2 5 % . . . @ 2 F F C F F Z 4 4 C C G F G F v F F F F v F F v K K K K K P K Y U Y U U U U U U U W U U U U U P U I W U W W U W W W U U W U U U W U p.W W I U p.W W W W p.Y W p.U U W W U U Y K J J g v f % % % ; 2 2 2 4 2 2 2 2 ; # . # # # # # # 2 2 5 f f 2 2 g g g g 2 5 % $ O 6 @ % $ $ $   . O r % ; h h r h r 7 7 x.L.;XcXcXaXcXtXtXtXtXtXtX7XaXdXtXtXtXpXtXiXdXpXdXtXiXuXuXiXiXhXiXuXuXtXuXuX7XaXuXpXaXaX<X<X",
"T.H.H.$X$XH.H.~ ~ ~ ~ B C 4 1 ; 1 1 4 5 B 5 f f C C C C S A Z f g 5 h 2 f g h h # $ O $ # 0 d $ r % # $ $ O + + $ + + + + + + 7 $ O $ M N e h Y U U ~ G ~ T ! T T j h h f # @ O @ @ @ @ d Z A Z h f 5 g f f g 2 2 % 2 2 2 2 g f g g g C g C g g F g C g C F g f f % % % 1 # # 4 G 4 ; 4 C B A A C g g C g C C C Z g Z Z C g Z g b h h 5 h b h g g g g g C g g C v v g g v v v v F v F v F F K H H H H H H H H ^ ~ K ~ K P W P P P P P P P P L P P P P I P P P P R P P P I ~ F F g g g g f 2 2 2 2 2 2 2 h 5 2 g g Z F F F F F F C 4 2 - ; 4 g C C C C f C C C f v v F N K F b h h # % h %   . f X C P L g g C C 2 f g F G G L F K F v v v v b v F F F K K I H K K P K P Y K U U U U U U U U W U U P U W I U W U W I U W W W I W W U U U U U W W W U p.W W U v.W W W W p.p.i.W U P P J v g % $ . ; 2 % # # 2 2 2 2 2 # # # # . . o $ # # 2 2 2 2 2 f h 5 f 2 2 % 6 6 . . 6 . . 6 @ . . $ % # % r % $ % 8 7 z 8.;X,XvXcXtXaXcXtXtXtX7X7X7XdXaXtXaXtXaXdXtXtXtXdXcXuXpXuXiXiXsXuXuXtXtXuXuX<X7XpXuX0X0XaX,X",
"H.H.$XH.H.$XH.~ ~ ^ ^ D ^ B 1 1 - 1 2 2 f f C C d f g Z Z S Z h f g h h h h h h $ O O $ d 0 ; $ . O % $ r h h e l l S ) l ) x.z e r r M r $ h M I K K K P P P P L Z g l j f ; ; @ X @ , A A A f g 2 g f f f 2 2 2 % 2 2 2 2 g g C g g C g g g C g C C C C C g 4 f % # h 2 - 5 G T C 3 C A B C C C A g g C g h g g Z g C g Z Z g b f 2 r h g g 5 g g C C C C C g v g h b v v v v v F v F F J F F H H H H H ^ N H H H ~ H P I P P P P P P P P P P R P R Y Q U P P P P L P P P P F b g f 2 h 2 2 2 f 2 f 2 2 2 2 2 g F F F g F F F G Z g 4 C C C C g C f C C F F C F v v F F F v b % O % 2 %   O v # C P F g f g C f g C F P P L P F v v v g v v v K K I K K K K K K P K U K U P P Y U U U U U W U U W U U U U W U U U U U U U U U U U U U U U W U p.U p.U U W W W W W U p.v.! p.W U U K v g 2 O . # # # . # # % % 2 2 % @ # . . . O o # $ # 2 2 2 2 4 h 2 2 % @ 6 # . . 6 . 6 . O O O O $ $ O $ O O 6 $ 8 9 ) L.tXtXcXvX0XtXcXpXcX7XaXaXtXtXaXtXdXaXtXtXdXaXtXpXdXuXuXiXuXiXuXpXtXtX7X7X7XaX7X8X7X0XaXaXaX",
"T.$XH.$XH.H.~ ~ H.B B ~ ^ V : 1 1 ; ; 4 f f g C A A h Z Z Z A d % r h % % % d d h d d h h d + + O $ h I p.v.Y.~.`./.`.^.^.`.^.`./.b.y.o.s r r M j M J P K H P P P Z C F A h > f @ O X ; d A f ; f 2 2 2 2 2 2 2 2 2 2 2 2 g g g C g g C f C g C F g g g g g f 2 f 2 1 2 2 # C E Q A 4 C G f 4 A g g h g g f A h Z Z g g g g f h h 5 2 5 g g g f C g C C C C C C v v g g v v v v F v F F F N F N H ~ ~ H H H ^ H H H F J P P P L F L G P P L P P W W P W W W P P P F F P P P P F F v g f 2 f 5 f 2 g 2 2 g 2 f 2 g g g g F g C F F C C 4 g g g 4 C 4 g g C G Z F F g b v K b h 2 % % % 2 # . # g 2 Z L C f g C g F F F ~ L ~ G K F F v v g v v F K K K P K P P K U K P K U P U K Y Y K U P U U U U I W I Y W I W 0.W U U U W U W U p.U W U U U p.W W W p.p.W p.W W p.W ! i.! W p.W I I K v h % @ # # O . . . O # # # @ @ O 6 . . . . . . # # # 2 2 2 2 % # @ . . # 6 . . . O . . O 6 O $ $ O O O $ O + 8 k a.,XpXcXpXcXaXaXtX0XcXtXaXaXtXtXaXaXtXaXaXtXaXaXtXtXdXuXpXuXiXuXuXtXtXuX7XaXtX7XtXtX<XaX0X9X1X",
"H.$XH.H.$XH.~ ~ ~ ^ B ^ ^ B 3 3 ; 2 2 4 f f g Z g g d A Z Z h f ; d d ; $ $ $ d d + + 7 7 O $ e M U Y./._.'.9X9XrX9X0X9X0X0XeX9X6X4X(.b.9.M n h r h K K I F K P L F Z Z Z f 2 d @ . . , d A > , f 2 2 2 2 2 2 % f 2 2 h f g g Z g C g g g C g g g g g g g f 2 2 % 6 # 2 # # C W J.A 3 C D B C A g A A g g f f f d C g g f f f h v f 2 2 b v g g g Z Z Z A C C C F v g v F K v v v v F N F F K F Y ~ H H H H ^ ^ P F H H P P ~ K J F F P P P P P Y R R W W W P L ~ K L ~ P P I F P F g 2 5 g g 2 g g f f 2 2 2 2 f f g g g g C C A 4 4 ; : 4 4 4 C B f B A C C C v g h g v v f % h 2 h % % % % 2 g F F g 5 g C C F F F L G G H F F v b g v F F K K P Y P Y P P K K Y U U P Y U U K K U Y U U U U U U U U I U I U W W U p.U W p.I U U U W 0.W W U U W W W p.U p.W U W U 0.p.v.! i.u.U U P K g h $ @ . # 6 # . # # $ . . o % # @     . . o # # # # 2 # # # # O @ O $ $ O 6 O O . . O # 6 O O . O O % O O 8 6.^.0XcXcX<XtX0XaXtX<X0XtXaXtXtXaX1X1XaXaXaXaXaXaXaXtXpXpXuXiXiXiXuXuXtXsXtX7XtX7XpXuX<XaXaX,XaX",
"$XH.$XH.~ ~ ~ ~ ~ B ^ D B B 4 2 1 2 2 4 f g A C A Z Z S A A d d 2 r d 8 $ + + # z e h h h l p.).c.].rXqXrX9X9XqX9X0X9X0X0XrX0X0X4X4X]./.V.v.=.r $ r v M K K I P P F j Z g 2 ; # , X X , > f > ; 2 5 2 2 1 2 2 2 5 f 4 5 g g b b g f g g g g g g g g 4 f g 4 2 1 # . # . o . 4 W P.F 4 G H C 4 C g g g h f g f h g g g g f f f f v h % 2 g F v f Z g C C F C Z C F v v F F H F v F v v F F v v F Y H Y H Y ^ N H ~ K H K P P J F F ~ F J P P P P R P P P P W P F P P P P P P ~ F P F b f g g g f g 5 5 g 5 g 5 f 2 5 5 f g g g F G C 4 ; ; 4 4 f C f f C C 4 C 4 F b f b v b 2 % % 5 2 % % 2 b 2 C F C 4 g C Z C F F G G F F F B N F b g v F K Y Y Y U Y Y Y Y K U P K U U U U U K K P U U U U W W W U W U W W U U R W U W U W W W W U U W W U W W W ! v.W W W W p.U W i.v.! H.! p.W U U K F f % @ # # . # . o @ X . . . # % @ . . . . O o $ - # # # @ 6 # @ 6 # % 6 . . . 6 6 . . . $ $ O + . . r O . $ 7._.eXiXiX1XtXtXtXcX,XaXtXaXtXdXdX1X1X1X1XaX1XaXaX1XaXaX7XtXuXuXuXuXuXpXuX7X7X7XaXtXtX7X<X<X<X1X",
"H.H.$X~ ~ ~ ~ ^ H ^ 5 b g 2 ; ; # ; 2 2 f f g g Z A A A S S A ; $ ; h I 0 + + 7 S + 6.J r /.oX'.gX9X9XrX_.a.7.r.a.a.l.l.l.l.8.8.7.V.V./.4XV.o.0.M r h J M % v i.I K F g h g h 2 . O @ @ ; , @ @ f 5 % % 6 5 5 3 6 5 5 b b H H H K v b v v b v g v b 2 g g g % # 6 . 6 o   6 F $XI.H 5 F H b x H f 2 b g h 5 5 5 b 2 5 5 b g 5 g f h 4 5 g g g C F F C F F C G C F C C F F C F F F v v F K P P K H K P Y K K F b H N F K K P Y K U P P L L P P R L P P T P T L P H Y H Y ~ K P P H F F C f C f f * 5 F H ^ 4 5 C C ^ ^ 5 F B B 4 C A C 4 4 > 4 f C B C C C F C C F C F ^ H H H F B 5 5 5 4 5 5 H G H C B 4 5 F ~ A H H C G F H A 5 5 b x H H Y H Y H H Y ~ N ~ K K P Y P Y U W T T U T R Y E T R W W ! W W W R P W W T ! W U U E U T W W W W W W Q u.u.! ! p.! p.! u.H.v.P.i.U ! v.u.W Y F b 2 @ o O O @ O . 6 O . 6 . . . . O .   . .     . X   X . X . X . X .     X           . . o . . . O . + ; @ z L.,X0X0XcX0X0XtXtXaXcXaXcXaXaXtXaXaXfX1X1X1X1X XaXaXaXcX7XuXsXhXdXtXtXtXuXtXtX8XtXtXtXtX1X,X<X,X",
"$X$XH.$X$X~ ~ ^ ^ ^ B B C 4 ; ; ; % % 2 2 h 4 f 4 > > f A A d , f O @ d d d 0 7 7 S a.'.rXeXgX'.'.].V.c.c.r.r.a.l.l.B.L.^.l.l.l.X.5.k i a.]./.a.M % r M N h N N K J v g g f h 2 $ O O @ @ ; ; $ x 5 % % 1 5 1 5 % 5 5 b F b b b F v b v g v b v v b 5 5 5 2 1 o 6 . 6 6 6   1 Y Y x 6 5 ^ b 5 H f b g ^ 5 5 5 % g x h 5 g b g b 5 g f g C C C C F Z F C Z F C F A G A S G F Z Z F F F v F K K H K H K P P F v v P F F F K P K K P R L T P L P T I T T L I T T P Y H Y H H Y Y ~ H G F C g A C A 3 5 B B B ^ B ^ B 5 B B B ^ H ^ F A C 4 4 f B 4 C C C A C A C C ^ ^ B F H ^ B ^ B ^ 4 3 1 1 5 B 4 4 4 4 4 C A G H A A H G A A H b ^ H H H H ~ ~ Y ~ Y ~ ~ Y ~ ~ Y P U Y P Y U I P P T Y E T T R R R W W W W P P R W W T W R T U T T T ! U W W W i.Q i.u.Q p.! u.u.i.! Q Q ! ! i.J.i.Q u.Q P g # 6 . o . 6 . . . . O . . . . 6 . .   . . X . . . . X . X . X   X                 o . . . . . . O O $ d z K.9X9X0XaX0XtXtXtXcXaXaXaXcXtX XxXaX1X X X1X1XaXaX1XaXaX7XtXiXjXuXpXpXpXuXtXtXtXtXtXtX7XaX,X,X1X",
"H.$X$X~ ^ ~ ~ ^ ^ B B F 4 4 ; 2 % % 2 2 2 2 4 2 > ; > d d A f d d $ O + 0 d 0 z 6. X_.rXgX/._._./.v.4.y.V././.(.(.,X(.,X,X^.^.^.A.r.) q j /._.a.0.M j N M M M h J J l g h h d d ; $ X . @ @ d d f % 1 % 6 2 5 1 2 5 g b g b H b F v v g b g g g v g g f f 2 - . 6 o 6 2 6 o 6 F H 5 6 5 g 5 5 5 b x g g b 2 5 2 h 5 5 x g b b g g C C C F Z F F Z F F C F C F C G G G Z G Z F L L F v F J K K J K K P K K H H v P I K K K K F F P P P L J P P R T P P I P P P P Y K Y P Y K P P G L G Z Z A C A g 4 5 5 g 5 5 B B ^ 4 F H ^ F B A F C 4 f f C C C C C C C A C A F B 5 F B H C g 5 F 4 6 o 5 C 5 - # ; ; 5 Z Z G F G G A Z G G F F F H H K Y K Y H Y Y H Y ~ Y K K Y Y P I U P U T P T T T T T T R P R W W P P P T W W U R U ! W T U U U R U T U p.! W ! W ! p.! i.! W W W ! v.H.I.Q i.i.P.u.F f $ . .   . . O . . . O 6 6 . . .   .   . X . . . X . X . X . .     &               o . . . . . O @ $ d S `.0X9X0X0X0XaXaXcXaXaXcXcXaXaXaXaX1XfX1X1XfX1X1XaX1X1XaX7X8XuXiXdXpXtXcXuXuXtXtX7XtXtXaXaX,X<X1X",
"H.H.$X~ ~ ~ ^ ^ H ^ 5 C g 4 ; 2 2 2 % % 2 # ; ; f ; ; > > d > , ; d d @ 7 0 S L.0XeX9X,Xc.e 4.~.b.v.r.V._.4X4X4X9X0X0X0X0X0X0X,X6X~.~.b.o...a.c.~.y.M j M I 0.v v F F j 2 h h f d ; O O @ ; d f 2 % # 6 3 2 1 2 2 4 5 C g b b F v b g g g v g g g f f 2 f 2 $ . 6 # 6 2 2 o 1 5 H 5 2 5 4 5 1 2 g h g 2 f f 4 h 2 2 2 h g g b f C F F C F F F G F C F F F C F F C G Z G G G G F J F v v F K K J K F K K K F F F K F F H K P K F P P P L ~ P P P P P P T P I T P Y K K K K ~ P K L L G Z Z Z Z C F ^ 4 3 4 F C 4 g g 5 B F F F G G A A C 4 C 4 C f C C A C C C C B F 5 B F F 4 4 g G ^ & o 4 C 4 - # # 4 C L G Z A C G H G G Z G P ~ Y K Y H Y P Y H Y K K Y P P K P P P P U U P P T T T P T T T P P P P P P L P U T R U U U R U U T U E U R ! W W W W p.p.! W ! p.p.W U W u.H.v.P.i.Q ! I.v.U F 2 % .   . % 6 . . 6 . . . . . . .   X . .   X X .     .     . X       &         . o . . . . . O + , d x.`.,XaX0XtXtXcX0XtXtXcXtXaXcXaXcXaX1XfXfX1X1X1XaX1XfX1XaXaX7XuXuXiXtXdXdXtXtXtX7XtXtXtX7X<XaX,X1X",
"~ ! ~ ~ ~ ~ ~ ^ ^ 5 5 B C 4 ; f 2 % 1 2 % 6 # # @ X @ @ > , , , , 0 d 7 z s.L.rXcX/.,X_.x.l 4.r.F.^./.2X4X,X,X4X0XtX0XyX0X0X0X5X,X^.,X_.r.5.l.c./.c.9.s e m 4.M M S l j g f h h d ; @ O @ d d ; 2 % . # ; 2 4 ; 4 5 h f f g C F v g f g h Z g f f f 2 2 ; ; , X - # - # ; # 3 f 4 3 1 2 4 2 1 ; 5 h 2 2 f h f f g g h g g F Z C F F Z G C F F F F C F Z F C C F G G L G J G L J J F v v v J J K F H H K H F F F H F F H K ~ P K L K K J L P P U P P P P P P P P Y K K U K K P K L L L S S S S S G F 4 4 f C C f G Z C F F A F C H C C B 5 f g C C C f C C g C C b g f g C g f 4 f C f @ X 2 4 4 d > f f D L L Z G F A G G G L Z P P K P P K P P Y P K P P P I P K K K P P Y K U P P P P T P T T G P P P P P P F P T U I R T W W U U U U U Y U I Y W W W W W W p.! ! u.W W p.W ! I.p.U ! i.i.! P v 2 O . . . # . . . . . . . . .   .   X   . .   X           .   X                     . . . O O @ d d x.`.aXaX0XtXtXtXtXtXtXcXaXtXcXaXaXaXaXL.fXfXfX1X1XfXfX1XtX7XtXuXdXtXpXdXtXdXaXtXaX7X8X7X7XaX,X1X<X",
"~ ! ~ ^ ~ ~ ~ ^ ^ B 5 F g 4 2 f 2 1 2 2 1 2 - # X $ - - ; d d h $ + + l L.,X9X0XcXx.l.a._ ~.~.h.(.'.4X4X4X4X0X0X0X0X0X0XtX0X7X0X<X4X4X^.^.,X,XV.^.V.a.4.j l I m M J J S h f g h $ $ @ @ $ ; d ; 2 $ O . ; 4 2 ; f g g f f g C j j C f f g g A h f f 2 2 , $ # ; # @ @ - - 2 4 g # X @ # ; 4 2 4 f 2 ; ; f g h g S S A Z J F J Z Z F Z F F F F F F F F C F G F F Z A Z Z G F Z J J F j v F J v v F F F F H F H F F F H F K ~ P ~ L J H K F P P I P P P P P P P P K Y Y K P P K I T I L S L G S E L A C g f f f 4 G F A C S F C C C F g f 4 4 4 g 4 g B g C C C C C C A f C f f 4 f 4 4 ; # ; ; f Z Z C Z L L Z Z A Z G S G J G J P K K I I P K P K P P K P K K K K K K K K K P P P P P ~ P G G G F F P P P P P P P P R P U T U U W T E Y R T R Y Y R R W W W W ! W W ! p.i.! W W i.! R W p.! p.! K b % . . . .   . . . . . . .     X   X       X   .   . .                           .   . . . O 7 $ 0 s. X,X,XcXxXaXtXtXaXcXtXcXtXtXaXaXaX1XfXfXfXfXfXfXfXfXfXaXaX7XtXuXpXdXpXaXtXdXtXdXtXtX7XtXaXaXaX,X",
"! ~ ~ ^ ~ ~ ^ ^ ^ B 5 B g 4 ; h 2 2 2 1 2 % 1 % # - - ; ; ; A d d + z K.9XeX0X`.(.x.` 7.r.^.,X_.,X4X0X4X0X0XyXyX5X5X5X0X0XtX5XqX0XhXtX:X9XqX4X/.^.~.V.V.6.) m m l J I J h h Z S d @ O @ @ ; ; d ; O . O ; 2 ; ; A f f f h f h Z C f h h A h d g f f ; ; , ; ; > , @ - - > f f > @ X @ @ ; ; f 4 f f ; > g S S A J F S A S S S C Z g C g C g g g F F F F F F F C Z Z Z J F Z F F J v F F v M M v v F H F F H H H H H H F H Y H H H F F F H K P P Y P P K Y I P P U M K K I I U I I I I I L I E S F G Z g h 2 f 4 J S J F S L L Z C C g 4 2 4 h 4 g 5 f f g g g C C A h h A A f f f # ; f d $ @ f Z Z S F Z h Z J F J Z J S L L L J J J F J F I J I L I K P I I K K K K Y K Y P K K P P L J P L P F F P Y I P P K P P U P U Y U T Y I W I P P P K P P U U U W U W Y W W p.p.W ! ! i.! ! p.! i.v.H.W P g % .         . . . . . . . .     . X .                   .     o                 . . . O O , + d 6.`.,X1XcXcXtXtXcXcXaXcXtXaXcXaXaXcXfXL.fXfXfX1XfXfXz.fXaX<XaXtXpXdXdXpXdXuXtXaXaXtXaX7X7XaXaX1X<X",
"~ ~ ~ ~ ~ ~ ~ ^ ^ 5 4 ^ C 4 4 f 2 1 5 2 2 2 % 1 # # # O . . . O $ h L.9X0X9X^.8.z l.8.z.,X(.rXyX:X,X6X0X5X5X4X4X0XqXtXtXtXyXyXyXyXyXqX0XpX0X;X0X^.^./.(.l.6.x.6.J 4.6.J l h l L d $ O O O # ; d ; O . . ; h d ; f f A f f f h Z g h 2 4 g h A f f d ; ; , $ > f # - ; ; 4 f ; - ; > ; - , > f f Z d ; d Z S L L A Z h g A Z g f g g g g g g g f F C F F F Z F F Z Z Z Z Z F j v J J v g v v v h F H H H F F H H P H H F ~ K H H F K F K J P P Y P P P P K P P K K K K K K K K P I I I L I S S I S S S h d ; ; h Z Z Z Z J L L J g g f 2 2 2 2 4 g f f g 4 g g g C C Z A g h d f f @ @ f A @ @ g g Z F S h A C L S F S G L J S L F J F J J J F J J P J K J P J K N F I N K K K K P P G P ~ P G F K P P P Y Y P P K P P Y P U U ! W U Y Y Y P Y I P U U U W W W W U U Y U W ! i.v.W ! P.v.P.H.$XP.i.W P f O . . . . . .     . .   X   X           .       X     X o o                   .   . . O 7 7 0 s.;X`.1XcXaXtXtXaXaXcXaXtXcXaXcXaXaXfXfXL.fXfXfXfXfXfXfX1X1XaXtXiXvXpXpXtXdXtXdX7X7XaXdXaXaXaXaX<X",
"~ ~ ~ ~ ^ ~ ^ ~ ^ ^ B g 5 4 ; ; ; 6 1 6 % 1 % # @ $ 6 .   O % % 8 /._.wXMXy._ z _ z.l.z.,X4X:X0X0X5XqX7X5X0X5XqX5XtX5XtXtX0X7XyX0XqXtXyXhXhXqX4X0X_.^.(.^.8.l l J z l l r d j d 0 O O % d O $ # O O 6 O $ 2 ; 2 Z d g C g g f f d ; 2 f g g f f f f ; ; @ , ; ; d 4 4 f f A f A ; - @ @ @ - > f f d ; f d S S Z S Z Z S S L S C F g 2 g F J F F g g g v g Z Z v g g b g g g g h b b N b M b N N H H H ^ H H H H H x H H H H ~ H H H K F H K K H K Y Y K K K Y K $XN N N Y Y Y P I J P J J L I L J J Z C h h g d v h h Z J I J g g f 2 # - 2 2 g 5 h 2 4 5 g f f g g C C Z C f f @ @ ; C f ; ; f g Z J J g f Z J j F F F J J J K Z v v J v J l F J v J J J I I K J N J K K Y K Y Y K P P K P P G K U K U Y K K Y Y P I Y U Y U U U I Y U K Y K K U Y K Y U W U Y Y P Y Y U i.W v.$XU U p.W v.i.v.P.U P P 5 .   #   . .   . . . #                                                         . . . O , + 0 x.`.,X0XtX0XpXpXtXtXpXcXtXaXcXtXaXaXfXL.L.fXz.z.z.d.z.z.fXaXaXaXvXvXpXiXtXtXtXtXaXtXaXtXaX<X<XaXaX",
"H ~ H ~ ~ ^ ^ ^ H ^ 5 B 4 f ; - 1 % 1 6 # 6 # # o # O . . O h J p.#X'.4X^.) _ X.8.^.^.^.<X,X:X5X6X0X0X5X5X5X5X5XtX6XtX6XtX7XyXtXyXyX0X6X0XyX0X5XqX,X,X,X,Xl.7.7.r.m I I j j h h d O O $ $ . O ; O O O % % h h 2 A A g f h f h g 2 2 2 4 g f f > 4 2 - @ , # @ - ; ; > 4 f C f 4 > ; - , @ ; ; ; f f d f A Z Z Z S Z A S S F S Z F g 2 v F F F F g g g g b g v g Z g h g g g h v h b h h b h h b b b H H H b b ^ H H H H ~ H Y H H H K K K K K Y Y K K Y K Y Y K N N $XN Y H N Y K I J J I I L I L F F j g f g g g f h f Z L J g g f 2 ; ; 2 4 5 g g 4 2 f g g g A A h A A f h 4 $ @ d f d # ; f g F L F g g v F F F F F F F F K v J J J J v J F v K J J J J I J K J N K Y I Y Y K K P K P K F P K K K K K P K K K Y Y U Y I U Y Y U U K U K K Y U K Y 9.U p.U Y U U U Y 0.! ! Y p.! U U W $X$Xv.Y.i.W R Z # . O . . . .   . . X                                 &     &                   . . O 7 @ d x.L.,X0X0X0XpXpXaXpXtXtXtXcXaXaXaXaXL.d.fXfXz.d.z.d.x.z.fXaX1XtXcXtXpXiXtXdXtXaXaXaXtX7XaX1X,XaXaX",
"~ ~ ~ ~ ~ ^ ~ ^ ^ B B 5 5 f 4 2 1 1 1 1 1 6 6 # # 6 O % 6 O g 0.#XrX]./.S 9 _ l.l.;X:X,X4X:X(.,X5X5X0X0X5X6X0X6X5X0X5X8XqXtX0XqXyXyX6X5X4X5X0XqXqX0X5X6X9X^.^.^.~.a.a.a.4.I m r r + . $ $ . O $ $ 6 % % h g g g f f g f f f f h ; 2 2 2 h f 2 2 ; % # - # & # # & # 2 2 f 4 ; 4 4 ; ; # - - 2 f f f f f S j Z g Z Z g Z Z J Z Z K g % b F v g v g g g g g g b b g g g g h b b b s b r N N h N N H H b b H b H b H b b b H ~ H H N K H K H K H K K Y H K K K H Y N $XN $XN Y Y Y K K I K L J P H J F F g g g h h h % % h g F v v f 5 2 % # ; 2 h f 2 2 h f g g g d C f g f ; ; ; , # ; ; ; - d Z g b H F g g b v F F F v F F H F v v J v v F v F v v b H K K J K N M K K K K M Y Y K K K H L K F K Y K K K K K K K U K K Y Y U K I Y I Y K Y I U Y Y K Y U $Xv.Y p.W U 0.U ! W U $XU =.U U $X! ! I.P.! W G v 2 X . . . . . . . .                                                         . . . . ; + $ S a.`.9XtXtXiXpXtXtXtX0X0XaXaXaXaX1Xz.x.z.d.d.d.d.d.` d.fX1X1XtXcXpXpXcXpXpXtXaXaX5X7XaX>X1X1X<X<X",
"~ H ~ H ~ ~ ~ ^ ^ ^ 5 4 g 4 ; ; - 6 1 6 1 # % o . . 6 $ $ 6 K Y.#X].~.v.p p 7.l.l.^.(.:X:X,X:X4X5X0X5X5XtX0X5X7X7X6X6X6X6X7X0X8X6X6X5X4X4X4X5X0X0X5X9X0X<X,X9X0X,X(.(./.V.a.v.M h $ O $ O $ O . $ $ % % 2 f f f f h 5 f f 2 f 5 2 2 % 2 5 5 2 1 1 # 1 # & # o o & # - % 1 1 - # 2 6 - o # # 1 4 2 f f 5 C F Z b C h g g C F Z g F g h g b g g g g g v g g v h g g b g b b 5 b h x x x x h b h x b b b H ^ H b b b H x b b N N H N F N H K N K K K K K K K K Y N x $XN N Y N Y N H F H K I L K ~ J F F v g g f f g 2 % % h f g f f 2 2 # # # 2 2 b g 2 f f b g f g C g f 4 ; # 1 - - - # # - f C f b b b g g g v ^ F F b F H b H v J v v v v v v F v b H v F N F K N N K K M Y U K K K K K K K K K K K Y K K K K Y K K U M Y K U Y Y N I K K K N I Y Y Y U U U Y U W U $X$X0.$XU v.$XY U W v.v.! i.P.i.W W Q K - . .   . . .                                         &         o           . . . @ @ $ z s.L.,X0X0XpXpX0XpXtXtXcXcXaX0X X1Xz.x.d.d.d.x.d.` ` x.d.fX XaXcXpXcXiXpXiXtXaXaX7X7X<X1X,X,X<X<X",
"~ ~ ~ ~ ~ ~ ^ ^ B x 5 4 4 f 2 ; % 1 * 6 6 6 # # 6 . o O % x v.XX#Xv.v.=.n 4.a.t.^.(.^.:X:X4X4X5X5X5X4X5X5X5X6X7XgX3X8X8XhX8X6X6X3X5X4X4X2X6X6X0X6X4X0X0X0X,X0X0XqX4X9X4X].]./.v.Y r $ O O $ $ o $ 6 6 % % h g x 2 2 2 5 5 2 5 % 5 6 % x 5 2 1 % 6 6 % 1 1 # 6 o 6 # # 6 # # o # 6 # o # o . 6 % 2 2 2 f h b g g g g f x h g g b v g f g b h f g v h b g b h g b h 5 b 5 g x h x s x x x x r N x b x b b x b x b b b x b H b b b F b N F F H N N Y Y K N H N Y K x N N N $XN N ~ K K K H H Y N N H H H H b b g g 2 5 2 % x % x 6 h 2 2 # % % % % b h % 5 g h g g Z b g 4 1 - # # 1 - 1 o # 1 g C x b b b b b b b b b b H H ^ H H H N b b v v v b ^ N ^ N N x $Xx M N K M K N Y K K K F K K K K K K K K N K K K K N K Y N Y K Y I N Y Y Y Y N U N I Y N 0.Y $XU 0.=.Y U Y 0.0.U $X$XY Y U N $X$X$XW J.P.Q u.P.! g o . .   . . .                                                             . . . @ . @ h 6.a.^.0X0XpXyX0XqXyXtXeXqX0X0X0X1XL.8.z.d.8.8.` ` w ` x.L.aXcXcXiXpXpX0XyXyX0X5X5X5X>X:X,X<X<X<X",
"~ ~ ~ ~ ^ ^ ^ ^ ^ ^ 5 3 4 4 ; - - 6 6 1 # 6 # 6 $ 6 o 6 % v.].gX#XN Y c m y.A.b.,X:X:X:X(.2X5X2X0X4X3X5X0XqX6X5X-XgX6X6X-X6X6X6X4X4X4X4X4X5X5XqX0X0X0X0X0X,X4X6XeX0XqXrX2XgX6X].b.K r O O 6 % O % 6 $ % % 5 5 % 2 5 2 5 % x % 5 % x % x 5 5 5 6 o 6 1 6 6 6 6 o . o 6 6 # 6 6 1 5 5 6 o 6 6 # 6 # % 2 2 2 5 g b b b 2 % f b b g v b h b 2 5 h b g v g g g 5 g g % x 2 x 5 b x b x 6 x r r x x x x h x b x b b 5 b b b b b b b b N H N H N H K H N N H Y N Y N H $X^ $Xx x ^ Y N N H N Y ~ N ~ Y K K H H v b b 5 b x h x % % 6 6 2 h % % # # # # h 5 2 2 2 5 g 2 g B 4 1 1 1 & o # 1 o o & 5 g ^ ^ x H x H x b ^ b ^ b b N ^ b b b b H x v b F b N ^ ^ N N x x N b N N N N I K K K F K K K H P K N J K J N K N J I K K K M Y Y N K K I N I I Y I U U Y Y Y =.Y N Y U Y =.U $X0.U v.Y Y U $X$XN $X! P.J.! i.P.Q Z 4 * . . . . .                                               o           .   . . . . $ 0 l 0.^.9X4XpXqX0XtXyX0XpX0X0X,X,X,XL.d.x.d.8.x.` ( ( ` ` L.cXcXaXvXMX0X0XyXyXyX7X5X5X3X,X:X<X4X0X",
"~ ~ ~ ~ ~ ^ ^ ^ ^ B 5 4 4 2 ; # 6 * 1 6 6 6 6 6 6 6 6 6 N !.#X#XF.x N N m V./.(._.(.,X4X:X2X4X2X6X5X2X5X6X8X6X5XhX-XgX-XgX-X6X6X6X4X2X4X5X6XqX6X9X6X0X0X9X6X5X9XqXqXqX6X4XgXgX'./.v.v.N % $ % O 6 6 % 6 x x % 5 1 5 2 5 5 % % 5 x 6 x 6 x 6 % 6 6 6 o 6 6 6 6 o 6   6 o 6 1 5 5 H x 5 6 6 . o 6 6 6 % % % % 2 5 g 5 5 5 2 b g g g f h h g % 2 v b g v h b h h 5 5 x 5 x x x b x % N 6 N x x r x x x x x x r x b N x x x b b b x b v b N H N N H K H N K Y H Y N N N ^ N N N N Y N H ~ N H Y Y H K Y Y N H b b 5 5 5 b x x % 6 6 2 2 % # % $ $ # h % 2 % 5 h h 5 5 5 3 1 o o o 6 o 1 o o * 5 B x ^ N ^ N x H b b H x H x N ^ b H b b N H H N N H ^ N ^ N x x x N N N N K N K M Y N I H F K K K K K N N K N J K N K N K K K N I N N K N M N U Y Y Y Y Y Y U U Y Y Y Y Y Y U U Y Y v.Y 0.Y =.$X$X$Xp.i.P.! J.J.u.U ~ F 1 # X @ .                                             o               . . .   . O 2 h 6.~.,X9XyX0X4X0XeX0X0X<X9X,X,X0XL.x.x.d.` ( ` w w ` x.x.cXcX0XcXcXqX0XqX0X0X6X4X:X,X3X,X,X5X5X",
"~ ~ ~ ^ ~ ~ ^ ^ ^ 5 5 5 2 1 # # 1 1 < 6 6 O 6 6   $ 6 6 $XXX#X].Y $ M 9.o./.~.:XF.A.:X4X(.2X6X2X5X4X4X5X6XqX6X5X-XgX-XgX-XgX6X6XyX6X2X2X6X6X6XqX4X2X4X4X4X0X0X4XqX6X9X6XgXhXgX6X/./.c.v.s % $ 6 6 6 % 6 x r x x % x 6 % % 6 x 6 x 6 6 6 5 5 6 6 o 6 6 6 6 o 6         o 6 6 x H Y Y H 5 6 6 6 o . 6 1 6 6 6 % 5 x 5 % 1 2 5 5 x b x % b 5 5 2 g b b g b h x 5 x 5 5 % x x x x h x x x % x x x 5 x x x x x x 5 x b b x x N x x x N N v H N b H N Y N Y N N N Y H x $XN x $X^ ^ N ~ N H ~ H H N H ~ N H Y H b x b % % x b x x 6 x 1 % 2 6 % 6 o # 5 1 % 2 % % 3 5 5 5 1 6 6 o o o * 6 6 o o 5 F 5 H H ^ ^ ^ H ^ H x b ^ ^ ^ H x b b H b H b b b b N ^ N ^ N ^ N x b v K N N Y N N N H N H K K Y K F F K N K N K H N K K N Y Y K K K Y Y Y N Y N Y U =.Y Y U U Y N $X0.Y Y Y Y K N U $XY N Y Y ^ $XU ! ! ! v.$XQ i.v.P f # o .                                         o                     .   .     # 0 d M V._.9XyXqX0X0X0X6XrXpX0X5X9X0XfX*.x.x.w 9 w w w x.x.x.0XcX XpXMX0XyX0X0XyX0X5X:X:X4X4X<X9X9X",
"~ Y ^ ^ x x x x ^ x x 6 x 6 6 6 6 6 6 o o o   o 6   6 $X].#X#X$Xr N =.v.c./.F.F.].].].-X].].2X2X-X].2X2X6X6XgX].-X-XgX-X6X6X6X6X6X2X6X2X-XgX].-X-XgX].2X6X2X6X4X2XgX2X].gXgXgX-X].#X6X].$XN N x 6 6 6 6 N x 6 6 x % 6 x % x % % 6 x 6 6 x 6 6 6 6 6 6 6 6 6 6 6 o o o 6 6 6 ^ Y Y Y $Xx x 6 x 6 6 6 x 6 6 6 6 6 x 6 x 6 x 6 x x 6 x 6 6 x 6 x x 6 6 6 x 6 x 6 x 6 x x x x x x < x x x x x b 5 b N x b x ^ N ^ N x x x x N N ^ N x N x N x N N ^ N x x N N N x N ~ $Xx N $Xx N x $Xx N $Xx x x $X$Xx x x $Xx x $Xx x x x x 6 6 6 % % 5 6 6 6 6 6 6 6 6 6 6 6 x x < 6 6 6 6 6 6 6 6 o 6 o 6 x 6 x x ^ ^ ^ ^ x x ^ ^ x N ^ ^ N ^ ^ N x x x N ^ N x x x x x x N x x b b b b N x N N N ^ N ^ $XN $Xx $Xx ^ x ^ Y ^ x Y $X^ N x $Xx $Xx x $Xx $Xx $X$XN $X$XN $Xx $XN $XN ^ N $XY $XY $X$XY Y $X$X^ $X$X$XY $X$X^ $X$X$Xx x x 6 6 6 o o   o o                         o o   o o   o   o       o         . # O % M c._.4XqX6X4X6X6X'.6XrX6X6X9X].V.O.s i i 7 9 w 9 0 _ a.4XeXqXpXhXqXyX0X6X6X4X4X2X4X(.2X4X4X4X",
"~ ^ $X^ $X^ x x x x x x 6 x x 6 % 6 6 6 o 6 6   o   x v.XX#X].v.r N =.v.c./.]./.F.].].-X].-X].6XgX'.2X6X4X4X-XD.gX-X6X-X6X6X-X6X3X6X6X2X-XgX-XgXgXD.-XgX6X6X4X6X'.6X4XgXgX-XgX].].].].].F.v.$XN x 6 6 6 % % % 6 % r % x x % % x 6 x x x x x 6 6 6 6 6 6 6 6 6 6 o 6 o o 6 x ^ $X$X~ ^ x x 6 6 6 6 6 6 6 6 6 x 6 x 6 6 x 6 6 6 x 6 6 6 x 6 x 6 6 6 x x 6 6 x x 6 x 6 6 x x 6 x x x 6 x 6 x x b x x b ^ H N ^ ^ ^ x x x x x ^ ^ N x N N x N x ^ N N $XN x $XN x N N ^ $X^ x N $Xx $XN x $XN $XN x x $XN $X$X$Xx N x x x x x 6 x 6 6 x 6 6 6 6 6 6 x 6 6 6 6 x x 6 x 6 6 6 6 6 6 6 6 6 o 6 6 6 x x x x x x x x x x ^ x ^ ^ x ^ N ^ ^ ^ x N x N x N x x x x x x x N x x N x x x x ^ ^ N ^ N x x ^ N ^ N N $X$X^ $X^ ^ N ^ $X$Xx $Xx ^ $X$X^ x $Xx x $Xx ^ N ^ $X~ $X$X~ Y $X$X~ ^ $X$X^ ^ $X$X$X$X$X$X! $X$X$X$X$X$X$X$XN x 6 6 o 6                 o         o     o     o o     o o       o o o o . 6 # # $ M c.].4XqX9X9XrX#X9XrXqXrX9X6X'.V.5.s e e 8 9 i 0 0 J r.4XqXrXqXeX5X0X0X5X6X5X:X].2X(.2X2X4X4X",
"$X^ x ^ ^ x x x x x x x x 6 6 6 6 6 6 6 6 6 o 6 o   x c.#XgX'.=.r N v.v.c./.F.].].D.].].-X].2X2X6X2X2X6X4X2XgXgX-X].].-X6X].].-X-XgX2XgXD.-XgX-XD.-XgX3X6X4X6X6X2X6X6X4XgXgX-X6X].].].#X#X].].$X=.N N x 6 x x 6 x % % 6 % x x 6 6 6 6 x 6 6 6 6 6 6 6 6 6 6 6 6 o o 6 o 6 6 ^ N ^ ~ x x 6 6 6 6 6 6 x 6 x 6 x x 6 x 6 x x x x 6 6 x 6 6 x 6 x 6 x x 6 x < x x < 6 x x x x x 6 x x x x x x x x x ^ ^ x ^ H ^ ^ ^ x x x x N ^ ^ N N x N x N N N N x $Xx N $XN x N N x x N $Xx N ^ x $Xx N $XN $Xx $XN $XN N N x x x x x x x x x 6 6 x 6 6 6 6 6 6 6 x 6 6 6 x 6 x x 6 6 6 6 6 6 6 o 6 6 6 6 6 6 x x x x x x x x x x ^ x ^ ^ N ^ ^ N x x x x N x x x x x x x x x x x x x x x x x x ^ x N N x N ^ N $Xx N ^ N Y ^ N ^ x ^ $X^ $X$X^ x $Xx $X$Xx $Xx ^ $X^ $X~ Y ~ $XY N ^ $XY Y Y Y $X^ $X$X$X$X$X$X$X~ ~ $X$X$X$X~ $X$XN x x x 6 6   o     o   o       o       o   o o o o   o o   o o     o o o   o 6 6 6 % M c.].'.6X6X9XqX6X'.gXgX6X6X4X'.V.I s q e 7 7 z 8 0 ) r.'.qXrXgXqXqX6X0X<X5X4X_.:X2XD.:X4X4X6X",
"x x $X^ ^ ^ x x x x x x x x 6 6 6 6 6 6 6 o 6 o o 6 N !.@XgX].Y N N v.c.F./.].(.].].D.].].].].6X2X6X].2XgX-XD.-X].-X].-X-X6X-X6X-X4X-X-XgX-XD.gX-XgX-X].4X6X6X4X6X4X6X6X-XgXgXD.].F.].#X#XgX#XF.v.$XN x r x x x 6 x x % x % x % x 6 6 6 x x 6 6 6 6 6 6 6 6 6 6 6 o 6 o 6 6 x x N ~ ^ x 6 6 6 6 6 6 6 6 6 6 6 x x 6 x 6 6 x 6 x x 6 6 x 6 x 6 6 6 6 x 6 6 6 < x x 6 x x x x x x < x x 6 x x x x ^ ^ N ^ ^ N ^ N x x x x x x N ^ x x x N N x N x N N N x N N N x $X$X^ N x x $Xx N x $Xx x x $XN x $Xx N $Xx x $Xx x x x 6 x x 6 6 6 x 6 6 6 6 6 6 6 6 6 6 6 x 6 < x 6 6 6 x 6 6 6 o 6 o 6 6 x 6 < x x x < x x x x x x x x x ^ x x N x x N x x x x x x x x x x x x x ^ N x x N N N x ^ ^ $X^ N ^ ^ x $Xx ^ N ^ ^ N $X^ ^ $X^ ^ $X$Xx $Xx x $Xx x $X^ $Xx $X~ Y N $X$X^ N $X~ Y $X$X$X$X^ ^ $X$X$X$X$X$X$X^ $X$X$X$X$X$XN N x 6 6   o             o o o o o   o o o   o o o o o o o o   o o o o o   . O 6 $ M c.].4XqXrX4XrX6X'.rX6X6XrX4X].V.=.r e 9 7 7 0 8 0 l 9.4XrX0XyXhX0XqXqX4X5X6X2X2X4X(.2X2X4X6X"
};
