/* XPM */
static char *rdj_east[] = {
/* columns rows colors chars-per-pixel */
"589 596 256 2 ",
"   c #010001",
".  c #0B0102",
"X  c #0C0B0B",
"o  c #080807",
"O  c #130203",
"+  c #1B0204",
"@  c #1C0509",
"#  c #130C0B",
"$  c #1C0B0B",
"%  c #150607",
"&  c #0A140A",
"*  c #16140C",
"=  c #181915",
"-  c #0D1213",
";  c #230304",
":  c #2B0404",
">  c #23050A",
",  c #240A0C",
"<  c #2B0B0C",
"1  c #2A0609",
"2  c #330B0C",
"3  c #370808",
"4  c #29130C",
"5  c #38120D",
"6  c #290D11",
"7  c #370D12",
"8  c #281616",
"9  c #341313",
"0  c #3C1314",
"q  c #39191A",
"w  c #192519",
"e  c #0F2417",
"r  c #25251B",
"t  c #34271A",
"y  c #391D21",
"u  c #192A25",
"i  c #18332E",
"p  c #282925",
"a  c #382726",
"s  c #273629",
"d  c #35372A",
"f  c #373935",
"g  c #283834",
"h  c #0C1A25",
"j  c #460A0A",
"k  c #441B1C",
"l  c #4B1C1C",
"z  c #461616",
"x  c #551A19",
"c  c #4B110E",
"v  c #49221C",
"b  c #57231C",
"n  c #572F15",
"m  c #68271B",
"M  c #491D22",
"N  c #551D22",
"B  c #4C2323",
"V  c #472627",
"C  c #532423",
"Z  c #592828",
"A  c #593636",
"S  c #513230",
"D  c #662A28",
"F  c #68332B",
"G  c #76362B",
"H  c #662C32",
"J  c #693736",
"K  c #773A37",
"L  c #752B2C",
"P  c #671A1C",
"I  c #384739",
"U  c #2E4434",
"Y  c #1B4434",
"T  c #4B4739",
"R  c #7A443A",
"E  c #6C4638",
"W  c #57572C",
"Q  c #1D3A47",
"!  c #743C42",
"~  c #543E41",
"^  c #344F4A",
"/  c #2E5D69",
"(  c #4D524B",
")  c #794745",
"_  c #6F504C",
"`  c #506657",
"'  c #6E6759",
"]  c #53726A",
"[  c #6D716C",
"{  c #4E5B68",
"}  c #853B37",
"|  c #8B3630",
" . c #8B311D",
".. c #87453A",
"X. c #95493A",
"o. c #934E37",
"O. c #A8533A",
"+. c #B46637",
"@. c #8E3B45",
"#. c #A53C46",
"$. c #874945",
"%. c #964A45",
"&. c #895449",
"*. c #985649",
"=. c #895855",
"-. c #975A55",
";. c #934A53",
":. c #A75948",
">. c #A85B54",
",. c #B1534F",
"<. c #996558",
"1. c #916752",
"2. c #A9644B",
"3. c #B6664B",
"4. c #A96657",
"5. c #B76856",
"6. c #B97559",
"7. c #AF7354",
"8. c #B45765",
"9. c #946D68",
"0. c #A76A65",
"q. c #A97568",
"w. c #B77866",
"e. c #B4736F",
"r. c #955D62",
"t. c #C56B57",
"y. c #C77859",
"u. c #CE7654",
"i. c #CC5A68",
"p. c #C77965",
"a. c #D0736E",
"s. c #D7626D",
"d. c #C1743D",
"f. c #6E8676",
"g. c #578577",
"h. c #3C817F",
"j. c #908775",
"k. c #BA8578",
"l. c #B6866D",
"z. c #B28A5E",
"x. c #CA845B",
"c. c #D6865C",
"v. c #D68F5B",
"b. c #C88668",
"n. c #D78867",
"m. c #DA9669",
"M. c #C78976",
"N. c #D78A75",
"B. c #CB9477",
"V. c #D89877",
"C. c #CC926A",
"Z. c #E4986B",
"A. c #E69A76",
"S. c #E48B70",
"D. c #DCA478",
"F. c #E8A779",
"G. c #ECB37B",
"H. c #EFAC78",
"J. c #E1925F",
"K. c #F2C27D",
"L. c #36708C",
"P. c #4D778C",
"I. c #D57688",
"U. c #E67988",
"Y. c #AB7784",
"T. c #518D91",
"R. c #70938A",
"E. c #70A698",
"W. c #6FB0AF",
"Q. c #5A9AAC",
"!. c #70B6CB",
"~. c #65A0C9",
"^. c #79C7CE",
"/. c #7ACAE5",
"(. c #70B9B3",
"). c #8F918B",
"_. c #B2908A",
"`. c #8DB5AC",
"'. c #AFB1AC",
"]. c #9CA698",
"[. c #D79A86",
"{. c #CD938B",
"}. c #E8918F",
"|. c #DAA587",
" X c #D6A995",
".X c #E8A985",
"XX c #F2AC84",
"oX c #EBB688",
"OX c #F4BC8C",
"+X c #F3B686",
"@X c #E6A997",
"#X c #EAB896",
"$X c #F4BB95",
"%X c #F3AC94",
"&X c #ED95A9",
"*X c #D3B2AB",
"=X c #E9B6A7",
"-X c #EFB3AD",
";X c #DB8FA5",
":X c #9AC6B8",
">X c #F5C38C",
",X c #F6C68A",
"<X c #ECC498",
"1X c #F5C393",
"2X c #F5CB94",
"3X c #F4C49B",
"4X c #F5CC9B",
"5X c #F9C998",
"6X c #F7D39C",
"7X c #EDC68C",
"8X c #F5CCA3",
"9X c #F8CAA6",
"0X c #F6D3A4",
"qX c #FAD4A4",
"wX c #F9D5AB",
"eX c #FADBAC",
"rX c #F7D9A8",
"tX c #FADCB3",
"yX c #F8DAB8",
"uX c #EFC8B3",
"iX c #FAE2AC",
"pX c #FAE2B4",
"aX c #FBE4BC",
"sX c #FCEABC",
"dX c #F8E6B8",
"fX c #F5F2B2",
"gX c #D4C9B1",
"hX c #F8B0C4",
"jX c #8DD1D1",
"kX c #ADD4CD",
"lX c #98E8ED",
"zX c #AEF3F6",
"xX c #98DBE4",
"cX c #F8D9C7",
"vX c #F3D4CC",
"bX c #FBE5C3",
"nX c #FCEAC4",
"mX c #FCECCB",
"MX c #FAE5CA",
"NX c #FDF1CB",
"BX c #FCEDD3",
"VX c #FBE9DA",
"CX c #FDF1D4",
"ZX c #FDF2DB",
"AX c #FBF6D9",
"SX c #E6E4DA",
"DX c #CEF9F6",
"FX c #FCEDE3",
"GX c #FEF3E3",
"HX c #FEF9EC",
"JX c #FEF6EA",
"KX c #FEFAF3",
"LX c #FDFBF8",
"PX c #E8F8F2",
"IX c #D0D8D0",
"UX c #89B4CD",
/* pixels */
"                  .                               o                   .                       .                                                       o         .   . .                     o   o         o .   . . o % % X % % % X o % # # - - 6 8 y y 8 8 t q v n S F E E R G G o.o.o.*.2.+.:.+.2.3.3.3.3.+.3.+.d.d.d.s.d.u.u.u.u.u.u.u.J.d.u.u.u.u.u.J.J.J.Z.XXXX$XOX$X5X5X$X5X1X3X<X3X2X4XqX9XqXwXeXeXeXiXiX6XiXiXrX6X6X4X4X8X4X<X8X0X9X0X8XwXyXrXrXyXyXyXdXaXaXbXaXbXbXbXnXbXnXMXbXfXnXmXmXSXmXMXVXBXVXZXCXZXAXVXZXAXZXAXAXFXFXFXFXFXZXFXZXFXGXFXZXGXZXFXZXGXGXFXGXGXZXZXGXZXZXZXAXZXZXCXZXCXCXCXCXCXCXAXCXCXCXAXCXZXCXAXAXCXCXAXCXCXZXCXZXCXBXmXCXNXmXmXNXnXNXfXfXbXfXdXdXfXfXsXnXfXNXNXNXNXNXNXNXAXNXCXCXCXZXBXCXCXZXZXBXZXZXVXZXVXZXZXZXZXZXFXAXGXZXFXFXGXFXGXJXFXFXFXFXJXJXGXGXFXZXZXZXZXVXAXBXmXMXMXnXMXdXyXsXsXdXfXrXrX0X0XgX7XgX7XgX7X X X XB.B.j.z.q.q.1.q.1.j.1.1.' 1.1._ &._ &._ R E E E E E Z E F n A E F S n t v n 5 t v t v 0 q 4 , , % O + % O + O O + O O + + + + @ + + + @ > > > > > , > < q z z z Z K ) $.;.*.-.;.$.$.K } G D m b b b b b Z Z Z S v v k q 9 4 6 > @ + O @ . . o   .                                                         o                 o             o       o         o     ",
"    o         .             o             .         .                               o             . .   .                     o                 o                     .       o       o o   o   o   o         .   . . . . o o o X % % X # # $ 6 h 8 8 8 8 q t q v V n A n E R E G o.R o.o.*.2.*.3.2.+.3.+.3.,.+.i.+.i.d.u.u.u.u.u.u.u.u.u.u.u.c.J.d.d.J.J.J.Z.Z.XX+XOX$X$X$X5X5X5X3X1X<X<X<X4X8X5XqXqXqXqXeXiXeXiXiXiXrXiXrX0X4X4X8X8X0X8X9XwXwXwXwXuXwXyXdXyXdXbXaXaXbXsXbXbXnXnXMXbXbXSXnXMXnXmXmXBXBXVXBXBXZXZXVXZXZXAXFXFXAXFXAXFXAXZXZXZXFXFXZXGXGXGXGXFXGXGXGXZXGXGXGXGXZXZXGXAXZXZXAXAXCXCXZXZXCXAXCXCXZXCXCXCXAXCXAXCXCXCXCXCXAXZXCXCXCXCXBXBXCXNXNXnXNXnXNXnXnXdXdXdXfXsXsXsXsXNXNXNXNXNXNXAXNXCXCXCXZXBXZXCXVXCXCXBXCXZXBXVXCXZXZXVXZXVXZXVXGXFXFXFXAXGXGXFXFXFXJXJXFXJXFXFXGXGXFXAXVXAXCXVXMXMXMXvXbXyXyXyXgXyXwXgX0XgX<X#X7XgX7X X X X X X Xj.z.7.j.1.1.1.1.1.7.1.E ..) _ &._ &.) E E E Z E Z n V n Z v S n n v z z 5 5 z 5 5 q q t t 9 4 $ + + O O O O O O O O O O O O O O O O O + + @ > + @ ; , : 0 5 5 n n R $.$.&.*.*.%.$...K G G D m D m b n b C Z Z B V v q 0 2 4 6 > @ % + O % . o                                                                                                                     ",
"                      .     o       .                         .               .                           .   .     o                                             .   .               o o   o               . o . o X X % . % o % X X % # # - @ 6 h 6 8 8 q q t v n A A E E R E R R o.o.*.2.2.2.2.2.3.+.t.+.3.+.+.d.+.u.u.u.u.u.u.d.J.u.u.u.u.u.u.u.d.u.u.J.Z.H.XXXX+X$XOX>X5X1X2X2X<XOX<X1X3X4X9X9XqXeXrXrXeXiXiXiXfX6XrX6X6X6X8X8X8X8X0X0X0X0XwXrXyXyXtXtXdXyXcXaXaXbXbXnXbXbXbXMXnXnXnXnXnXnXBXmXVXVXBXBXBXVXCXAXZXZXAXGXAXAXFXZXFXAXZXGXZXFXGXZXFXZXZXGXZXGXZXFXGXZXGXZXGXGXAXGXZXAXAXCXAXCXCXCXAXCXAXCXCXCXCXCXCXAXCXZXAXAXCXCXCXAXCXAXCXCXCXBXBXNXNXNXNXNXNXfXnXnXbXdXsXdXfXsXsXNXfXNXNXNXNXNXNXNXCXCXCXZXBXCXZXCXCXCXCXCXZXVXCXZXCXZXZXVXFXZXZXVXVXFXGXZXAXFXZXFXFXFXFXGXFXGXGXGXZXZXZXVXVXBXSXmXMXbXdXdXcXdXdXrXgX0XgX<X|.gX XgX7X X X X X XB. Xl.l.q.1.1.1.1.1.1.1.E E E E R _ ) _ _ E E F S n F S n B v n v n V v 5 5 5 5 5 4 5 4 q q q q 4 4 $ + O O O O O O O O O O O O O O O O O O O @ + + + + + ; 4 0 c v D K R R %.&.&.$...} K G D m m b m Z b b b C C B l k 0 9 4 < , , @ + + O % o .                                                                                                                 o   ",
"  .                       .                                         .                   o         . .                                                     o o o . X X o o           o   o o   o               o       o   . . . X X X X # # - - 8 8 8 8 t t q t v S E E E E R ..o.&.o.1.o.*.2.2.+.2.3.2.+.3.,.+.i.+.t.u.u.u.u.u.J.J.u.u.J.u.u.u.u.u.J.u.J.S.Z.H.XX+XOXOX$X5X5X$X3X1X7X#X#XOX2X2X6XqXqXeXeXeXeXiXiXiXrXiX6X6X6X4X<X<X8X8X8X9X0XwXuXrXwXyXtXyXyXdXaXaXbXnXnXnXnXbXnXnXMXnXnXSXnXMXBXBXmXVXBXBXVXCXZXVXZXZXZXZXAXVXZXFXZXFXFXZXFXFXZXGXGXGXGXGXFXZXGXGXGXGXZXGXZXZXZXZXAXZXCXAXCXCXCXCXCXCXCXCXCXCXAXBXBXAXAXCXCXCXCXAXCXCXCXVXZXCXBXCXBXNXNXNXNXnXnXnXnXnXdXfXfXdXfXsXfXsXNXfXNXNXNXNXAXNXBXCXCXCXZXCXBXBXZXBXZXBXCXZXBXZXVXCXVXVXVXZXVXZXZXAXFXZXFXFXVXFXFXFXFXFXGXFXZXFXZXAXZXZXBXmXnXMXMXbXdXIXyXyXeXgX<X X|.|.|.D. XD.].B.B.z.B.l.j.z.l.z.9.1.1.' 1.R _ R F n n F E E ) E J E E T F S Z Z C v v q v v t 5 4 4 4 < 3 4 : 4 4 5 5 8 4 4 , % O + O O O O O O O O O O O O O O O O O O O O O O + + 5 4 5 v Z J K K &.$.&...R K G G G D D n b n b b v C C v k q 0 9 < , 6 > @ @ + O . % . . o .                                             o                 o             o                           o   o ",
"            .       .                   .       .             .                   .             .     .                                                   o     . # X . o X o         o   o o                 o o o . .   . X - # # h 6 h 6 p 8 p a f f S S d S T _ _ _ ' _ &.&.1.1.<.1.*.2.2.2.2.+.3.2.,.,.+.+.3.d.t.u.a.u.J.c.u.u.u.u.J.u.u.c.u.u.u.c.c.J.S.H.XX+X+X$XOX5X>X$X1X1X2X<XOX#X1X3X6X6X6XrXrXiXiXiXiXrXrXrXrX6X0X<X8X<X8X8X8X8XuX0XuXrXwXyXyXyXaXtXyXbXbXnXnXnXnXMXnXnXmXmXmXNXmXmXMXMXBXMXBXVXBXBXCXZXZXZXZXZXZXZXZXZXFXAXGXZXZXZXZXZXGXZXZXFXZXZXZXFXZXGXGXZXZXZXGXZXAXZXCXCXCXAXBXAXNXSXBXCXBXCXBXBXAXBXCXCXCXCXCXCXCXCXAXCXCXCXBXCXBXCXmXNXNXmXNXfXnXdXsXfXfXdXsXfXsXNXfXNXNXNXNXNXNXCXCXCXBXCXBXCXZXZXBXCXCXCXCXZXBXCXVXBXBXBXVXVXVXVXVXAXVXZXZXVXZXVXZXFXFXGXFXGXFXGXZXVXCXBXmXMXMXbXbXvXdXyXyXrXuX<X7X].B.z.z.B.z.z.z.z.z.z.z.z.z.z.9.1.1.1.1.&.R E E E n z v b Z F A F J E E A J A S v v v v 0 5 5 4 4 : , ; ; ; ; ; , 4 4 9 8 8 8 , $ O O O . O . O . O . . . O O . O O . . O O O O O O + ; 4 z v M N ! ! R $...K K G L H m F D b n b b Z C C B B l q 9 9 < < > , @ + O O % . o . .           o                                               o           o     o         o       o                 ",
"  .               .                           .                 o                   .                   .                                         o o       o o X $ = # . o .     o o   o     o                   o       % = 8 8 p p a p g f ~ ~ ( ( ' ( ' ' ' 1.' 1.1.1.9.1.9.<.z.7.1.*.2.1.2.2.2.2.3.3.+.3.,.+.t.u.u.J.J.u.c.u.u.c.u.u.u.u.c.x.u.x.u.J.S.A.H.XX+XOXOXOX$X5X5X1X2X<X7XoX7X7X1X5X6XqXiXiX6XrXrXrXiXiXrXrXrX0X<X3X8X4X8X8X8X0X8XwXwXeXyXyXtXtXaXaXaXbXnXnXnXnXnXmXNXmXmXNXmXnXmXVXMXBXBXBXBXVXZXZXZXVXAXZXVXAXZXZXFXVXZXZXVXZXFXGXFXZXGXGXZXZXGXGXGXGXZXZXZXZXZXAXZXCXAXAXCXAXCXmXNXAXCXBXBXCXNXCXCXNXBXNXCXCXCXCXCXCXAXZXCXBXBXBXCXCXNXBXNXNXnXnXnXnXsXsXdXpXdXfXsXfXNXfXNXNXNXNXNXCXNXCXCXCXCXZXCXBXCXZXCXZXCXZXCXZXCXZXVXVXBXBXBXBXVXVXCXVXVXVXSXVXAXVXVXZXVXFXZXZXZXVXBXVXBXmXMXnXbXbXyXdXgXdXgXgX#XD.B.z.z.z.j.z.z.z.j.z.z.9.9.1.1.1._ &.E _ E E E F n v 5 z v n S V n F E _ _ _ A S v C v k 0 4 3 : ; ; ; ; + ; + + ; ; 4 8 8 q 8 4 $ % . . . . . . . . O O . . . . . O . . . . . . O + % + 4 0 z l N H ! K K R K K G G D D D D b D Z Z n b C v v z q 0 2 1 , , @ @ + @ O % . .   .                                           o                                                                     ",
"o                               .                                         .                             .                                                 - w p p g f r # o     o           o o   o   o o o   o o o X - - = y a ^ ~ ^ ~ ~ ~ { _ [ [ [ [ [ [ [ 9.j.1.1.j.9.j.9.z.l.l.q.7.1.1.2.4.2.2.:.3.3.3.3.+.3.3.u.u.u.u.u.c.J.u.u.c.c.u.u.u.c.c.c.c.c.S.A.XXXX+XOXOXOX>X>X>X>X1XOXoXG.G.7X7X4XqXrXrXrXiX6XiXiXrXrXrXrX0X0X0X8X4X8X8X0X8XwXwXwXyXwXwXtXyXaXaXaXbXbXnXMXnXmXmXnXNXmXNXNXNXmXmXMXBXBXBXBXBXCXCXCXCXCXZXAXZXZXZXZXVXZXZXZXZXZXZXZXZXZXZXZXZXZXZXFXZXZXGXZXZXZXZXZXZXZXCXCXCXCXNXBXBXBXmXBXCXBXCXBXmXBXCXCXBXBXNXNXCXCXCXCXBXCXVXBXCXCXmXNXNXNXnXnXsXsXsXdXpXsXpXsXsXsXsXNXfXNXNXNXNXCXNXCXCXVXCXZXBXBXCXCXBXCXCXCXCXCXBXBXBXBXBXmXBXmXmXBXVXBXBXVXBXVXVXVXVXVXVXVXZXVXBXBXmXVXMXmXmXMXnXdXtXyXuX0X<XgX XB.j.z.z.j.z.' 1.1.1.1.1.' 1.1.1.R E E E E n F S S n v v z v v v C v S A S A _ ! J S V q 5 2 : : : + ; + + + + + + + + % , 4 8 8 t 8 $ . . . . . . . . . . . . . . . . . . . . . . . O % O ; < 9 z N H H K K J J H F G F D D D b Z n Z b C b v v k 0 0 2 1 , , + + @ O + % o . . . .                 .                                                                                     o   o   ",
"    . .                   .   .                         o                   .               .   .   .         .                   o               o X   - p f ( ( _ { T = o   . o o         o o o o - - - - = - p p g f ~ ( { [ [ [ [ { P.[ [ P.9.P.9.[ f.9.[ f.[ 9.' ' 9.1.j.j.j.l.q.0.1.2.4.4.2.7.3.3.3.3.+.,.3.+.u.u.u.S.c.c.u.u.u.u.u.d.u.J.m.n.n.c.c.S.A.XXXX+X$XOX$X>X$X5XOX>XoXG.D.D.G.7X5X6X6XrXrX6XrXiXrXiXrXrXrX0X8X4X8X8X9XqX0XwXwX0XyX0XyXwXwXyXtXaXbXbXbXbXnXnXnXmXmXnXmXNXmXmXnXMXBXVXCXVXBXBXZXCXVXZXZXZXZXZXZXZXZXZXZXZXZXZXZXZXZXZXZXGXZXGXZXZXZXZXGXZXZXZXZXZXCXCXAXCXZXCXCXCXBXNXBXmXCXmXCXmXCXmXBXmXBXCXCXBXCXCXCXCXCXVXCXCXCXCXCXNXmXNXNXNXnXNXnXsXsXsXfXsXsXfXsXsXNXNXNXNXNXNXNXNXCXCXZXCXBXCXZXZXBXZXVXCXCXZXZXBXBXBXBXBXnXSXSXBXMXMXBXMXMXMXMXMXBXBXVXVXVXVXVXVXBXMXcXMXMXnXnXdXuXgX8XgX<XgXD.B.z.z.1.2.W +.o.1.' o.W R E o.1.R E E E n S n S Z n S v v z 5 5 5 q 0 z q V S A ~ A S V 5 < < ; > ; ; + ; + + O + + O + O O % $ 8 8 8 $ . . . . .   . . . . .   . . . .   .   .   . o . O O + 1 2 k Z A N Z D D Z D Z D Z D F D D Z D Z Z v C v k k 5 7 4 1 , ; @ + O + % % o . .     .           .                                             o     o                 o           o               ",
"                                    o             o     o         o                   .   .                                                         #   - f [ [ [ [ ' _ d #         . X o   o X - = p f ~ f ( { { [ [ [ [ ).[ R.).[ [ ).P.9.R.[ R.[ [ [ { ' ' ' ' ' ' ' ' 1.9.1.j.q.9.1.q.1.<.1.2.7.2.2.2.3.3.3.3.3.3.u.u.u.u.x.d.x.u.u.y.u.y.n.n.Z.n.n.x.Z.A.XXXXXXOX$X$X>X>X>X7XK.K.G.D.D.D.K.2X6XqXeXqXqXeXqXrXrX0X0X0X8X0X4XqX8XqX9XwX0X0XwXwXrXeXyXyXyXyXdXyXbXaXaXnXbXnXmXnXNXmXmXmXNXNXCXmXBXBXBXCXCXCXZXCXCXZXVXVXZXCXZXZXCXZXVXAXCXAXVXVXZXCXZXCXCXZXZXZXZXZXZXZXZXZXCXAXAXAXCXCXCXAXNXCXNXNXBXCXmXNXmXCXSXNXNXCXCXNXCXCXCXCXCXCXZXCXVXBXCXBXNXmXmXNXNXNXsXsXnXsXsXsXfXfXsXsXNXNXNXNXNXCXNXCXNXCXCXCXZXCXZXCXCXCXZXBXCXCXCXCXVXMXmXBXBXMXmXBXMXMXMXMXMXmXSXMXMXMXBXVXmXVXVXVXmXMXbXcXbXyXbXaXrXgX<XgX X X Xl.j.z.1.o.W ' o._ o.R E E E E E E E n S n n V n S S n S V v z q 0 9 2 2 1 2 < 9 V V S V V y 6 6 1 > , ; ; + + O + O + O O O O % % , 8 8 $     .   .   .       .   . .     .       . . o . . O + , 4 y M H H C b x Z b N N D b C D C Z Z Z b C v B l k 0 0 2 < , > + + @ @ O % % o     .             .   o . o     o o     o       o       .                                                           ",
"      .                                                 o   .                                     .   . .                                         o - X r ( P.j.).).).P.' f p p = = = = p p p a f ^ ( { ( { [ [ 9.).).R.)._.).).R.R.[ R.j.P.).R.P.[ ] ' ` ` ( ( ( _ _ ( _ ' 1.1.1.9.1.7.q.q.7.q.4.2.2.4.2.3.3.3.2.3.3.3.6.u.7.u.u.7.3.x.6.y.y.x.n.n.n.x.b.n.A.F.F.F.XXOXOX$XOXOXK.K.D.D.m.C.D.G.OX<X6X6X6XqX6X6XqXqX0X0X0X0X8X0XqXqX9X9XwXqXwXwXwXeXyXwXyXeXdXyXbXaXbXbXbXnXnXnXmXNXNXmXNXmXmXmXBXBXBXBXCXCXBXCXZXCXZXZXZXCXZXZXZXZXZXAXZXVXZXAXZXZXVXZXZXZXZXZXZXZXZXZXZXZXZXCXCXCXCXCXCXCXmXCXNXAXBXNXmXCXCXmXmXmXNXAXNXCXCXNXCXCXCXCXCXCXZXBXCXBXBXCXNXNXNXnXNXNXNXfXsXfXfXsXsXfXsXfXfXfXNXNXNXNXNXCXCXCXCXCXCXCXCXZXZXCXCXBXCXCXBXBXBXmXSXmXMXmXMXmXMXMXMXMXcXfXaXcXMXMXMXMXMXMXMXMXcXcXcXyXwXuX8XgX X XB.B.z.z.z.z.1.1._ o.o._ o.W E E E E E W E S n v v B V n S S S S B v q 9 < 2 < 1 ; > > , q V V M y y 1 1 > > + + + % + + O O O O O . O O % * 4 = # . . . .   .   .   .   .     .       . .     .   . . % , 2 M M H V x l x z l x x N Z b x D Z b Z C C v v l k q 9 2 < > @ + O + O O % . . . . . .     o o                           o           .                                                             ",
"                                  o .   .       o       o   o                                     .     .     .                                     - - y { _.'.kXgXIX'.).[ [ ( ( f ~ ( ( { { ( ` { ' [ { ' [ [ P.).).P.).P.j.P.[ [ [ [ R.[ f.[ [ [ ` ` ` ` ( ( T ( W ` ' ' ' j.1.1.1.j.z.j.q.q.7.1.2.1.7.2.2.2.3.2.3.7.6.3.d.6.d.2.7.3.6.u.x.x.n.c.b.x.p.n.S.A.F..XXX+X$X$X>XOX|.G.G.C.C.v.D.G.OX2X6X6XqX6XqX6X0X8X8X0X8X8X8X8X9XqXqXwX9XqXwXuXyXeXeXyXyXtXyXdXbXaXaXbXbXnXnXMXnXmXmXmXNXnXmXmXmXNXCXmXVXCXCXCXZXCXCXCXCXZXZXVXZXZXZXCXVXCXBXAXCXVXZXCXZXCXZXZXZXVXVXZXZXZXCXZXCXCXCXCXNXCXCXNXBXNXmXBXNXmXmXmXBXNXNXNXNXCXCXCXCXCXCXCXZXCXBXCXBXCXmXNXNXNXNXmXnXsXNXsXsXfXsXsXsXfXfXNXNXNXfXNXNXNXNXCXCXCXCXZXBXZXZXCXCXCXBXVXCXmXmXmXMXmXMXMXBXmXmXMXMXbXMXbXdXvXdXcXcXcXbXcXcXcXcXcXcXyXuXwXgX<X X Xk.l.z.z.1.7.1.' 1.o.&.&.W o._ o.o.W E F F A n v t v t v V S A T S S V v 5 4 ; ; > ; ; + + @ $ y y a y 9 6 6 @ + + % + + O O O O O O O O . O O # * $ % . .   . o     .     .   . .     . .     . .   o   . O $ 4 y A H V C l c z c l N N x Z N Z Z C Z Z C b v k z 0 5 9 1 > > + @ + % + % . % o       .   o     o   .   .         .   .     . .   .                 o                                             ",
"o                           .                       -   o   o           .                             .                           o           o o o = p f ' '.kXSXPXSXkX'.'.).R.[ { { ' [ [ [ ' ' _ { ( ( ( { ( _ [ [ ' ` { ' ` ` { { ] [ ] ] ` ] ] ] ` ] ^ ( ( ' ` ' ' [ 9.j.j.j.j.9.9.l.l.l.q.q.7.2.2.2.2.2.2.3.3.3.+.3.3.3.3.3.3.3.d.6.6.y.x.b.b.y.y.y.n.V..X.XXX+X%X>X3X>X$X7XD.D.v.z.C.D.G.1X5X6XqX6XqX6X4X4X4X<X4X4X8X8X8X6X9X9XqX9XwXwXwXuXeXyXwXyXyXyXyXyXaXbXaXaXnXnXnXnXnXmXNXmXmXNXmXBXBXBXBXBXZXCXCXCXCXZXCXZXCXCXZXZXCXZXCXVXAXVXAXZXCXCXZXBXZXZXCXCXZXZXCXCXCXCXCXCXCXCXNXCXmXNXNXNXmXCXmXNXNXSXNXmXmXNXAXCXCXNXNXCXBXCXCXCXZXZXCXCXBXCXNXNXNXNXnXNXNXsXNXnXsXsXfXsXsXsXNXfXNXNXNXNXNXCXNXCXCXZXCXCXBXCXZXCXCXBXBXBXBXmXmXmXSXmXMXMXMXMXMXMXMXbXcXvXyXyXyXyXcXyXcXcXcXyXuXuXuXgX=X#X XD.l.z.z.&.o._ E o.R R E R R &.E R R E E F W n v v t 5 5 q y v v S S S S t t 4 ; + + > > @ ; + @ @ , q y y y 6 , > + + % + % % O O . O . . O O . . % $ * O   . .       .   . .   .   .   o   . o o   .   . . . O + 6 y M ~ H Z C l l l N N N N N Z C Z Z Z Z C C v k q 0 0 5 < > @ + + O + O % % . o . . .       .       .     . o   .   .     .     .   .                                                             ",
"                                  .   o         . - p = o   .         .                       o   . .     .                   o     o       o o X X p p ~ ).IXFXLXPXSXgX].].).[ ` ( ( { ` ` ( ( f f f p u p s g f ^ g s g g g Y g g I ^ ^ ` / / { ` ] ` ] ` ` ] f.' f.[ j.j.).l.j.9.1.j.l.l.j.l.7.7.1.2.2.2.2.2.2.2.2.+.3.2.7.2.7.2.+.7.6.y.x.6.b.x.x.6.x.n.V..X.XXX%X$X$X5X<XoXD.D.C.z.z.v.D.G.$X2XqX6X5X5X3X3X<X<X4X3X3X<X8X8X9XqX9X9X9XwX0X0XrXrXeXeXtXyXdXyXbXyXbXbXbXbXbXnXmXNXmXmXNXmXNXmXNXBXBXCXmXCXCXCXBXCXCXZXBXCXCXCXCXZXCXCXBXBXAXAXVXAXAXBXZXCXCXCXBXZXBXZXCXCXCXCXCXCXNXCXNXNXNXCXBXmXBXmXmXmXNXNXmXmXmXCXNXCXBXCXCXCXAXAXCXZXCXBXCXBXCXmXBXNXmXNXNXsXNXNXNXfXfXsXfXsXfXNXNXNXNXNXNXNXCXNXCXCXZXCXZXBXZXBXCXBXBXBXmXmXBXBXMXBXMXMXMXbXbXMXbXbXbXcXrXyXuXyXyXyXyXuXuXuXuX-XgX#X X|.B.l.z.1.1.o. .E W G F F F F F E W E F E E Z S v v t q 5 5 < 4 4 9 t V V V y q 6 , + + + @ @ @ @ + + + > 6 8 9 6 , > > + @ @ % % % . O . O . O O . . . . . O . . .     . o     .   .   .   .   . . o . o o     . . . % @ y V S V V N M x V N N M V N C Z Z Z Z Z C v v v k q 9 2 < , ; + + % @ @ % % . o .     . .     o   . o .   .   . .   .     o         .         o                                               o   ",
"                                                X p ( V .                   .   .                                                           o X o X p ~ P.*XPXLXPXSXkX).f.] ` ( f d s a s u 8 - = h X o X - = u h w h - & & - e - u u i Y Y ^ ( ] ] g.f.[ ] [ R.).).j.f.f.j.'.*Xj.1.' 1.j.l.q.l.q.q.2.2.1.2.2.2.2.3.3.2.2.2.+.2.+.2.+.7.6.6.6.x.y.b.y.6.b.C.A..X.X+X$X$X$X$XOXG.D.C.x.z.x.C.G.G.1X6X6X5X5X5X2X#X<X$X#X<X<X4X3X8X5X9XqXqXwX0XwXwXwXtXuXtXeXyXdXyXyXaXbXaXbXbXnXnXnXmXmXNXmXmXmXNXmXBXCXmXCXCXCXCXZXCXBXZXCXVXCXZXZXCXCXVXCXBXBXBXBXBXBXBXVXCXCXZXZXBXCXBXBXCXBXBXNXCXCXNXNXSXNXNXmXmXNXmXmXmXmXmXmXNXNXmXBXNXNXNXCXCXBXNXZXCXCXCXBXBXCXCXNXmXNXnXNXNXsXfXsXsXsXfXsXfXfXNXfXNXNXNXNXNXNXCXCXCXCXCXZXCXCXBXCXVXBXBXmXBXBXmXmXmXMXnXbXbXbXbXbXbXyXtXuXuXrXuXyXyXuXyXuX9XuX=X X|.{.l.l.7.2.o.o.W m n n n n n n n F Z F n v n V n v 5 5 5 4 < 4 , ; 4 4 4 9 8 4 8 4 + > O O O @ @ + O + O O + > 6 , , @ @ + + % % % O % O O . . . . . . . . . . . o . . o .   . .     .   .   . o .   X o o . X     . % % @ $ 8 V V S V M B C N C M N N N C Z Z Z V Z C C N l k 0 0 9 1 > + + + % + O % % % . . . .     o   . .     . o             o .   . . o   o                                                             ",
"      .                                         X f { (     o                     o             .                                   o     o o X o X f { '.IXLXSXkX'.R.` ( f s w e & X o o &             o - - - X e - &   o & u i u e & h i ^ ` ] R.].`.R.f.R.].kXgX'.j.j.].gXIXB.j.E 1.j.l.l.q.z.7.<.1.2.*.2.2.3.7.3.3.+.+.2.O.+.o.2.2.7.3.7.x.6.b.y.x.b.m.[.A..X%X%XXXXXoXD.D.C.z.d.z.x.v.F.XXOX2X5X3X5X1X$X7XOX7X#X$X3X<X3X#X3X4X9X5X8X0XrXuXwXyXuXyXwXtXtXyXyXbXaXaXaXnXnXMXnXmXmXmXmXmXmXNXmXmXSXNXCXCXAXCXBXCXZXCXZXCXCXCXCXCXCXCXAXBXCXCXBXAXCXBXCXCXCXCXBXCXBXZXBXCXCXCXCXNXCXNXmXmXNXNXmXmXmXmXmXmXmXmXmXNXBXCXNXmXNXCXCXNXBXAXZXCXCXBXCXBXCXNXmXNXNXnXNXsXNXsXNXfXsXsXNXfXNXfXfXNXNXNXNXNXNXNXCXCXAXCXCXBXZXZXCXBXBXBXmXBXMXmXMXmXbXMXbXcXbXbXbXbXyXuX0X0XwXuXuXuXuXuX=X*X|.{.B.l.z.7.<.1.o.R n m n n n n c n b n b b v v v v v 5 5 2 < 4 4 ; , + ; $ % , , % $ % + O O O O O % % % % O O O O + @ @ + + + + O + % O O . % . . . . . . . . .   . . .   .     .   .   . .     . .     . X o o o . o o . . X @ $ 8 y V V M M B Z N C N N N N N Z Z Z H Z C v v v z 0 5 5 : $ + + @ + + % % X o . . .   .   .         .       o     o .       o     .                                                               ",
"                                      o o       X ( ' {   o o       .                       .       .   .                             o o o o o X - ^ Y.IXLXLXkX).[ ( s w = e - & o           o o o o o - = = - o = u w & o h U ^ ^ e & e u ^ ] R.`.:XkX`.].].kXPXPXSX].j.].IXNX'.j._ ' 9.l.j.z.9.7.7.1.1.2.2.2.2.2.7.2.7.2.O.o.o.o.O.2.2.3.6.b.6.y.p.b.n.V.A.}.V..X.X.XA.|.D.v.z.d.z.d.x.C.D.oX+X1X1XOXoXOXOX#X#XoX#X<X$X<X<X9X3X3X9X8X8X0XwX0XwXwXwXwXyXtXyXdXaXyXbXbXaXnXbXnXnXnXmXnXnXmXnXmXCXCXNXAXmXCXBXCXBXCXBXBXCXCXBXVXZXCXCXCXNXSXCXBXAXBXCXCXCXCXCXZXBXZXBXBXCXBXmXCXCXCXCXNXmXNXmXNXNXmXmXNXmXmXmXmXmXmXmXNXCXCXCXNXCXAXVXCXCXZXVXCXBXCXBXNXNXNXNXNXNXNXsXNXsXsXfXsXsXfXsXNXNXNXNXNXAXNXAXNXCXCXCXAXCXZXBXCXCXBXBXmXMXMXMXmXmXnXbXMXaXaXbXbXbXaXrXgXuX8XuX9XuX9X<X#X X|.k.z.q.<.1.1.o.R n m n n c c c c c c z b v v v v z q 0 0 4 4 4 : , , % + O O O % O O O O O . O O O + @ @ % @ O + + + + O + O O O O O O O O O . . % o . . . . . . . .     . .   . o   .     .   .       .   o . . X . o . . o . % % 6 8 y y y k k V M N M V V C Z Z Z S Z Z V C v l k k 0 5 9 > 1 ; + + O @ @ % % . . .   .   .   o     o .   o .   . .     o   .   .     .                                                             ",
"                          o       .             X I { ~ X   .             o   o   o   o   .                       o     o o       o   o o o o o X u [ '.PXLXkXj.^ f p u u u = = & o o o o   o o o o   o = - = -   ^ { ' I u ^ [ R.[ I & e U ^ ] E.kXSXDX:X`.`.kXLXLXPXgX).].IXAXgXj._ ' z.j.z.j.l.q.4.1.1.*.2.*.2.7.4.2.+.1.+. ...o.o.+.2.7.z.7.y.b.b.b.C.N.V.V.N.V.V.V.C.b.b.x.7.d.2.+.z.m.D.F.oXoXoXoXoXoX#X#XoXoXoX7X#X<X3X3X8X9X$X9X8X9XwXwXuXwXyXwXyXyXyXyXbXyXbXaXbXbXbXbXnXnXMXnXmXnXmXmXmXmXSXBXBXBXCXCXCXVXCXVXCXZXZXZXCXCXCXCXCXCXCXCXCXCXCXBXCXCXAXNXCXZXBXCXZXBXCXCXAXNXNXmXNXmXmXNXmXNXNXnXnXnXnXnXmXmXmXNXmXBXCXCXCXVXCXZXCXZXZXZXBXBXBXNXNXNXNXNXNXsXsXnXsXfXfXsXfXfXsXNXfXNXNXNXNXCXmXNXBXBXAXCXZXCXCXCXBXmXmXmXSXbXdXnXnXnXbXbXnXaXnXsXaXyX6XgX7X6XgX7X X<X XB.l.z.<.1.o.R ..R R F n n c z c z c j c z k B C V v v v a q 8 6 , @ @ @ O % O O . . . . . . . . . O . % % @ % @ @ O % O O O O % % O . . . . . . . . . . .   . .   . .     . . . .     o . . o   o   .   o   .   . o o o . o o . . # # @ $ 6 6 y y q q q M y k M B M B V Z H H S Z C C x l k k 5 : < ; ; + + + @ % % . . . . . .   o     .   . . o .     .   o   .     . o .   o                                       o     o               ",
"                                            .   o p ^ a X   o .                                                     o         o o     o o o o o X f ).IXLXPX].{ g u u i g u u u - X o   o o   o & o   o - 8 = = . ).].'.{ ( [ gXIX'.` & = I ` [ `.IXDXPXkXj.E.gXPXKXAXkX].].SXGXgXj.E _ ' j.' z.9.<.1.1.-.1.o.1.*.2.4.2.2.+.o.o.R  .o.o.2.2.3.7.p.z.l.p.b.b.b.b.l.p.6.z.6.6.6.6.7.7.7.z.x.m.V.D.|..X|.oXoXoXoXoX#X#X#X#XOX<X3X3X9X3X3X9X9X9X9XwXwXwXwXyXyXyXyXyXyXyXyXbXbXbXbXbXMXbXnXMXMXMXMXmXmXmXNXBXBXBXVXCXCXAXCXCXCXCXCXCXAXCXCXBXAXVXAXCXZXCXAXVXBXVXSXCXCXVXZXCXBXCXCXCXNXBXCXNXNXmXmXmXNXmXmXMXnXnXnXnXnXmXmXmXBXBXBXCXZXZXZXVXVXZXZXZXBXCXCXBXNXmXNXmXNXnXnXsXNXfXsXfXNXsXNXfXsXNXNXAXmXNXBXNXNXBXVXAXBXCXBXCXBXBXmXMXMXbXSXnXMXbXsXsXsXsXaXaXtXwXgX7X X<X7XD.z.z.z.j.7.1.R E E E F F F n c n c c c 5 5 4 5 0 k v v k q a M q q 9 6 $ @ % O O O . O . . . . X . . . . O % % % % @ @ % O O O O O O O . . . . . . . . .   . . . . . . .   . . . .   . .   .   o   . o     . o     o o   o o . o o . o % X # # @ h 6 8 6 6 9 9 9 0 7 0 M Z V Z Z H Z Z Z C C v l l 5 5 4 : , ; + @ + % @ % % . . . .   .   . o   . .       o o . o   .     .   .         .   o   o           o                                     ",
"                                              .   - r = o                                                         o   o       o o o   o o o o o X f '.PXLXIX{ g h h p g f g i u - & o     o o o       o = 8 = - o ].IXIX[ ` ).PXPXIX[ o e Y ` f.`.IXDXPX:Xf.E.IXPXHXPXIX'.*XSXHXgXj._ ' j.1.1.1.9.1.1.1.&.o.o.o.*.*.2.:.*.*.o. . .o.o.o.:.2.7.7.6.p.b.b.b.b.w.6.3.7.4.7.7.7.7.7.2.7.7.6.b.m.V.D.V.D.D.oXoX#XoX X#X#X#X#X#X<X<X1X$X9X9X9X9X8X9X9X9XwXuXyXyXwXtXyXyXbXyXbXyXyXbXbXbXbXMXnXnXnXnXmXMXmXBXmXNXBXBXCXCXCXCXCXZXVXCXZXVXBXAXAXBXAXVXBXCXCXCXCXCXAXBXCXZXCXCXCXCXBXBXBXNXBXAXmXmXNXNXmXmXmXnXnXMXnXnXbXnXmXmXmXmXCXCXBXZXCXCXZXZXZXVXZXCXBXBXNXNXNXnXNXNXnXNXsXNXfXsXsXsXfXsXsXNXNXNXNXNXBXmXAXBXCXBXCXBXZXCXVXBXMXnXMXnXSXdXMXMXbXbXsXaXaXbXdXwX<X XgX X Xz.z.z.+.1.&...E F n n n m n n x c z z 5 j 3 : : : 5 0 q q q q q q 9 6 , > $ @ O O . . . . . . o . o . . O O O . O % % O @ O % O . % O . % . . . . . . . o   . .     .     . .   .     . .   .   .   .   .     .   .   .     o . . . . . . . X . @ # 6 6 6 6 6 6 6 7 7 9 7 M C H Z A H Z Z Z C C v v k z 5 5 < ; ; + + + @ % % % o .   . .   o . . o   . . . . o . o . o     o   .                                                                     ",
"                                .                 o X X         .         .   o     .         o         .   .   .   X X .   . . o   o o o o o o @ { IXLXPX'.~ g u i Q f Q g i p - X o   o   o o o o   X = p = $ . ).IX'.` f ).PXLXIX[   - U { [ ].IXPXDX].` f.kXPXKXPXSXgXSXPXHXgXj.E W 1.' ' j.1.1._ 1...&...o.o.o.*.O.o.o. .G W o.o.+.2.2.7.7.6.w.w.6.w.6.7.4.2.2.2.2.2.2.7.7.2.2.7.x.C.C.V.B.C.B.D.|.|.oXoX#XoXoXOX#X#XoX#X7X$X$X9X9X9X8X9X9XwXwXyXwXwXyXwXtXyXyXbXyXaXbXbXyXbXbXbXMXMXMXnXnXmXMXmXmXmXBXBXBXVXBXBXCXCXCXCXVXBXAXBXBXAXBXBXAXVXAXCXCXCXBXCXCXBXVXCXBXBXCXBXCXBXNXNXmXmXmXmXmXNXnXnXMXnXnXnXnXnXnXmXmXmXmXmXCXCXZXVXBXVXZXZXCXBXZXCXNXNXNXNXnXsXNXsXsXsXsXfXsXsXsXNXfXnXnXnXNXNXmXBXmXBXBXCXVXCXVXBXBXBXBXSXMXvXdXaXbXaXaXdXaXaXaXdXrXgX#X XD.D.z.j.1.W R R W F F n n n b b x x l z z c c 3 : : : : < < 5 9 q 9 8 8 , > O + O O O . . . . . . . o .   . . . . . . O O O % O % % % % % % % . . . .   . . .   .   . o .   . .         . .     .   .   .   .   . .   .   .   o . o . . X   . . o o % # @ - @ @ > 1 6 6 6 6 6 7 k M V S Z S H Z Z C Z v l z v 5 5 < , ; + @ + % @ % % X   . .   .       o       .             .   .       . . .                                                             ",
"                                                o     X                             o               .   .   o   .   = = X   o   o o o o o o o   - ' IXLXIXR.g g ^ Q f Q f g p g - o o o       o o   o & = p = -   [ *X`.f f '.PXPXIX[   h ^ ` f.`.IXPXPX].` f.kXHXPXPXSXSXAXJXAXgXf.( _ ' ' _ 1.1.1.R &.o.R R ....o.....o.G  .G G  .o.1.2.1.2.7.6.w.w.q.q.7.4.2.2.1.2.2.2.7.7.7.7.2.7.z.C.V.V.V.B.D.D.D.|..XoXoX#XoX#XoXoX X7X#XOX$X3X8X9X3X9X9X0XwXwXwXtXwXyXyXyXaXyXaXbXyXaXaXbXaXbXbXbXbXbXbXSXMXmXMXmXmXmXBXNXBXBXBXCXBXCXCXCXCXZXCXBXBXAXBXCXCXCXCXCXCXCXCXBXBXBXBXBXBXCXBXNXBXNXmXmXNXNXmXmXmXbXnXbXsXbXaXbXnXnXmXmXmXNXCXCXVXBXCXVXZXZXZXCXCXCXNXNXNXnXNXsXNXsXNXsXNXfXsXfXsXsXsXNXNXnXNXNXCXNXmXBXCXCXAXCXVXCXCXVXMXMXbXvXdXdXyXyXpXrXdXfXiXrX<XgX X'.B.z.z.o.R W G n n n n n n n v x v c c z c c z 3 : : ; ; : , 1 < 4 6 , , % + O O O O . . . . . . .   o . . . . . O . O . % O % % O % X @ X % % o . . . . . . . . .   . .   . o       .       .   . .   .   o   .     .   . .   .   . o . .   . o . o . % X % @ @ @ > > > 6 1 1 7 k M N Z H H S Z Z Z C v l v z z 4 < , ; + ; % % @ % . o .   o .   . o         .   .         .       .       . .                                             o               ",
"                                          o                     .           o                         .   .   . o X p p -   .     o o o o o o   h [ IXPX'.{ p g ~ ( Q f Q g Q p h & o   o   o o o o & = p 8 = #   [ '.'.w ( kXLXLXIX] o = I ' P.`.IXPXDXE.] R.IXPXPXAXSXSXPXSXIX'.' W _ ' _ ' 1.' R R E E R R R K G  .G  . .G G G R o.o.*.2.4.4.4.6.q.6.4.7.4.2.1.2.<.1.7.<.7.4.2.7.7.z.b.B.B.B.C.V.B.B.|.|..XoXoXoX#XoXoXoXoX|..X#X<X<X3X9X8X9X9XuXwXwXwXwXwXtXyXyXcXaXyXbXyXcXaXcXbXbXcXbXcXbXnXbXnXmXmXMXMXBXmXBXBXmXBXBXCXCXCXCXCXCXAXBXNXAXZXCXCXCXCXCXVXCXBXBXBXBXBXBXCXmXBXmXNXmXmXnXmXmXnXmXnXbXnXnXbXnXbXnXMXmXmXmXBXCXCXCXCXBXCXCXCXCXBXCXCXNXCXNXnXNXNXNXsXsXNXfXsXsXfXsXfXsXsXsXnXnXmXNXBXNXmXBXCXCXBXBXBXBXBXMXMXyXdXvXyXdXuXgXgXrXgXiXgX<XD.D.B.z.z.+.W W n n n n n c v b v n z c z 5 c 5 7 2 : : : : ; + > > , < , $ $ + O O O . O O O O O . .   . .   .   . . . . O O % % % % O % % % % % . o o . . . .   .     o o       . . o     .       o     .   .   .   . .   .     .   . o . o . . o .   . . . % % % % @ @ @ ; > ; > 9 k V A A H Z H H N C C N l z v q 5 < : ; $ + + @ % % X o . . .             . o   .     . . .   .     . o .                                                                   ",
"                                                      o     o                 . o o o             .   . .   . . X - f ~ 8 . .   o   o o X o o   = [ '.kX).g p g Q ^ Q Q Q g g p - X     o     o o X # = 8 h - X o [ ).].p { '.FXIX'.{ o u ^ ` R.:XIXPXDX).[ ).kXPXSXIXIXIXIXIXgXj.' W E E ' _ _ R E E E E G F G F G F m m m m m n G R o.&.*.1.<.7.q.w.q.q.4.4.1.2.1.1.2.2.4.<.<.2.<.7.l.l.B.B.l.l.C.B.D.|.D.D.|.|.|.|.|.|.|.|.|.|.oX#X#X3X8X8X8X9XwX9XwXwXwXwXtXtXyXyXyXyXbXyXbXyXbXyXyXbXyXMXbXnXMXbXMXMXmXmXmXMXBXmXmXBXCXCXBXCXCXCXCXCXCXCXCXCXCXCXBXCXCXCXBXBXBXBXCXBXmXBXmXmXBXmXNXmXmXmXnXmXnXnXSXnXaXnXbXbXbXnXnXmXNXNXCXCXCXBXCXBXCXCXZXCXBXNXCXNXNXNXNXNXsXNXsXsXsXsXfXsXsXsXsXsXsXNXnXnXmXmXmXmXBXBXVXBXBXmXMXMXcXcXbXyXgXyXuXgX<X<XgX7X6XgXD.].D.z.z.1.W n n n n n n v n c n v v z 5 2 3 5 2 3 : : ; ; ; ; + + > @ , % % % O O O O O . . . . . . . . o   . . . . . . . O O O O O O % % % % % o . . o o . . o   o   . .   . .   .   .   .   . o .   o . . .   . . . . . .   . . . .   . . . .   .   .   . . . O O O + + + + > + ; < q V A ~ H Z Z H M C C v v v v 5 5 5 , ; ; , + @ % % % . . .   o     .           .   .     .       .   . . .   . * - # - o .                                             o . ",
"o                                 . .   .   .   . . . .   o o             o     o o o o o     .     .       . . % $ f ~ 8 o % .   o o o o o o o 8 { ).].( - u g Q Q a Q g g Q h - & & & o o     . o # = = 8 - X o [ ).).I ( '.IX'.R.( - g ^ ` [ `.IXIXkXR.] ).kXDXSXIXgX'.kX'.'.j.' ( A W _ E ' E E E E F F F F m m m m m m m m n G G R ....*.*.<.<.4.<.4.4.4.-.<.*.*.1.&.*.1.1.<.<.7.z.k.M.C.l.z.l.C.B.B.V.|.|.D.D.|.D.|.D.D.D.|..X|.7X$X8X9X8X8X0XwXwXwXwX0XtXtXyXyXyXbXyXaXbXbXyXbXbXaXbXbXbXbXbXbXnXnXmXMXMXmXMXmXmXmXBXmXCXCXVXCXCXCXVXCXCXCXCXCXBXCXBXBXBXBXBXmXCXBXCXmXCXBXmXmXmXmXmXNXnXMXMXnXfXbXbXaXbXaXnXMXnXMXmXmXNXCXBXCXBXCXBXCXCXBXNXNXNXNXNXNXnXsXNXsXsXNXfXsXsXsXfXsXsXsXsXfXsXnXnXnXnXMXmXmXmXBXBXVXmXMXMXyXcXyXyXgX<X<X#X X7X'.7X7XK.].D.z.z.1.E n n n n c n v n v v v z 5 3 1 2 3 < : : ; ; ; ; + + + + + + + % % O O . . O O O . . . . . . . . . . . . . . % % % % @ O % + % X % % % % % % o X o . o . .   . o . . o   . . .   .   .   . .   . .   .     . . . . . . . . . . . .   . . . . . . . . . . O O + + ; + ; ; 2 k M Z A H A Z H Z C C C l v k z 9 < , ; + + + % @ % . . . .   .                       .         .     o     % = r p p = = * - X -                     o               o   o ",
"                  o           o .     .       .         . o   X         . X o   . p ~ u #   #   % . .   . . # . . p ~ ( 8 $ . . X X . o o o o   = ^ [ { I h u i Q h Q Q u h Q u h X o o o o o &   X - - = 8 - X   { 9.[ f ( [ P.[ ( I p g g ( ] ).`.'.E.[ { R.'.'.kX].).j.).j.j.' ( T T _ W _ E _ E A F F Z b D m b m m x x x x n m m G E R ....*.1.<.<.<.-.*.1.&.&.&.R ..&...&.1.1.7.z.k.l.l.q.6.z.l.C.B.|.D.B.B.B.B.D.B.B.D.D.|.|. XoX#X<X2XgX8X8X0XrXrX0XwXyXyXyXyXyXtXyXyXyXyXaXaXMXbXyXbXMXcXbXbXbXbXbXbXbXnXMXmXmXmXmXBXBXCXmXCXCXCXCXBXCXCXCXCXCXCXNXBXCXCXmXBXmXBXmXBXBXmXCXmXmXmXmXmXmXnXmXMXfXSXbXaXaXaXbXbXbXnXnXNXBXNXCXCXCXBXCXCXCXCXNXmXNXNXNXNXnXnXnXsXsXsXNXsXfXsXfXsXfXsXdXdXdXsXnXnXnXMXSXnXNXmXBXMXMXcXcXyXuXgXgX<X<X7X|.7XgXD.7XD.]. XB.j.1.o.G n n n V n v v v v v k 0 2 : 3 : 1 1 ; ; ; @ ; ; + @ + + + + O O . O . O O . . O . O . . O . % . . O . . O O % $ @ @ @ @ @ @ @ @ # # @ # # # @ # # X % . X o . . .   X o o o . o .   . . o . . . . . . . . . . . . . . . . . . . . . . . . . .   . . . . . O + + ; + ; ; < 0 M V S H Z Z H H Z N M B M k z 9 < 1 > > @ @ % % % o . . o .         o     o .   .   .   .       .   . X . # r a f f f g p p h 6 h - # - - X X o o     X X X     o o o X X ",
"                      o       o o .     . . o     # o .   .       o o     o o   - ( { f -   - o   o # X   . % % o 8 ~ ( 8 # . % .   . o o       h T [ ( I u i g a Q Q a i h p u h X o o   o     o X - X - 8 8 - o f { ( h g ( ^ g g i u u u Q ^ ] g.R.] { ` ] R.).R.[ ' ' ` ' ( E ( _ _ ' _ ( E E S Z n n n x n b m b m P n P x n x n m F G R R R R ..&.$.R R R ..R R E K E E R R &.1.<.l.z.q.4.q.q.w.l.k.B.[.B.B.C.B.l.l.B.B.B.D.B.D. X|. X7X<X#X8XuX<X8X8X0XuXwXyXyXyXyXyXyXyXcXyXbXyXyXbXaXdXcXsXbXbXbXaXbXMXMXMXnXMXmXmXmXmXmXBXBXCXNXCXCXBXCXCXCXNXCXCXCXCXmXCXmXBXmXBXmXmXNXmXNXmXmXNXmXMXsXSXMXnXdXdXsXbXaXbXaXbXnXnXmXNXCXCXNXCXCXNXCXAXCXBXmXNXNXNXNXnXnXNXNXsXfXsXNXfXdXdXdXdXsXdXdXdXdXsXsXbXfXcXnXmXbXbXcXbXcXyXuXgX<X#X#X X'.B.z.B.z.].D.D.B.B.z.' W E W n n S v n v v v t q 9 3 > 1 ; ; > > ; ; + + + + O O O O O O O O O O . O % O O . O O O % O % % % % O % % @ @ $ $ 6 6 6 $ h $ @ @ # @ @ @ @ - @ # # X % @ X X % X % X # % . % . . % . % % % O O O O O O O . O . O O . O O O O . . . . . . . . . . . . O O O O O + + + ; < 9 M N Z Z V Z Z H Z C M M l k 0 9 1 1 > + @ @ @ % . o . o .   . .                             .     . . * - = r f ~ ( ^ ~ f f f f p a p p y h h $ - - o       o         o X ",
"                                  .     . . o o X = - .   .   .   o .           - { [ ( X   X o . # = $ . . # o . r ( _ = . % . . . o   . o     - ~ [ { I g s i Q u u Q i g Q g u - - - o o o     o - - - = h - X h f f = = u e h h u g i u i ^ ^ ^ ` ^ ^ { ] ] ` ` I f g f d d d T _ ' ' _ E T S n v v c v c c n x b b x n x n c x n m D F F K J E J G F F F F E F F F Z F F E E R &.<.q.9.<.1.<.4.7.z.l.B.B.k.M.M.l.l.l.l.B.B.B.B.|.B.D.|.7X7X#X#X<X<X<X<X0X0XeXtXtXyXyXyXyXaXaXyXcXdXbXyXbXcXdXbXbXbXyXbXaXbXbXbXdXSXnXnXmXmXmXCXCXCXCXCXAXBXCXBXCXCXCXBXNXCXBXNXNXBXmXmXmXmXmXmXmXmXmXMXmXmXbXnXMXnXMXaXaXbXaXaXbXdXbXnXnXmXNXNXNXmXNXCXBXNXNXBXmXmXNXNXnXnXsXfXsXnXNXfXNXsXdXfXsXdXpXpXfXdXdXpXdXyXdXbXbXbXcXbXcXbXyXyXuX<XgX7X XD.B.B.z.z.z.B.z.D.B.z.1.&.E n n n n n n V v v v 0 9 9 1 ; ; @ ; + + + + + + + O + O O O O O O O O O O @ X O @ % @ @ $ , $ > , > $ , , , 8 9 8 8 9 8 8 6 y 6 6 6 6 6 $ 8 6 h 6 6 h 6 - 6 = - $ @ # - $ - 6 # % $ % % % % % O O O O O O O O O O O O O O O O O O . O O . . . . . . . O O O O O O + + + ; 1 9 M M M C Z Z Z Z C C N M l k 0 9 1 > + @ @ @ % % % . . o . .                         .   .           & # = $ 8 p a f f f S f f f V f ~ f f f f a r - = - X o o   X X o - h ",
"                        o o     o   .     o o o # p 8 - o o o .   o   . o o o   $ ' 9.{ #   o o o * p =     .     y ( { % o . . o o o X . o .   u ( [ ` I g i u p Q p h p Q ( ^ Q g u h o o & X o - o o - 8 h 8 X X - h - - h o = h h i u u i Y ^ I ^ Y ^ ^ ` ( ( ( f d p p r t a ( ' ' ' _ T V n v q q 5 5 c z c c x x x c c x b x v C Z Z F F F F Z b v b b b b Z Z V v n Z Z Z E E =.1.=.&.) &.1.1.9.z.k.k.k.k.l.l.l.l.C.k.B.B.B.D.B.|.|. X X X<X#X<X<X<X8XuXuXwXtXiXtXyXcXaXyXbXbXyXaXyXyXaXdXaXaXaXbXaXbXyXbXyXdXbXbXbXMXnXmXmXBXmXCXBXNXCXNXCXCXBXBXCXBXBXmXmXmXmXmXmXmXmXmXmXmXmXmXmXMXmXnXMXbXbXbXbXaXaXdXaXdXbXbXbXnXNXNXNXCXNXNXBXBXBXCXNXNXNXNXNXNXnXNXnXsXNXsXsXsXsXsXpXpXpXfXdXrXfXrXdXdXrXyXyXaXaXbXbXyXyXyXuX=X#XD. X XB.B.l.l.z.z.j.B.B.C.z.1.R F F n m Z v B n V v q 9 2 , ; + + @ + + + + O O O O O O O O + O O O O O + + # 6 , , , 6 6 6 8 9 8 8 8 6 9 8 q 8 y y y y y y y y y y y y y y y y y y y y y y y 8 y 8 6 8 8 y 7 h 6 $ 6 @ @ @ O @ @ @ + + O + + @ O + O O O O O O + O O . . O . . O . . . . . . O O O O + + ; 1 9 q k M C Z S H Z Z C C M k k 2 2 < ; > + @ @ X % % o . o                         .   .       .     . % * # - * * - 8 h y h p y p f f Q ~ f ~ f ^ ( ( ~ f f f p g p p h p p ",
"                        o X o     . .   . o o   h a a - . .   o   . X X X - o   - ' 9.{ - . o   o u f p o   . o # ~ ' 9.  % . % . . o . . % .   = ( [ ] Q g i i u i i h g ^ { [ [ { ( s o o X - - - X X - h 8 p h # h u u u u h h u u g i g g ^ ^ ^ ^ g ^ ^ / ( ( ( ^ ^ d a p a T ' 9.9.' ( Z v t 5 5 5 z 5 c j c z v n b v x c z z b v b Z Z Z Z b l z j z l x v Z C v l v b b v n F E E E E E E R &.&.1.q.l.q.l.z.q.7.q.l.l.l.B.B.B.B. XB. XB.|. X7X X*X<X<XuXuX0XuXtXyXyXyXyXyXyXyXbXcXyXyXdXcXdXyXdXyXdXyXdXdXdXvXbXbXbXbXnXmXmXCXmXBXBXBXCXBXNXmXCXmXCXCXmXmXmXmXmXnXmXmXMXmXmXMXmXMXmXnXMXnXbXbXbXaXbXaXaXdXdXaXyXaXsXnXnXNXNXNXCXBXNXNXNXBXNXNXNXNXfXNXnXfXNXsXfXsXsXsXdXdXfXpXpXrXiXiXiXrXiXiXiXdXdXyXyXyXuXyXyXuX<X<X XD.|.B.B.z.z.z.z.B.z.z.B.l.z.o.n n S F n S n v S V v q 4 1 > + + % O O O O O O O O O O O O O O O + O + + 6 6 6 6 h y y y y y y y y y y y y y M V y V y V V y M M y M M M y M y V M V Q M Q V V V V y y y y a y y y y 8 8 6 6 , @ $ ; $ + $ + $ + + ; + + + + + O @ O O % O % O O . O . . . . O . O O + + ; > < 9 k q M B H S Z Z Z V N M z q 2 < < , ; + @ @ % % . o o .                                   .   . . X # = = = # o X X # - - $ = = h 6 8 p p f f ~ _ { [ ' { ' { ' ` _ ( ( ( ",
"                      o   o       X o .   % X   y ^ ~ 8 o o o .   X - - X o     X { [ ( #       - ~ [ _ r * p f f 9.P.9.. . . O X % o X X o .   - ( [ [ ^ g i g i i h u f { ] R.).).[ ( - o & - X X o o - = h h p - = p h i p h u i g Q ^ ^ ^ { / ` / ^ ^ ^ ` ] [ ] ' ( ( ( ( ~ ' 9.).[ _ S a 0 5 5 5 5 5 5 5 5 c z c x c c c z z z z x v b Z C C v k j 5 z z l v C B v k l v v l v v n b Z n n F F E E _ <.9.q.q.q.9.q.q.q.w.l.j.B.B.B.B. XD. X X X X7X#X#X<X<X8X<X0XuX0XwXyXyXtXyXyXyXyXyXdXgXyXyXdXdXyXyXyXyXyXyXdXdXbXbXbXbXMXmXmXmXmXmXmXBXmXBXCXmXmXmXmXmXmXmXmXmXmXMXmXmXnXmXmXnXnXMXMXnXMXMXbXbXbXaXaXaXyXaXaXdXsXnXnXnXmXNXNXmXNXNXBXNXNXNXmXNXNXNXNXNXNXsXsXnXsXsXsXsXdXiXpXiXfXrXrXiXiXrXrXrXrXrXyXyXyXwXwXuXuX<X X|.|.B.D.B.B.z.z.z.B.z.z.z.z.1.R n n n n Z S V v S B t 9 < @ @ + O O O O O O O O O O O + O O + + + + , , 4 h y y y M y y M a V V M M V V V V V V V B B V V V M V M V V V V V V V S V V N A N V ~ V V S V V V S V V V a M y y 7 9 6 < , 6 , < , , , , , , + , + + @ + + + + + @ % . O . . O O O . O O O + + > 1 6 0 q z M N Z H Z H Z N M M k z 2 < : ; ; + @ @ % @ % X .   .                         . .         .   X = = p 8 = #   o . o . . . X X X X - $ - p p ~ ( [ [ [ [ P.[ 9.P.[ [ ' ",
"                    o           . % X X % X X   p { ( p o X X o   - = = .   X X y { ).( h % = h ~ [ ).).( f ( ' [ ).)._ . % X . o . . % o o     X f [ ] ( g Y g g i u g ^ ( ] ].'.].P.^ - X - & X X o o X - # - - X - p = g g h g I ( { ` { ] ] ] R.R.{ { ] [ R.[ 9.[ ' ' ` ' ( ' ' ' _ T v 4 < : 5 3 < : 3 3 3 5 c z c c j j j c c 0 z x N v C b l l c j z l B V C V k k v k z z 5 z c v z v z v n A E E 1.1.<.9.<.1.q.7.9.q.z.z.z.z.k.B.B.D.].D.|.|. XoX X#X=X<XgX0X<XuXuXuXwXwXyXyXyXyXyXdXyXyXyXyXrXrXdXyXuXyXyXyXdXyXaXbXbXMXMXMXmXmXmXBXmXBXBXmXBXBXNXmXmXmXnXmXmXnXMXnXmXmXmXMXmXmXnXMXMXMXbXnXbXcXbXaXaXyXdXdXaXaXbXnXNXnXNXNXNXmXBXNXmXCXNXNXNXNXNXfXNXNXsXsXnXnXsXsXsXpXpXpXiXfX0X0X6X0X0X0XrXrXrX0XrX0XuXuX<X#X X|.B.B.B.z.B.z.z.z.z.z.z.z.z.1.R n n b n A S b v v B v q 5 , + + O O O . O . O O O . O + + + ; , , , 8 9 9 q y y y M M V V V V V V V V Z V V V C Z V M S M B V V V M V M M V H V V S A V ~ V H V ~ V ~ S V S S S V S V V V y y q q q 9 q 9 9 9 9 9 9 9 9 9 6 < < < 6 , > > @ @ @ % O O % O O O O O O + O + + , 6 9 q z k M C N S Z H Z Z B l z 0 2 1 : + ; + @ @ @ % . o .   .                               .   .   . # = p p a 8 = X o             X     o X   X = p f ( { { { =.[ [ [ [ 9.[ ",
"                o o X X X X o X   X X X X X X   a ~ ( 8     o o o = p = o   # h f j.).[ f u ~ ( [ ).'.].[ ' [ [ [ [ [ d . . $ . . o . . o . .   o g [ { ( i g i i g u i I ^ { ).`.).[ f & o & o - X o o - - - - - h h Q g ( ( ^ ^ ` P.] f.[ P.R.R.R.R.g.] [ f.P.j.P.[ ' { ' ( ( ~ _ _ ~ v 4 < ; 4 < 5 : : 3 3 5 c j 5 c 5 5 3 j : 3 : 5 0 k z l l k z 7 0 z l C B C Z B l V k 0 5 3 : 4 2 5 : ; 5 z n Z E ) _ =.1.1.1.1.<.<.9.q.<.1.z.j.z.z.B.B.B.B. XB.|.|. X X7X*X#X*X<X<X<X8XuXyXyXyXyXyXyXyXyXrXyXyXyXuXrXyXwXyXyXyXyXyXyXaXbXnXnXMXmXmXNXmXmXNXmXNXmXmXBXmXnXmXnXnXnXmXnXMXnXmXnXMXMXbXMXnXnXbXbXbXaXaXaXaXdXaXaXaXaXsXnXnXNXnXNXmXNXNXmXNXCXNXNXNXfXNXNXnXnXNXfXsXsXsXsXdXsXpXiXfXrX0XfXfX0X0X6X0XrXrX0XgXuX<X<X<X|.|.B.B.z.B.z.z.z.z.z.z.z.j.o.1.E E n n Z F F E A v v v a q 4 > @ + + O O . . . . . O O O O @ , , 4 8 q y q M y y V V V V V V M A N V S V Z V N V V Z V V N V V M M M H M M V M M V N V M A M H M ~ V H V A S S V V S V S V V V M y q k q q q q q q q q q q q q 9 9 9 9 9 7 4 6 6 , , $ @ O O O O O + O O O O > 6 6 9 q k M M V H H Z H Z C M k z 0 2 1 ; > + + % % % % . . . .                           .   .         # * r a f f p = = # X o X .     X   . X X     X o - 8 p a f f ~ _ ` { [ P.",
"                o & p g 8 X o o   o # X o =     s ( f =     o     f { ~ y p f ( [ '.'.].[ _ { ' [ j.).[ [ ( ( ( ( ( V - o . % . X % o o X   .   o p { [ ` i i g g u i g ^ ^ ( R.].R.( u o o & & - o . - = u p Q f ^ ( ] P.[ [ [ ] [ ).R.R.P.).R.P.).R.P.[ [ [ P.[ { { ( ( ( ( S f S S a 4 , , 4 4 3 : : : : 3 3 3 5 5 7 3 3 : : 1 1 1 6 7 0 q q q q 0 7 q M M V V V S V V M M q 0 4 < < : : : : : 5 5 n S J ) _ &._ =.=.1.<.<.<.1.2.1.7.z.7.z.l.k.k.k.|.{.|.{. X X'.7X X7X XgX7X<XgXrXyXdXcXyXyXyXwXuXyXwXwX0XuXwXrXyXeXyXtXtXyXyXaXaXbXnXnXmXmXnXmXmXmXmXmXnXnXnXnXbXnXsXsXsXaXaXbXsXbXbXbXbXnXMXbXbXyXbXaXyXaXaXpXaXaXaXdXnXnXnXNXNXNXNXNXNXmXNXNXfXNXNXnXNXfXsXsXsXsXsXsXsXpXdXsXiXiXiXrXrXrX6X6X6X0X0X0X0X4X<X#X X|.|.B.B.B.b.b.b.l.z.7.7.z.7.1.o.1.o.E W F J R E E Z l M V M q 6 > > # @ @ % O o O - $ $ @ 6 @ 6 6 y y y y M V S M S M V H M V H M V Z V V V V V M M M M M V M M M V M N V M N V V N S V V H V H H H A M ~ S S V H Z S S Z C v C v C v v v B l k k k k k k k q k k k k k q y M y 9 q 9 6 6 > @ @ @ $ @ O + + @ @ 6 6 y 7 M M M N A H H V H Z V N M k 7 1 1 > > + % @ % % X   . .                                         . X = p p f T f 8 8 $ = p p o X . . . . .   . .   o o .   o = w w s g I ( ( ",
"o   o             = T { f h o o X - p =   =     8 ( T =     & * = ` ).9.{ ( { [ ).'.'.Y.[ { [ { ( { { ( f a 8 u 8 h $ X   % X X o . . % . . o o   = ` [ [ I i i i i U ^ ( ` ] ).`.R.^ g i i u u u h w p g f ( ( { [ [ R.).).P.] [ P.P.R.[ P.[ [ [ ] ] { ( { ( ( ^ ( S f f S a p 8 8 q 6 : 4 : < : : 3 4 : : : 2 2 2 3 2 3 3 : : > > 1 1 7 7 y q 7 7 7 < 6 7 M y V V V V V V M y 9 2 : 1 < : ; : : 5 5 v n A E E _ ) _ ) =.' 1.=.1.1.1.1.1.1.<.z.z.l.l.l.k._.B.k.B.B.D.]._.|.B.]. X#X<XrXyXyXyXyX0X0XwXuXuXuXuX8X8XuXwXuXuXwXtXtXyXtXaXaXaXnXnXnXnXnXnXnXnXMXnXnXnXsXsXdXaXaXaXdXsXaXaXnXsXbXbXbXbXaXbXbXaXdXaXaXyXdXaXaXaXpXsXnXnXnXmXNXNXNXnXNXNXNXNXNXfXNXNXsXfXsXsXsXsXfXfXdXiXiXiXiXrXrXiX0XrX6X6X0X0X6X4X3X<X7XoX|.B.B.l.b.l.b.l.b.7.<.4.6.z.1.1.o.R o.G E E ) E J Z C B M M y 7 6 > @ 6 - % % % % - 6 , 6 8 8 6 y y V V A S S H S H S N V V V V V Z V N M N M M M M M M M M M M M M M M M M M M N V N H N V H H V V H H H H H H V A Z N Z Z S C b Z C v b v v B v B v M l M M v M M M k k M M M M y 0 2 6 1 ; @ > + @ % @ $ > , 9 7 y y M M V N V M H V H Z N M M k 7 2 1 > @ @ @ % % % . .         .                                     # = p f ( ( f p # - p f S = %   o o   . . . o .   .   o o & = = = w s g f ",
"    o         o   p { [ ^ - o o o p ~ p o o o   p { ( f p p f f ~ ).'.kX).).P.j.).].).P.{ { ~ ( g p p = - X o       X . o . % % . . . . .         - ^ ).R.` g i U ^ f.R.).`.`.kXkX].] ( ^ ` ^ f I f ^ ~ ( ` { [ [ [ R.).P.P.[ ] ] { ' { { ( ^ ^ f ^ f g g i i u h = r = - $ = $ $ % % % , : 4 : 4 : : : : : 2 < < 3 2 < 2 1 : ; ; + > > 6 6 9 6 6 6 1 > 6 6 7 q M V M V V V M y q 9 5 9 5 2 6 1 4 5 0 v v S S A E E E _ _ _ _ ' &.W &._ 1.1.1.1.9.z.j.l.l.l.k.l.j.l.z.z.z.l.z.z.B. XgXgX<XuXuXgX<XgX<XgX<X<X=X<X#X<X8XuXwXwXuXyXwXyXyXaXaXsXaXaXbXsXnXnXnXMXbXbXbXdXdXaXaXdXdXyXpXaXsXaXbXsXbXbXcXbXbXbXaXaXdXdXaXdXpXdXaXdXaXnXnXnXnXnXNXnXnXNXNXNXnXnXNXsXsXsXsXsXsXfXfXdXdXdXpXpXiXeXrXiXrX0X6X6X6X4X0X<X<X<XoX|.|.B.B.l.l.b.x.l.z.6.7.4.1.7.2.1.o._ R o.o.R R ) E F C C M V M q 7 6 6 > 6 6 $ % $ $ h 6 h y y y a V V A ~ H ~ H A A A H V A V V N V M M M k q M M 0 7 z 0 0 7 7 q 7 y y M M M M M M M M M M V H V H H A H A H H Z A H Z C V S Z Z Z S Z Z S Z Z Z C C C B M B B B M B k M B M V M M M q 7 6 6 > > > , @ , , @ , , 6 7 6 y M V S N H H V N H Z Z M l z 3 < 1 > @ + % % % % % . .   .                   o                     - = 8 f ( { ~ u   # f _ ( f %   . o .   . o o . . . X - - = = u u u u s g ",
"o o o & X o       g [ [ f X   o   g [ f & . & r ( [ 9.[ _ ` { [ [ ].IX'.).).9.[ { _ { ~ a f a p - X o   X X o   . . X X X o . . % . o X o . o     o g [ ).R.( ^ ] ).kXIXIXkXIXDXPX'.R.[ R.f.[ ` ( ( ( { { ( { [ { { [ { _ ^ S g f g p g g i u h h h h - h - - o   o X . % o % % + + + ; ; , : ; : 3 : : 3 3 4 : 2 2 2 3 1 1 : ; + + @ @ > > 6 6 > > @ @ > 1 6 9 y y a V V a y M k q q q q q 9 2 5 5 0 q C V n S S F A J R ) ) ) R E R R E &.' &.1.1.9.q.l.q.j.z.z.z.z.j.9.z.j.z.j.z.B. X*X<X*X#X*X<X X X X X X|. X X<X8X0XuXwX0X0XrXtXaXaXaXaXaXbXsXaXnXbXbXbXaXbXdXaXiXdXdXdXdXpXsXaXsXdXbXaXbXbXsXdXaXaXyXaXdXdXiXpXdXpXyXaXsXnXnXnXNXNXNXNXNXNXNXnXnXsXNXsXsXsXsXsXsXsXsXiXdXiXiXiXqXrXrX6XrX6X2X2X2X2X<XoXoX|.D.B.C.z.z.z.z.w.x.6.z.7.4.4.7.7.1.o.R o.W W o.R E F Z C C Z M M y y 7 6 6 y h 6 8 8 8 y y V y S S ~ A ~ A A ~ H ~ H A V S V N M M M M k k q q 7 q 7 7 7 6 2 2 7 6 7 7 7 7 7 7 0 y 7 0 M M M M M V M V N S A H H A H H A H Z H H F Z S F F F A F Z Z Z Z Z Z Z C C C B l B M V V M V M M k 9 6 < > > > > , , 6 6 , , 6 7 7 q M N N H V V H N S Z C N M 0 1 1 1 ; + @ % % % o .           .                                     - = = f ' ' f 8 # = p ' ' ( * . o . o .   .   . o # r p s p s I I f U U U ",
"  o X - = X       p [ [ f o o o X ( ).[ p p T { f.].].).[ [ [ 9.P.Y.].).[ { ( f = u = - # - - X o .       o . o X o o . % o o . % o o . .   . o o   X { ].].P.f.`.kXDXPXPXPXPXPXPX'.R.P.R.[ [ { { ( ( ( ~ ^ ~ ( T f f i u h - - - o X X X X o X X X X X   o o X X o . o . % @ @ , , , , ; : : : : < : 2 < < : < < < < 1 : ; ; + + O + + @ , > , > @ @ @ + > > 6 6 y y y M y y y q q q q y y 9 9 0 0 0 0 v v v v v v S S J E E E E E E E E E E E E &.1.<.9.9.9.1.j.j.9.1.1.j.1.1.9.z.l.B.|. X X X X|. X X{.|.B.B.B.|. X#X<X8XuX8XuXrXeXyXaXsXsXaXdXsXaXnXaXbXaXaXdXdXdXdXdXtXpXiXpXpXpXsXaXsXsXsXaXbXaXaXaXpXpXdXdXiXdXdXpXdXpXfXnXnXnXNXNXsXNXnXNXNXNXsXsXfXNXsXsXsXsXsXfXpXdXdXiXeXrXrXrX6X6X4X4X7X<X7XOXoX|.|.D.D.C.z.w.z.6.w.6.p.l.6.7.<.7.7.1.1.o.R R R _ R R J F v N C V V M M y 7 y y y y 8 y y y y f V ~ ~ ~ H ~ A ~ H V A H S Z V V M M M y 0 9 0 9 2 < 7 6 < 1 1 > > ; > ; > 1 6 6 7 6 2 2 2 2 7 7 7 7 M y M M M M Z Z A H H H Z A H A J J J A A F J J J J H F H Z Z Z Z Z Z B N B M M M M N M M 0 7 9 7 6 6 1 6 6 6 6 6 6 6 6 9 0 M M M V M H H V H N Z Z N M z 1 1 > @ + @ O % % . . .         .       o                             6 r = f { ' S p a p d ' ' ( #     . o . .       o * ( ` ( ( I ( ` ^ ( ^ ( ",
"o   X = = * o   o a { { g o   o a [ '.).' [ [ ].'.gX'.).P.' { ' ' { ( ( ~ a h X         . o o o   o X     o o o .   . . . o % X X . % . . . .   o     f [ '.].'.kXSXPXPXPXPXPXPXIX`.[ [ ] ( ( f a f g p p = = h h h h o     o o o o o o o o o o X X X X o o X - # X % . % $ $ $ $ , < < : : : 4 : : < : : < < : ; : : + ; + + + + O O O @ @ @ @ @ @ @ O + @ @ , 6 6 y y y y y y q q y q M y q 7 9 5 9 0 q q z q q k v n S A A A F A n E E F E E E E $.' 1.1.=.1.1.1.1.1.1.1.1.1.1.1.j.z.l._.B.B.{.{.B.B.k.M.l.z.l.k.|..X#X#X<X8X0XuXwXyXyXyXaXaXaXaXaXaXaXaXaXaXdXdXdXrXdXiXtXiXtXpXpXpXaXaXaXaXaXaXaXaXdXdXdXiXdXiXiXiXiXiXpXpXsXnXsXNXnXNXNXNXfXNXsXNXNXsXsXsXsXsXsXfXpXdXiXiXeXeXrX0X6X6X6X<X<X7X7X7XoXoXG.D.B.C.l.6.7.7.6.6.z.w.l.6.7.7.<.<.o.o.R &.o.R R ) ) J Z C Z N C C M M q y y y y y y a V V M ~ H ~ H ~ V A M V V N N V M V M M M q y 7 2 < 6 1 1 ; > > ; ; ; ; + ; ; ; ; ; 6 > > 1 > > > 1 1 1 2 < 6 y 7 7 7 y M M M H H V Z H H ! J J K J K J K J J J J A J J H A H Z Z Z C C C N C N M M M M 0 7 7 6 1 6 7 6 7 6 7 6 6 7 0 q M V H M H V M H V H Z C V M 7 1 1 1 > + + % % % % . .   . .                                       . - = r f ' ' ^ f ( ( S { [ ( # .   .   o o   .     s R.].).` I [ [ ] ` ] R.",
"o o o = u = X o o g [ 9.( g p g [ ).'.].[ P.9.).'.'.j.' ! ( f g p w = - X X o             o o   . X X . .   .   o o . o . . % . . . . o . .   o   o o e ( P.R.].kXDXPXDXPXSXIX'.).[ ( f g u = e - $ - X o X X o o o         o o o o o o     o o X X - - - - X X % % % % $ @ > @ ; , ; , 4 , : : : : : ; ; ; ; ; + ; + + + O O + O O O O O % @ O + O O O @ @ @ @ @ 6 6 8 8 8 8 8 q q q y y y y 6 4 4 2 9 q q t 9 q 0 q v V S Z S S Z Z S S Z Z n S F E ) _ 1._ 1.R ' &.1._ 1.1.1.1.1.1.j.z.z.j.l.k.k.k.k.k.l.w.q.z.z.M.B.|. X#X#XuX<X0XwXtXtXtXyXpXaXaXpXaXtXaXyXdXdXdXrXiXiXeXeXeXiXpXpXpXaXaXaXbXaXaXsXpXpXpXiXiXiXdXiXiXeXiXfXsXnXNXNXNXnXNXnXNXNXNXsXsXsXnXsXsXsXdXdXpXdXiXtXeXrX6X4X4X2X<X7X>X7XoXG.D.D.B.B.b.z.6.7.7.7.6.q.6.w.6.6.7.7.2.*.o.o.R o.o.) R R R F Z b C V N V V M M M V V N Q S V S V ~ M ~ ~ A V A M M M M y z 0 q 0 0 0 7 7 6 6 1 ; ; ; ; + @ + ; + ; ; ; ; ; ; + ; + ; > ; ; ; ; ; > > 1 : 6 6 6 6 7 7 7 7 M N H V V H H A K ! ) ) ! R K ) K K K J K J J J H F H F Z N N C M M M M M k z q 7 6 7 7 7 6 7 7 9 9 7 7 q z M N M H V H V H N H C C l l 7 : : > > + @ % % . % .   .       o                                     - 8 = f ' { ^ ~ ( ( T ( [ A * . .   . o o . o   * ( '.IX'.[ ^ ] f.g.f.].`.",
"&     = r = - X   f P.).).[ 9.P.).'.IX)._ ' ( { { ( f h 8 h %           o     o . o o   o o o o . o     . o o . . . . . o % X   . o o X o . .     o     s ^ ` [ '.IXIXkXIXkX`.] ^ u - . o o     o X     o o X   o o     o o o   o o     o o o o X X X - # X X o % % % $ @ @ @ @ + ; ; ; ; : ; : , : ; ; ; ; ; + O + + O O O % % . . . O . O O . O O O O O O O % X @ $ 6 , 6 6 6 8 9 8 q q y 7 6 < < < 4 5 q 5 5 4 5 0 q v v C v v v n V n v v v v S E _ _ ) _ ) E _ E ) _ &._ ' 1._ &.' 1.j.z.j.l.l.l.l.q.q.<.*.-.7.q.l.M.|. X#X#X<X0XuXtXtXtXtXtXtXaXyXaXyXtXtXrXrXdXrXrXrXeXeXpXpXpXpXsXpXsXsXaXaXsXpXdXpXpXpXiXiXiXiXiXiXiXfXsXsXsXsXsXNXNXsXNXNXNXsXNXNXsXsXdXsXdXpXdXiXrXrXqXrX4X2X<X7X7XOXOXG.G.G.D.D.D.C.b.z.6.7.7.4.4.6.q.6.7.q.7.7.1.1.E R R E R R R R E F C Z Z Z Z Z Z V M M M M N V S S A S H ~ H V ~ H M M M y 7 y 2 7 7 2 2 2 1 1 6 > > + ; + + ; @ ; + ; + + + ; > + ; + ; ; + + ; ; ; ; ; > ; > 6 6 > > > 6 6 7 6 M V H H Z J ! ! ! ) ) ) R ! ! ) ) ! K K J ! K F H H A D Z C N l N x M M k M 0 7 7 7 7 7 7 7 7 9 9 9 M M M M Z H ~ H H H N V M C M l k 2 : ; > + + O O . % . o o     .                                         - u 8 f ' { T ~ ( S ( ( [ f o o   .     . . o o - ( IXSX'.` I ] [ ] f.`.IX",
"o   X p f f g p u ( P.'.).P.).).].].).( g p p = = &             o                 o   o o o o o o     .   . .   .   . o . o . . o o   . . o   o         o h i g [ ].`.`.'.R.( g & o o &   o         o   o     o   o o o o             . o   o   o o X X X X X % % @ O + O @ O + + + + + ; ; ; ; ; ; ; ; ; + + + O O O O O O . . . . . . . . . . . O . . O O % O % % % $ , $ $ > 6 6 8 y 6 y y 6 > > < < 9 4 < < 2 4 4 q v v q v t k z v v v v q k V S ) ~ E ) _ J ( ! _ _ ) _ _ E _ _ R 1.1.1.9.e.9.e.q.0.<.&.o.&.1.4.q.l.k.B.[. X#X<XuX0XeXtXtXyXyXtXtXtXtXyXtXyXrXpXeXeXeXiXeXrXeXpXpXpXpXtXaXaXaXpXaXpXpXiXiXiXiXiXiXiXiXiXiXsXsXsXNXnXsXnXNXNXNXNXsXsXNXsXsXsXsXdXdXpXeXtXrX0X6X<X<X7X7XG.G.OXoXF.D.D.C.C.C.x.6.2.2.2.7.7.6.6.5.0.7.6.4.&.&.R R G R G R K E J Z C C Z C Z Z H V V V V H V H H ~ H ~ H ~ H V M M M y z 7 7 7 7 2 1 1 1 1 1 1 ; ; + ; > ; @ $ ; + + + > $ @ # > ; ; + ; ; + ; > @ ; ; + ; ; + > ; ; > > > > 1 7 7 j M N H H ! ) ) ) $.) ) K K K ) K K K K ! K J J J D Z N x N N l l M l l k 0 7 0 7 7 7 7 M y y y y M M M M H H H ~ H H N M M C M l z 2 ; ; > > O O % % . % . o .   . .       .             o                 X = p p ( ' ( f a a S { ' S X   o       .   o * r ' '.IX'.` Y ` g.` g.'.SX",
"o X p ! [ [ [ _ ( [ j.).9.[ { ' ' { ~ p - X X   X o     o o o                   o               o .     .   .     .   . . . .     . . . o . o . . o   o     - e ` R.).[ [ ( i - o o o   o       o     o     o         o o         o       .   . o   X X @ X % % O @ @ O O + + + + + + + + + ; ; ; + + + + + + O O + O O . . . . . . . . .   . . . . . O % . O . . % % @ @ # @ $ 6 6 6 6 y 6 6 6 < < , , < < < 1 : < < 2 9 0 9 9 5 5 4 q k q q y k V S A J _ A ~ J E A E E _ E _ E E E E E _ _ 1.r.r.9.r.=.&.) ....o.&.4.0.l.l.M.B.|.#X=X<XuXwXwXwXtXtXtXtXwXwXwXrXrXrX0X0XrXeXrXrXeXeXpXpXpXaXsXaXyXaXpXpXpXpXiXiXiXiXiXiXiXfXiXsXsXsXsXsXsXNXNXNXsXsXNXsXsXdXsXsXdXdXpXpXtXrX0X4X<X<X7X7XG.7XK.G.G.F.m.C.v.v.z.z.7.2.7.2.4.7.w.4.4.0.4.4.4.*.$.K R R R E G F J J Z Z A D H H A V H H V M ~ V ~ V H ~ V V H V M M M M y 7 7 7 7 1 2 2 1 1 1 1 > ; ; + ; ; @ @ , + + ; ; @ , $ 6 > ; + > > > ; , 6 6 > > > ; ; ; > > 1 > 1 1 1 6 1 2 3 z M N Z H ! ) ) ) ) ) ) K K K $.K ) ! ) K K K K H H Z Z x l M l N M N l z 7 j 7 7 7 q 7 7 z y M M H V H H ~ H H H H M M H B l l q 2 ; ; ; + + O % @ % o o . . o     o                                     # = p p f ( ( f f f ( [ [ f - . .   . o .   . o p ` ].kX].` s ` g.[ f.:XDX",
"p f ~ P.).).j.P.[ [ { { ( f a p u 8 - o               o         o       o o o     o             .                 o .       o .   .   o . o   o . .   o     & - I ] [ ` ^ u o   o   o     o       o o o   o o   o     o   o       o       o o . . o . % @ X % % O O O + O + O + + + + + % + + + + + + + O + O O O O . . . . .     .   . . . . . . . . . . . . . o % . X X % @ @ - 6 6 8 6 8 6 6 6 , > > > > > > ; ; < < < 4 4 2 < : < 5 9 0 q v B V S S A A A E ~ A ( J A E E E E E S A E E E ) _ r.r.=.&.K K K G R &.*.<.4.q.q.l.|.<X<XuX8X8XuXuXeXwXwXwXwXuX9XuXrX0XgX<X4X8XqXwXrXeXyXtXtXtXaXaXaXaXpXdXpXpXiXiXiXiXiXiXiXiXiXfXsXsXnXnXsXNXfXNXnXNXnXnXsXsXdXdXdXdXyXiXeXwX0X<X<X7X7XoX|.K.G.G.H.D.C.C.C.x.y.z.7.+.2.2.4.7.4.4.4.4.4.4.4.&...G K K R K K J J J F H J J J A Z H V H H H V H H ~ H ~ H H V N M M M y 7 7 j 7 7 1 2 7 6 2 1 1 1 ; ; ; ; ; + 6 6 6 < > 6 6 7 y 6 9 6 < 8 9 9 9 9 y 6 7 6 6 < < 6 < 1 6 1 6 1 6 6 1 1 3 3 j k M H H J ) ) ) $.) $.) ) $.) $.K R K K K J F D D x Z C l N M M M z z z 7 7 7 7 z 0 k M z M N H H H H H ! H H H H V H M N l 0 2 ; ; ; @ O % % X % . % . o o       o                                   - $ r p 8 T { ( ( ( ' [ ( p       .   o o     o p { ].:X].^ Y ` ' g.f.:XSX",
"{ [ P.9.9.P.[ ( ( ~ g 8 - - X o o       . o o o       o           o   o                         o         . .           o       o   .       . .     o o   o & - f ` { ( w -           o         o o o   o     o   o       o         o     o   o X o % % % % X % + O + O + O + O O O + O + % O % + O O O O O O . . . . . .   . . .   .       .   .   . . . . . . . . . @ % % # $ @ = $ 6 6 8 6 6 , , ; @ > + + ; + ; > , 1 ; > < : 4 < < < < 5 v V V S S S A S S A A S S S S A S S V n V V S E E ~ ! ! ! ! J J J F F E ..*.1.4.q.l.B. X8X=X<X=X<X8X8XuX8X9XwXwX9X4X<X<X<X<X<X3X<X8X8X0XwXtXtXtXyXaXaXaXaXdXdXpXiX6XiXiX6XiXiXiXfXdXsXsXsXsXnXsXNXNXnXsXnXsXdXaXdXiXdXdXdXpXeX0X4X<XoXoXoXG.G.D.G.F.D.D.m.v.x.x.z.3.2.*.*.2.4.2.7.4.4.>.4.-.*...G G K R K R K K J J J J J J J H H H H V V V H H V ~ H H V H M M z y y y z 7 7 7 3 6 6 7 7 2 2 1 1 : : : > ; : 7 y M q y y M a y y y y q M y y y a y y y M a M y q y 9 9 6 7 7 6 6 2 1 3 3 7 7 z M Z H J K ! ) ) ! $.$.$.$.$.$.$.! ) K J H Z N Z x x M N N N N M k k z 7 z z 7 M z z M M N N ~ H H H H H ~ ~ V H M B B k k 2 : ; ; + + . % % % . o o   o . .             o       o                 X = r p - f ( _ ( [ [ ' ( =           o     o o p ( ).:X).` U ` ] f.].kXDX",
").).[ { ( ~ f g w e o & o o     o     o       o   o o           o                                 o                                       .   . . o   o       - p f g u X           o         o   o o   o o     o     o                 . o . . % . . . % % % . O O O O O O O O O O O O O O O O O O O O O . O . .   .   .   .   .     . .   .     .   . .     . . . o o % . % @ @ $ 6 6 6 6 6 $ @ @ @ + @ + + + + ; ; ; ; + : ; , ; ; ; : > 9 y V V V V V V V S S V V V V V a v y k q M v B V S A H ~ H H Z Z Z Z Z D K ) -.<.<.7.l.|.#X#X#X#X X<X<XuXuX9X9XuX8X8X4X<X<X<X<X<X<X9X9X8X0XwXyXyXyXaXbXaXaXaXpXpXiXfX6XfX6XiXiXiXiXdXsXsXsXsXsXNXNXnXNXnXnXaXsXdXdXdXdXdXdXfXrX0X0X7X7XD.G.D.G.m.G.Z.m.D.v.C.z.x.x.z.+.O.2.2.7.4.4.-.4.4.>.*.$.R G D G K K K K K ! ) H J J ~ J H ! ~ H H H H M M H H V H V N M M M z 7 0 0 z 7 7 7 7 y 7 7 7 7 7 6 1 1 6 2 6 y y M V V V A H H ~ H V V V M B M V V M V ~ S S V V V M y y q y y y y 0 3 : : 1 3 7 j z v D F K ) ) $.$.$.&.$.) $.) ) ) K J D D x Z x C B M C C B l k z z z 7 z z M M M N N H H H ~ H H ~ H H H V H M M M l 0 3 : + ; + O O % X % o X .   .   o   .                                   X r p p u 8 p ( [ [ ' ( a o   .             o o w ( f.].j.` ^ ` ` g.f.kXPX",
"P.r.( a u = h X o   o       o o     o                       o o                                                                         .   o   o           o X h u = o     o           o       o o o o   o o     o               o   o   . . . . . % % . % % % O O O O O O O O . O O . . . . O O . . O O . .   . . .   .         .       .   . .   . . . . .   %   . X o . % X # @ @ $ 6 6 8 6 @ @ + > @ + + + + + + + + ; ; + + ; ; , > 4 0 y V S S V V V V a a a a V V V t q q q q q q v V B M V H M M Z Z N b b b F R =.1.1.<.q.k.|.@X X|.|. X#X#X8X3X9X9X8X3X=X3X3X#X#X#X#X<X8X8X8XwXwXyXyXbXyXbXaXyXpXpXpXrXiX6XiX6XiXiXiXiXfXfXsXsXNXNXsXNXNXnXsXsXaXaXdXdXyXdXdXyXrX0X<X7X|.oXD.G.D.m.G.m.m.v.C.v.v.x.z.7.2.1.2.2.1.2.4.2.>.-.*.%...G D F K ! $.K K J K ! ! J J J H H J H H H H H H H N M H V M M N M 7 7 7 0 M M M M z y y y 7 7 y 7 y 7 7 7 7 y M N ~ ~ ! ! ~ { ! ! ~ ~ H ~ A A S S S S S ~ ~ ~ ~ S V V V y M M V M H M 7 : : 1 3 3 7 3 j l Z J ) &.) $.;.&.$.$.$.$.$.$.) K F Z D b Z C B C B B N M l M 7 7 z 0 M M M N N N H H H ! H H H H H N H H M C M B k 2 ; ; ; + + O O @ . . % o o o     .             o                       o = p f f p # p _ ( ( s -     o               o & g [ ).f.` ^ ` ` g.].kXPX",
"f f p -   o         o o   o   o       o   o   o             o                                   o                                         .   . .       o o - - = - & o     o o o   o         o o o o o o o           o               o . o . . . . . O O O O O O O . O O O O . O . . . . . . . . O . . . . . .       .     . .     .       .   . . . .   .   .   . . o . . % % - 6 $ $ $ 8 8 $ , @ @ @ + @ + + + + + + + ; + ; ; ; ; > 4 4 9 a V V a V V V a a t t t v a V t 9 q 9 y q M y q q M M M M M Z Z N C C b Z ) &.=.=.1.2.l.{.|.|.|.|. X#X=X<X=X8X3X#X@X#X#X<X#X#XoX#X<X<X8X9X9XwXyXcXyXaXaXaXaXpXpXtXiX6XiXiXfX6XfXiXdXdXsXsXsXsXsXsXnXNXnXnXbXdXdXyXdXdXdXdXrXrX0X<X7XD.D.G.G.m.m.D.m.v.v.v.C.z.v.z.d.7.2.2.2.2.1.<.>.-.*.*.o.G L D D L ) K ! J J ! ~ J J ! ! H ! H H H H H H M H N H M M M M M M z 7 k M M M B M M M M M y y M y M M M M N H ~ ! ! _ _ _ _ _ _ _ ! ! ~ H ~ H ~ A A A ~ ~ ~ ~ ! ~ ~ ~ S S V V V A S M M 7 2 3 2 1 3 : 3 j l Z J ) R ) &.&.&.&.&.&.$.) R K D Z b b C C C M M B B M l M z z z M M M N N Z H H H ! H ! H H ~ H H N V H B B B k 9 : ; + + + O % % . . % .   o o   o       .                   .         o X 8 g ( a 8 - p p r $ o     .   o o       o   & = ( ] ] ` ` ' ` g.f.gXPX",
"h - X o   o X o o   o   o   o   o o         o   o                                         o                                                             o       X o o o   o o                     o     o     o o             o o   o . o . . . . O % . % O O O O O O O . O O . . . . . . . . . . . . . . . .     . .     .       .     .   .     .   . .   .   o o o o X X % X @ $ - $ $ 6 , 4 , @ @ O O O + + + + + + @ + , + , ; , , 1 < 9 8 q t V a a q 0 q q q 9 t q a q 9 9 q 9 q 9 q 0 9 7 y 7 7 y V M k B x v Z J ) =.=.&.*.7.l.k._.B.|.|. X#X X#X#X#X X|.|.|.#XoX|.|.oX#X#X$X=X9X9XwXwXcXaXyXaXaXtXpXiXiXiXiX6X6XiX6XfXiXsXsXsXsXsXNXNXNXsXnXnXbXaXdXdXdXiXyXyXrXrX<X<X7X7XoXD.Z.D.m.Z.v.m.v.C.v.z.z.d.2.2.2.2.2.2.2.2.:.-.%.$.} G L D D G ! ! K K ! ) K ! ! ! J ~ H H H ~ H H H H N H H H M M z M M z M M M M M M M M V M M M M M H V N V H ~ ! { r.r.r.r.r._ _ ! ~ H ~ H S S S Z V M A A ~ ~ ! ~ _ ! ~ ! ! ~ ! ~ A ~ S V M M 7 2 3 3 3 3 3 3 k F J K ) $.&.=.;.&.&.$.$.R J D D b b b C l x B M C C M M M k M M N N V C C H H H ! H H H H H H H ~ H M C B B k 2 1 ; + @ O O % % o X . . o .   .                                       .   = r ( ( ( * X = = &       o o o # o   o     o & s ( ` ` ` g.` ` f.:XDX",
"X X o   o   o   o   o o         o   o                                                                                                                           o             o                 o   o       o             . .     .   o o . . . % % . % % % % % % O O O . . . . . . .   . . .   . . .   . .   . .       .       . .   .   .     o   o   o   o   o o X o o o o . # @ % X * , , $ $ @ % O . O O O O O + + + + , ; ; $ $ ; , , 6 < 8 q 8 6 8 9 6 6 , 8 8 9 q 8 q 8 6 7 9 9 9 9 7 7 6 7 < 7 7 q y M M V M Z H ! _ =.&.=.-.4.w.M.{.{.[.|.|.@X|.@X|.B.B.B.B.|..XD.|.|..X#X#X#X<X8XyXyXyXyXyXtXiXiXfX0X6XfX6XiXiXiXiXiXfXdXfXsXnXnXnXNXnXNXmXsXaXsXaXpXpXpXpXeXwX0X4X<X7XoXD.F.D.m.m.m.v.C.C.v.v.x.u.z.7.7.2.2.2.2.2.*.*.*.%.....G L D D G K E K ! K ! ! ! K H J H H H H H J A N H V M V y M y M M M y M S M M V N V H M V M M M M H M ~ ! ! ! ! ;.{ r.r.[ _ ! ! ! ~ H C V V V M V a V V S S A ~ ~ ! _ _ _ _ _ _ _ _ ! ~ A S N M y 7 j 7 3 3 3 j c Z E R $.&.=.*.=.&.$.$.) J D b Z b C N N V N N N N M N M M M B B C V Z H A H K J H H H H H Z H Z Z Z C V M M 7 1 + + + + O O O % O O % . . . .                                       o o o - f ( ( T a p p u = # .     .   o   . o o   & e u I ` ] ] ` ` g.`.kX",
"X X o o o o o o         o                                                                                                                                         o                                                 o   o   . . .   . . . o % . % . % % % % @ % O . . . . . . .       .   . . . .   o .     . o     . .     . o     .   . . o     . o     o o . o o o o o o . o # % . % % $ $ $ @ X O % O O + O O O O O O + % + $ ; ; + + @ > $ 6 , , > > @ > @ , @ > 6 8 6 6 6 1 , 6 6 6 6 6 6 1 1 1 1 6 7 y y y V V A A ~ ! ) &.&.=.1.0.l.B.M.B.[.[.[.[.[.M.l.q.6.l.B.B.B.B.V.|.|.@X.X@X8X9XwXyXyXtXtXiXiX6XfX6X6XiXiXiXiXiXiXdXsXsXsXsXnXnXNXnXNXnXsXsXsXaXiXtXpXpXeXqXqX4X1XOXoXoXG.F.D.Z.m.v.v.v.x.x.x.x.6.7.3.2.2.2.:.:.:.*.%.....} G G D D G @.K K ! ) ! J K K K ! H H H H H H Z H H H M M M M M M M M M N V N N N V N N M H H A H ~ ~ ! ! ! ! _ ;.{ r.;._ ! ! H ~ M M y y q y 9 8 y q q y y y y V S ~ ~ _ _ _ _ [ r.' _ _ ! ! A H M z z j 3 3 j j j b n F R &.&.=.&.-.;.$.R F C C b x b V N N N S N V M M M N M B C C C Z Z H J J J H J H H H H H S Z Z Z C M M 7 1 ; ; + O + O % O O . % .   o       o                                         = f ~ ( ( ( ( ~ g p = - = - & . .           & e s U ` ` g.` ` g.].",
"X o o     o       o o       . o o                                                                                                                                                                         o         . o .   .   .   . . X o o % % % % . % % % % O O . % . . .     . .   .   . .   o   .   .     o   .   .   .     .   . .   .       . . o       o o   o   . . o % . O . O % @ % % % O . O O O O O + + O + + % + , , + + + @ @ > , , > > @ + + + + + + + @ > 6 > ; > > > 6 > 6 1 1 1 > 1 6 6 9 y y M V V N H ~ ! &.&.&.*.<.w.k.M.M.B.{.[.B.B.l.q.1.7.7.b.M.b.M.C.[.|.|.|..X#X9X9XwXwXtXeXrXrXrX6X6XfX6XiXiXiXiXiXdXdXsXsXsXnXnXNXNXNXnXbXaXsXaXiXiXpXtXeXwX0X4X<X7XoXoXG.G.F.D.Z.m.C.v.C.C.x.x.6.6.3.7.2.-.:.o.*.%.X.X.} } K G L L G ! ! K ! K ! K ! K K J K H H H H H Z H V Z N M M y V M V M M V H H V H N N V H ~ ! ! ! ! ! ;._ _ ;._ ;.;.! ! ! ~ H M y 7 y 6 < < , 1 6 , , , @ , , 6 6 y y y A ~ _ _ _ r.P.r.r._ _ ! ~ H M M j 3 j 3 3 3 5 c b E ) $.&.-.=.=.$.K D D v x v x N N M N N M M Z N N N B B C Z C Z Z H H F H H H H H H H Z H Z Z Z M M k 0 1 > + + O O O O % O . % . . o .                                                 - g f ( ( ( ( ~ f f d f a p r = - X . o o o & e s U ^ ^ ^ ^ ( ` ",
"X               o                                                                                                                                                                                 o o       o           o .   . . .   . . % . . % o % % % % % % % . O . . .   . .   .       . .   . .   .         .   o   .   o . .   .   . .   X . . o . . . o   o o o o   o o . O . O O O O O o . . O O O O O O O O + + % , $ + , ; $ , , 6 , , , , $ @ @ + + O + O + @ @ > > @ ; > > > > > 1 1 > > 1 > 6 7 q V y M V V A ! ! ) $.&.&.&.4.w.l.w.k.M.B.B.k.w.4.2.4.w.l.l.p.b.M.B.V.V.|..X$X9X9XuXwXtXeXrXrX6X6X6X6X6XiX6XiXiXiXiXdXsXsXsXnXNXnXnXNXnXsXaXaXaXdXeXpXtXeX0X0X4X#XoXoXoX.XG.F.F.Z.m.m.C.v.x.x.x.6.6.6.3.2.2.*.:.*.$.%.....} G K G L J K K ! K ) K K K J J L J H H H H H Z N H N N M M M M V M M H H V H A A Z A H H ! ! ! ;.{ ;.r.;._ _ ! ! { ! ~ H A y y 6 6 6 6 ; ; + + + O @ @ % @ % + @ $ , 6 y V S T _ _ r.r.[ ' _ _ ! ! H N z j 3 3 3 3 3 c b D R ) $.;.*.&.$.K H x x x x v N N N N M N N N M M M x M C C b Z Z F H H H F J H H L H H Z H N N N N l 7 1 > @ + + O + % O O % % .   . .     .           o                 o   o o o o     - p f f ~ T S ^ ~ f T ^ S f f f p p * = e & w Y Y U U U Y Y Y ",
"X o .     o     o     o     .                                                                                                                                                                     o         o   . .   .   o .   .   . . o . . % . % % % @ % @ % O O . . . . . .   . .     . .   o . .   o o . . . . . .   . o . . o X o . . . . o . o o X . . .   o . % o . . . % O O O O O O O O . O O O + O O O O O O O @ @ @ , $ , , 6 6 8 6 , $ > > + + + + O + + + > > > + > ; @ ; + > > ; : ; : > > 6 7 y M a M M M Z A J ) R R $.&.<.4.7.4.w.l.M.k.l.4.<.1.2.6.w.6.b.w.b.M.C.B.V.[.%X=X9X9XwXwXwXrX6X6X6X6X6X6X6XiXiXiXiXdXfXsXdXsXsXnXmXmXnXMXdXaXsXpXtXrXdXtXeX0X0X<X<XoXoXoXG.G.H.F.m.m.m.v.v.v.x.x.6.6.7.3.2.2.*.*.%.X.o.....G G G G L K K K K K K ! K J K H G H L H H H H N N N N N M M M M M M H V Z Z H H H H H H ! { @.{ r.r.{ ;._ ! ! ~ ! A Z Z M M 7 1 > > > @ + + + + O O % + O O O O % O O O , 8 q a S ( _ [ r._ r._ _ ! ! H Z l c 3 3 3 3 3 c n F R ) ;.&.=.$.) L C x x x x M N M N N M N M M M M N C C Z S Z Z Z H F Z D D D F H F Z Z Z C N N M k 7 : ; ; + O O O @ % O . X .   o .                                             o     o - p p p p p d f f f f f ( ( ( ( ~ I S S f g U s U Y Y Y i u ",
"o         o o                                                                                                                                                                           o                             o o     . . . . o % . o % % % % % % % % % O . O . . .             .     . . . o . . . . % . % . o o X . . . . . . . . o . . % . % . % o X . X % . . % . . % O O O O . O O O O O O O O O O O + + O + @ @ @ , @ 6 , , , 6 , , , @ @ + + O + O O + + @ @ @ + > @ ; + ; + ; ; ; ; ; ; > > 6 7 y M M M M V H A J J R ) &.*.1.<.1.4.w.l.w.q.1.*.*.<.q.6.w.w.w.w.b.b.C.B.|..X$X9X9X9X9XwX6X6X7X6X6X6X6X6X6XiXiXiXpXpXsXdXsXnXnXmXnXmXnXaXaXdXdXiXrXiXeXeX0X8X<X7XoXoXoXG.XXXXH.A.D.Z.m.m.n.b.x.6.6.3.7.3.4.2.:.o.X.$...} G G K L G K K ! K ) K K K J K K J F H H H H H N N N N N M M M y M N H H A Z A H A A H ! ! ;.;.r.r.r.r.;.! A S M y q q 7 7 6 > > @ @ + + + O O O O O O O . O O O % . O . . O O $ 8 a ~ _ ;.[ _ _ _ _ ! ! K H N z 3 3 3 : 5 v m F R ) $.;.$.K H Z C b b C N M N M M N M N M N x M C b Z C F Z F D D D Z H H H D H H H Z N M N M k 7 > ; + + + + O % % % . % . . . .                                                     X = * * = = = 8 r = p a f ~ ( ( ( ` { ( ( ( ^ ( ^ I I I Y i ",
"                  o   o                                                                                                                                                                           o o         o .     . . .   .   . . . o . . . % % % O @ O @ % O O O . . .   . . .   .     .   . . . . o . . X X % % X % % X # . . % . . % . % % % X % % % % % % @ % @ % % % % @ $ @ O O O O O O O O O O O O O + O O + + % @ # @ 6 $ , , $ $ @ , , $ + @ @ + + + O O + @ + > @ + > > ; ; @ > > ; 1 > > > > 6 y q M M M V B Z Z F F F R &.&.*.*.*.<.7.q.7.1.o...&.2.4.4.7.q.w.6.w.p.b.M.B..X#X$X-X9X9X9X6X7XK.6X6X,X6XfXqXiXiXiXiXdXfXsXsXnXnXmXnXmXbXdXdXdXdXrXrXiXtXrX0X8X4X7XoXoXoXoXoX+XH.F.F.m.m.m.C.x.x.y.6.6.7.2.2.:.*.*.$.X...} G G K L J K K K K ! ) K K K J J K H F D Z H D D Z N N x N M M H M M M H H Z H ~ ! A ~ ! ;.;.r.r.Y.r.{ ! N M 0 2 1 1 ; ; @ > + + + + O O O O O O . . . . . . . . . . . . .   . . % $ p S ~ ~ ! ! ! ;.{ ) ) ) K Z l j 3 3 j z v Z H R $.=.$.! K D C Z x x N M N M N M M N M N M N b Z S F Z Z D D Z D D D D D D H D H Z N N M M k 0 1 ; > + O O % @ % % % % o . o                                         o                 o o   o X o X - = = p f T ~ ( _ { ( { ` ` ` ] ` [ [ ] ` ",
"o     o     o . .                                                                                                                                       o                                                             . . o . . . .   o . . . % . % % % O % % % O . . . . . . .               . . . . . o % % % % X % % X @ @ # % % % @ $ % @ % % @ @ @ @ @ @ @ @ $ $ @ @ @ @ # , , > $ + O + + + O O O O O + O % + @ $ $ , $ 6 @ $ , , $ , @ $ @ $ + @ + O O + + O O O + + @ > > + > > > > 1 > 1 1 6 > > 6 7 y y y B V M B C B Z b Z J R $.&.&.*.-.<.4.1.&...R $.*.4.4.4.2.7.4.w.w.w.b.M.D.@X%X9X9X9X9X6X7X7X,X6X6X6X6X6XiXqXiXdXdXsXsXsXnXnXnXnXnXMXaXaXdXdXtXtXrXtX0X8X4X<X7XoX7XoXoXG.+X+XH.D.D.m.m.C.x.x.6.6.6.5.2.2.:.X.%.....} K G G G } K K K } K K ! K K K K G G H H H H H D N N N N N N N N M H H M V H Z H ! ! ! ! _ r.r.r.Y.r.r.! H 0 0 1 1 > > ; + @ % O + O + O O O . . . . .   . . .     .   . . O . . . . . $ t V ~ ~ ~ _ ! ;._ =._ _ J Z z c c c l x b Z K $.$.) ! H D Z x N N N N N N N N N C N M N C Z b Z n Z F F n F D D F D H H D H Z Z Z N N N z 0 1 ; > + + + O % % % O % o .   .                                             o               o             o * - p g f S ( ( ( ' ] [ [ R.E.).R.R.",
"o             .                           o                                                                                                                                                                     o   . . o . o . . . . % . . . O % % % . % O % % O . . . . .             .     .   . . % % % # # - $ @ $ @ @ - @ @ # # # @ # - 6 @ 6 6 , $ $ > $ 6 6 6 6 6 $ @ 6 6 6 , $ + + + + O + $ , @ @ @ $ @ $ @ , $ $ $ $ 6 8 $ = , $ $ $ $ % $ + + $ $ $ + $ + O O @ @ @ , > ; > > > ; ; ; 1 1 ; > > 7 q y M M M B B l l l C Z H G R ..&.*.1.1.*.*.R E E ..&.*.4.-.2.4.2.4.7.6.p.b.C.[.%X%X$X9X#X$X<X1X>X6X6X6X6X6X6X6XiXpXpXpXsXaXnXnXnXnXnXnXaXaXpXsXtXrXyX0X0X8X<X7X XoXoX.XG.G.G.H.G.Z.m.m.m.C.x.6.6.6.7.3.2.2.*.o.X.....G } G G L } G K K $.K @.R ! R K K K J F D D H H H N N P N N N H V H M N N H ~ ! ! ! ! ! =.r.r.r.r.r.=.) S z 1 1 > > + + + + O O O O O . . . . . . . .   . .   .     . .   .   . . .   . O % , 9 a S A J ~ ) _ _ _ ! ! A V N v z c z b F ! ) ! K H N H Z N N N N N N N N V N M C C Z D Z F F F F F F D D D D D J H F D D Z b C N l l 0 1 ; ; + + O % @ % X % o . .                                                   o             .           o       o - * = w p p I ( [ [ R.).`.`.`.",
"o       .   o           .                                                                                                                                                                                   .     . o   o . . o . . . . O . O O . % % % % % % O O O . . .   .                   . . . o % # $ % - 6 6 h = 8 = 6 6 6 @ 6 6 6 6 6 6 6 6 6 6 6 6 6 6 6 y y y 6 6 7 q 9 q 6 1 + + > + , , 6 $ 6 , 8 6 $ $ 6 8 6 6 6 $ 6 , , $ $ + $ + + + O % + + $ % + + + + @ > , + @ > @ > > > , < 1 1 1 6 6 8 q y y y M M B M l l C F F K E R ..&.o.&.1.o.E G m E ..*.*.*.*.*.*.2.2.4.q.w.p.M..X@X$X1X$X1X1X1X2X,X6X6X6X6XiXiXiXiXpXsXaXnXbXnXnXmXnXbXbXpXaXpXpXdXrXrX0X8X<X7X#XoX.XG.G.G.H.F.H.F.m.m.C.v.x.6.6.3.2.2.:.*.%.X.....} } K K G K G K K R } ! K K R K K K G F L L D P D D N N N N x M N H H H N H H H ! ! ! ;._ r.r.Y.r.r.! ! Z M 6 > > > + + + + O O O . O O . . . . . .                 .         .       . . . . O + , 9 y V S S ! ) _ ) ) ! H A C z c 5 l Z G J ! H N N N Z N N N N N N Z N N H C b C Z Z F F F E G F F D m F m F F J L D F D C C x M z 7 : ; ; @ + @ @ % % % % o . . . .                                                       .       o                   . o o X # - - u s f ` [ [ ).].",
"o       .                                                                                                                                                                                                         o . o . . o . . % O . . . O . % O % O O O O O O . . . .   . .               . . . O % $ $ $ $ = 6 6 6 8 8 y y 8 6 8 6 8 6 6 6 8 6 8 6 6 7 9 q y 7 M M y y 7 7 y y y 9 , ; > , 6 8 8 9 6 8 8 8 8 6 $ 8 8 $ 8 , , $ $ $ % + % + + % O O O % % + @ + % + + + > @ + @ > @ > > 6 1 2 1 1 1 6 7 6 q M y M M M M M M l C Z F F J E R &.&.&.&.R G F n G R &.*.*.-.%.%.*.:.2.5.6.w.b.B..X.X#X#X$X1X2X2X,X6X,X6X6X6XiX6XpXpXsXsXsXaXbXnXMXnXMXaXaXpXsXtXrXrX0X0X<X<X<XoXG.D.F.F.F.F.F.Z.m.m.m.v.v.3.7.6.2.7.2.*.O.X.X...} } } G G K G K K K } ! ..! ) } R K K J F H D D D D P N P P P N M N M H H H H ! ! ! r.r.r.r.r.9.r.r.! ~ N 0 3 ; ; ; + + O O O O . . . . . . . . .                 .       .     .   .   .     . . O + $ 6 9 q q S A ! _ ) _ ! ! Z v j 3 c b H H H D N x N N Z H Z N H N N M N Z Z Z Z Z D F E F R R G J F F m F D F G F F F D Z N N l k 7 : ; ; + + % % @ X X % .   .   .                 o                               o                       .   .                   o & - u g ^ ` [ ",
".                   .                                                                                                                                                                                         . .   . . o . . . . . . . O . . O % . O O O O . O O . . . .                   .   . . O % $ $ = $ 8 6 8 y y 8 8 8 8 8 6 8 y 6 6 6 y y y y y y y y y M M V M y q q y M V q 9 < 6 6 q 8 8 q y y y 8 8 8 6 , 8 $ $ , $ $ $ $ O O O O O % O O O O + O O O O O O O + + @ > < , > @ > 1 < 1 > > 6 6 y y y y M M M M M M k b Z F J J G R R $.&.R E E F G F ..&.=.&.*.&.X.*.-.4.7.5.6.M.N.B..X.X%XOX$X5X,X2X,X2X2X6X6X6XiXiXiXpXpXsXbXbXnXnXnXnXaXaXsXpXtXdXrX0X0X<X<X#XoXG.|.D.F.F.F.F.Z.m.m.v.C.x.x.6.7.7.2.O.o.*.o.....} ..K } } G K G } K ..$.$...) K G E K G G D D D D D D P H H H P N N N H ~ ! ! ! r.r.r.r.0.9.r.=.;.! H y 7 : ; ; + + O O O . . . . . . . .   . .   .                           .     . . o . . . O . O O O $ , 1 y y S ~ ~ ) ~ _ F b 5 3 j l Z J H N N N N N N N H N N H H H N Z Z Z Z Z F F E E E R R E G G F F F L G J F F D Z Z x l z j < ; ; ; + % % @ @ @ % % . o .   .                     o                                                     o         . . o       o o   - = g ^ ",
"o                                   o       o                                                                                                                                                               .     .     .   . . . . . . . . O O O O O . . O O . O . . . . . .             .     . . % % # $ 8 6 8 y 6 h 8 y 8 y y 8 y y y 6 y y y y y V M V V M M M S V V M M y M y M y y y y y a q y a y q y 8 8 8 @ $ , @ @ @ $ % % % O O O O O O O . O O O O O O O O + + + + + > 6 6 , > > > 1 > ; > 1 7 q 7 M y M M M M M M l M Z Z H J J R E R R E E F n F F E $.$.&.......o.*.2.4.7.5.w.b.M.V..X.XOX1X5X>X5X,X5X6X6X6X6XqXiXiXpXsXaXaXbXnXbXnXnXaXsXaXpXtXtXrX0X0X<X7X7XoXoXD.D.D.D.Z.Z.m.m.v.v.x.x.u.7.d.2.2.o.o.o...| ......K } } K K K K } K ..@.! } K K K K G G D P D H D L P L K H D H H H ! ! @.;.r.r.Y.r.Y.r.r.=.! ~ H M z 7 7 : ; + O O O . . . . .     . .   .   .   .               o     o o   . . X X . o . . . . . O O O O + 6 9 y V A ~ ! ! S l 3 3 7 c N H D H N N N N H H H N Z H N N H V Z F F F F G R _ R E R R G F F G G F K G G F F Z Z x l z 7 : ; ; @ + @ O @ X @ X . . .                                                                                       o           o         - - u u ",
"o                       o   .                                                                                                                                                                               .   .   . . . . . . . . . O O . . O . . O O O . O O . . . .   o                 . . . . . % $ $ 6 = 8 8 y y y y y y y y q 8 y y y y V M V V Z V V M N V H V C B M N M M M V M V V M a a a a V a y q 6 6 @ @ $ @ % % @ % O % O . . . . O O O . O . O O + O O O + + + + + , 6 6 , , 1 1 1 > 1 6 9 q y M V y M M V N M B C Z F S F F F m F F G m F n F F G R R ..R ..G %.*.2.2.4.4.6.6.b.b.V.F.XX$X$X,X,X,X5X2X6X6XqXeXeXiXtXpXsXaXbXnXMXnXnXbXyXsXpXtXiXrX8X<X<X<XoX|.G.D.D.D.m.Z.m.m.m.C.x.x.7.7.7.2.O.2.o.o. .......K ..K $.K R ..K K K $.$.) ..@.R K G K R G D b b L H H L K K K H H H H ! ;.;.;.r.r.r.Y.Y.Y.0.;.! N y 7 z 7 1 ; + + O O . .     .   . . . . .   . .                 o       o o   # = 8 - % o . o . . . . . O O O @ 6 9 y V A A A C z 3 : 3 7 N H N N N N N N N H H H H N H H H H Z F F F E o.W R R ..R R R F G m G K K R R K F F C b l c 7 3 ; + + + @ @ @ X X @ % o . . .                                                                                           o             X - e = ",
"o                 .                                                                                                                                                                                               . .   . . . . . . O . . O . O O O O . O . . O O . . . .     o               . . O % % # 6 6 = 8 p y y a a y y y y y q y y y y V V V S H V S M V H A Z Z Z Z V M V M V M V M M q q y y q q 8 8 $ @ % @ @ % % O O O O O . O . O O O . . O O O O O O + + + O @ @ + @ > , 6 6 6 , < 1 6 1 6 9 y y y M M M M M M V V Z Z A F F D D F F F F F F F F J E R R R R ......*.-.4.2.4.7.6.6.6.C.V.XXOX>X,X,X,X5X2X5X6X6XqXrXrXtXiXpXaXbXMXbXnXnXaXaXaXpXpXrX6X0X<X<X X7XoXG.D.D.m.D.m.C.v.v.C.v.x.7.7.+.2.O.o.o.o.......| } ........@.@.....K ! ....! R K K K K K G D P D L L K K K @.} K ! ! ! @.;.r.r.Y.Y.8.Y.r.0.r._ N y 7 y M 0 1 + + O O . . .       . . . .                         . o o o o o X . = p f p = - 6 $ $ % . . . O O O % @ 6 6 q V V V M z 3 3 j 7 z N H N N N N N N H H H Z H H Z N H Z F F F E G R ) o.....R G G G G R R R R R R G F Z x l z 7 3 : ; + + O % X @ @ % . o .   .     .           o                                                     o .             o   o   o o o o   o o - = ",
".                                                                                                                                                                                                           .   .     . .   . . . . . . . . O O . . . O . O . . . . . . . . . o   o       .     . O . % $ $ 8 6 y y y y V a V V S a M y V y M M H ~ H V A A A H Z Z H H Z V V B M M V M y q y q 9 9 8 9 9 8 8 , @ # % % % % O O O O . O O . O O . O O O O . O . O O O O O + + O , @ > , > , 1 6 2 7 2 6 6 7 9 y V y y M M M V C Z Z Z Z J F F F F n n Z F F n F F F F K R K G K ..o.*.:.2.>.2.7.7.6.b.N.F.OX$XOX,X,X,X,X,X5X6X0XrXrXeXdXtXaXnXbXbXnXbXaXaXsXpXtXiXrXgX<X<X7XoXoXG.F.F.D.Z.m.C.v.x.v.x.x.6.7.2.o.o.o.o. .....} K ..} $.K K $.R $.K $.} K $...$.K ..K G K F D D D G K ! @.! @.@.! ! H H @.! r.r.r.r.Y.r.r.r.;.! M 7 7 z M q > + ; O O . .   .   o . .   o . . .   . .           o o o o o o X . X p S ~ ~ a a 8 h 8 * .       . . O + @ @ 6 q y q 0 : : : 3 3 j M H N H N N M N H H H H H H H Z H F F F G E E E R R R o.R ..R R K ..R ......R R J Z x z z 2 3 ; ; @ + @ @ @ @ X % . . o .                                                       o                         o               o         o   = = ",
"o o     o     o   o o     o o                                                                                                                                                                                     . o o .     . . . .   . O . O . . . . . . . O . O . O . . . .       . .   . . . . O % $ , 4 9 q q a M V M V S C V V V V V A A A A H H ~ ! A H A H H Z N C M M M M M y k 9 7 6 , , , , $ , , , O O O O O O O O % % . % % . O . O . O . . % O . O + O O O O O + @ @ > 6 > > > 7 7 7 7 2 6 7 9 0 k q q k M M V Z H A J F A H F F F Z F F Z F Z F F F E G R K K K ....*.*.*.:.2.2.4.5.b.V.A..X+XOXOXOX,X,X2X6X6X6XqXeXeXpXpXaXaXbXmXnXnXbXaXsXtXpXeXqX<X<X7X7XoXG.XXH.F.Z.Z.V.C.x.x.x.x.7.1.+.1.o.o.o.o.R ......G K $.} R @.R $.} @.K } @.$.@.$.K $.K K K L D P L K $.$.$.$.;.;.@.@.! ! $.r.r.r.0.9.r.&.) ) K Z z : 0 Z Z V < + + O . O .     o .   . .   . X o X # h p -     o .     .   .   .   h S ' _ ~ ~ S f p q * .   . . . O O O @ @ , 6 6 < < : : : 1 7 z Z N N N V N H H H Z H H H F D F G F F G E R R &.&.) &.....R ......$.......R R F Z v l 0 7 3 ; ; ; + + + % % % X o . .                                                                                                         o     o - w ",
"o o   o o             o       o                                                                                                                                                                                         . o o   . . . . . . . . . O . O O . O o . O O . . O . . . .   . . .   . . . . % $ $ 4 8 q q q a B B V Z Z S V H S A H H H ! J ~ H H A H Z H M V C M M q z 0 7 7 2 1 1 , @ @ O O % O % % O O . O . . . O . . . . . . . . . . . o % . . O O O O O O O O @ @ @ 6 6 > > 1 1 2 2 1 1 < 2 6 2 q 9 0 q M M Z H H Z H A F A H A Z Z n A F Z F Z F F J J J K K R R ..o.o.o.2.2.<.2.7.y.V.F.XX+X+XOX,X,X,X2X2X6X6X6XrXeXiXpXpXaXsXnXnXbXsXaXpXpXpXwX6X<X7X7XoX+XG.H.H.F.F.F.Z.m.x.x.x.x.7.z.+.+.o.o.1.o.o.........} } } } } $.K @.) $.) @.@.$.@.) $.@.} K K L D K } %.;.;.;.;.;.;.;.! @.;.r.0.0.0.0.=.J Z S Z v 2 3 M ~ ~ V < + O O . . . . .             - $ X h f _ ( p .   o               o o 6 A [ P.r.' ( ! ( a 8 % . . . . % O O O @ @ , 6 6 1 1 : : 1 7 M H N Z N N N Z A A H H A F Z F Z F F G E G R R R o.o.&.o.X.....o.o.%.%.&.$...R F Z x c j 5 1 : ; + + + O % % % % . o o . .                   .                                                               o           o   o o       X - ",
"o o           o o       o                                                                                                                                                                                                     . . . . . . . . . O O . . . O O O O . . O O . . . . . . . .   . . O . O % $ $ 4 8 q q y k B V Z Z Z H H A A ! ~ J ! ! J H A A H H Z N M M M M 0 7 7 < 6 > ; + ; ; O O O . O O O . O . O . . . . . . o . . . o . . . . o . . o o . . O O O O O O @ , 6 6 > 6 > 1 1 1 1 1 1 1 1 1 : 9 2 7 0 q M V A H H J H F A F Z Z D F Z F F F Z F F F K J K K K G ......o.o.o.2.2.5.6.n.V..X.X+X,X+X+X>X2X7X2X6X6XrXiXeXtXaXaXbXnXbXnXsXbXsXtXeX0X6X<X7X>XOX+XOXH.H.H.H.F.m.C.x.x.x.7.+.+.o.+.o.o.o.o. .....| R } R $.} K $.} } K @.! @.@.! ) @.! @.K @.K L L } %.;.>.;.>.r.>.;.r.;.r.r.r.Y.0.r.=.) b z 5 l l z k A _ _ S 4 + O O . .     .     . o X = f f y y [ ).).~ o   X   .     .   . . . # a _ 9.).9.r.{ _ ( a = O . . . O . O O % @ @ > , > ; ; : 1 0 M A Z C C N Z N A ! H H J F H F F F F G G G R o.o.&.%.&.%.%.%.*.*.&.*.*.%.....K D Z x c z j 3 1 ; ; + + + % % . X . % .   .                                                                                                   o   o o o o - ",
"o o   o o     o   o o     o o                                                                                                                                                                                       . . . o .   . . . . . O . O . . . . O . O . . O O . . O O O O . . . . . . . . . O % $ $ , 9 q q v V V B S Z S A H ~ ! J ! ) ! ~ A H H H Z C M z z j 0 7 7 1 1 1 > + + + + + % . % O . O % O O . . . . . .   . . . o . . o . . o . . . . o o . O O O O O O % $ , 6 6 1 6 6 7 2 1 1 1 1 1 1 : 1 < 9 7 z M C H V H A J J J J J Z S F S S n S F F F J J G J K K K R ..R ..o.*.*.2.7.p.b.V.F.H.oX+XoXG.7X7X>X2X6XqXrXqXiXiXtXsXnXnXsXbXaXsXpXtXeX0X<X<X7X7X,X,XG.H.XXH.H.Z.V.n.x.x.x.7.7.+.o.o.o.W o.R R ....R | R @.K ! } ! K ! K K R K K ! K K } K K K L D L } ;.;.r.>.r.8.r.r.r.r.8.r.8.r.-.-.) H l 3 z C A ~ ) _ ' _ S , + O . O . . .   o X 8 p S ~ [ [ [ { ].*X'.( .   #     o       . o   X 8 ~ [ [ ).[ 9.' _ f 8 $ O . . % O O O O @ @ @ ; + + ; : 1 0 M N Z Z V Z V Z Z H H J J J F F F F F G R o.R R o.*.&.*.*.*.*.*.*.-.:.*.&.&.R G D Z z z 5 0 1 : ; + + @ O % % % % . . .                                                                                         o               o o o   o o ",
"o     o o           o       o o                                                                                                                                                                                     o o   o   . . . . . . . . . . . . O . . O O O O O O O O O O O . . . O . . . . O O % $ $ 8 9 q a k B V V Z Z Z H A J J ! ~ ! ! J A H Z S N M M 0 1 1 1 1 1 ; > ; + + + + + O O . . . . . . . . . . . . . . X o . .   .   . . . . .   o . . o . O O . O O O O , , 8 6 6 6 9 7 7 2 1 1 3 1 1 : : 1 3 7 0 M N S Z Z F J J J H J F J F F F Z F A F J J J J F G K G G G R ....1.2.4.5.w.b.V.A.G.XXG.oX+X,X>X7X2X6X6XqXeXeXtXpXaXbXnXsXaXnXaXdXdXtX<X<X7XoXoX7XG.G.H.H.H.H.F.m.x.x.x.x.7.+.o.o.o.W R  ...R G R | R K @.K } } ! K ! @.) ) @.! K ! @.$.} } K G L } %.-.>.-.r.r.8.r.8.8.8.e.0.-.=.) ! H x 2 3 k A ) 9.9.9.' ! a 1 + O O % % . . X r ( ` [ [ ).'.'.Y.).IXIX'.~     # . o     . .   . . X 8 ~ ' j.).9.[ [ _ ~ V y $ % O O O O O O + @ @ + O + + ; , 9 k V N M N M N H H J J J J J K F J G E G R R R o.*.*.*.-.:.-.:.>.2.2.-.-.o...R G Z b x z z 7 2 : ; ; + + O @ % % % X . o .                         o                                                     o                                   ",
"o o     o     o o     o o                                                                                                                                                                                           .   .   o   . . . . . O . O O O . . . O O O % O % + O + O O O O O O O . . O O O O % $ , 6 q q q B V V Z S S A A A J J A ! E A A H Z N M M z 7 2 1 : : ; > ; + + + + O O O . . . . . . o o o . . .   .   o   .   o   .               .     . . . O . . O O O $ , 6 6 9 9 6 2 7 7 7 2 1 1 1 1 : 1 3 3 7 M C Z Z Z Z H J J J J J J A F F F F J J J K G J F H G G G R ....o.o.*.4.6.6.b.C.F..XXXG.G.G.OX,X7X2X2X6X6XqXeXtXpXsXsXbXsXsXaXaXdXtXrX0X<X7X7X+XK.+XG.H.H.H.H.F.v.x.x.x.z.7.2.o.o.G o.R ..R R ....R ..$.} K ) ! K @.@.@.$.@.$.$.$.) @.$.@.! } K K ..;.>.r.8.0.e.e.8.e.0.Y.Y.0.;.K H Z l 5 : 3 B ) q._.'._.9.S 4 + + O O $ % . . - ~ ).'.*XIXIXIXIXIXIXIXIX).~     o     o           .   - ~ ' Y.).).Y.j.9.{ ~ V r $ O O O O O O + O O O O O + + ; < q V M M M M C Z A J J J J J K J K R R R ....o.&.o.*.-.-.>.>.4.2.4.4.4.*.&...E F m C l z 0 7 3 1 ; ; + + + % % % % o o .   .                   .                                                                                 o   o       ",
"o o   o o       o     o   o   o                                                                                                                                                                                     .   o     . . . . . . O . . O . . O O O O % O @ O @ % $ @ + O O O O O O O . O O O $ $ , 8 9 a k V V Z A S F H J J K _ ) A J A S C v z 0 7 3 2 1 ; ; ; ; ; + + O O O O . . . . o . o o o X o o o o . o o o           .           .   .   o   . . . . . . . O $ @ 8 9 q q 9 9 7 7 7 7 1 1 1 3 3 3 3 7 z N Z Z Z C Z F J J A J J J J J A F H F J K J J F F G H K G G R R ..o.1.4.5.6.w.b.A..X.X+XXXoX,X2X1X1X2X6X6XqXeXeXtXaXaXaXnXaXsXsXtXrXrX<X<X7XoX+X,XG.H.H.H.F.F.m.n.x.x.y.6.3.2.o.o.W G o.G ............@.K } ! } @.$.$.$.$.$.$.$.$.$.$.$.@.$.} @.$.%.>.>.>.0.8.8.e.e.i.e.Y.Y.8.} D x z c 3 : 5 ~ 9._.*X*X;X9.f , + + + O # % . . X ~ '.IXSXSXSXSXSXIXSXhX'.{ y     o   o   .     . .   o # V ' )._.).Y.Y.9.[ _ ~ a 6 # + % O O O O O O O O O O O + > 2 y M M M M M A H ! J J E R R R R R R R R o.&.o.1.:.:.4.4.4.4.4.5.4.2.*...R G F m b z z z z 3 : : + + + O % % % . . o .   .                                                                                                         o o     ",
"o o       o   o     o     o                                                                                                                                                                                           o   . .     . . . . . . . O O O O % % % % + + $ , ; + @ + + O + O O O O O % O % $ , , 8 q q k V V Z Z S F A J J ~ J A A A Z C k 7 7 3 1 1 ; ; ; ; ; + + O O O O . . . . . o .       .       .           o . .                             . . . . . . . % @ $ 8 y q V q q M q 0 7 2 1 3 7 z 7 3 7 M N Z N Z C Z F A H F F F J J J F J F A F F F F F H J K F F G G R ..o.*.2.4.5.p.b.V.F.G.G.G.oXOX,X>X1X5X5X6XqXeXtXpXaXnXbXsXaXaXsXpXiXrX6X6X7X7X>X+XG.G.H.F.A.F.m.x.6.y.6.7.2.o.o.o.o.o.E o.R $.$.......$.$.! K @.) $.;.;.;.;.=.;.;.;.;.;.$.%.;.*.-.>.4.8.0.8.8.e.e.Y.i.I.a.0.;.K b c j 5 3 : Z _ _.*XvXIX'.9.V + . O O O $ # % X   f _.SXSXSXSXSXSXSXPX'.P.a X   . .   o o .     .   . . # S { Y.]._.].).Y.9.' _ V a $ , $ @ O O @ O O . O O O + O + , y 7 M M N M Z ! ! K J ! R R R R _ R o.o.o.&.*.1.4.4.4.4.4.4.4.4.4.*.o...R G F Z x l 5 0 0 2 : ; ; + @ + @ % % % . . o .                     .                                                                                             ",
"o o   o         o   o o   o   o                                                                                                                                                                                     .   . o   o   . . . . . . O . O % + O % $ + @ $ $ , ; $ ; + ; + + + O % O O % O % , , 8 6 9 q q B S Z S Z A A A J E ) E A C B q 9 3 1 : ; ; ; + ; > + + O O O . . .   . . . o . o o o o o o o o     o o o             .           .       . .     .   . . % + $ 9 q a k q v M M M M 7 7 7 7 z 7 z z z N Z Z Z Z Z F F H F J J H J J J J J Z J J J F H K J H G G G K R ....*.>.4.4.5.w.V.F.A.F.F.G.+XOX5X>X5X6X6XqXwXeXpXaXsXaXaXaXsXdXtXeXrXgX6X7X7X7XK.D.D.H.F.Z.m.v.x.6.7.z.7.+.o.o.G o.E o.o.o.R &.o.) &.) } ) $.$.$.&.;.*.;.$.*.;.-.=.;.%.;.*.>.>.0.>.>.>.5.w.8.8.e.a.e.e.8.@.! P c j c c z q E j.*XvXvXvX*Xj.y @ O O O % , $ % .   r [ *XSXFXSXSXSXSXIX[ f . % . . X   o     .   o .   . O a ( Y.'.'.;X_.).9.=._ J V 8 4 + $ + $ O O O . . . O O O + , 6 7 7 M M H H H J J ) ) ) ) $.R o.o.$.&.o.1.2.2.4.5.4.4.4.5.4.4.4.*.o...G G m n b z z 0 5 5 1 : > ; + @ @ % % % . X .                       .                                                                                     o       ",
"o o       o   o               o                                                                                                                                                                                     .     . .   . . . . . . O . O % % + % ; $ , ; > 1 > > > > > ; + + + + + + O % + % , 4 6 9 9 t V V S S S F A J J A E A S C v 9 2 1 : ; ; ; ; ; + + O O O O O % . . . . . . o   o o o o   o   o o o o   o o                                 o   . . .   . . O % $ 4 8 q y V V M M V M z z z z z z z z N N N N H Z Z F F S A F F J J J K J J J F J G J H H K K J K G K K K R o.*.>.4.7.6.n.V.D.D.F.H.oXOX$X>X5X5X5X6XeXeXtXpXaXaXaXaXsXdXpXeXtX6X7X7X7XG.K.G.G.Z.H.Z.J.v.x.3.2.+.o.o.o.o.o.R o.o.R &.R &.&.) o.$.@.} $.;.;.-.-.=.;.=.;.-.>.-.-.;.*.*.-.>.0.8.0.>.8.0.8.0.i.a.e.r.@.} P x j j c v B S =._.gXvXVXSX*X9.a % O O @ # $ * . . . % ( ).IXPXFXSXPXIXY.( $   o     X   o o . o .   .   . O p _ 9.'.;X'._.Y.j.[ _ ( V 8 4 , 4 4 8 , % O O . O O O O @ , 6 7 7 y M M A H ! ! E ) ) &.&.&.&.&.o.*.*.*.*.2.2.4.4.5.4.4.2.2.2.*.o.R G F m Z b v z 0 0 2 : ; + + @ + @ % % % . . . o                                                                                                                   ",
"o o         o     o o   o o                                                                                                                                                                                             .   o   . . . . . . O O % $ $ $ % $ $ , , , , < < 1 1 1 : ; + + + + O + + + + , , 4 8 q q a V Z S F S F A A J A S V v 4 4 ; ; + + ; + + O O O O O . O O . . .   o . o   o o   o   o   o           o       .                             . o . . . . % % $ $ $ < 9 y v V V S Z V N M M N N N x z N N N H Z F F J J F J J J J J K ! J J J H K K J F K L J J K G K G R R ..*.>.4.4.p.n.V.A.V.F.F.XX+XOXOX>X5X5X6XwXeXtXsXaXaXsXpXpXdXtXtXtX6X<X2X7XK.G.G.H.H.Z.m.v.x.3.+.2.*.o.o.o.G W &.R o.&.R o.&.$.&.&.$.K K $.$.*.=.-.-.;.-.-.-.0.-.>.>.;.>.>.5.5.w.8.4.5.5.8.8.e.8.8.%.} P c c c x M H E _ q.uXSXFXFXVXgXY.a + % O + $ $ $ . % .   $ { Y.IXSXIXIX].{ =     o   o X o o .       o . . . . 8 ( Y.'.*X*X_.).j.9.' _ V q 4 4 4 y t q , + O O O O O O + , 6 6 y y M S H ~ ) ) ) ) =.&.1.*.*.*.1.*.*.2.2.4.4.5.5.2.4.5.2.2.*.*.....R F F m b v z z 0 2 2 ; > + + + % % % % . o .   .                   .                                                                             o               ",
"o o       o       o         o                                                                                                                                                                                         . .   . o .   . . . O O O % , $ $ , , $ , , 6 < 6 < 2 < 1 1 ; ; ; + + + + $ % % , , 4 5 q v v B V S Z A Z Z A S S S q 4 : ; + + + + % + O O O O . . . . .   . .         .   o o   o o     o   o   o     o         .           .     o   .   o . . . . # = = , , , 4 9 q B V Z S Z Z N N Z Z N N N N N N H F Z F F J F J J J J J J J J ! J J K G H H H ! J G J J K G F R ..*.-.5.6.w.C.V.A.m.F.H.H.XXOX$X5X5X5X6XqXeXtXtXaXaXsXaXaXdXiXiXiX6X6X7X7XK.G.H.G.F.D.m.v.x.7.2.2.*.o.o.o. .o.R o._ o.1.&.&.&.&.&.$.$...$.=.;.;.*.-.-.*.-.-.-.<.4.>.-.>.>.8.w.e.e.e.8.6.8.8.e.8.>.} P c P P D D Z ! ' 9.'.vXFXFXFXSX*X[ y O % % $ $ , # % # % .   6 { ).'.'.'.r.h     o X .   X . X X . . .   . . . . 8 ~ j.*X*X'._.Y.9.9._ _ S q < < 2 a S a 4 % O O O O O + , , 6 6 7 y M A ~ ! ) ) ) =.&.-.&.-.1.1.*.2.<.2.2.2.2.5.4.2.5.2.:.2.*.X...R G F m Z b v z q 5 2 1 ; > ; @ + @ @ % % . . .                                                                           o                                         ",
"o o o   o o     o     o                                                                                                                                                                                               . .   .   .   . . . . O % # $ $ $ , $ , 4 6 , < < 1 1 2 1 1 1 ; ; + + + + + + + , 4 4 9 9 q v v S S F S S S S Z V v 9 , + + + O O + % + O . O O % % . . . . . . . o o o o . o   .   .                       .                       .   o o o       . = a p 8 $ ; ; , q B V V Z A A Z H H N N D N P N N Z Z D F H J J J K J K J J ! J J J H K J J J J K H J F G J G E G ..$.*.>.5.6.b.m.V.A.D.F.F.+X+XOX>X1X2X5XqXwXeXtXaXnXaXaXpXpXtXiXeX6X6X7X7XG.G.H.Z.Z.Z.m.C.x.6.3.+.2.o.o...R o.o.R &.o...&.&.&.&.&.&.$.&.;.-.-.-.-.-.-.<.2.4.0.0.0.0.0.0.e.i.w.a.k.i.e.8.5.8.8.8.@. .P j P L G J J _ q._.gXvXVXFXFXSX*X[ t O $ $ $ $ $ # . . % .     8 ( [ { { ~ X   . X X     .   X o . . o o . . % . 8 ~ ).*X*X*X'._.Y.9.9._ V q 5 4 9 V A S q % + O + O . % $ 6 6 6 y M S H ~ _ _ =.&.=.=.-.1.-.*.<.4.2.2.<.2.7.5.7.5.2.2.2.:.:.o.o.o.G G G n F Z v k 5 0 2 : ; ; ; @ + @ % % % . . .                                                                                                                     ",
"o o         o                                                                                                                                                                                                           o   o   . . . . . . % % $ $ , , , $ , 4 9 6 4 9 7 2 2 3 2 1 : ; ; ; + + + $ , , < 4 9 q q V v S S S F Z A S S v 9 , + O + O O O O O O . O . . . . . . . . . .   X X         o                 . o                                           o o . X 8 a a a 8 , + : 9 V Z S Z A ! H H ~ H H D H Z N Z D Z F Z F F J J K K ! ) J ! ! ! J G J K J H H K K G J K G F J G R %.*.4.e.p.b.N.A.m.A.F.F.XX+XOX$X>X2X6X6XqXtXpXtXsXaXsXpXdXiXiXrX6X6X7X7XoXG.G.G.H.m.v.x.x.t.2.O.o.o.o...o.R _ o.&.&._ &.&.&.;.&.$.&.*.=.-.<.-.-.4.<.<.0.4.q.q.w.e.e.e.a.e.a.p.a.a.5.5.8.i.w.#.@.P c c L $.$.&.) 0._.*XvXFXVXGXJXSX*X9.t % 4 * 4 $ $ $ O . O . . . . = d y y = o   . o   . o o % X % . o . . . . % . , S 9.'.hXIX_._.).).9._ A y 9 4 q S ( A y , O + O O % @ 6 6 6 9 y V S ! ! ! _ $.=.=.r.<.4.<.<.2.<.2.7.2.7.2.5.5.5.5.3.2.:.*.o.o...R R m F n Z b z 0 0 2 : ; ; @ @ + % @ % O % o o . .                   .                                                                   o                         ",
"o o o     o     o     o                                                                                                                                                                                               . . .     . . . . . O % % $ , $ 8 6 , < 4 9 9 9 6 7 7 7 2 2 3 : ; ; + + + + + , 4 9 9 9 9 q q v S Z S Z S S S t q 1 ; + + O O O O O % . . . . . . o . o .   . o % - 6 # X o . .         .                         .   .   .         o     o o   X . X r f ( S S v 4 < 9 k V Z H ! ! ! ! ! L H H H H D D H H F F D F J R J ) ) K K ! ! J K J K J J K K ! J J K J K F F R R &.*.>.w.w.b.V.V.A.m.A.F.H.+X+XOX1X5X6XqXwXeXaXaXaXsXaXaXpXpXiXrX6X6X7X7XG.G.D.m.J.m.v.v.x.6.+.2.1.o.o.o.R o.o.o.&.o.&.$.$.&.&.&.&.%.&.-.-.*.<.4.4.0.q.w.e.l.e.p.a.M.N.{.M.a.e.e.e.w.8.5.8.,.@.| P j P ..-.r.r.9._.*XvXvXFXFXJXJXFX*X9.4 O * $ , 8 = = $ O O % .   . . # # X X . o . .   o . o # X % X o o o . % X % 6 f ).*XIXhX*X'._.Y.9.' A v q 5 q A _ ( t ; + + @ + @ @ 6 6 6 y 9 V A ~ _ ! =.=.=.<.9.<.0.<.4.<.2.7.4.2.2.7.6.3.4.3.4.3.2.o.O.o. .R R G m F Z v z 0 0 2 1 ; ; ; + + % @ % % . o .                                                                                                     o               ",
"o             o                                                                                                                                                                                                     .     o o . . . . . . . % $ $ $ , 6 8 4 4 9 9 9 9 7 7 7 7 7 2 1 1 ; ; ; + + + $ ; 4 4 9 4 q q v B V v v S S v V q 4 ; O O O O . . O X % . . . . .   . . . . . o % = p y 8 - o     . o .                     .   .       .       .   .     o o   o o o X 8 f ( _ ( T V 9 < 9 M M N ~ ! ! ! ! ! K ! K H H H J J J F F F J K ) ) ) ) ! E ! K J H J K K J K J J K J K K J G G R %.*.4.0.p.n.V.A.m.Z.F.F.H.+XOXOX1X5X5XqXeXtXpXsXaXsXsXpXdXpXeXrX6X7X7XoXG.D.G.D.m.v.v.v.u.6.3.O.o...o.o.o.&.&.1.&._ $.&._ $.=.&.&.-.*.*.-.<.4.q.w.w.k.e.k.M.{.B.{.}.}.[.{.a.a.a.t.i.5.8.>.,.|  .P P L %.0.0.0.q._.*XvXFXJXFXJXJXJX'.[ 4 % 4 , * $ $ $ $ % . . .   .               o     .     o X X % . . % . . X - 6 ~ Y.IXhXIX*X_._.).q.' A q 0 4 k A _ _ v + O @ @ + + @ 6 6 y 8 7 y Z ~ ! _ =.r.r.9.<.4.<.-.<.2.2.4.2.2.2.7.5.6.5.5.2.2.2.2.o.o.....R F F m Z b k 0 5 2 1 ; > @ ; @ @ % @ % . o .     .                                                                                                               ",
"        o                                                                                                                                                                                                           .   .   . .   . . . . O O % $ $ , 6 8 6 9 9 0 0 5 9 5 9 5 5 7 2 2 1 1 > > > ; , 4 9 9 9 9 5 9 v a v v S B v y q 6 > + O O O O . . % . o o . . .   . . . % $ - 6 8 a ~ ~ f 8 % o     .   .     o     X o   o X # X o X . % X % o o o   o X o   o     o o = S ( 9.9.[ _ V t 4 5 5 b J E ! ! ) ! ! ! @.! J K H K K J J J K R ) ) ) ) ) ) J K K K K K K K J J J J K K K F J K R $.*.4.0.p.M.N.A.A.F.F.F.H.G.OXOX5X5X6XqXeXtXsXaXaXsXaXaXpXtXeXeX6X2X7XoXK.m.m.G.m.m.n.v.x.3.2.*.*.o.o.1.1.&.&.*.&.&.1.$...&.1.-.-.*.-.>.<.0.q.e.l.k.M.{.{.[.[.{.[.@X@X}.{.a.a.p.i.8.8.,.#.| | L P P | 8.e.M.k.e. XuXvXVXFXGXJXKXFXgX[ 6 % @ $ $ $ * , $ % % O .     # = - o o   o o o o o   o X # # X . % % O . O O 8 ( ).hXIXhX*X_._.).9.' ~ M 5 4 k A _ _ a ; + + @ + + > 6 9 6 7 q y N H ~ ) =.<.<.0.<.<.-.<.*.2.2.5.5.3.3.4.5.5.3.5.3.:.:.:.o.o.o...G G m D Z b v q 3 < : ; ; ; @ @ O % O . . o o     . .           .                                                                                                 ",
"o                                                                                                                                                                                                                         . . . . . . . . O % @ $ , , , , 4 9 9 t q q q 0 9 0 5 0 7 3 1 1 1 1 1 > , 4 4 q 8 9 t 5 q y v v v V t 9 4 > + O O O O O O . . . . . . .   .   . o = p a y f ~ ' { ~ 8 %   .         .   o o   o   - = p f a 8 8 p h y 8 X o     o o         o   o = d ` ).)._.[ _ S 5 5 t v A ) ) ) $.;.$.;.$.@.! ! @.! ! ..! K K K R &.) $.) ) K R K R K K R K E E J J J E F J G K ) $.-.4.5.w.n.m.A.Z.Z.Z.F.H.G.G.,XOX5X6XqXeXtXpXaXaXaXaXpXpXpXeXqX6X2X7XK.G.G.G.J.v.m.v.x.x.z.2.+.*.o.o.*.*.1.1.&.) &.&.&.&.&.-.-.-.>.4.0.0.q.e.b.M.{.{.[.@X@X X|.@X@X@X[.M.a.e.5.5.>.>.#.#.| L P  . .%.i.{.[.{.{.;XuXVXVXFXJXHXHXPXgX[ 6 % $ $ 4 $ , $ $ % % O . % . a { ~ - o o o       . . % X # # @ % % . O . O O 8 ! Y.*XvXIX*X'._.j.9._ Z z 9 5 k E _ _ V > + + > + > 6 9 8 y 7 6 q M A ! ;.<.9.0.9.4.<.2.2.:.:.2.4.>.2.2.5.6.5.6.3.3.2.:.O.O.o.o...R G m D F v k 5 5 : > ; + + @ O @ O O O . .   . .                                                                                                                 ",
"            o                                                                                                                                                                                                         . . o . . . . . . O . % @ $ @ 6 , < 4 8 q t q t q q q 0 q 0 0 7 2 < 2 2 < , 6 8 9 9 t 9 9 4 q v q t B v 9 , > + + O O O O . . . . . . o . . . . . # = a A ~ ~ { [ Y.P.! y X .       . .       o   o o = ~ { 9.{ { { { _ { ~ p X o o   o o           o - a ' ).'._.j.9.E n q 5 z n J ) $.=.=.;.=.$.$.@.$.$.$.;.;.$.) ) ) ) &.&.) $.R R K R R R R K R G E J F J E E J J K $.%.*.4.0.w.b.S.S.Z.F.F.F.H.G.G.+X5X5X6X9XeXeXpXaXsXaXsXpXaXtXeXeX6X4XK.G.G.m.D.v.m.v.x.x.x.3.2.1.1.o.*.*.2.*.*.&.&.) &.&.&.-.>.-.4.0.4.q.w.e.M._.{.{. X@X=X$X#X@X=X@X@X{.{.a.6.8.>.,.#.@.| L L  .} @.5.{.@X&X;X{.*XvXvXVXGXHXHXHXJXIX[ 8 O O $ $ $ $ $ # O % % . X X ' '.).p X o o         o % % @ @ @ # % % % % % % y _ _.IXhXIX*X'.Y.Y.9._ S q q 5 v A _ _ V 6 + + + > 6 q y 6 7 q 7 7 M H ! =.r.0.0.0.4.<.-.2.*.2.2.2.3.2.3.5.5.t.5.3.3.:.2.*.%.%.o...R G F n D n z z 3 : ; ; + + @ + O % % O .   .       .               .                                                                                             ",
"o                                                                                                                                                                                                           o           . . . . . . . O O . O O $ @ , , 4 4 5 t v q 0 q v q v q k 0 9 7 7 2 9 9 6 9 9 q q 9 9 9 5 9 q k t v z 9 1 , @ + O O . . . . . . . . . . . . . # 8 a ( ' [ [ r.Y.).9.~ y O .   .   .       . . . o o p ( ).;X'.Y._.].)._.P.f X o o o o .         o   O r ( _.'._.].j.' _ n v 0 v A ) $.=.;.=.;.;.;.$.;.;.$.=.-.=.$.$.) $.&.&.&.&.$.) ..) ) K E K K E G J E F G J G J K R &.>.4.4.p.b.V.A.Z.Z.Z.F.H.H.,X+X>X5X6XqXeXtXpXaXaXnXaXaXpXiXeXqX4X2XK.K.G.G.D.v.n.v.v.x.y.7.+.*.o.o.o.1.1.-.1.1.R &...&.$.-.-.4.4.0.0.e.e.M.{.{.@X X#X=X-XuX=X@X@X@X[.B.a.w.8.>.,.} | |  .L | | %.>.e.}.%X-X=X@X-XvXMXFXGXHXHXKXJXvXj.r . O , 4 8 8 4 $ % % % O . 6 ).SX'.I   X X o   . . X @ # - 6 6 6 @ @ @ $ O % 8 _ Y.*XIX*X;X]._.9.' ) V k k q B A _ _ V 9 1 ; ; > 7 y y y y q 7 0 Z ! _ =.r.0.0.4.<.-.*.*.*.*.:.5.2.3.5.5.t.5.5.3.3.2.2.O.o.o.....| F D m Z v z 0 2 3 ; ; @ + @ % % % O . . o   .   .                                                                                                               ",
"                                                                                                                                                                                                                      o   . o . . . . O O . O % $ + , , < 5 9 t q v t v v k k q k 0 0 0 7 0 0 9 9 q q q q q 9 5 9 q q q q v 5 4 > + + + O O . . . . . . . . X % . X # $ a A [ 9.Y.).).).).9.( 8 . . .   .     .   . . X o   h S 9.'.*X'.'.*X*X'.Y.~ X o X o .           .   . = ( ).'.*X X_.j.1.E S v z Z K ) &.) ;.&.;.;.-.;.;.;.-.>.;.*.$.&.&.=.=.*.&.&.&.&.$...R E G G E E F F F J K J J K $.$.-.4.6.w.a.V.Z.F.m.F.F.H.G.+X,X,X5X6XqXeXeXpXaXsXaXaXsXpXtXrXqX6X5X+X+XG.m.J.m.v.v.x.y.6.3.+.O.o.*.o.2.1.1.*.1.&...R ..&.-.<.4.0.e.e.e.e.{.{. X=X=X=X-X9XuX9X=X X|.}.M.w.5.>.,.| | | | | L | %.>.8.a.@X-X-X-X-X-XvXvXFXGXHXHXKXHXSX).d . % 8 q t 8 8 $ O % O O   ( *XFXIXP.. X # X   o % % @ 6 $ 6 8 h , $ $ $ @ @ a ' _.*X*X*X'._._.9.r.! V q l v S _ _ _ Z q 6 > > > q V V y M M y M A ) ) r.9.0.<.-.*.*.o.o.o.:.2.2.3.5.5.t.6.5.3.,.3.:.:.O.o.o.o. .G G m n Z b z 5 3 : ; ; ; + + % O % O . . .   . .       .       .                                                                                                 ",
"o                                                                                                                                               .                                                                 .     . . o . . . . O . O O O + + , , < 4 5 0 q t v k v k v k M k 0 0 0 q q q q q y y y q 9 4 4 9 0 q q 0 9 4 + + + O O O . . . . . . . X % # % $ 8 p ~ { [ ).).).Y.)._.9.~ y % . . . . . .     o   o o   . h { _.IXIXSXSXIX'.[ f X . o o o     o .   o   . * S ).*X*X*X'.].9._ E v z B D ! ) ) ) ;.;.-.-.r.-.>.0.0.>.;.=.;.&.=.&.&.-.-.&.*.&.R K F E G F J F J G E J J K K $.$.-.4.5.p.b.Z.A.Z.A.Z.F.H.G.G.+X1X5X6XqXeXtXsXsXaXaXaXpXpXtXwXqX5X5X7XG.G.F.m.v.v.v.x.x.7.7.2.o.o.O.1.o.o.2.<.1.&.&.) ) %.<.0.q.e.e.e.{.{. X@X=X=XuXuX-XuXyX-X$X@X@X[.M.5.5.>.:.| | | | | | | ;.0.a.{.@X-XuXcX-XuXvXcXVXFXJXHXHXGXSX_.S O % 8 t t 8 4 + O O O . $ ).SXLXLXY.- o X o . o % X # @ 6 6 6 6 , $ , , + @ a =.'.hX*X'._._.).9.' J v v S S J ) _ ) V q 9 6 > > y V A S S V V H ! ) ) <.-.0.r.>.&.$.&.o.*.2.3.3.5.5.6.5.t.3.5.5.3.3.:.O.o.o.R ..E m m b n v k 5 2 : ; ; @ + @ % @ O % O o   o     .   .                                                                                                           ",
"                                                                                                                                                          .                                                         .   . . . . . . O . . O O + $ , ; 4 4 4 9 t q v y v V k v v k k k z k q k q k t v V v q q 9 4 9 5 5 0 9 < < + + O O O . O . . . . % . # # - 6 r y ~ _ [ j.Y.).Y.).Y.].9.A 8 % . . . . . . .   %     .     % y { '.IXIXhX*Xf.( p # o . X o .   o .   . . o * S ).'.IXvX*X Xj.9.&.F v z b D G @.@.$.&.>.>.0.0.e.8.0.8.>.>.-.*.&.&.=.-.-.1.*.1.$.R G F F E F G J J J K J G K ) ;.*.4.5.6.b.N.A.F.Z.F.F.H.G.G.,X1X5X5XwXeXtXtXsXsXaXaXpXtXeXwX0X2X2X>XG.G.D.m.J.v.x.x.6.d.+.+.o.*.1.o.*.1.1.2.<.1.R R &.1.0.q.e.e.{.{.{.@X*X-XuXuXuXuXwXuXuX-X-X@X[.M.6.>.:.%.#.| | | | | %.%.>.e.a.{.;X-X-XcXuXcXvXMXVXGXGXHXHXJXSX'.T , $ q t q 8 8 $ % % + O a ].LXLXLX'.S   % . . X # - 6 6 8 8 8 , 8 $ , $ + $ V 9.*XgX*X;X_._.j.9._ J C Z E ) =.' ) ! V q 7 1 > 6 y H ~ A H A A J ! ! ) r.0.r.4.*.$.o...o.*.:.7.5.6.t.t.5.t.5.5.3.5.>.:.:.o.X.R G G L m b Z b z 5 2 : ; ; + + @ % O % O . . .   .                                                                                                                   ",
"            o                                                                                                                                               .   o                                                     . . . . . . . . . . O O O $ + 4 : 4 4 5 5 v q v v B v B v M M k k k M k M v a v V v t q 9 9 5 4 9 5 4 : 4 + + + O O O . . % % % % # $ 6 = a a f _ ' Y.).)._.).Y.]._.).( 6 O . . . O . .     X .     X   o # M P.).Y.UX).( y - o o       o . .   . . . . # ~ ).*XgXSXIX*X Xj.9.) Z l b b D K ! } ;.-.8.0.8.e.e.e.e.0.0.<.<.-.*.-.<.4.<.<.<.&.E F F F G F E G J K K J J K ) &.-.4.5.w.b.V.A.Z.Z.F.F.H.G.G.,X>X5X6XqXeXeXaXaXaXsXaXtXpXeX0XqX4X,X7XoXG.G.m.v.v.v.x.x.z.7.2.1.o.2.1.o.*.1.<.1.&.&.&.&.4.w.e.e.k.{.{.=X-XuXuXuXuXcXcXcXcXyXuX-X@X[.w.>.:.%.:.O.%.| L | | %.:.8.a.{.}.@X-XcXcXuXcXcXVXVXZXGXHXHXHXVX*X' t 4 t y t q 8 , + + % + ~ _.LXFXFXIX{ X X   o # $ $ 6 8 y 8 6 6 6 8 6 , @ , A ).*XhX*X'._.{.k.9.=.J S J ) =.=.r._ J Z z 2 1 > 6 M ~ ~ H H ~ A A ! ) $.-.-.>.-.&.X.....o.O.2.5.6.5.6.y.t.y.5.3.3.3.3.:.O.o.| ....G F m n b v 0 0 2 : ; + ; + @ % % O O . . . .   .   .   .                       o                                                                                 ",
"          o                                                                                                                                 .                                                                           . . . . . O O O . O @ % , + ; 4 : : 5 t v t n v C V C C V b v v v V B b V B v V v t q 5 9 4 2 2 < < : ; + % O O O . . O O $ * $ - 6 8 8 a S ( _ 9.).).).Y.).Y._._.j.~ , O . O . . . . .   . .     .     . - p ( { _ S h   . .     . . .   . . . . .   $ ~ ).*XSXSXvX*X'._._.r.) Z b b m K K K %.>.>.8.e.i.e.a.e.e.e.e.q.<.<.4.<.4.q.9.<.1.R E G G G E F J E K J K G E $.&.-.2.5.w.b.A.A.Z.F.Z.F.H.G.+X,X5X5XqXqXeXeXaXsXaXaXsXpXtXtXwX0X2X2XOXG.G.F.m.m.v.v.x.d.7.+.+.o.O.*.2.*.1.<.4.<.1.&.&.1.q.e.k.k._.{.-X=X-XuXcXcXyXcXMXcXcXwXgX XB.p.4.*.*.X.X.X.X.#.| | | %.;.>.e.a.[.&X-XcX-XcXcXcXMXVXFXJXJXJXJXFXIXj.T q t t t t 8 4 4 + O $ ~ Y.'.IXIX*X' . . . % % $ 8 y a y 6 8 6 , 6 8 , @ y _ *XIXgX*X].;X_._.9.=.) J R =.9.q.9.=.) V q 2 : ; 7 V ~ ! ~ ! ~ ! ! ! ) &.=.-.-.*.%.....X.X.*.2.5.6.t.y.6.5.t.5.5.3.5.5.2.O.o.X.R ..G m n n Z v z 5 2 1 ; + + @ + % % . % . .   .                                         o                                                                           ",
"o                                                                                                                                                                                                                   . o . o . . . . . . O O + + , , , ; 4 4 5 5 v t v v n Z n Z Z V C C B C B V V V V V V y q 0 2 2 2 4 < < ; + + + O + O O O O % $ 4 8 6 p y y a S ~ ' 9._._._._.)._.'.'.Y.~ @ O O O O O . O . . .   . .     .     % = 8 = -   .   . . .   . . . . .   . . . = _ _.vXvXFXvXuX*X X_.j.=.R F D D L L L X.-.5.e.e.e.a.e.a.{.e.k.a.q.l.q.q.e.l.l.l.1.1.o.E E E E G G G J K J J K ) %.-.4.6.w.N.N.Z.H.Z.Z.F.H.H.+XOX5X5X6XwXeXtXpXaXsXbXaXpXpXeXwX6X6X>X7XK.G.F.Z.m.v.v.x.u.6.7.2.O.o.o.1.4.7.4.4.<.&.&.&.<.q.k.M.k.{. X-XvXcXvXcXcXcXcXcXcXcX9X X{.l.0.%.o.X.X.| | X.:.%.%.| %.%.>.e.a.{.@X-X-XyXcXcXmXVXMXVXJXJXGXJXHXvX)._ t t a v a 9 4 9 4 ; , 8 ~ _ j.j.[ f   % . . $ 8 a a a M y y 6 6 8 6 < 6 S Y.*XhXhX*X;X_._.Y.Y.=.&._ =.9.e._.q.r.) Z 0 2 : : 7 V ~ ! ! ! ! ! ! K ! $.;.-.;.&.%...} ..o.:.3.5.y.5.y.y.t.t.t.3.5.3.3.3.:.o... .R R G F m n v z 5 < : : ; @ + O O % % % . X   o   .     .   .   .       .                                                                                           ",
"            o                                                                                                                                         .                   o                                       .   . . o X . O . . O O O @ $ $ + , 4 4 4 5 5 v v v S S Z Z S Z Z C v C V C V V B V V v v q 5 5 9 2 2 < 1 : ; + O O O O . O O $ 8 8 6 6 y y y y V _ ' P._._.].)._._.'._.j.S + O + O O O . . . .   .     . .   o X o . o o o   . . . . . . . . . . % . . . . 8 ' '.vXFXVXVXvX*X X{._.q.=.R E G } L G ..;.>.0.p.a.a.a.e.{.{.{.{.k.k.k.k.k.k.k.k.z.<.1.E R R E R J K K K K J K $.$.-.4.0.p.b.N.V.A.Z.F.F.H.G.G.,X5X5XqXqXeXtXpXaXaXsXaXaXtXtXeXqX5X1X,X+XK.D.D.v.v.v.x.z.6.7.+.o.*.2.4.7.7.q.<.1.*.&.-.4.l.k._.M. X@XuXcXcXcXMXcXcXMXMXMXcX@Xk.z.4.*.o...X.} X.| %.8.t.8.8.%.%.>.e.e.{.@XuXcXuXcXcXMXVXVXZXGXJXJXGXJXSX*X[ S t V V a 5 4 t 4 4 4 6 6 8 a a a 4 . % O % 8 y f V V a y q < 6 9 9 6 y _ ;XIX*X*X*X X_.{._.9.9.r.r.9.e.e._.e.9.) H z 3 : : 7 V H ! ! ! ;.! ! K ! $.$.%.;.%.$.X...X.O.:.3.5.t.6.t.t.5.5.t.5.t.5.5.3.:.X. .....R G m n b v z 9 2 : ; ; + + O % % O O . o   o .       .                                                                                                           ",
"                                                                                                                        o                               .                                                           . o o . o . O . O . O O % , , , : 4 4 5 5 t v v Z n Z S Z Z Z S C C Z C C V v B V v y k q 0 9 9 4 < < 1 ; + + + O O O . O % 8 y p 8 6 6 y y q V _ _ 9.Y._._._._.].;X*Xj.S + O O O O O O O . . . . . .   .     X X X o o   o % . .   . . . . . . O . . . . r [ '.vXSXVXSXvX*X'. X{._.q.&.$.$...} | } %.>.8.a.e.a.{.M.{.[.@X[.|.{.{.k.B.{.|.k.l.z.1.) o.R R E G E R K K J K ) %.-.4.5.p.C.S.A.F.Z.Z.H.H.G.+X,X,X5X6XqXeXtXtXsXaXaXaXpXpXtXeX6X2X>X,X+XK.G.G.J.v.v.x.x.x.+.2.O.o.2.4.7.6.0.4.*.&.&.1.q.k.k.{.{.*X-XvXcXcXMXVXcXMXcXcXcXgX{.7.1.%.*.*.*.:.%.X.| *.i.}.}.a.>.:.>.8.p.N.@X-X-XuXcXcXmXVXVXZXGXGXJXVXGXGXgXj.E t V S v q q y q 9 9 6 - @ # 6 @ O . % $ , 8 y S V V V y q 6 6 q 6 6 ~ 9.*XvXvX*X;X'.{._._.0.9.q.0.q._._.{.Y.0.&.J M 3 : 1 0 H ~ _ _ _ _ r._ $.! K $.%.%.$.X.} ..X.:.:.5.6.5.t.5.6.t.5.t.t.5.t.3.3.:.o.o.| ....E F F v n q 5 2 ; ; + @ + % O % % % . o . .   . .       .                                                                                                       ",
"o         o                                                                                                     o                       .   .                   o                                                   . . . . . . . O O . O % $ $ 4 , 4 < < 5 5 5 v v n S S Z Z Z Z n Z Z n V C v B B V v v k q q 9 9 2 < < > ; ; + O O + O O O + y a V y 6 8 7 7 q V ~ r.9.)._._._._.'.*X*XY.( ; + O O O O . . . . . . .   .       X o X # X   o .   . . . . . . O . O O . . % y P.*XvXFXFXVXvXvX*X X_.{.k.e.4.4.%.X.....%.:.>.5.e.a.a.{.}.@X@X@X@X@X X|.|.|. X X_.l.j.1.&.&...R K K K K K J K ! %.-.4.w.p.C.V.A.A.Z.Z.F.H.G.G.,X5X5X6XqXeXtXpXaXaXbXsXpXpXeXeXqX7X7XK.K.G.G.J.v.v.v.v.x.x.7.+.2.2.2.7.7.6.q.4.<.1.1.<.q.k.{.{. X-XvXcXVXVXmXBXVXmXMXcXuX{.j.o...$.>.e.p.8.%.| } ;.a.-X&X}.e.>.>.e.e.M.[.-XuXyXcXvXMXSXVXFXGXGXJXZXGXJXSX]._ S v V v v v v t t t 6 6 @ @ O . O . - 8 y y V f V V M y q 6 9 9 < 0 _ _.vXvXvX*X*X{.;X_._.Y.Y.{._.{.{.{.{._.e.&.J x 3 3 3 z Z ! ) ;.=.r.r.;.! ! K $.$.@.%.} X.X.%.3.3.5.5.6.3.t.5.t.t.5.t.5.5.3.3.O.o.R R ..R G n m b v z 5 2 : ; + + + O O % % . . X   o   .   .     .                                                                                                       ",
"                                                                                                                                .                           .       o                                                   . . . . O . O O + % , , 4 4 < 4 5 4 5 v t v v Z F Z Z Z Z Z Z Z Z Z C v B v v V v k q 0 0 9 5 4 1 > ; ; + + O O O O O + y V a y 6 q y y y V ! ' 9.Y._._.{.'.*X*X*X).A O O O O O O . O . . . . . .     . X X o - g 8 o .     .   . . . % % . % O % % % a Y.*XSXFXVXvXVXvX*X X_. X{._.e.k.4.-.%.X.%.:.>.5.e.a.}.}.}.@X@X@X=X#X X@X X X X X{.k.7.1.1.&...R R ..) K J G J $.&.*.4.w.w.N.Z.A.m.Z.m.F.H.G.+X,X5X5XqXwXeXeXpXsXaXsXsXpXpXpXeXqX6X7XK.K.G.J.G.m.J.v.v.x.6.7.2.2.7.7.7.7.q.6.q.4.4.4.q.q._.|.@XgXvXcXVXVXMXBXVXVXVXcXuX Xz.&.E E *.e.[.[.a.-.} X.,.}.-X-X&Xa.8.0.w.e.a.[.=XuXuXcXMXMXmXVXZXGXGXJXHXJXJXMX X' S a d t a V t v V q 6 6 > O O O O O @ 8 a V V V S V y q q , < , ; y _ _.vXvXhX*X{._._.;X{._.{.{.{.{.{.{.;X_.e.=.J l 3 1 3 k Z ~ _ _ _ r.r.=.$.$.) @.} } %.%.X.X.:.>.3.5.t.t.t.5.t.t.t.t.t.5.5.5.:.:.o.o. .R R G F n b v 0 5 < ; ; + @ + O % % . O . o . o . .   .                                                                                                             ",
"                                                                                                                  o                               .                                                                       . . . . . O O O % $ , 4 < 4 5 4 5 t 5 v n S n n A n F F Z Z Z S b V C B v v v v v q q 0 9 9 < 1 1 > + + + O + O O + + 8 a S 9 6 7 y q a B A ' 9.9._._.'.'.*X*XhX_.! @ + + O O O O O . . . . . .       X   > ~ [ ( =   .   . . . . . O % O % . . . @ a Y.*XSXVXFXVXvXvX*X{. X{. X{.{.{.e.e.:.%.%.:.:.5.5.a.N.[.[.@X-X-X=X-X=X=X=X<X<X=X XB.l.q.1.-.&.$.$.$.$.K K K K ) $.-.4.w.p.N.A.A.Z.Z.Z.F.H.G.G.OX,X5X6XqXeXeXaXsXaXaXaXpXaXtXtXqX2X7XK.G.K.D.J.v.J.m.v.x.d.6.7.3.7.7.q.7.w.q.q.0.0.0.q.k.{. X=XuXcXVXVXVXVXVXBXBXNXsX*X9.o.E R ..4.{.@X&X{.>.#.%.>.I.-X-X&XM.0.8.5.w.{.{.-X9XuXcXMXMXMXVXZXGXGXJXGXGXGXVXgXj.W V v 0 t S V V V q q < @ @ @ O % % 6 y f y V V V V q q < ; , ; ; V 9.*XhXIX-X*X;X_._.{. X X{.;X X;X X@X;X{.0.$.H x j 3 7 M H ) _ r.r.r.r.;.;.$.$.$.%.@.%.%.X.:.:.2.5.6.t.6.y.y.t.y.t.t.t.3.t.3.2.+.o. . .....R F F v v q 5 3 : ; + @ + O % % % % . o o . o . o   .   .     .                                                                                                 ",
"o                                                                                                                                                       .                     o                         o           . . o . . . O . O O O $ , , < 4 4 4 5 4 4 n v v Z Z S F A F Z Z Z n Z Z b v B B B v k k v 0 q 9 2 < 1 1 ; ; ; + + + + + + + 8 V S y 7 y M y V S E _ 9.)._.'.;X*X*XuXIX'._ , O O O + O O O . O O . . . .   . X X 6 P.'.).f o . . . . . . O . % . % % % o % a ).'.vXFXFXFXvXuX*X*X{.*X X X;X@X[.p.5.>.*.:.,.>.>.e.a.[.[.%X=X-X=X9XuX9XuXgXgX<XgX Xl.q.<.1.1.&.$.$.) K K J K $.%.-.4.w.M.N.V.Z.m.m.Z.D.H.H.+X,X5X5XqXqXeXtXtXaXaXsXaXpXpXpXiXqX6X2XK.K.G.K.v.G.J.v.v.x.x.x.5.7.7.7.6.l.w.w.6.4.w.q.e.{. X=XuXcXcXVXVXVXVXVXVXBXMXgXl._ F E R ..0.M.@X&Xa.>.#.%.,.a.&X&X@XI.8.0.8.e.{. X-XuXuXcXmXvXMXVXFXGXGXGXJXGXGXZXvX'.' S S t v S S S S a q 4 , , + O O % 6 p V a a V V y y q < : , : 6 ( _.*XvXhX*X*X_._._.*X*X&X*X-X@X X;X@X*X{.9.$.Z l j 2 j B J ) =.r.Y.r.r.r.;.$.$.} ..%.%.:.:.:.,.5.5.t.p.y.t.y.p.y.t.5.t.t.5.3.2.*.o.o.....R R F n n v z 5 1 ; ; + + O @ O % % . . . . o .     o     .                                                                                                       ",
"                                                                                                                                                                                                                .   . . . . . O . O . O + % , , 4 4 4 5 4 5 5 t v n V n E S F n A Z F n n S b V n V v v k k k q 0 0 7 < 1 > ; ; ; + + + + + + + 9 a S y q z M q B V _ _ 9._._. X*X*X*XvXIX*X9., O @ . O @ O O O O O o . % . o . - . { '.SXIX{   . % X . o % % O # @ # @ 6 X O S ).*XFXSXVXVXvXuX*X*X*X*X X X@X&X}.a.q.0.>.:.:.:.>.4.M.N.[.[.@X-X9XuX-XuXcXyX=XuX0X*Xk.j.z.1.1.&.$.&.&.) K J ! $.$.%.4.p.M.N.A.A.A.m.m.F.G.G.G.K.5X5X6XqXwXeXyXsXaXsXaXaXpXtXrXqX2X2X>XG.G.m.m.m.J.J.v.z.x.x.d.7.6.w.6.w.6.w.w.w.l.w.k.{.*XuXcXcXVXFXFXFXZXFXVXmXcX*Xz.W n G E o.q.M.}.{.e.>.;.@.8.e.I.}.I.e.8.8.e.a.{.@X-XuXcXuXMXcXVXVXVXGXJXGXJXGXHXGXvXgX9._ S v v T A S n v 5 4 $ + $ + % $ 4 q a a y B a a 0 4 < , ; ; S 9.*XvXhXgX*X*X_._.{.*X*X-X=X-X@X*X&X X{._.=.J n z 3 5 z Z J =.r.r.0.r.r.-.&.$.$...%.%.:.:.:.,.2.5.p.t.p.u.p.u.u.t.t.6.t.5.5.3.3.:.o.o.......G F n b v v 5 < ; + + + O O O O O . . . . .   . . .     .     .     o                                                                                           ",
"            o                                                                                                                                                                                                       . . O . . . O O O . % + $ 4 4 4 4 4 5 5 5 v v V S S F A A F Z F F S Z F Z n C v B v k k k k k 0 9 7 1 1 1 > ; + + + + + + ; y V S y q q M 0 V S J ) r.9._.{.*X*X*XvXuX*Xj.q O $ O O @ O @ O % . O . X o o   o = ).SXLXSX{ @   X % . % % @ @ @ - $ $ 6 @ @ A _.vXFXvXVXVXvXvXgXuXuXuX-X=X=X=X@XM.e.5.:.:.:.:.O.:.w.M.N.B.@X$XuXuXvXyXcXyXgXvXgX<XB.z.j.1.1.&.&.&.$.$.! ! K $.$.&.0.e.M.V.V.V.F.m.Z.Z.H.H.G.G.,X5X6XqXwXtXpXaXaXaXaXpXpXeXrX0X2X7X7XG.G.G.G.v.G.m.v.v.x.3.7.6.w.w.l.l.w.b.w.w.w.l.k. X=XcXcXcXVXVXFXGXFXFXVXmXgX X+.W n E 1.1.0.e.{.k.0.8.0.>.8.e.a.I.I.e.e.e.e.{.}.-X-XyXvXyXcXcXcXVXVXGXFXJXGXHXHXGXFXIX].' S V n T A A V t 4 4 , + $ + + , 4 q V q y a V q q 9 < , < V ' *XvXhXIXhX*X;X*X_.*X*X-X-XuX-X-X&X X{.{.q.$.F v c 5 5 v Z ! =.r.r.9.0.0.-.%.$.} } %.%.:.>.,.>.3.t.t.u.p.p.u.a.p.t.t.t.5.5.6.3.:.:.o.......R R F F C v z 4 < ; + ; + O O O . O O . . . . . .   . . .   .     . .   .   .   . .                                                                               ",
"o                                                                                                                                                                                                           .     . . . . O . O O . O . % % + 4 < 4 4 5 5 5 v t v B b W F F F n n F F n S n F n C v b v B l l v M q 0 7 3 1 1 1 ; + + ; + + + + 9 V V M 7 y M y C S ~ =.9.j._. X*X*XgXvXvX*X_.S O + O O O O $ @ % % % O . X   .   ~ IXLXLXLX[ - o . % o @ $ , 6 6 6 $ 6 6 @ 6 _ _.SXFXVXVXVXVXvXvXuXvXuXvXuX=X-X@XM.4.4.:.:.*.*.X.*.>.w.w.p.[.%X-X9XcXuXcXcXuXcXyXgX Xl.z.9.1.1.&.&.&.&.$.! ) @.$.%.4.M.V.A.A.m.m.m.A.F.H.H.G.,X5X5X6XqXqXtXtXaXaXsXaXpXtXrXeX0X2X7XoXG.G.m.H.D.J.v.v.v.x.y.x.x.w.b.l.M.b.b.l.b.l.M.{. X-XcXcXVXVXZXGXGXGXZXSXMX0X Xf.n W 1.z.9.e.{.{.{.e.k.I.e.e.e.e.e.e.e.a.Y.{.@X@X-X-XcXuXcXcXcXvXVXZXZXGXGXJXJXGXFXFXvX*Xj.( T n S S S V v 5 4 , + + + , 4 4 q q q q V V q y q 9 1 V _ _.vXvXvXvX*X*X*X*X*X*XvXvX-XhXvX-X=X@X{.k.r.E C z 5 3 j l Z ) =.9.Y.0.0.0.-.;.....$.:.>.>.>.>.5.5.t.y.p.a.u.p.a.u.p.t.6.t.5.5.3.3.2.X.........R F D C v z 9 : ; + + + O O . O O O . . . . .   .   .   .   .   .           .                                                                                   ",
"                                                                                                                                                        o               o                                   .       . . . . . . . . O O O % , , 4 5 0 5 t 5 z v v n V F T F S F F A F F F F Z A Z Z V b v v B v M M M q 7 2 2 1 1 ; + + + + + ; q V S M q M M M C S ! ' 9.q._.'. X*X*XuXIXvX'._ O O O O O @ @ $ $ % % % % % .     { IXLXLXLXP.X   . % % X - 6 6 8 6 6 6 6 @ y [ *XvXFXvXVXVXSXcXvXvXcXcXvXuXuX=X[.w.q.4.4.-.:.o.X.X.:.:.2.5.w.[.%X-XyXyXcXmXMXMXfXrXgX_.l.z.<.1.=.&.&.;.$.$.) $.$.&.4.M.[.[.D.V.F.F.H.F.H.H.G.OX5X5X6XeXwXeXpXaXaXaXtXpXdXtXrX0X2X<X7XG.G.G.Z.J.G.v.v.v.y.6.y.z.b.M.C.M.M.M.b.M.B.{.|.gXyXcXVXVXFXZXFXZXJXZXmXbXgX Xz.E <.z.B.B. X X X;X X&X;X X;X{.I.Y.e.e.I.{.;X@X-X-X-XuX-XvXcXcXcXMXVXFXGXGXGXGXGXZXVXVXIX X9._ A S v v S v t 4 , + + + ; , < 4 9 4 q y y y y v q t _ ).hXVXSXSXhXhXIXhXvXvXvXvXvX-XvXuX-X=X{._.0.$.F b v c 5 5 l J _ r.9.e.e.e.0.<.%.$.....:.,.8.4.3.>.5.p.p.u.p.p.p.u.p.u.y.t.t.3.5.5.5.:.O.o.....R R F Z n v 0 5 : ; + + O O O O O O O . O . .   . .   . .   .   .     . .       .                                                                                 ",
"o                                                                                                                                               o               o                                             .   . . . O . O . . O . O % % $ 4 4 4 4 5 5 5 v v v v S A A F F F Z F F F F n n n Z b C B B v C C V M M M M 0 7 7 < , ; + + + ; > y S A V M V Z V V Z E =.9.e._. X*X*X=XvXIXvX*X=., O O % O $ , $ $ $ # # % % . . o { '.PXLXSX[ .   o % X @ 6 6 8 8 6 6 6 6 6 ~ Y.vXSXFXVXVXVXVXBXVXcXMXcXcXcX-X-XM.e.q.e.w.7.1.o...X.o.X.X.:.7.w.M. XwXcXcXVXMXMXbXyX8X Xk.l.q.<.-.*.&.-.=.$.$.$.&.*.4.M.V..XA.V.F.H.H.G.H.H.XX>X1X2XqXqXrXeXpXaXaXaXaXpXtXeXrX0X<X7XoXoXG.F.Z.H.Z.m.v.c.x.6.x.x.M.M.V.N.B.M.B.B.[.|.@XuXyXMXVXBXGXZXZXGXGXVXbXgXgXgX Xl.B. X<X=XhXvXuX-XhXhXhXhX-X;X;X{.{.I.;X@X-X-X-X-XcX-XcXcXcXcXcXVXFXFXFXFXVXJXJXFXVXGXSXgX Xj._ V t B S V v t , % , : 4 ; < 4 5 9 9 q t q y y V ~ 9.uXSXvXvXvXhXIXhXvXvXFXvXvXvXvXvXvX-X=X{.e.9.$.F b k 5 5 5 n F =.r.0.e.Y.0.0.r.*.$...%.>.>.5.5.>.5.5.t.y.p.a.c.p.c.p.u.t.6.t.3.5.3.3.:.o...o.....G m Z n k 0 2 : ; ; + + O O O O O . . . . . . . .   . .   . .   .   .           .                                                                               ",
"          o                                                                                                                                                                                                     .   . . . . . . O . O O % % $ 4 5 5 t 5 5 v 5 v v n Z F F E F F F F E F F F F Z Z S C n C v C Z Z Z S N M q M M q 9 > ; + + ; < a A A S V V M M B S E _ 9.j.{.*X*X*XuXgXuXSXvX).t O O + @ , 6 6 6 $ $ # % . .     p [ ].].).~   . % X # $ 8 8 8 y 6 6 8 q M { '.SXFXFXVXVXFXVXVXVXVXMXMXyX-XuX=X{.M.B.[.M.q.O...| | X.....o.o.*.w.B.-XyXMXBXmXmXbXcXuX#X Xk.l.q.1.-.-.*.-.;.;.=.*.*.7.M.A.[.V.F.XXXX+XG.XXG.oXOX2X4X6XqXrXtXyXaXaXaXyXpXpXpXeXrX<X2X7XoXG.G.F.H.Z.m.n.x.x.6.x.C.N.V.V.V.N.B.V.[. X XgXuXcXVXVXVXZXFXZXGXGXBXvXrX7X0XgX7XgXrXyXcXvXvXcXvXvXvXvXhXhX-X-X&X&X*X-X-X-X-XvXuX-XcX-XyXcXVXVXVXFXFXJXKXGXGXJXGXFXGXVXVXgX'.9._ T n S v S t 4 ; , 4 : , < 4 5 4 < 4 9 q 9 M ~ r.*XSXFXvXvXvXSXvXFXvXFXvXVXVXcXhX-XvX-X*X{.Y.<.R Z b z c j c C E =.r.q.Y.e.9.0.-.;.$.%.*.>.4.8.5.5.5.5.w.y.p.p.p.p.p.a.p.t.5.5.3.3.5.2.2.O.o.....R G F n b z z 2 : + + + + O O . . O O . . . . .   . . .   .         o     .   .                                                                                   ",
"            o                                                                                                                                     o               o                                         .   .   . . . . O . . . O O + + , , 4 5 5 t 5 t v v v S S F E F K J E G J F F F F Z Z Z b Z b Z Z Z Z S Z S M M M V V q < ; + ; ; 6 V A ~ A V C M M v C J _ 9.l._.{.*X=X*XvXuXvXvX'.S O O O % , = 8 6 $ $ % . . . .   X 8 p ~ a -   . O # $ 8 y y y y y y y y ~ j.*XFXFXFXFXVXZXFXVXMXcXvXcXvXuX=X=X{.{.#X=X|.w.*.....X.:.*.X.| o.o.*.0.#XcXcXMXVXMXbXaXdX<X Xl.k.z.1.-.-.-.=.*.-.-.-.<.w.M.[.F..XF.+X+X+XOX+XoX+X>X2X2XqX0XrXtXdXaXaXaXpXpXpXtXeXrX6X2X7X7XG.G.D.D.Z.m.v.x.x.x.x.V.V.[.[.V.[.[.[.|.@X#XgXyXcXVXVXZXGXZXGXGXFXMXvXgXgXfXyXgXwXbXMXbXVXVXvXvXFXvXhXvXvXhXhX-XhX-XhX-X-X-X-XuX-XuXcXcXcXcXvXMXVXFXFXFXGXGXGXGXJXFXFXFXSXgX'.l.' E W A Z v t 5 4 < 4 4 2 4 9 4 < 3 q v V T ' _.hXFXvXvXvXvXvXSXvXFXFXvXVXvXVXvXvXuX=X X{.q.=.R b v c z c l S E =.9.9.0.e.0.r.-.*.$.*.-.>.4.5.e.5.5.p.y.p.n.n.p.p.n.n.y.p.5.5.5.6.5.3.2.*.o.....R J D b n k 0 2 : + + + % O O O O O . . . . .     .   . .   .   o   .     .       .                                                                               ",
"o                                                                                                                                                                                                       .           . . . O . . . O O o O % , 4 9 9 5 5 z 5 5 n v n Z F J E E J F E G F F F F n F F Z Z Z Z Z S H A Z Z C Z C S C v 4 ; + + > 9 V A _ J A Z S M k V E &.9.l._. X*X*X*XvXvXvXcX*X_ % . O O 4 4 8 8 4 % % % . . . .   .   - o X X . % - 6 8 y a a V M V V S ' _.SXFXFXVXFXVXVXZXVXMXVXvXuXuXuX=X X X=XyXcX=XM.<.o.*.7.p.w.*.o...o...2. XcXcXMXmXBXbXnXyXgXoX].k.j.<.-.-.-.-.;.-.-.<.4.l.B.[..X.X.X+XOXOXOXOXOX+X>X2X4X0XqXrXtXdXaXaXaXaXaXtXpXeXrX<X2X7X7XoXG.F.Z.Z.m.n.x.b.b.b.m.V.}.|..X[.[.|.|.#X=XuXcXmXVXZXZXGXGXGXJXZXMXgXgXrXfXrXyXyXnXbXMXvXFXLXFXFXFXFXvXvXvXvXvXvX-X-XhX-X-X-X-X-X-XuX-XcXcXcXVXVXFXFXFXJXFXFXFXGXFXVXVXFXFXvX*Xj.9.' _ T E S t 4 5 9 9 9 q q 5 9 t V S _ =.Y.'.vXvXvXvXvXvXvXhXvXFXvXFXvXcXvXvX-X-X*X{._.0.=.J b v n v z v H E =.r.Y.e.0.0.r.-.;.$.*.>.0.5.8.w.w.6.w.p.y.p.p.n.p.p.p.p.y.6.6.5.5.3.2.2.*.*.......G F b v z z 2 : + + + + O O O O O O . . . . . . .   .   .   .   .   o       .   .                                                                               ",
"                                                                                                                                                                                                        .       . . . . . . . . O . . O O + ; 4 8 5 5 0 5 v v v v C F F E E G K G E R G G F F F F n A Z Z Z Z Z F F Z Z Z Z H Z V V q < : + : 9 A _ _ _ ! ! A S V Z E _ 9.k._. X*X=XuXvXvXvXvXgX' 4 O % % 4 4 4 , $ $ # O O O . . . o . . . O . O @ , 8 a a S V V V a V _ j.*XvXGXFXVXZXVXZXVXVXVXcXuXgXgX X X X=XuXcXyXuX Xw.q.p.}.@XN.6.o... .R o.B.yXbXMXBXMXMXbXyXgX#X XB.l.<.-.-.<.<.-.-.4.4.0.k.B.|..XoXXXOXOXOX>XOXOX$X5X2X6X0XrXrXdXdXaXaXsXaXaXaXpXpXeXqX<X7X7XG.G.H.D.m.m.v.C.C.C.m.V.[.A.[.}..X|. X#X=XuXwXcXMXBXZXZXAXGXGXGXAXnXMXgXdXdXsXsXnXmXBXVXFXFXFXFXFXFXFXvXFXvXvXvXhXvX-XvX-X-X-X=X=X=XuXuXcXVXMXVXVXFXFXFXFXFXFXFXFXFXFXVXFXVXVXvX*X_._.j.9.' _ ( V B a V v t B v V E _ _ 9.).*X*XvXvXvXvXSXvXvXFXFXFXvXvXVXvXvX-X*X*X{.{.q.0.=.E b v z z v n A R =.r.q.q.0.r.r.-.-.-.-.>.>.5.e.p.w.p.w.p.p.b.p.n.n.p.y.y.y.6.5.5.5.3.3.2.2.O.o...E F m b v c z 5 ; + + + O O O . O O . O . . . . .   . .   .   .   .     .   .                                                                                     ",
"o           o                                                                                                                                                                                                 .   . . . . O O . . . . O O % $ 4 8 9 q 5 v 5 z v n b F J E K E K K G R R R E G F F F F F n Z F Z F S S F Z A Z S S Z k < : ; 1 q A _ =.' ' _ _ ! J E ) 1.q.k._.*X X*X*XuXuXvXvXvXj.T $ + % t t 4 , 4 , % O O . . . . . . % O O O O , 9 q a V V S V V V ~ ' _.gXFXFXFXFXZXZXCXVXBXcXcXuX=X*X X X*XwXuXuX-X=X XM.l.[.-X%X[.l.*. .G G E l.8XyXMXVXMXnXnXyXuX<X X Xk.4.<.-.<.0.4.r.0.4.6.l.[..X.XoXOX+XOX1XOX$X>X1X5X<X6X6XrXrXdXdXsXaXaXaXpXtXpXpXeXrX4X7X7XK.G.H.F.D.m.m.v.C.m.V.V.A.[..X.X.X|.|.#X<XuXyXcXMXBXZXZXGXGXGXAXAXSXbXfXdXsXsXsXnXNXCXBXFXFXFXFXFXFXFXFXvXvXvXhXvXhXvX-X-X-X;X@X-XuXvXvXvXcXvXVXVXFXFXFXFXZXGXFXFXVXFXFXFXFXVXVXIX*X'.*X]._.9.9.' _ _ _ _ _ _ _ ' ' q.)._.*X*XvXvXvXvXvXvXvXvXhXvXvXvXFXvXvXvXvX*X X_.e.q.0.=.F b z z z v v Z R =.=.0.9.0.0.r.>.-.>.-.>.0.0.w.e.w.p.p.p.b.p.p.b.b.p.n.p.t.6.6.3.3.5.4.4.2.*.*...R G D n v z 5 5 : ; + + + O O O O O O . . . . . . . .   .   .   o     . .         .                                                                               ",
"          o o                                                                                                                                                                                                 . . . . . . . . . . . O . O + , 4 5 t 5 5 z v n v C D F J K R K K R R ..G E G G G G J F F D Z Z F Z F Z H Z Z H Z Z S k 5 : ; < q ~ =.9.9.r.r.' _ ) E =.9.j.k.{. X*X*X*XuXgXvXvXvX'.' t % 4 4 t 4 4 , + % O . . O . . . O O O O O @ 6 q a V V f V M y M ( 9.'.SXFXZXFXVXZXZXVXMXMXuXuX*X X_.k.{.{.yXuX@X@X|.{.B.{.@X-X=X[.7.X.G G G G z. XuXMXmXMXMXnXMXgXgX#X Xk.l.<.<.4.0.-.0.<.<.7.b.[.@X#XOXOX%XOX1X1X1X$X5X5X6X0X0XrXyXdXyXnXaXbXaXaXaXaXtXeXeX6X2X2X7XG.D.G.Z.m.m.m.V.V.F.[..X[..X@X@X|.@X*XuXuXyXbXMXZXZXZXGXGXGXGXVXmXbXgXMXfXNXNXmXCXZXZXFXLXFXLXFXFXFXFXFXFXvXvXvXhXvX-X-X*X X*X-XuX-XcXvXcXVXVXVXFXFXFXFXZXFXFXZXFXFXVXVXFXFXFXVXVXvXgXgX*X*X*X X_.)._.j.j.j.)._._.*X*XvXvXvXVXvXvXVXvXvXvXFXvXvXFXVXvXvXvXhX-X{._.q.9.<.<._ J v z z k v v F E =.r.9.0.0.r.r.0.0.-.>.-.0.e.p.p.e.M.p.b.p.b.b.n.p.b.b.p.y.6.3.7.6.5.7.3.2.*.*...G F D b b z c 4 : + + + O O . O . O . . .   . . .   . .   .   .   . o       . .                                                                                   ",
"o                                                                                                                                                                                                                   . . . O . . . . . O O O + 4 8 5 5 v k v v b n Z F E R R R ..R K R R ..G G E E J F F F Z Z D F Z F Z H Z A A A Z v 0 5 ; < v ~ [ 9.9.Y.9.9.r.=.=.1.9.q.k._. X X*X=XuXuXvXvXVXuX_.W 4 4 4 t 4 4 , , % O O O O . . O O % + + + > 6 y V V S V V y y V ' ].hXFXFXVXZXVXVXVXBXSXvXgXgX X_.l.l.k._.@X{.e.0.l.k.{.[.@X-X@X{.4.o. .G  .G o.z.=XcXMXMXnXNXbXyXuXuX X_.l.q.<.0.0.0.<.0.7.q.b.|.$X$X$X$X+XOX1X1X5X5X5X5X6X6XrXiXiXdXdXnXaXsXaXaXaXpXpXtXeX6X2X2X7XoXG.F.D.m.m.m.V.F.V..X[..X@X#X@XoX#X<X0XyXcXMXmXBXZXZXAXGXGXAXCXBXnXgXnXnXNXNXCXBXGXGXFXLXFXFXFXLXFXFXFXvXvXcXvXvXhXvX-X-X@X*X-X-XcXcXcXVXFXFXVXFXFXFXFXVXFXVXFXVXVXZXVXvXVXFXFXFXVXvXvXIXvXvXIX-XgX*X*X*X*X*X*XuXvXvXvXVXVXVXvXFXvXVXvXvXFXvXvXvXvXvXvXvXvX@X_.q.-.-.=.&.&.F v c v n b C A E =.r.0.9.0.0.0.r.>.-.4.0.0.e.e.a.p.p.M.p.b.p.b.p.b.p.y.p.6.5.6.5.7.3.3.4.2.-.o.&...F D b v v 5 3 ; + + + O O O O O O O . . . . . . .     .   .     .     .       . .                                                                               ",
"                                                                                                                                                                                                                .   . . O . . O . . O O O + $ 4 9 5 0 0 v v b C Z F F K R K R ....K ..}  .R G G K R G J F F F Z A D J A H F J J J A C 0 5 : 4 0 E [ e.Y.Y._.Y.9.9.9.9.q.k.k.{. X X X*X=XuXvXvXmXMXgX9.d t 4 t 4 , , $ % O O + O O O O O @ @ @ + > 7 y V S S M y y q A 9.*XSXFXVXVXVXZXVXMXcXyXuXuX*X X_.l.q.k.l.M.q.*.&.1.q.k.{. X|.[.M.5.%...o.o.R &.z.|.rXMXMXmXnXmXdXdXuX#X Xk.l.q.q.q.q.0.4.<.q.C..X-X5X$X+X+XOX3X5X5X5X9XqX6XrXrXrXiXdXaXnXnXnXaXaXaXaXtXeXqX6X6X5X1X>XG.F.D.m.D.V.F.A..X[..X@X@X$X#X#X=X<XuXcXbXbXmXVXCXBXAXGXAXAXBXBXMXdXnXNXNXCXCXZXGXJXFXLXFXFXFXFXFXFXFXFXhXvXvXhXuX-XvX-X=X*X-XvXcXcXVXVXFXVXVXVXFXVXVXFXFXVXFXVXFXFXFXVXFXFXFXGXVXVXVXFXVXFXVXVXvXvXcXvXvXMXvXVXMXVXvXFXvXVXvXVXVXvXvXFXvXvXhXvXvX*XgX-X-X{.e.=.&.) ) $.) F v c v b Z A J _ =.9.9.0.0.9.r.>.-.-.>.5.w.w.e.M.M.M.M.b.b.n.p.b.p.y.x.6.6.6.5.5.4.3.3.4.2.:.*.o.R G m b v z 5 : ; ; + + + O O O O O . . . . . . .   . .   . .   .     .   .       .                                                                               ",
"                                                                                                                                                                                                            .   . . . . . . . . . . . . O O , 4 9 5 q k v v b Z n Z G R $.$.$.R R ....R R R R R K R E K F F F F J F J J J J J J J A Z v 0 : : 0 ~ r._.Y._._._._.k.k.k._._.{._. X X X*XgXuXuXcXSXMXSX]._ n 4 5 4 $ 4 , + + % % % O O + $ @ > ; ; 6 q M V V V M y 6 y _ _.SXJXGXVXVXVXVXVXSXvXgXuXgX X X{._.k.l.q.0.4.o.R &.4.e.k.{.{.M.l.q.2.o.*.*.o.-.7.{.uXcXMXNXNXmXbXcXrXgX|._.k.z.q.q.q.0.0.q.z.B.@X$X5X$XOXOX$X5X5X5X4X5XqXrX6XiXiXdXaXaXnXnXnXnXaXsXpXpXeXqXqX6X2X1X,XoXH.F.F.Z.V.D..X.X.X|..X#X#X3X=X<X8XyXyXcXbXMXBXBXZXAXAXAXAXBXBXSXdXNXNXNXAXZXZXJXJXFXFXFXLXFXFXFXFXFXvXvXFXvXvXvX*X-X-XvX*X-X-XvXVXvXVXVXFXVXVXFXFXvXVXVXFXVXFXFXFXGXFXVXVXVXFXFXFXFXFXFXFXVXFXVXVXVXVXVXVXVXvXVXvXvXVXVXMXVXVXvXvXvXvXvXhX*X;X;X*X;X*X{._.r.$.K K K R R F z 5 v v F J E ) =.r.9.r.0.0.r.-.-.-.4.0.w.w.M.a.M.M.M.N.N.M.n.b.p.b.y.w.6.6.5.5.7.2.2.2.4.*.*.&.R m b b v z 5 : ; + + + O O O . O O . . . . . . . .   . .     . .   .   .   o .                                                                                   ",
"o         o                                                                                                                                                                                                       . . . . . . . . . O O O + , 2 4 t z k v v C Z Z F G K R $.$.} ........R ....R R R R R K F F F K K J J K ! ) ! ) J S C v : : q ~ 9.Y._._._.;X_._._._.{. X_.{. X X X*X*XgXvXvXvXvXMXgXj.T t 4 4 , , * % % % $ $ % + $ , > > 1 > 7 q M V V M M y 9 S [ *XFXFXFXVXSXAXVXMXMXyXuX=X#X X X|.{.{.k.k.0.0.-.&.4.q.l.{.{.{.{.M.M.w.4.6.6.6.l.l.[.gXyXMXnXNXNXnXnXyXgX*X Xk.k.q.e.l.q.q.6.l.|.#X3X3X$X$XOX1X5X5X5XqX9XqXqXiXeXiXpXaXsXnXnXnXnXaXaXaXpXeXeX6XqX2X2X1X+XG.F.F.F.F..X.X.X@X.X@X#X$X3XuX9X8XtXcXbXbXMXVXZXCXAXAXZXAXCXBXmXnXNXNXNXCXZXVXFXJXFXFXFXFXFXFXFXFXFXFXFXhXvX-X-XvXuX-X-XuXuXuXvXcXVXVXVXFXvXVXvXIXSXvXSXVXFXFXVXFXVXFXVXFXVXFXFXGXFXFXFXVXFXVXVXVXSXVXSXVXVXVXvXVXFXVXVXvXvXvXvXvXhXvXhX*X_.Y.Y.Y._.Y.e.q.&.K F G G K E D c z v v A E ) =.r.r.0.0.9.0.-.;.-.-.<.0.e.w.M.N.N.M.N.M.M.N.C.b.b.p.6.y.6.6.6.6.3.2.2.2.2.*.o...} F D b v z 3 : ; ; + + O O O O O O O . . . . .   . . .     .       . o           .                                                                               ",
"                                                                                                                                                                                                              . .   . . O . O . O . . . O O , 4 9 5 q k v v Z n Z F K R R ..R ............R ..R ..R R R K J K J J J K K ) ) ) ) _ ! A Z k : , 5 S r.Y._._._._._.{.{. X X X X{.{. X X*X=XvXuXuXvXSXmXVX_.W a 4 4 , , ; , ; $ + $ , $ $ , > 6 1 6 7 7 M M M M y 7 V ~ _.vXFXFXVXGXFXVXVXBXcXvXgXgX=X*X=X*X X X{.B.e.l.w.q.l.{.[.@X*X@X X X@X[.{.[.B.{.{.k.[.8XuXMXNXAXCXmXmXcX0X*X X{._.k.k.l.w.q.l.k.D.#X$X3X1X3XOX1X5X6X9XqX9XwXeXiXpXdXaXaXnXnXnXnXnXaXaXsXaXeXeXeXqX6X2X,X>XG.G.F.F..X.X.X.X.XoX.X@X#X=X8XuX8XtXyXbXMXnXBXCXCXAXAXCXZXZXCXNXNXNXNXCXZXZXFXFXJXLXFXFXFXFXFXFXFXFXFXvXFXvXvXvX-X-XvX*X-X=XvXvXcXvXcXvXvXvXvXhXgXvXvXvXVXVXVXFXFXVXVXFXGXFXVXFXGXFXFXFXFXFXFXVXVXVXMXVXVXVXVXVXvXVXVXvXvXvXvXvXvXhXvX*XY.9.r.r.0.9.0.9.-.) R K R J G E n v v v v J R _ =.r.r.r.Y.0.4.-.-.-.-.4.4.w.e.M.{.B.M.V.V.N.C.N.b.b.x.b.6.p.y.6.6.7.2.2.2.2.*.o...R D D n b z 3 : ; + + + O O O O O O . . . . .   .   .   .     .   .     . . .                                                                                     ",
"          o                                                                                                                                                                                                 .     . . . . O . O . . O O O + @ 6 9 9 k v v v v Z F F F R ....................R ....$.$.R R R K K K K K K ) ) ) ) ) ! A S z : < 4 Z _ 9._._._.{._.{.*X=X*X@X X X{. X X=X=XuXvXuXuXIXBXVXgX9.T 5 $ , + ; , , ; , 4 , $ 4 ; 6 6 9 9 7 7 9 M B q 7 V ~ Y.IXFXFXFXFXFXFXvXFXvXvXgXgXgXuXuX=X=X=X X[. X{.{.B.{.{. X-X-XuXuX-XuX-X-X-X=X=X=X@X X X=XuXaXmXNXNXNXCXnXyXgX'.B.B.k.l.l.l.l.l.B.@X%X$X$X1X#X1X1X5XqX9XqXwXwXeXeXpXpXsXsXbXnXnXnXnXnXaXsXaXtXqXqX0X6X2X,X>XoX.XD.F.D..X.X|..XoX|.oX<X8XuX8X0XyXbXbXbXnXmXBXBXCXCXNXAXAXCXCXCXCXCXCXZXZXZXGXGXGXGXJXFXVXVXVXVXVXVXcXvXvXuXgXuXuXhXgX-X-XuXuXvXvXvXvXvXvX*X*X*XvXvXcXVXvXFXGXFXFXVXFXJXFXVXFXJXGXJXGXFXFXGXZXVXVXVXVXVXVXVXVXVXVXFXvX*X*XvX-X*X*X*X_.Y.r.;.=.=.-.;.=.;.;.) ) R ) K J F v z v Z K _ =.r.9.r.0.q.0.r.-.*.*.<.4.e.e.w.M.B.V.B.N.V.V.V.C.C.b.x.p.z.x.b.6.6.3.7.2.2.o.*.*.o.E G n n z c 5 : : ; ; + O O O O O O . . . . .     .   . .       o     o                                                                                           ",
"o                                                                                                                                                                                                               .   . . . . . . . O . O O + > , 9 q q v v v C n Z F G R ......| ..o...o...o.....R ..$.$.R K R R ) K ! ) $.$.=.=._ ! J S v : : 3 k E =.9.q._._.{. X*X-X-X=X=X@X@X X X=XgXuXuXvXgXuXvXVXvX_.1.T t 4 4 ; , , > < 4 4 , 4 9 9 q 0 q 7 2 2 9 y 0 V _ Y.'.vXFXFXFXFXFXFXFXVXFXvXuXuXvXuXuXuX-X-X-X=X-X@X*X X*X=XuXuXcXcXcXcXcXcXcXcXcXvXcXuXuXgX<XuXbXNXCXCXCXNXmXyXuX7X_.|.l.k.k.k.k.M.V..X#X$X3X$X1X1X5X9X6X9X9XwXwXeXpXpXpXaXnXnXnXmXnXnXnXaXaXpXeXeXqX6X6X2X3X1X+XG.G.D.G.oXoXoXoX|.oX X<X<X8XuXyXyXaXbXbXMXmXmXmXCXNXSXCXNXAXNXAXZXBXCXCXZXVXZXZXGXGXGXVXVXVXFXvXVXVXvXvXuXvXvX-X-XuXuX*X-X-XvXcXvXuX-XvX-X*X*X*X*XvXvXvXvXVXFXVXFXVXFXSXvXSXFXFXFXGXGXFXGXVXVXvXSXvXvXvXVXFXvXvXVXvXvX'._._.*X{.{.{._.q.r.=.=.$.;.$.$.=.;.$.) R ) K J F Z v n F ) =.=.r.9.q.9.0.0.<.-.&.&.*.4.e.w.p.M.N.V.[.V.V.V.C.n.n.C.b.b.x.6.z.y.6.7.7.+.2.2.*.o.R R G m n v z 3 : ; ; + + + O O . . O O . .   . . .           o o     o                                                                                             ",
"            o                                                                                                                                                                                               .     . . . . O O . O . O O + O > , 9 q y a v v v Z D F K R ..$.....| ..X.o.o.R ....R ..$.R $.K R ) ) K ) $.$.=.$.) _ ) J A z < 3 4 z Z _ =.9._.{.;X X=XuXuX-X-X-X=X X X=X=XuXvXvXuXvXSXVXVXgX_.' A t 5 4 + ; 4 4 2 , 8 t q q q q q < 9 2 2 y V _ 9.*XIXFXLXFXFXFXFXFXVXVXvXSXvXvXvXvXuX-XcXuXuX-X-X-X=X-XuXuXvXvXvXcXVXcXcXVXcXcXcXcXMXcXyXuXuXgXyXCXCXCXNXCXmXyXuX X XB.B.l.k.B.B.B.V. X#X$X$X1X3X1X1X5XqXqX9XeXtXtXpXpXsXsXnXmXmXmXnXnXnXaXaXtXtXiXrX6X4X7X3X>XOXoX.X.XoXoXoXoXoX#XoX X#X8X<X8XyXyXbXbXnXmXmXmXCXNXmXBXmXBXNXCXNXBXZXBXVXBXZXZXZXVXZXZXVXSXVXMXSXcXcXcXvXvXuXuXuXgXvXuX-X-XvXvXvXhXuX-X*X*X*X*X-X-X*X=X*XvXvXVXvXVXvXFXvXgX=XvXFXGXGXFXJXFXSXvXIXgXvXgXvXvXvXvXvXcXvX*X_.9.).)._.Y._.e.9.r.r.-.;.) @.$.=.=.&.$.) R J J F Z v A E _ =.9.0.0.0.9.q.4.<.%.&.&.:.0.k.p.M.M.B.[.V.V.F.V.m.C.C.n.C.x.x.y.l.x.7.7.3.2.+.*.o.o.o. .G m n n c 3 : : ; ; + + O O O O O . .   . .       .     o o   o     o                                                                                           ",
"                                                                                                                                                                                                                  . . . . . . . . . O . O O @ , 9 q v v v v B n b F K ....o.......X...o...o...G R R ..$.) ..R ....) ! ) =.$.;.$.$.) E Z v 3 5 c v v F _ =.Y._._.*X=XhX-XuXyXuX-X@X=X*XuXuXvXuXvXcXcXVXMXvXgX_.9.E V 4 ; ; , 4 4 9 8 t q y 9 q q 9 9 9 0 V ! 9.'.hXvXFXFXFXFXFXFXFXVXVXFXMXcXcXvXcXvXcXyXvXvXcX-XuXuXuXvXuXvXcXcXVXMXVXVXVXVXMXVXVXVXMXMXyXuXtXaXBXCXCXCXNXmXbXgX7X'.|.B.l.B.B.k.B.|..X#X$X$X$X1X$X5X9XqXqXwXtXeXtXpXpXaXaXnXnXmXmXmXnXnXbXsXtXtXeXqX6X2X2X2X1X1XOXoXoXOX<XOX<X#XoX#X7X7X<X8X9XyXyXyXbXmXmXmXmXmXNXNXNXCXBXCXNXCXCXBXBXBXBXVXCXVXVXCXVXMXcXcXcXcXvXcXuXcXuXvXvXuXuX-XuX=XuX-X-XvXvX-X*X&X*X*X*X*X*X*X X*X*XvXvXvXvXvXvXvX*X'.vXJXFXGXFXFXVXvXgX*X*X'.*X*X=XIXvXvXvXVX*X_.=.=.9.q.q.Y.Y.e.0.9.r.;.$.$.&.;.;.&.$.) R J S Z Z C F ) ;.r.9.9.q.q.e.0.<.*.&.&.*.4.w.e.p.l.N.V.V..XD.V.V.m.m.m.n.b.x.z.x.x.x.6.7.7.7.2.+.1.*.o.R E m x b z 3 3 ; ; + + + O O . . O O . .     .   .     .       o   o o   o                                                                                       ",
"o         o                                                                                                                                                                                                 . .   . . . . . . . O . O O O O + < 9 q V v v v v C b F K ..$.&.$...X.o.o.............R &...) ..R R ) ) $.$.;.=.=.=._ ) ) S k 2 5 v k v v H _ e._.{.*X*X-X-X-XvXcXuX=X=X-XuXvXuXvXuXcXcXBXSXvXvX*X].j.' S q 4 4 9 q t a q a q q y y y y y S _ Y.'.hXSXFXFXFXFXJXFXJXFXVXVXSXMXMXcXMXcXcXcXcXcXvXcX-XvXvXvXcXcXVXvXVXFXVXVXVXVXVXVXVXZXZXBXBXSXyXdXMXNXCXCXBXNXmXbXuXgX XD.].k.B.B.k.B.|..XoX$X$X#X$X7X1X4XqXwXwXeXtXtXpXsXsXsXnXnXmXmXmXnXbXbXdXyXyXeXrX0X4X4X4X2XOXOX#XoXOX1X1X#XOX#X#X X7XuX8X9XyXyXyXbXnXmXmXmXmXNXmXNXmXNXCXBXmXBXBXBXBXVXVXBXVXVXBXMXbXcXvXvXdXuXcXcXcXcXuXyXuXuXuX-XuXuX=XuXvX-X-X*X*X*X-X*X&X*X X_.{. XgXvXvXuXvXgX*X_.).*XVXFXFXVXVXcX*X*X_._._._.'. X*XhXgXvXvX*X9._ E ) =.9.e.Y.e.e.r.r.-.;.$.$.=.;.=.$.) R E Z Z S S E ) r.9.0.q.9.q.q.0.r.<.&.&.*.7.w.b.z.b.M.V.V.|.A.F.V.m.m.C.C.x.x.x.6.x.x.6.6.7.7.2.2.2.o...R G n n x z 5 : : ; ; + + O O . O O O . . . .   .           o   o   o                                                                                             ",
"                                                                                                                                                                                                                .   . . . . . O O . . O O O + , 9 q y B V n B n b F K ....o.%.o.X.X.o.....R R ..R ....) ..R ) $.$.$.$.&.=.-.=.-.=.) K A v 0 5 5 z z 0 C ) q._.;X*X*X=X=X-XuX-X-XuX=X-XuXuXvXvXuXvXvXvXMXvXvXvX*X'.k.' _ S V a a a y a y V V S ~ A ~ _ r._.*XIXSXFXFXFXFXFXFXFXFXFXvXVXvXVXvXvXVXcXcXVXMXVXvXcXvXcXvXvXcXvXVXFXFXZXZXFXFXFXFXGXFXHXAXZXVXMXdXSXNXNXCXCXmXNXBXMXyX<X X XB.|.B.B.B.B.V. X#X$X<X<XoX#X3X8XqXwXeXtXtXtXtXpXaXnXnXmXmXNXmXmXbXbXdXdXdXrXeXrX0X6X4X3X1X1XoX7X>X5X3X1X1X#XoX7X#X<X8XwXuXyXaXbXbXnXmXmXmXmXmXmXNXCXmXCXBXmXBXBXMXmXMXmXVXBXMXcXIXuXuXuXuXvXyXuXuX-XcXuXuX-XuXuX-X=X=X*X-X=X*X*X=X=X-X-X*X*X;X_._.*X=XuXvX*XgX*X_.9.9. XvXVXVXvXgX*X'._.9.9._.k.j.e._._. X-X-X*X_.=.J J &.r.e._.e.0.>.r.-.;.$.$.;.=.$.) ) K F Z D F F E &.r.9.9.0.q.q.q.0.2.<.*.o.*.q.w.p.p.b.V.V.F.V.A.V.m.V.n.m.v.v.x.x.z.x.x.6.6.3.7.2.2.2.1.o.G G G m n v 5 : : ; + + + O O O O . . . .   .         .   .   o       o                                                                                           ",
"                                                                                                                                                                                                              . .     . . . . . . . O O O O + , 4 q a v C v v v n F R ..$.o.$.%.%.o.X... .R ..R ..R ..R ) ..) $.;.$.=.&.=.=.=.=.) ) ! H Z k z z 5 5 5 v ) 9._. X X{. X X@X-X9XuX-X-XuXcXcXcXuXvXvXvXVXVXVXvXvXvXIX*X X).9.' ) ( T A A ~ ( _ ' _ r.j.Y.'.hXhXVXFXFXFXFXFXFXFXFXFXFXVXvXVXVXSXMXcXcXVXcXcXvXcXvXvXvXvXVXvXvXVXFXFXFXZXFXGXGXGXGXGXGXGXGXAXCXSXSXnXCXCXNXmXNXmXbXuXgX X X|.B.{.B.k.[.V..X#X$X$X1XoX<X3XqXqXwXeXtXaXpXpXpXsXsXnXNXNXNXmXMXnXbXdXdXrXeXeXrX0XqXqX4X1X1XOX$X5X3X3X3X#X7XoX#X<X<X8X0XuXyXyXbXbXMXnXmXmXmXmXmXmXmXmXMXmXmXBXMXMXMXMXMXMXMXcXvXyXuXuXgXuXuXcXyXuXyXuXcX-X-XuXuX-X=X@X@X=X-X=X&X*X=X-X-X*X X{.{. X XuXvX-XvX*X X_.1.9._.*XvXuXgX'._._.).9.9.9.1.=.' 9.k._. X*X;X_.=.J J $.r.e.e.e.0.r.-.-.$.@.) $.$.$.K K J F Z Z F J ) =.r.9.0.0.0.q.q.r.-.-.&.&.:.q.w.z.b.b.V.V.V.F.Z.F.m.m.v.C.v.x.x.7.y.x.6.6.6.6.3.+.*.2.*.o.R E n n b z j : : ; + + + O O O O . O . .   .       .         o   o o                                                                                             ",
"o                                                                                                                                                                                                                   . . . . . . O . . O O O + > 4 9 v V v v v n Z F R ....$.o.*.*.X.%.....R G ..R ..) ..R ..$.$.=.$.=.=.=.=.;.=.$.) J J Z b z z 5 z 0 k A r.Y._.{._.{.{.[.=X-XuX-XuXuXuXcXcXcXvXvXvXVXcXvXvXFXVXvXvXvX*X_.).9.9.9.' ' ' 9.j._._._.*XgXSXSXFXFXFXFXFXFXFXPXFXJXFXFXSXVXSXVXvXVXVXVXcXVXVXcXvXvXvXvXvXvXVXVXFXFXFXJXGXGXJXJXJXFXGXHXGXHXHXAXNXmXCXNXCXAXBXNXBXmXyX<XgX X X|.|. XB.B.|.|.#X3X1XOX<XOX3X5XwXwXtXtXtXpXpXsXnXnXmXBXNXNXmXmXnXbXaXyXyXtXtXeX0X8XqX4X2X>X<X1X3X5X8X3X1X7X X#X#X8X8X8XeXtXyXaXbXMXMXmXmXmXNXnXMXmXmXmXmXVXMXMXMXMXMXMXMXcXcXyXuXuXgXuXuXuXyX-XuXuXuXuXwXuXuX-XuX=X*X X*X;X@X=X@X*X&X=X&X=X X X;X*X-XuXvXuX*X_.9.=.-.j. X*X*X X_.k.j.q.=._ _ _ ) K ) 9._.{.{. X_.r.J H ! r.9.e.9.0.r.-.;.) ! K $.) ! H H F Z b Z A E _ =.r.0.9.9.9.0.4.<.&.*.*.*.<.6.l.p.x.b.V.A.F.F.D.m.m.C.v.v.v.x.x.x.6.y.x.6.6.3.3.7.2.O.o...G G m m b l 5 : : ; ; + + O O O O . . . . .   . .       .   o   o     o                                                                                           ",
"                                                                                                                                                                                                                .   . . . . . O . . O . O O + ; 4 0 y v B n B v Z F R R ..o.%.%.*.*.o...............R R &.) &.1.=.=.=.=.=.*.=.$.) R E J F Z v z 5 j 5 c n ) q._._.k._._.{.[.*X=X-X-X-XcXcXvXvXvXcXvXVXvXvXVXvXFXvXFXFXvXhXgX*X'._.]._.].'.*XhXgXIXvXSXFXFXFXFXFXFXFXFXFXFXFXJXFXSXVXVXVXvXVXVXFXMXVXMXvXVXcXvXuXvXvXvXVXVXFXFXFXFXJXGXJXJXGXJXGXJXJXJXAXAXAXAXNXAXAXNXNXNXmXMXcXgXgX#X X X|.D.|.[.[.|.7X$X3X$X$X3X4X0X0XeXtXyXtXsXsXsXaXnXNXNXmXBXNXmXNXnXdXdXdXtXrXrXtXrX0X0X0X<X1X<X2X5XqX3X<XoX7X X7X<X8XwXyXyXyXbXbXbXbXnXnXnXnXMXnXnXbXMXMXnXMXbXcXbXMXcXcXyXcXuXuXuX=X<XgX9XuXuX9XuXuXuXuXuXuXuX=X=X X@X X@X=X=X&X*X@X*X-X=X-X-X-X-XvXcXuXuX*X_.9.' 9.q._.'.{._.j.9.l.q.' ) E F Z Z ! 0._.{.;X X{.9.R J K -.0.0.0.r.-.=.;.! K K ! J H Z H Z Z Z Z J E ) r.r.9.q.0.9.4.<.-.1.&.o.-.4.w.w.p.b.C.m.A.F.F.A.m.Z.m.v.v.x.x.x.u.u.z.6.x.y.3.3.7.2.1.&.o.R G m n b v 5 3 : ; + + + + O . O . . . .     .             o o   o   o                                                                                           ",
"            o                                                                                                                                                                                               .     . . . . . O . O . O O O O + + < 9 q v v v B n b F G ....$.X.*.*.*.o.o.....R R o.R o.) R o.&.&.-.-.-.-.&.=.$.) ! ) K J F Z b l c 5 5 j v E =.9.q.9.0.q.k.{.;X=X=X-X-XuX-XcXvXcXvXVXvXvXVXvXFXvXvXFXVXvXvXIXIXhX*XgXgXhXvXSXSXSXSXFXFXFXFXFXvXFXFXSXSXFXFXFXFXFXVXVXVXVXVXVXvXvXcXvXMXcXvXvXgXvX-XvXVXVXVXFXFXFXJXJXJXJXHXJXJXJXJXJXHXAXGXAXAXAXNXBXBXBXCXmXnXyX8X<X#X#X XoX|.D.D.|.oX#X$X3X2X1X2X4XqXeXeXtXtXaXsXaXsXbXnXmXmXBXNXBXmXmXnXbXbXyXpXtXyXrXrX0X0X4X4X<X<X2X8X4X3X#XoX#X7X<X<X8XwXwXyXtXaXaXbXbXmXMXnXnXbXMXMXnXbXMXMXMXbXMXcXbXbXcXyXyXyXuX8XgX*X#X#X=X=X=X9X9X9X-X9X-XuX-X=X@X*X@X-X%X@X-X*X@X@X@X-X-XuX-XuX-XvXcXvX-X Xk.q.q._._. X_._._.9.q.q.' E E A Z D ) r._._. X;X{.Y.=.) $.r.r.r.0.r.-.;.$.K ! L J J D D D D Z C F J ) _ =.=.0.0.9.0.<.<.-.*.*.*.2.7.6.l.b.b.n.V.A.F.F.F.F.m.J.v.v.v.v.x.x.6.u.x.u.6.6.6.2.2.+.&.o.R E F n b z 5 : : ; ; + + O O O O O . . . . .     .   . .       o   o                                                                                             ",
"o                                                                                                                                                                                                               .   . . . . . . . . O . O + + + < 2 q v V v C v b F G R ....*.*.:.*.*.o... .R R ) &.......&.&.<.<.4.<.=.$.&.) ) ) K K J E J Z v 5 5 5 j z Z K _ =.1.1.<.q._.{.@X=X-XvX-XvX-XuXvXvXvXvXvXvXFXvXFXvXFXVXVXFXvXFXSXSXFXSXVXFXLXLXFXLXFXFXFXFXvXFXFXFXVXFXFXFXFXJXFXFXFXFXVXVXvXvXvXcXvXcXvXvXvXuXuXvXvXvXVXFXFXFXFXGXJXJXJXJXJXPXJXJXGXJXAXGXAXAXCXNXAXNXBXBXNXSXdXgX<XgX X X|.|.|.D.|.#X#X3X5X3X4X5XqXeXeXtXpXaXyXsXaXaXnXmXmXNXAXCXmXmXmXMXbXcXaXdXyXdXrXtXrXrX0X4X4X3X4X8X4X<X<X XoX<X<X8X8XwXtXtXaXbXbXbXnXMXnXnXbXdXnXbXbXbXbXMXbXcXbXcXbXbXcXaXuXuXuXgX<X X X X X#X#X=X9X=X9X=X9X-X$X@X@X@X=X-X-X-X-X-X@X@X@X-XuXuXvXcXvXcXvXcX-X*X{._. X X X*X*X X_.)._.9.r.) J F Z J =.e.{.;X;X X@X{.e.r.-.0.r.0.>.>.>.;.$.K H H L H D Z D D Z Z H ) ) =.=.r.9.0.9.r.1.-.*.o.1.<.4.7.w.w.b.n.m.V.F.F.F.F.Z.m.m.n.v.x.v.x.y.u.x.u.7.u.7.6.+.2.2.o.o.R J m b n z c : : ; ; + + O O O . O O . .   . .   .     .     o   o   o                                                                                           ",
"                                                                                                                                                                                                              .   .   . . . . O . O O O O O + + , < q v n B B n b m R R R ..%.*.:.:.*.o.o.....R ..R ..R ..&.&.-.9.4.-.=.=.$.$.$.) ) K J K J F b v c 5 5 z C F R ) ) &.&.<.k. X@X=X=X-XcX-XcXvXvXvXvXvXvXvXvXvXvXvXvXVXFXFXFXFXVXSXFXFXFXJXJXFXFXFXFXFXFXFXFXFXFXFXSXFXFXFXFXFXFXFXVXVXFXVXvXvXvXvXuXvXyXuXvXhXgXvXvXvXVXFXFXFXFXJXJXGXJXJXGXGXJXJXGXHXAXAXAXAXAXBXBXAXNXNXmXdXyX0XgX<X#X X|.|.D.D.|.#X$X3X9X5X5XqXqXeXtXpXyXaXdXaXsXnXnXmXNXNXCXCXCXBXmXmXnXdXdXaXdXdXyXiXrXrXrX0X4X8X4X8X8X<X$X7X#X<X<X8XwXwXwXyXyXaXaXbXbXnXnXbXbXbXnXnXbXbXbXbXbXbXcXaXcXcXyXcXyXyXuX<XgX X|.|.|.|.@X=X$X9X=X=X=X$X-X=X@X=X=X9X=X-X-X-X-X-X-X-XuXcX-XcXvXvXvXcXvX-X*X*X*X-X-XhXuX*X_.k.e.k.9.&.) K E $.9._.@X*X X;X*X;X{.e.e.e.0.0.r.r.;.;.! ! L D H H D Z D H Z H F K ) =.=.=.-.<.r.-.-.&.&.*.*.7.6.6.w.b.b.C.m.A.F.H.H.F.A.Z.m.v.v.v.v.x.x.x.u.x.6.u.6.3.2.2.*.o.R ..G F m b v 5 3 : ; + + + O O O O . . .   . .         .           o o                                                                                             ",
"o                                                                                                                                                                                                           .     . .   . . O . . . O O O + + + < < 9 v v v v v b D G R ....%.*.:.:.*.*.o.........R ..R &.%.-.<.<.<.<.-.=.&.$.$.$.! K K R K J Z v c 5 5 z v n D F F E E =.q.{.[.@X X=X-XvXuXvXvXvXvXvXFXvXvXvXFXvXFXFXFXFXFXVXFXFXFXFXFXFXLXJXFXPXFXSXFXFXSXFXFXVXFXVXFXGXFXFXFXVXVXVXvXvXvXhXvXgXuXuXvXuXvXuX-XvXvXvXVXFXFXFXFXFXJXGXGXJXFXGXFXAXJXGXZXAXAXAXAXAXAXCXNXCXNXMXyXuX<X<X X X|.D.|.|.|.oX$X9X3X5X4XqXqXeXpXtXpXaXaXsXnXnXnXNXNXNXCXCXCXNXNXNXbXbXdXbXaXtXyXiXeXtXrX0X0X0X0X8X4X4X<X#X7X<X<X0XrXtXtXyXaXaXbXbXbXnXMXnXbXbXnXaXbXbXbXbXcXbXyXbXcXbXcXaXyXyXuXuX#X XD.k.{.|. X#X<X#X=X#X=X=X=X#X=X=X=X-X9X-X-XuX-X-XuXuXvXuXcXvXcXvXcXcXvXvX-X-X=XvXvXhXcX-X X_._.k.9.1.=.$.&.9.k.{.*X;X@X@X=X{.{.Y.k.e.q.0.r.-.=.$...K H D Z H Z D H J J Z F ! ) =.r.<.r.<.r.-.1.&.&.1.4.q.6.z.b.b.b.V.A.A.F.F.H.F.A.Z.m.J.v.n.v.c.u.6.u.y.6.6.6.d.7.2.*.o.o.R F F n n k 5 : : ; + + + O O O . O . . . . .   . .         o o   o o                                                                                             ",
"          o                                                                                                                                                                                                 .   .   . . . . . . . O O O O O + + , 4 5 0 v v v n b D G R R ..%.:.-.>.:.:.*.o...R ....&.$.&.&.<.<.q.0.r.<.&.=.$.) $.$.) ) ) ) J A n z c z c v l b Z S Z J &.q.{.{.{.{. X*X-XvXvXvXvXvXvXhXvXFXvXvXvXvXvXFXFXvXFXFXFXFXFXFXFXKXJXJXFXFXFXFXFXFXFXFXFXFXFXFXJXGXFXFXFXVXFXvXvXvXgXgXuXuXuXuXuXgXuXgX-XcXcXVXVXFXFXFXFXFXGXJXGXJXGXGXAXAXGXZXAXZXAXAXAXNXCXBXAXmXMXyXuXgX<X XoX|. XD.|.oX#X3X3X5X5X5XqXqXeXtXtXaXaXaXaXsXnXmXNXNXCXAXCXAXSXmXmXnXMXdXaXaXaXaXyXiXpXiXrX0XrXrXqX8X8X<X#X7X<X0X0XrXeXtXtXaXbXaXbXbXbXbXnXsXbXnXbXnXbXbXMXbXcXbXcXbXcXyXcXyXuXuXuX=X X{.B.B.D. X X X#X#X@X@X@X#X@X@X=X-XuX-XuXuXuX-XuX-XvX-X-XvXcXvXvXvXvXvXvXvXvXvXhXvXuXvXvX=X{._._.e.9.9.<.9.e._. X&X X*X&X@X X{.I.{.e.e.r.-.;.;.$.! H D N D D Z H J J J H J J _ =.=.r.-.=.-.1.&.*.*.*.7.w.w.w.b.N.C.Z.A.A.H.H.F.H.H.A.m.m.v.n.n.x.x.x.x.x.d.3.u.3.2.2.2.&.....G F m b z j : : ; ; + + O O O O O . . .   .       .   .         o                                                                                               ",
"            o                                                                                                                                                                                                     . . . . . . O . . O O O + O + , < 5 q v v v v b Z F K ....*.*.:.:.-.:.*.&.o._ R o.o.&.&.&.<.4.0.0.9.-.&.=.$.$.) $.$.$.$.&.) J n z c z v c z z b b Z F &.q._.{.e.e.e. X*X-XhXvXhXFXvXFXFXvXFXvXvXvXvXVXVXvXvXFXFXFXFXFXFXFXLXFXLXFXFXFXFXFXFXFXFXFXFXFXFXFXVXVXSXvXvXvXvXgXuXgXgXuXgXvXuXuX-XgXvXcXvXVXVXFXFXFXGXFXFXFXFXGXGXFXGXZXZXZXZXCXCXAXAXAXNXmXNXNXbXaX0XgX<X#X X XD.|.oXoX#X3X8X6X5X8XqXqXeXtXpXpXaXaXnXnXnXnXmXNXCXCXCXAXNXCXmXmXbXbXbXaXaXaXaXdXeXrXiXrXrXqXqX0X3X<X7X7X<X<X0XwXyXtXaXsXaXbXbXbXbXnXnXsXbXaXbXbXbXbXMXbXbXbXbXcXcXbXcXcXyXwX<XgX X X|.B. X_.|. XoX@X@X@X@X@X|.@X#X-X-XuX-XuXuX-XuXuXuXhXcXvXvXvXvXvXvXvXvX-X-XvXvXvXvXcXvX*X*X X{._.e.9.0.q.k.{. X X@X&X*X;X}. X_.k.e.e.0.-.&.$.! L H N N D H D H ! ! ! J ! ! =.r.=.-.=.=.-.*.&.&.*.-.7.6.w.p.b.M.b.A.A.A.XXXXH.A.A.Z.Z.Z.n.m.v.c.x.x.y.u.6.u.7.3.7.2.2.*...R G D n b l j : : ; ; + + O O O O . . .   .   . .       .     o   o   .                                                                                           ",
"o                                                                                                                                                                                                           .   .     . . . . O . O . O O O + + ; 1 4 9 v C v b b m F G ..&.%.*.<.2.*.1.2.*.&.o...R ..&.&.*.<.4.0.4.<.-.=.$.&.$.! $.&.=.&.=.) E b v 5 c b v c v l v C J &.q.k.e.0.<.0._.{.*XhXvXhXhXvXvXhXvXFXvXVXVXFXFXFXFXFXFXFXLXFXLXKXFXKXFXLXFXSXFXFXSXFXFXSXVXVXFXVXVXSXvXvXvXgX*X*X*X*X*X=XuXuXuXuX-X-XvXhXvXvXvXvXVXVXVXVXZXZXFXFXVXFXVXGXZXZXVXVXCXCXCXNXmXmXmXnXMXdXgXgX<X<X X7X|.|.|.@X#X<X4X5X9XqX5XqXqXtXpXaXsXaXbXnXsXnXmXCXCXCXZXAXCXAXmXmXnXnXbXaXaXaXaXaXiXtXtXrXpXrXrXqX8X<X<X<X#X<X<X0XwXtXdXaXyXaXbXaXnXnXnXnXbXaXnXaXnXbXbXbXMXMXcXbXbXbXcXyXyXyXuXuX=X#X|._.D.B.|.|.|.|.@X.X|.|.[.[.@X=X$X9X-XuXuXuXuX-XcXuXcXcXvXvXcXvXcXcXvXcXvXvXvXuXvXvXuXvXvX=X X X_._._.q.e._.{.;X;X@X*X;X@X X;X{.Y._.e.q.-.=.$.! L Z P N H Z H J ! K ) ! ! ) ) =.r.=.=.-.=.*.&.&.&.:.4.6.l.b.M.C.b.V.A.A.XXH.H.A.H.Z.Z.J.m.n.m.c.x.x.x.x.u.6.6.3.3.2.*.o.....K D D b l 5 : : ; + + + O O O O . O . .   . .       .           o                             o                                                                 ",
"                                                                                                                                                                                                        .           .   . . . . . . . . O O O + + > 2 5 q v v C C Z J R R ..*.:.*.:.:.2.<.:.*.o...R o.o.&.1.<.0.q.0.<.1.*.&.&.R ) &.=.=.=.=.=._ H M 0 k M M l l v b v D &.q.e.9.1.=.1.0._.{.*XhXhXvXuXvXvXvXvXvXVXVXVXFXFXVXFXFXFXFXPXGXJXGXJXJXJXSXvXVXVXGXFXFXVXVXvXvXvXvXvXvXgX*X*X X X*X*X-X=X-XuXuX=X=X-XvXuXuXvXvXvXVXvXVXVXZXVXVXVXVXVXVXBXVXAXBXBXBXBXBXCXNXNXSXfXvXdXuX0XgX<X7X X7X|.|.|.#X<X4X8X4X0X0X0XrXtXtXaXsXaXnXnXNXNXNXCXCXCXAXAXCXSXBXBXmXMXbXMXdXaXdXdXyXdXdXdXrXtXeXrX4X<X<X<X<X<X8XqXwXtXtXyXtXaXbXbXaXaXbXsXdXMXnXMXnXnXnXmXMXMXbXcXMXcXMXSXyXyXyXuX8X=X#X X|.{.B.V.|.[..X|.|.[.B.[.|.@X9X-X9X9X-X9XuXuXcXyXvXcXcXcXcXvXvXhXcXvX-XvX-XvXvXvXcXhXuX-X*X X{._.q.q.e._.M.{.;X@X&X&X X{.{.I.Y.Y.e.e.r.=.! K D N x N D H J K ! $.$.) ) ) ) =.-.-.-.&.*.-.&.&.*.4.4.7.w.l.b.N.C.V.F.F.F.F.G.F.Z.Z.Z.J.J.m.v.x.c.b.n.y.6.6.t.6.3.2.:.*.....G m n b z 5 3 : ; + + + O O O O . . . .     .   .         o o   o   o                                                                                           ",
"o           o                                                                                                                                                                                                 .   .       . .   . . . O . O O + + : 4 9 q k v C Z F F R R ..&.-.<.:.*.*.2.<.1.&.&.....&.&.1.<.7.4.q.0.<.1.&.&.R R =.=.1.r.r.=._ A M k z M M l C C b b S ) 9.9.r.$.) ) =.r.e.{.*X*X*X*XhXvXhXvXvXVXVXFXvXvXSXVXFXSXFXAXGXVXFXGXJXGXvXgXSXVXSXVXVXvXSXvXvXgXvXgX*X*X*X*X{._.*X*X@X=X=X-X-X-XuXuX-XvXvXvXvXcXvXVXcXVXvXVXMXVXVXVXVXVXVXSXBXBXBXBXBXNXNXnXnXSXbXyXrX0X<X X X7X|.7XD.oXoX3X8X6X0X0X0XrXeXeXpXaXaXbXaXnXnXmXNXNXCXZXCXZXCXCXBXBXmXMXbXbXMXdXdXdXfXyXyXdXiXrXeXiX0X<X<X<X#X<X<X0XwXtXtXaXaXaXaXbXbXnXnXnXSXfXMXbXnXmXMXmXnXMXMXMXMXMXcXaXdXvXuXuXuXgX=X X|.B.B.B.V.[.|..X[.[.V.M.[.@X-X-X9X-X9X9X-X-XyXuXcXcXuXcXvXvXvX-XvXuXvXvXvXvXvXcXcXcX-X-X=X*X;Xk.e.9.k.k.e.{.{. X X{.{.{.{.{.e.e.0.0.;.$.K H D Z N N D J J ! ! $.) ;.) $.=.=.=.1.&.&.-.-.*.*.<.4.7.6.l.M.N.N.V.V.F.F.F.F.H.H.F.F.Z.m.m.m.m.c.c.x.y.y.y.t.6.3.3.2.2.o.....G D m b z 5 3 : ; + + O O O . O . . . .     .     .   .       o   o                                                                                             ",
"          o o                                                                                                                                                                                                 .       .   .   . . . O . O . O O + : 4 0 q v C V Z F J R R ..*.-.*.:.*.2.2.<.*.*.o.o.o.&.*.*.2.0.q.7.q.<.1.*.&.R 1.=.1.r.<.r.r.=.! S M z z M M M Z C C F ) 1.=.) ! J J R ;.0.k.{.;X{.;X*X*X*X*XvXvXFXFXhXgXvXVXFXFXFXFXFXVXFXFXJXFXIX*XgXvXSXFXVXFXSXvXIX*X*X*X X;X X_. X;X X;X=X@X=X=X=X=X-XuXuX-XcXcXcXcXcXcXcXcXcXvXVXvXVXVXVXSXBXBXMXBXBXVXmXNXNXmXnXdXdXyXrX0X<X<X7X7XD.|.7X X7X<X8XqXqXqXrXrXeXtXpXaXsXbXnXnXNXNXCXCXCXAXZXZXZXBXBXBXMXMXnXbXdXdXsXdXdXdXdXdXrXtXeXrX0X4X<X<X X<X<X0XtXtXtXpXaXaXbXaXnXbXnXnXnXnXnXnXnXnXmXmXMXmXMXMXMXMXMXMXcXdXvXyXuXuX3X X|.|.B.B.[.[.D.[.[.V.B.M.[..X$X9X-X-X$X-X9X9XuX-XcXuXcXcXcXvXcXcXuXvXhXcXcXvXvXvXhXvXuX*X-X*X_._.k.q.e.k.{.k.{.{.{.I.{.Y.e.e.e.0.r.;.$.$.K D Z D N C D H J K ) ) $.$.$.&.&.;.=.-.*.*.1.-.:.<.4.4.4.6.b.N.V..X[.F.XXoXG.H.G.G.F.F.Z.Z.Z.m.m.n.n.x.x.y.y.6.t.5.3.2.:.X.o...} F m b z j 3 : ; + + O O . O O . . . . .             .     o   o   o                                                                                           ",
"o                                                                                                                                                                                                               .   .   .   .   . . . . O O O + ; > < 9 q v B n Z F F K R ..*.:.2.-.2.<.4.2.2.1.1.&.o.*.*.1.<.4.q.q.q.q.1.1.&...&.1.1.=.r.r.9.=.! H M z j 0 k M v C b S ) =.) J J F H J ! =.9.e.e.{._.{.{.{.;X*XhXVXFX*X*X*XvXFXFXFXFXVXFXZXFXZXvXgX'.*XgXvXVXVXVXvXvX-X*X*X*X*X X X*X;X X*X@X X-X@X@X-X-XuX-XuXvXuXvX-XvXvXvXuXcXvXvXMXvXMXcXVXMXBXVXMXBXMXmXMXmXNXmXbXbXdXdXgX8XgX X7X7X X|.|.|.7X4X8X8XqXqXqXrXtXpXaXaXaXnXnXnXNXNXNXCXCXZXZXZXZXBXAXBXmXMXnXnXbXaXfXIXdXdXaXpXdXiXiXtX0X0X4X<X7X<X8X9XwXtXtXyXaXaXbXnXbXnXnXnXnXnXnXnXmXmXmXmXmXBXMXnXMXMXMXnXMXbXvXuXrXuXuX<X<X X|.B.V.V.|..X[.V.B.C.V..X=X9X-X$X9X9X-X-X9XuX9XuX-X-XcX-XuXvXhX-XcXvXhXvXvXvXvXvX-X-X*X X{.q.e.q.q.e.k.k.{.I._.e.e.e.0.0.r.=.-.=.$.K H D D Z N Z D J J K R ) $.=.) $.;.=.=.-.-.-.*.*.1.4.7.w.w.b.M.A.[.@XoXoXXX+XXX+XXXG.H.H.F.A.Z.Z.Z.m.n.n.c.x.6.t.6.6.4.2.-.%.....G m b b k 0 : : ; + + + O O . . . . . .     . .   .             o o                                                                                             ",
"                                                                                                                                                                                                                .   .     o   . . . . . O O O O + , < 5 q v v C Z F J R R ..&.>.<.:.-.2.2.4.<.2.*.o.*.&.*.*.2.<.7.w.l.q.<.*.&.&.=.-.1.-.1.r.9.=._ ! M 7 7 z z M v v C Z E ) ! S H Z H H ! ;.r.r.r.Y.Y.Y.e.9.e._.hXvXhX_.9.).gXvXvXvXVXZXVXVXVXvXgX*X_.*X*XvXvXvXvXvX-XgX*X*X X;X;X{.;X X@X@X@X X@X@X@X@X-X-X-XuX-XuXcXuXcXhXvXvXuXvXvXcXcXVXVXVXVXSXMXmXVXmXmXmXmXNXMXbXdXbXyXrX<XgX7X#X7X|.7X7XoX<X<X0XqXeXqXeXrXyXdXdXsXnXnXnXNXNXCXNXCXAXZXZXZXZXVXVXBXmXMXMXbXsXdXbXdXsXdXdXdXpXtXeXeXeXqX4X0X7X<X6X0XwXyXpXaXaXaXbXbXnXnXnXnXnXmXnXmXmXnXmXmXmXmXmXMXVXMXMXmXMXcXcXyXuXyXuXgX=X#X|.|.D.[.|.|.|.D.B.B.V..X#X$X-X$X-X9X-X#X#X%X=X=XuXuXuXuXvXcXcXvXvX-XvXvXcXvXvX-X-X=X*X{._.Y.q.q.e.Y.k.k.e.e.e.q.0.r.-.&.$.-.;.) $.K K H D D N D D J J K K ) $.=.&.=.-.<.-.-.*.1.1.-.2.q.q.l.l.M.[.[..X@XOX%X+XOXXXXXXXXXH.H.F.A.A.A.A.m.n.n.b.x.y.6.5.5.3.2.*.o.....G m m b z 5 3 : ; + O O O . O . . . . . .       .         o o   o o                                                                                             ",
"                                                                                                                                                                                                            .           . . .   . . . O . O O + ; , 2 4 q q V v Z S F K R ..*.-.-.:.:.<.<.4.2.<.1.O.*.*.*.*.<.4.q.w.w.q.<.1.1.*.1.1.=.=.=.r.r.r.=.! H y 7 7 0 k v C C A ~ ) ! H H H H ! ! ) =.;.r.0.e.e.r.=.r._.*XvX*X9.E _ _.*XvX*XvXvXVXVXvXvX*X_._._. X*XuXvXvXhXvXvX-X*X*X X*X X X@X X;X@X;X-X@X=X-X-X9X-X9XuX-X-XcXuXuX-XcXvXuXcXcXvXVXVXMXMXVXMXBXMXmXmXmXMXmXnXnXcXaXuX0X0X<X7X#X|.7XD.D.7X#X8X0XqXqXeXeXtXiXaXaXnXnXnXmXNXNXNXAXCXZXZXZXZXZXCXCXBXBXMXMXbXbXbXdXsXsXdXdXtXdXdXeXeXeXqX8X<XgX<X0XwXwXyXtXaXaXbXaXnXbXbXnXnXNXfXSXmXmXNXmXBXmXBXmXmXmXmXmXmXMXbXcXcXyXyXyXwX9X<X@X|.|.|.|..X.X|.V.B.[.@X#X9X=X9X$X$X$X#X@X|.@X#X=X=X-X-XuX-X-X-X-X-XuXvX-XuX-X=X*X X X{.{.k.e.e.e.e.e.e.w.0.0.4.r.-.-.$.$.$.$.) K J G F D D D Z Z F H K K $.$.=.-.=.-.<.r.1.-.*.*.*.<.4.w.b.b.V.[.@X%X%X%X$XOX$XoXoXXXXXG.XXF.F.A.A.S.Z.n.n.n.y.y.t.6.5.5.2.:.%...R G m b b z 5 : : ; + + + O O O . O . . .   . .     .   .         o   o                                                                                           ",
"o         o                                                                                                                                                                                                       .   .   .   o . . . . . O O O + ; < 5 0 q v v C Z J E R ..&.:.2.-.2.:.<.2.4.2.1.*.*.*.1.*.<.4.w.l.e.q.4.2.1.1.-.1.=.1.1.r.1.r._ ) A M z 7 q M V V Z A ! ! ~ J ! ! ! ! ! _ ;.=.r.0.0.0.r.;.-.e.{.*X_.! k E q.*X*X X*X*XvXvX=X*X_._._._._._.*X-X-XvX-X-X*X*X@X*X@X X;X X;X@X@X@X@X@X-X%X-X9X-X-X-X9X-X-XuXvXuXcXuXvXyXvXcXMXMXVXVXVXBXMXmXmXmXmXnXnXnXbXdXaXrX0XgX<X#X#X XD.D.7XoX<X8X0XeXeXeXeXeXpXdXaXnXnXNXmXNXNXCXAXZXAXZXZXGXZXCXCXBXBXmXMXnXdXfXSXsXbXsXdXaXpXiXeXeXeXwX8XgX<X<X<X0XwXeXtXyXaXaXnXbXnXnXnXmXNXNXNXmXmXmXCXBXmXBXBXBXmXBXBXmXMXbXcXcXyXyXyXyXwXuX3X#X@X#X@X#X@X.X|.V.V.|.#X$X$X$X$X%X.X|.|.|.[.|. X#X@X=X-X-X=X-X*X=X=X-X=X*X X X{.{.{.{.k.l.q.q.q.e.e.q.q.0.>.-.>.-.$.) @.$.K K K K H F D H D Z D G K R ) &.=.<.9.<.0.9.<.<.-.1.*.&.1.7.w.M.M.[..XoX%X%X$X$XOX$X+X+XXXXX.XXXF.F.A.A.V.V.n.n.n.y.t.3.6.3.2.>.:.o.....G F b b z j : : ; + + + O O . . . . . .               .     o   o o                                                                                             ",
"                                                                                                                                                                                                              .       .   .   . . . . . . O O O $ , < 4 5 v v S Z F E K ....&.*.:.2.-.2.2.4.4.<.2.*.1.*.o.2.4.q.l.w.w.q.0.<.<.*.-.-.1.=.=.=.=.=.=.) J N z 7 z q C V S J ! ) ! ! ! ! ! ! ! @.=.;.8.0.r.r.;.$.r.Y.{.{.e.Z 3 A 9._._._._.{.*X*X{._.e.q.q.e.Y._.{.=X-X-X-X*X&X*X@X&X&X@X X@X[.@X@X;X@X%X%X-X$X-X-X-X-X-XuXuXcX-XuXcXvXyXcXvXcXVXvXBXcXMXBXMXmXMXMXnXMXnXnXsXbXyXyX0X<X<X<XoX7X|.D.D.#X<X0X0XeXeXeXeXtXpXaXsXnXmXNXmXCXAXNXAXAXAXGXGXZXZXZXVXBXBXMXMXMXbXsXdXaXnXsXaXpXpXpXtXeXrXwX0X2X<X<X0X8XwXeXtXaXaXaXaXaXnXbXbXmXnXNXNXmXNXmXmXmXBXBXmXMXBXBXBXMXMXMXbXyXcXcXcXcXyXyXuX9X=X#X$X#X$XoX|.|.|..XoX#X$X#XoX.X|.D.V.B.B.{.|.@X X@X=X=X=X@X*X@X@X X{. X{.{.{.{._.k.k.e.q.q.q.w.q.0.0.-.-.*.;.&.$.) R $.$.! K K H H F F D D D J K ) ) =.<.q.e.e.q.q.0.2.<.*.&.o.2.7.w.M.B..XoX$X$X$X$X$X$XOX%XoXoX+XG.XXF.A.A.A.S.S.n.b.u.y.3.3.3.3.2.:.*.o...G G m b b z 5 : ; ; + + O O O . O . . . .   .   .     .           o   o                                                                                           ",
"          o                                                                                                                                                                                                 .     . .   .   . . .   . . O O O O + > 4 9 9 v v v Z F J K R R ..*.*.>.2.*.2.2.4.4.2.<.*.*.*.2.4.7.w.l.l.q.q.4.7.<.-.*.&.1.=.=.-.=.=._ ! S M k z M C V A H ! ! ! ! ! ! ! ! ! ;.;.r.r.r.r.;.;.;.<.e.a._.<.C 3 n 9._._._.l._.{.*X_.q.9.0.0.q.q.Y.{.;X*X&X-X-X*X-X=X;X@X X}. X}.@X@X}.%X-X%X-X$X-X-X%X$X-X-X-XuXuX-XcXuXcXcXcXcXVXMXVXMXMXMXMXBXMXmXMXnXbXbXsXaXyXrX0X7X<X7X7XD.|.|.7X#X<X8XqXeXeXeXeXpXaXaXsXnXnXNXmXCXAXAXAXAXGXGXGXZXGXVXCXBXBXMXnXnXbXbXdXnXnXdXdXsXpXtXiXeXeXqX8X<X<X7X<X0XeXeXwXyXaXdXaXbXbXnXnXnXmXnXmXNXmXCXmXmXCXCXCXBXBXBXMXVXMXMXcXcXyXcXyXcXyXuXyX9X-X#X#X$X$X#X@X|.|..XoXoX#XoX.XD.D.B.m.V.B.B.V.[. X X[.@X X X X[.{.|.{.{.k.k.k.k.k.k.e.q.q.0.0.0.0.4.4.-.&.;.$.$.$...) R ) R K G H J J H F Z F F K ) &.-.q.l.l.e.k.l.q.4.1.*.*.*.2.4.l.M.[.$X$X$X$X$X$X$X$X$X$X%XoXXXXX+XXXF.V.V.A.N.n.n.b.y.t.5.5.3.3.:.:.o.} G F m b v z 3 : : ; + + O O O . . O . . . .   .                   o   o                                                                                           ",
"o                                                                                                                                                                                                                         . .   . . . . . O O O ; 1 4 4 0 t B C C Z F E R ....*.*.-.:.>.<.4.4.4.<.2.2.o.*.1.4.0.k.p.l.w.7.7.<.1.*.1.*.&.-.=.=.=.=.=.! A M y 0 M B V Z A A ~ ! ! ! ! ! ! ;.! ;.r.r.8.r.;.@.;.r.I.{.{.9.Z 5 S 1.k._.k.9.9._.{.k.q.9.9.0.q.e.e.{.*X@X*X-X*X&X@X=X@X@X@X@X|.;X@X@X@X@X%X-X%X%X%X%X=X-X-X-X9X-X-XcXuXyXcXMXcXcXmXMXcXMXMXMXMXMXmXnXbXnXsXbXaXaXyXuX0XgX7XgXD.7XD.|.D.7X<X0XrXeXeXeXiXdXdXsXnXmXMXNXBXNXAXAXAXGXAXAXGXGXGXZXZXVXmXBXnXMXbXbXsXnXdXbXdXaXpXtXtXtXeX0X8X0X<X7XgXgXqXwXeXdXyXyXbXaXbXbXnXNXnXmXmXNXNXCXNXCXmXBXmXBXBXBXBXmXmXMXMXcXyXyXcXyXyXyXuXwX9X9X3X3X$X$XoXoX|.|..X.X.X.X|.D.m.C.C.B.V.N.V.[.}.[. X[.{.[.{.{.{.k.k.k.k.l.l.k.e.e.w.0.q.4.0.4.0.4.-.-.*.*.$.$.$.$...$.$.$.K K J L D F D D F K R $.=.<.e.k.k._.k.k.q.q.q.4.<.2.1.7.6.V.[.$X-X$X$X9X$X$X$X$X$XoXXX+X+XXXXXF.A.S.Z.Z.N.n.c.y.3.3.3.2.:.:.*.....R G m b b 5 5 3 : ; + O + O O O . . . . .         . .   .         o o                                                                                             ",
"            o                                                                                                                                                                                                 . .   . .   .   . . . % . . O O O + 4 4 2 9 q t V S Z J E R R ..%.*.*.:.<.4.4.4.4.2.2.2.*.*.1.7.w.p.k.w.w.q.4.<.4.1.*.&.&.=.1.=.=.=.=._ ! V M y M V C S A A J ~ ! ! ! ! ! ) ! _ r.8.9.r.;.$.;.r.Y.{.{.9.F z F 9.k._.q.&.=.k._._.q.0.0.0.e.e.e.{.;X*X@X@X=X@X=X@X=X&X@X X;X X}.}.@X@X%X-X%X%X@X%X@X$X-X-X9XuXuXvXuXcXcXcXcXcXMXVXMXSXnXMXMXmXnXMXbXnXbXdXdXdXdX0X0X7X7X X7X|.7XD.7X7X<X0X0XeXeXeXpXdXdXdXnXnXmXNXCXAXAXAXAXGXAXHXGXGXGXZXZXBXmXmXMXnXbXsXbXnXnXdXdXaXpXpXtXeXwX9X0X6X<X<X<XgX0XyXtXyXdXyXdXbXaXnXnXnXnXmXNXmXNXmXCXBXCXZXBXBXBXBXBXVXVXMXMXcXyXcXaXcXyXyXyXwX9X9X-X9X$X9X#XoX.X|..X.XF.F.V.C.m.C.C.M.N.B.V.V.[.[.[.[.{.N.{.M.B.k.l.l.e.w.q.q.q.e.q.w.0.4.4.<.4.-.-.-.*.&.%.$.&.$...$.$.$.K K K H G F D F G K ) &.-.q.k.{.B.{.B.M.k.w.w.w.7.7.4.z.l.B..X$X$X9X$X3X5X5X$X$X$XoXOX+X+XXXXXXXA.A.A.S.n.p.u.y.5.3.3.3.>.:.*.....G F m b b c c : : ; + + O O O . . . . . .   .         .   .   o   o o o                                                                                           ",
"                                                                                                                                                                                                                          o   . .   . . O . O O % ; 5 4 q q v v n Z F G R R ..&.*.:.2.:.2.4.7.4.2.2.1.*.O.2.7.w.w.M.l.q.q.7.7.<.<.-.*.1.-.-.=.=.=.=.=.! H M M M S Z H H ~ J J ! ! ! ! ! ;.;.r.r.r.0.r.;.;.=.e.{.;X{.q.R F E 9._.k.q.&._ q.{.{.k.q.9.q.e.e.{.{. X=X-X-X-X@X=X=X=X@X X}.[.}.@X}.|.@X%X%X%X%X@X@X-X%X=X-XuXuXuXuXuXuXcXMXcXMXcXVXmXmXMXMXMXMXnXbXbXbXdXbXsXyXiX0XgXgX7X7X|.D.D.D.7X#X<X4XrXqXeXtXiXdXsXsXnXmXNXNXBXAXAXAXAXGXGXGXGXGXGXZXCXVXmXBXMXnXMXbXbXnXnXdXbXaXpXpXtXeXeXqX8X<X8X<X0X<X0XwXtXyXyXdXdXaXbXnXbXMXmXmXmXmXmXBXNXCXCXBXCXBXBXBXBXBXmXMXcXbXcXaXcXuXyXyXyXyXuXuX9X9X9X9X#XoX|..XD.|.D.D.V.m.C.v.v.n.b.N.B.N.V.N.V.{.M.M.M.k.k.b.l.w.e.q.w.e.w.q.q.q.0.0.4.r.<.-.*.-.%.&.$.$.&.$.&.) ..) $.K K K J F F J J R &.1.0.k.{.{.[.{.{.B.k.w.l.l.w.z.7.l.C.D.oX$X9X$X$X$X5X$X5X$XOX+X%X+XXXXXXXF.A.A.A.N.n.n.n.t.3.3.5.2.:.*.X...| K G b b v z 5 3 ; ; + + + O O O . O . . . .   .                   o                                                                                               ",
"o         o                                                                                                                                                                                                   .         . .   .   . . . . O O O + ; 4 4 9 0 v v V F F E E G ..o.*.:.2.-.4.4.4.4.4.2.2.2.*.2.7.w.l.l.w.w.q.7.4.4.2.<.*.-.1.<.r.=._ r._ _ ! A V H A Z A H J H J ) ! ! ! ! ! ;.r.r.0.Y.r.r.;.r.e. X;X Xe.=._ 1.q._.k.j.&._ e. X;X{.e.q.e._.{.}. X@X@X-X-X@X*X=X@X&X@X@X@X}.@X@X@X}.@X%X@X@X@X%X@X%X%X=X9X-XuXwXuXcXcXcXcXMXMXMXMXVXmXMXMXMXnXnXbXbXaXaXaXaXaXtX0X<XgX7XD.7XD.|.D.7X7X<X0X0XeXeXeXiXsXdXnXnXNXNXNXAXAXAXAXAXGXAXHXGXGXGXAXZXBXmXBXMXnXMXbXbXbXdXnXdXaXaXtXeXwXwX0XuX<X4X0X4X0X0XwXyXyXdXyXyXaXbXdXbXnXmXnXmXmXmXCXNXCXNXCXBXBXBXBXBXVXBXVXMXMXbXcXbXyXyXyXyXyXuXuX9X9X-X$X$X@X.X|..XD.D.D.V.m.x.x.x.x.b.b.C.b.M.N.M.M.M.b.l.l.w.w.w.6.w.q.q.q.w.0.6.4.0.4.<.4.0.-.-.&.*.&.%.$.$.$.%.$...$.R K K J G J K R ) &.<.e.l._.{.|.{.B.{.B.k.l.l.M.w.w.l.B.V.|.#X3X3X3X$X5X3X5X$X1XOXoXoX+X+XXXXXXXA.A.A.S.n.p.u.u.t.,.3.2.>.:.X.o.G G G m b z c 5 : : ; + O O O O O . . . . .   .       .   .     o   o   o                                                                                           ",
"                                                                                                                                                                                                                . .   .   .   o . . o . . . O O $ , 4 2 9 0 v v S Z F E R R ..o.*.*.>.2.>.4.4.7.4.2.2.*.2.4.4.6.p.M.b.w.6.q.0.4.4.2.<.<.<.-.-.=.r.r.r.=.! ~ A A H Z H A A H J ) ! J ! ) ) r.r.Y.e.Y.r.;.0.0.{.;X X;X_.9.9.9.l._._.l.<.<._.*X-X@X_.e.e.{.[.;X&X=X-X*X-X=X@X-X@X@X@X@X@X|.@X[.@X|..X}.%X.X.X@X@X=X=X=X-X9X-XuXcXyXcXcXVXcXMXVXMXMXMXnXMXnXnXbXbXaXbXaXsXaXpXtX0X<X7XD.7XD.7XD.D.D.#X4X4XqXqXeXiXpXdXsXnXNXNXNXCXAXAXAXGXGXGXHXGXHXGXGXGXZXBXVXmXnXnXnXbXnXnXnXnXdXaXdXtXtXeXrX0X0X<X<X4X4X0X0XwXwXyXyXyXdXyXaXbXbXMXMXmXMXmXCXNXBXCXCXBXCXBXBXBXCXBXBXBXMXMXcXbXcXcXyXyXyXyXwX9X9X9X9X9X=XoX|..X|.D.A.D.m.C.x.x.6.y.y.x.p.b.b.p.b.w.p.w.w.w.w.z.6.0.q.0.7.6.0.w.q.0.6.4.4.>.<.4.-.;.&.%.&.&.&.&.$.$.$.R $.} J J G J K $.&.9.q.{.{. X|. X|.|.{.|.B.M.M.b.l.l.b.B.|.#X$X$X9X3X3X$X5X5X3X$X7XOXOX+X+XXXG.F.A.Z.S.m.n.n.p.y.5.3.3.3.:.*.X.....R G D b v z z : ; ; + + O O O O O . . . . . .                 o o   o                                                                                             ",
"                                                                                                                                                                                                                    .       .   .   . . . O O O % , < < 5 t y v S Z F J R G ..%.*.:.>.>.>.4.4.4.4.2.2.2.2.4.5.w.w.k.l.w.q.6.4.4.<.4.<.<.<.<.-.<.r.r.=._ ;._ ! ! A H A H A D A ) J ! ! ! ! _ r.Y.e.9.r.r.0.Y.{.;X&X{._.e.j.l.k.k.{._.l.j.[.-XvX-X{.k.k.{.@X@X@X;X@X=X=X@X@X=X=X@X=X@X@X@X@X@X[.[..X.X@X.X}..X@X%X$X-X9XwXuXyXyXyXcXMXMXMXMXMXVXmXSXbXbXsXnXnXaXbXaXaXsXaXdXtX0X<XgX7XK.].D.D.D.7X7X<X0XqXqXeXtXpXdXnXfXnXmXNXNXAXAXGXGXGXGXGXHXHXGXGXGXZXVXBXBXMXMXnXMXnXnXnXbXsXdXyXyXrXwXwX0X0X0X<X8XgX0XrXwXyXrXyXyXdXcXdXbXaXnXMXmXmXmXNXBXCXBXAXAXBXBXAXCXVXBXVXBXBXMXcXcXaXyXcXyXyXwXuXuX8X9X9X9X$X#X@X.X.X|.D.A.V.m.x.y.d.6.y.y.y.y.6.p.w.b.w.l.6.6.w.w.q.6.0.5.w.0.q.0.w.6.0.0.4.4.0.4.-.-.&.;.$.$.$.%.&.&.$.....) J G K R ) <.0.e.{. X X#X@X X{.{. X{.k.B.k.l.M.b.B.|.%X9X$X$X5X$X3X$X3X$X5X$X$X+X+XOXOX+XH.F.Z.m.S.m.n.n.y.u.3.3.3.3.:.*.X...R R F m b b z 5 3 : ; + + O O O . . . . . . .     .       . .       o   o                                                                                           ",
"o                                                                                                                                                                                                           .   .       . o . . . . . . . . O O + ; 4 4 4 q q v n S F J J R ..&.-.2.2.>.2.4.4.7.4.2.2.*.2.2.7.w.p.b.l.p.w.6.q.4.7.0.q.4.<.-.r.0.r.' =.=.r._ _ _ F Z A H H Z H K ) ~ ! ! ;.;.r.Y.0.0.r.r.e.Y.{.[.*X{._.l.l.l._._._. Xk.k. XuX-XuX@X{.{.;X@X;X@X@X X=X=X=X=X=X-X=X@X@X@X@X@X}.|.[.[..X[.[.|.@X@X$X$X-XuXuXuXuXyXcXcXMXMXVXMXMXVXmXMXnXMXSXnXMXbXbXsXaXdXaXpXtX4XgX7XD.K.7XD.D.G.|.<X4XqXqXqXeXeXpXsXsXNXNXSXmXAXAXAXGXAXGXHXGXHXGXGXGXGXZXVXBXBXmXMXnXnXnXnXnXnXdXdXdXpXyXwXwX0X0X0X<X<X<X0X0XuXrXyXrXyXyXaXdXaXaXnXnXnXmXmXmXBXNXAXBXBXBXBXAXBXBXBXBXBXBXMXMXMXbXcXcXyXyXuXwXuX9X9X-X9X$X#X#X.XoX.XF..XV.C.x.x.7.3.6.y.6.6.6.6.y.w.w.w.6.q.w.w.6.6.q.q.q.6.w.w.w.0.0.0.-.4.4.-.-.*.*.%.&.&.&.&.$.) R R ) ..K K ) &.<.e.k.{. X@X=X=X X X|.|.|.D.B.M.M.b.b.B.|.oX=X$X$X$X5X5X5X5X>X$X1XOX+XoXoX+X+XG.XXF.A.Z.V.n.n.p.y.t.3.:.3.,.:.*.X...G G G Z b x z 3 : ; ; + + O O O O O . . . .     .       .           o o                                                                                             ",
"                                                                                                                                                                                                                    . .   . o . . . . . . O . % @ , > < 5 9 v v Z Z F J E R ..&.*.>.2.2.>.4.2.4.4.2.2.2.>.2.6.w.p.w.M.l.w.w.7.6.5.0.4.4.0.0.0.r.r.=.=.-.9.=.&._ J A Z D F F A ) K ) ) ) ) =.9.q.0.r.r.0.e.Y.I.{.;X X_._.k.k._._. X_. X_.-XuXvXuX-X[.[.;X;X@X;X@X&X=X-X$X-X-X=X%X%X@X@X@X}.@X.X[.[..X|.}.@X@X#X=X-X9XwXuXuXyXyXcXMXMXMXmXMXVXMXmXmXMXmXMXnXbXbXdXdXdXdXdXdX0XgX7X7X|.|.G.D.D.G.oXOX3X8XqXqXeXpXpXpXsXNXmXNXCXAXAXGXGXGXGXHXHXHXGXHXGXAXZXZXBXBXmXmXNXnXmXnXnXsXaXdXiXrXrXrXrX0X4X6X<X6X<X6X0XrXrXeXeXtXtXyXyXdXsXbXbXbXnXmXmXCXCXNXCXCXZXZXVXAXZXCXCXBXBXMXMXMXMXbXaXyXyXuX0X9X9X9X9X9X$X$X#X%XoX.X.X.XV.C.x.y.6.y.6.6.y.6.5.5.6.w.w.w.6.0.w.w.6.4.q.w.q.q.6.w.0.w.0.4.0.4.<.*.*.%.&.&.$.$.&.$.$.R R R ..R K R &.=.q.{.{. X*X=XuX=X X XB.|.{.B.k.l.b.l.M.B.|.oX#X$X1X$X>X1X1X>X>XOX,X,X+X,X+X+X+XH.H.Z.Z.m.Z.n.c.c.y.y.3.,.3.,.:.X.X.| K G F m b l z 3 : ; ; ; + O O O O . O . . . .         .     .     o                                                                                                 ",
"            o                                                                                                                                                                                                                     . . O O . O O @ $ , 4 4 q q t S C F J K K ..*.-.<.-.2.2.4.4.2.4.3.>.4.2.4.6.p.l.p.b.p.p.w.q.6.q.q.w.0.0.0.0.r.-.<.r.9.9.r.=.) J J D S D S J E ! E E ) ) _ r.0.0.r.r.r.e.e._.{. X{._.{._.B.{.|.*X*X X{.=XuX-X-X@X X X@X@X@X@X@X@X=X=X=X=X$X%X=X@X%X@X@X}.@X}.[.[.[.[..X.X@X=X3XuX9XuXcXuXcXyXcXMXMXcXVXMXBXmXBXMXMXMXnXnXMXbXbXvXdXdXdXdXrX<X<X7XoX7XD.|.G.oXoX#X4X9XqXwXeXtXpXdXnXnXmXCXCXAXAXAXGXHXGXHXHXHXGXJXGXGXAXVXCXBXBXmXnXmXnXnXnXsXaXdXtXrXrXrX0X0X4X6X<X<X6X<X6X6X0XeXrXrXwXrXpXdXaXbXbXMXbXMXnXBXCXCXBXCXCXCXAXAXCXZXCXBXmXVXMXMXMXbXcXyXyXyXwXwXwX9X9X=X$X3X3XoXoXoXoX.XD.m.x.6.6.6.3.6.7.6.4.7.6.w.6.6.q.w.w.w.0.q.7.4.w.6.0.0.q.4.4.4.4.4.<.-.*.;.;.&.$.$.$...$...R R R $.$.*.<.q.k.{. X X=X9X=X#X#X|.[.B.B.b.l.l.w.z.b.B..XoX3X<XOX7X1X1X>X>X>X,XOXOX+XG.+XG.G.H.H.F.m.n.S.m.c.y.y.t.3.+.3.3.:.:.X...K G F b b k z 2 : ; ; + + O O O O O . O . .   . . .             .                                                                                                   ",
"o                                                                                                                                                                                                                       .   . . . . . . . . O O @ , 6 9 9 q q v v C S J J R ) *.*.2.-.2.>.4.2.4.3.4.2.2.3.4.6.w.b.M.M.b.l.w.6.7.w.0.q.0.0.0.0.r.r.r.r.9.9.9.1._ E F Z Z Z F F E ) E E ) ) =.=.<.r.=.=.0.q.e._.{. X{.{._.k._._. X{. X X X@X-X-X=X-X X;X X@X[.%X-X=X=X-X-X=X-X=X@X@X@X@X@X@X.X@X|.A..X}.[.@X%X=X9X-XuXuXyXcXcXcXcXMXMXmXMXMXBXmXVXmXMXMXMXbXbXaXbXdXdXdXpXdXrXgX<X7X7XD.D.D.D.|.oX1X5X9XqXqXeXpXtXdXsXmXmXBXBXAXAXGXGXGXGXGXHXHXHXJXJXGXGXVXCXBXBXmXmXnXnXnXsXsXsXtXrXrXrXrX6X0X6X6X<X2X2X6X0X0XrXeXeXeXeXtXtXdXdXcXdXdXMXMXnXmXCXmXmXCXCXVXAXZXCXZXCXBXBXBXmXMXMXbXcXcXdXyXwXtX0X9X9X9X9X9X$X1X#XOXoX.XD.m.b.x.6.6.6.y.6.6.7.4.6.6.6.w.w.q.w.6.4.0.0.q.0.0.q.0.7.4.4.<.-.-.-.*.&.&.$.$.....$.$...R R ..&.&.-.0.l.{.{. X X*X=X=X=X X X XB.C.l.z.7.6.6.6.b.B.|.#X3X2X1X1X1X1X5X,X>XOXOX+X+XG.+X+XG.H.H.Z.Z.n.Z.n.u.y.y.6.+.3.:.:.:.X.X.} G G G D b z 0 3 : ; ; + O O O O O O O . .   . .         .   .                                                                                                       ",
"                                                                                                                                                                                                                    .     . o   . o . . . . O O $ @ , 4 9 t v v v n Z F J K ..&.-.*.>.2.<.2.4.2.4.3.2.3.2.4.w.p.k.p.b.b.b.6.6.q.6.w.w.q.0.q.q.q.<.9.9.0.q.9.r.) E J Z Z C Z F J J J J K ) _ =.1.=.;.=.r.Y._._.{._.{.{.k._.B._.{._.{.{. X X*X=X@X-X-X@X@X=X@X%X-X-X-X=X=X%X%X=X@X@X@X@X@X%X}.|.}.[.[.|..X@X#X=X9X9XuXcXyXyXcXyXcXMXMXMXVXBXMXBXmXmXmXnXnXbXbXcXdXdXdXyXdXrX0X2X7X7X|.D.7XG.D..XoX$X9X9XqXwXeXtXpXaXbXnXmXmXCXCXAXGXAXHXGXHXHXHXHXJXGXGXZXZXBXBXCXmXmXnXNXnXnXsXpXpXtXiXrXrXrX0X6X6X6X<X4X6X<X6XrXeXwXeXeXrXtXyXdXdXdXcXdXMXnXmXNXBXCXBXCXCXCXAXCXZXCXBXBXBXBXBXMXbXbXbXyXyXwXwXwXuX9X9X9X9X3X#X$X$X%XoXF.V.C.b.b.b.w.x.y.w.6.6.6.7.w.q.6.6.6.q.0.7.7.4.7.4.4.5.q.4.<.4.*.*.*.$...$.....$.R ....R ....&.&.<.4.e.M.{. X@X=X@X@X X#X X[.B.C.l.7.w.6.6.z.l.l.D.oX#X3X3X1X5X5X5X,X,X>X,X+X,XOX+XG.G.H.H.H.Z.m.n.n.n.c.y.y.t.3.:.3.3.:.:...| G G F b v z 7 : ; ; + + + O O O O . O O . .       .                                                                                                                 ",
"o                                                                                                                                                                                                                     .   o .     . o . O . O O % $ , 4 9 q v t B n S F J K ..&.*.<.>.4.2.4.2.4.3.4.3.2.4.5.6.p.b.b.M.b.b.w.6.w.0.w.w.q.q.q.q.q.q.9.9.0.9.9.=.) J J F C C Z Z F E K J E E ) =.&.=.=.=.9.e._._._.{._._.e._._.{.{._.{._.{.{.*X@X=X-X@X@X-X$X-X-X-X9X-X-X-X-X@X@X@X@X}.@X.X.X@X@X.X|.[.[.@X X#XuX9XuXyXcXyXaXcXbXcXVXcXMXVXmXMXmXmXmXMXbXbXbXbXbXdXdXdXdXdXdXrX<X7X|.D.D.D.7XD.G.oX1X8X9XwXeXeXpXaXdXnXmXNXCXBXAXAXAXHXGXHXHXHXHXHXJXGXGXGXZXCXBXBXmXmXmXnXnXnXsXaXpXiXiXrXrXrX6X6X6X4X2X2X4X4X6XqXwXwXwXeXtXtXyXdXyXdXvXdXbXMXMXNXBXNXNXAXBXBXAXBXZXBXBXBXBXBXBXmXbXcXdXyXyXrXyXuX9X9X9X9X4X3X$X$X1X$XoX.XV.V.M.M.b.x.b.b.p.w.w.6.6.w.w.4.q.q.6.q.7.4.<.4.<.4.<.2.<.<.1.*.*.&.&.$.$.$.o.$.$.$.&.$...&.*.4.q.w.{.{.;X@X@X#X#X X X@X|.{.l.l.7.7.7.6.z.6.l.B.|.oX<X3X5X5X5X5X5X1X,X,X>X>X+X+XG.+XG.H.F.A.A.Z.n.c.x.y.x.u.6.3.+.3.,.O.%.X.| G F F b x z z 3 : ; ; + + + O O O . O O . .   .       . . .                                                                                                         ",
"          o                                                                                                                                                                                                 o       .         . . . . . . . O O @ $ , < 9 q q v v C n F G E ..&.-.:.*.2.>.>.2.4.7.2.4.5.5.7.6.w.w.b.M.M.b.b.l.w.w.w.w.w.e.q.e.e.e.q.e.q.q.9.1.&.R E F D Z Z Z F J J J K R ) ) ) ) =.r.9.q.e.k._._._.k._._.{.{.{.{._._.k.{. X=X=X@X*X@X-X-X-X-X-X-X-X9X-X=X@X@X@X@X@X[.@X@X@X@X@X}..X@X@X@X#X-XuXuXuXuXcXcXcXcXMXMXMXMXmXMXVXmXmXmXnXbXbXdXdXaXaXyXdXyXpXdXrX<X<X7X7XD.7XD.D.D.7X3X3XqXqXeXeXtXpXdXbXnXmXNXAXZXAXGXGXHXGXHXHXHXHXHXHXGXZXVXCXBXBXNXmXnXnXnXsXsXdXdXiXrXrX6X6X6X6X2X6X4X2X4X4X4X8XqXqXeXeXeXeXrXtXdXdXdXbXdXbXmXmXmXmXmXNXBXCXBXBXCXBXBXBXBXBXBXMXSXdXvXyXyXyXwXwXwX9X9X9X3X3X#X1X$X$X#X.X.XV.V.m.m.B.C.V.N.C.b.l.b.l.w.w.q.6.w.w.0.4.4.<.4.4.<.<.<.*.*.&.*.-.%.&.*.$.&.$.%.&.&.*.&.1.q.e.e.{.{.[. X X X@X X|. X|.{.B.l.z.q.7.7.q.6.l.C.B.|.#X3X4X9X6XqX5X5X5X>X,X>X+X+X>X+XG.G.G.H.F.Z.Z.n.c.c.y.u.6.y.3.3.,.3.:.X.X.G G G F b l z 0 < : ; ; + + O O O O O . O . .     .             .         .                                                                                           ",
"            o                                                                                                                                                                                                         o .   .   . o % . . . O O + @ 6 4 9 8 q v v V S F F K R $.-.*.:.<.2.<.2.4.3.2.3.4.3.5.6.w.b.b.C.M.M.M.l.p.w.w.w.w.k.e.e.e.e._.Y.q.q.9.=.=.$.) E J F n Z S J J J J J E ) _ =.=.=.r.9.Y.Y.e.e.Y.q.Y.k.{._._._._.k.{.{. X*X@X=X-X-X-X-X-X-X-X-X9X-X9X-X@X@X@X@X|..X@X@X%X@X@X#X@X%X#X$X-XwXuXuXyXcXyXcXbXcXMXVXVXMXMXBXmXBXmXmXnXbXaXbXaXbXdXdXdXrXdXrX0X8X7X].K.D.D.7XD.7X7X1X4X9XwXeXtXpXpXdXMXnXNXCXZXZXAXGXHXGXHXHXHXHXHXGXJXGXZXZXZXBXCXmXmXmXnXnXnXsXaXpXiXeXqXqX6X6X2X6X2X4X2X2X4X0X6XqXqXwXrXtXtXiXdXyXdXyXyXbXbXnXmXmXmXmXSXCXmXCXAXCXCXCXCXBXBXBXMXbXdXyXyXyXrXyXyXtX9X8X9X8X3X<X1XOX$X$XoX.XD.V.V.V.[.D.[.|.V.B.B.M.B.M.l.l.w.l.l.w.w.q.7.7.<.4.4.-.1.&.-.-.1.-.1.-.-.*.-.-.4.<.4.<.q.e.M.{.{.{. X@X X X[. X{.{.B.B.b.z.q.7.7.7.6.w.M.|..X#X3X9X3X6X5X5X5X5X2X5X,X>XOX>X+X+X+XH.G.H.H.Z.Z.n.c.x.y.y.y.3.3.3.,.:.%.O.X.R G G D m x z 0 3 : : ; ; + + O O O O . O . .     .           .         .                                                                                             ",
"o                                                                                                                                                                                                                   .     . o     . . . . . . O % $ , 4 4 q q k v V Z A F R ) o.*.*.-.2.4.:.2.3.4.4.4.2.7.4.6.w.p.b.M.V.M.M.b.b.l.w.w.w.e.k.k.k.e.e.e._.e.q.9.1.=.&.) E F F F Z Z F F J J R ) &.$._ =.=.r.9.q.q.0.q.q.q.k._.{._.k.k.l.k._.;X@X-X@X@X-X=X%X-X$X-X-X-X-X-X%X@X[.@X}.|.@X@X@X%X%X$X%X$X$X-X9X-XuXyXyXyXyXcXcXbXMXMXMXMXMXVXmXmXmXmXnXnXbXaXaXaXyXaXdXdXyXiXdX0X<X7XK.D.D.K.D.D.D.7X3X8XwXwXeXtXpXsXdXnXnXmXCXCXZXZXAXGXHXAXHXHXHXHXHXJXGXZXZXCXBXBXNXmXnXnXnXsXsXsXpXiXiXrXqX6X6X2X6X2X4X2X2X4X4X4X8XqXwXrXtXpXpXpXdXyXdXdXdXnXnXMXMXmXmXmXmXBXCXmXZXCXCXCXCXVXCXmXMXcXbXyXuXdXyXyXtXwX9X5X3X<X1X3X$X$X$X#X#X.X.X|..XV.|..X.X[.V.V.B.B.B.M.M.M.M.l.l.l.q.6.q.q.q.4.7.4.4.4.4.q.7.4.4.0.4.0.q.q.w.e.w.k.{.{.{. X[.[.@X|.[.|.|.|.[.B.k.z.7.z.7.7.7.z.C.B.@X#X$X3X8X4X9X6X6X6X5X6X5X5X>X>X,X>X+X+XG.H.H.H.A.m.v.c.u.u.3.y.y.+.3.3.O.O.X...| G L D b v l 7 1 : ; ; + + O O O O . O . . . .       .   .                                                                                                           ",
"                                                                                                                                                                                                                    .       .     o . . . % % . % + @ 6 4 5 q t v S S F E J R &.*.*.<.2.4.2.5.4.5.7.5.7.5.7.6.p.b.b.b.N.N.C.b.b.b.w.w.b.e.k.k.e._.k.k.e.k.q.9.0.<.1.=.) R F Z F F S H J J E E ) ) ) ) ) r.9.9.9.<.9.9.q.e._._._.k.k.Y.k.{. X@X-X=X=X=X-X@X@X@X=X-X-X-X%X@X@X}.[.@X[..X@X@X#X%X-X=X-X9X-X9XuXyXuXyXyXcXcXcXbXcXMXVXMXMXmXBXBXmXNXNXbXdXdXyXaXyXdXpXeXpXiXeX0X<X7XoX7XD.G.oXD..XoX1X8XwXwXeXtXpXsXdXnXmXCXCXAXAXAXAXHXHXGXHXHXHXJXHXHXGXZXZXBXBXmXNXmXnXmXnXsXaXdXpXiXrX6X6X6X6X5X2X2X,X2X5X7X4X4X4X0XrXeXtXpXpXdXtXtXtXaXsXnXbXnXnXNXmXmXmXNXBXNXCXCXCXCXCXBXBXBXMXMXbXaXyXyXyXyXwX9X8X8X3X3X<X1X1X$X1X$XoXoX.X.X.X.XoX@XoX@X.X@X|.|.|.[.[.B.{.B.k.k.l.l.l.q.l.l.q.6.q.q.q.w.l.e.w.l.e.k.M.M.M.{.{.{.[.[. X}.@X@X@X|.[.|.[.B.V.B.M.w.7.z.w.6.l.B.D.oX#X9X3X9X9X9XqXqX6X5X6X5X5X5X1X5XOXOX+XG.G.G.XXH.A.S.J.c.y.y.u.t.t.3.3.,.:.%.X.} | G D m b x c 7 1 : ; ; ; + + O O O O O O . o .   .   .     .                                                                                                         ",
"o           o                                                                                                                                                                                                       .   .     . .     . o % % X % % @ , < 4 9 y v Z S F J F R o.&.*.-.2.4.2.:.2.5.3.5.5.7.5.6.w.l.b.M.M.B.C.M.l.M.M.b.l.k.M.k.M.a._.{.k.k._.k.q.q.9.<.&...E E F F D F F J K R ! E ) J _ =.r.<.9.<.9.r.9.e._.e.Y.Y.q.q._._.{.;X X@X&X@X@X@X&X@X@X%X$X-X%X@X@X@X@X[.@X|.@X@X%X=X$X-X9X9X9X-XuXuXcXcXyXcXyXMXcXMXMXMXVXMXVXmXBXNXnXnXsXdXyXdXdXyXdXtXtXeXtXrX6X<X<X7X|.G.|.G.D..XoX$X8XwXeXeXtXaXsXnXnXNXNXNXAXAXGXAXGXGXHXHXHXHXJXHXJXJXGXZXBXBXBXmXmXmXnXnXnXsXdXpXeXiXrX6X6X2X2X6X2X6X5X2X2X2X4X4X0XrXeXiXdXrXrXdXaXtXaXaXaXsXnXnXmXnXmXBXmXmXBXCXBXCXCXCXCXBXBXmXMXMXcXbXyXtXtXtXeXwX9X4X3X<X<X<X#X$X1X$X#XoXoX#X$X#X#X#X#X#X#X@X#X@X@X|. X[.[.{.B.B.M.k.M.l.k.M.k.M.k.M.k.{.{.k.{.B.{.{.{.[.{.[. X@X@X@X@X=X%X@X@X|.[.[.[.[.B.C.b.l.M.C.B.B.D. X#X3X9X3XqX9X6XqX5XqX6X5X6X6X5X5X>X>XOX+XG.G.H.H.H.H.Z.S.n.c.u.t.t.t.3.3.+.,.O.%.| } G D D b x k 7 3 : ; ; + + + O O . O O . . o     .     .                                                                                                             ",
"          o o                                                                                                                                                                                                 o   o       o o   .   o . . . % % O O @ , , 4 9 q v v n E E E E o.%.*.*.2.4.>.4.2.3.4.6.6.6.6.6.b.p.b.C.M.M.M.M.b.M.b.k.M.k.p.k.k.k.M.k.k._.M.k.k.k.q.9.<.&.) R J F D F F J J J K E J J ) _ =.=.=.=.=.r.r.q.e.e.9.q.Y.q.k._.{.{. X[. X X[.{.[.[.[.@X@X@X}.@X|.@X X[.@X@X@X%X#X$X$X-X9X9X-X-XyXcXyXyXcXcXcXMXMXVXMXmXMXmXMXBXmXmXmXnXdXyXdXpXpXpXtXeXiXeXiXrXqX2X7X|.7XoXG.|.F..XoX3X8XwXeXtXpXsXsXnXnXSXNXBXZXZXGXGXHXGXGXGXHXHXJXJXHXGXGXZXVXBXBXmXmXnXnXnXnXaXdXpXeXrX6X6X6X6X2X2X2X2X2X1X<X2X4X4X0X0XeXtXpXpXdXtXtXpXaXaXaXnXnXnXnXnXmXmXmXmXmXAXBXCXBXCXCXVXBXmXSXMXbXbXyXyXyXtXwXwX9X8X3X<X1X7X7X#X7X$X$XOX#X3X<X$X9X9X$X$X$X9X-X$X$X#X#X X|.|.k.B.B.B.B._.{.{.B.[.{.[. X[.[.{.[. X;X;X X X@X@X@X@X@X@X=X$X$X#X.X.X[.[.V.[.V.V.M.C.M.B.V.|.%X$X$X9X9X9X9X9X4XqX6X6XqX6X6X5X5X,X>XOX>X+X+XG.G.H.H.H.A.Z.c.u.y.y.6.3.t.3.,.O.,.:.#.} L D D b x c 0 1 : ; ; + + O O O O O . . . . .             .                                                                                                         ",
"o                                                                                                                                                                                                       o       o     o   o   o   .   . o o X % % O + @ , , 4 q t v v S F F R ..&.&.*.2.4.4.2.3.3.5.6.6.6.6.6.w.b.M.b.C.C.M.C.M.b.M.C.k.k.l.M.e.k.k.k.M.M.e.k.k.k.k.l.q.<.=.R J F S Z F J J J J F J J J R _ &.&.=.=.r.9.9.9.Y.e.q.q.q.Y.e.k.{.{.{.B.{.{.{.M.{.{.[.[.[.[.[.}.[..X|.|..X@X#X#X-X-X$X-X9X9X9XuXuXyXcXyXcXcXMXMXMXMXmXVXmXBXmXNXNXmXbXdXyXrXeXeXtXtXeXeXeXeXeX6X2X7X7XD.D.oXG.D.G.#X<X0XeXeXtXpXaXaXnXnXnXNXBXCXGXAXAXGXHXHXHXHXHXHXHXGXGXGXZXCXBXBXmXNXmXnXnXsXdXdXpXiX6X6X6X2X2X2X5X5X1X5X1X1X7X2X4X0X0XrXtXiXpXiXtXiXtXpXaXaXaXaXnXnXnXnXmXmXNXmXNXBXCXAXCXCXCXBXmXmXMXMXbXaXbXyXyXwXwXwX8X<X<X7X#X7X7X7X1X$X1X$X$X3X9X$X9X9X9X=X9X9X9XuX=X=X#X X{.|.{.[.|.[.|.|.{.|.[. X X X X X X@X@X X@X@X@X@X@X=X%X%X=X-X-X-X-X@X.X[.[.V.V.V.V.N.C.V.[..X#X$X=X9X3X9X9XqXqX8X5X9XqX6X6X6X6X5X5X,X>X$X,X+X+XH.H.H.H.A.Z.n.c.y.t.u.t.t.3.3.,.:.X.| | F D D x x l 7 3 : : + + + O + O O O O O . .     . .   .       .     .                                                                                               ",
"                                                                                                                                                                                                              o       o   o       .   . . . X . % O O + ; + < 9 5 v v S n F G R $.o.*.2.4.2.2.4.7.6.6.6.6.p.w.y.b.M.b.C.M.C.M.b.M.C.M.b.M.e.k.k.k.k.k.k.k.k.k.B.{.k.k.l.q.1.&.) K J J F J J J J A F F J K ) ) =.=.=.&.=.r.q.e.0.0.r.9.0.e.e.k.k.k.k.e.M.w.k.M.M.N.{.{.[.[.[.|.}.@X@X@X@X#X#X#X#X=X9X9XuX9XuXyXcXcXyXcXbXMXMXVXMXVXMXmXmXmXmXmXnXdXyXyXrXrXtXtXrXiXrXrXeXrX6X7X7X7X|.G.G.G.F.oXOX<X0XyXtXpXpXsXaXsXmXmXBXCXZXZXZXGXHXGXGXHXHXHXJXHXGXGXAXZXCXCXBXBXmXmXnXnXsXdXdXiXrX6X6X,X6X,X2X2X5X,X,X>X<X7X4X4X4XrXrXiXiXdXiXeXtXtXpXaXaXsXsXsXnXnXnXmXnXmXNXNXAXBXBXCXCXVXCXBXBXNXMXbXbXyXyXyXyXeXwX8X<X<X7X7X7X7X7X>X$X1X$X3X8X3X8X3X9X9X$X9X9XuX9X9X=X#X@X X|.{. X@X|. X X X X@X X@X@X=X X@X@X@X=X=X@X@X=X-X$X-X-X-X9X-X-X$X%X[.A.V.V.V.[.V.B.V.[..XoX$X9X9X9X5X9X9X9XqX8XqXqX6XqX6X6X6X5X5X>X>XOX+X+XG.H.XXH.H.A.S.J.x.u.u.t.3.3.3.,.O.:.X...| L D m x x z 7 3 : ; ; + + + % O O . O . . . .       .                 .                                                                                             ",
"                                                                                                                                                                                                  o o     o   o   o   o o   o .     o . o . % . . O O O + + 4 9 t 5 v v S n F G ....&.2.>.4.>.2.3.6.p.6.6.p.b.b.M.C.M.N.M.N.C.M.B.M.C.M.l.b.p.l.w.k.e.k.k.k.M._.{._._.k.q.9.=.=.) E J J J K J J D F Z F J ) ) ) =.=.=.r.r.9.9.0.r.0.r.0.0.e.e.e.k.e.k.e.w.w.w.M.M.a.N.{.N.[.[.[.|.[..X@X#X#X#X%X$X-X-X9X9XuXuXcXcXcXcXbXMXMXMXMXmXVXVXmXmXmXMXnXIXdXrXrXwXrXeXeXrXrXrXrXrX6X7X7X7XD.|.D.|.G..X#X<X9XeXtXtXpXaXaXnXnXmXCXBXCXZXZXAXGXHXGXHXHXHXJXJXGXGXGXZXVXBXBXmXNXmXnXnXbXdXdXrXrX6X6X2X,X,X,X,X5X2X5X2X2X<X2X4X4X0XiXyXiXtXtXiXdXpXpXpXsXaXaXaXaXbXnXnXmXmXmXmXCXBXAXCXCXCXBXBXBXBXmXnXMXMXbXyXyXyXuX8X<X7X<X|.oXoX7X1X>X1X5X3X4X8X3X9X9X9X9X9X9XuX9X9X-X#X@X@X|. X|. X X X#X#X X#X#X=X#X@X=X@X=X#X-X=X#X=X-X-X$X-X9X9X-X9X$X$X#X.X[.V.[.V.[.V.V.[..XoX#X$X9X9X9X9X9X9XqXqX4XqX9XqXqXqX6X4X2X>X5X>X,X,XG.G.G.H.H.A.A.Z.v.x.u.6.t.3.t.3.,.,.O.%.X.G L D P x l l 7 : : ; ; + + + O O O O O O . .   . .     .   .                                                                                                         ",
"o         o                                                                                                                                                                                         o     o     o o       o         .   . % X % % O O O + + > 4 5 z v n n C F E R ..%.:.4.2.2.5.5.y.p.6.6.p.b.p.b.M.C.C.C.M.b.C.C.M.C.k.M.l.k.M.l.e.k.q.q.k.B.{.{.{.{.k.k.q.0.<.=.$.R R K K J J Z A F A J ) ) $.$.=.=.;.-.0.0.0.0.<.r.0.0.0.q.q.w.l.e.l.w.w.w.w.e.M.a.M.N.N.[.[.[.[..X#X@X#X#X=X#X-X9X=XuXyXcXyXbXbXcXMXMXMXVXMXVXmXMXmXmXmXmXbXdXrXgXrXrXrXrXeXrXrXrXiX6X7X7X X7XD.G.D..XD..X$X3XwXtXeXtXpXsXsXnXnXmXCXCXBXZXGXGXHXGXGXHXHXHXHXHXGXGXAXZXBXBXCXmXNXmXnXnXfXdXdXiX0X6X7X2X2X,X,X7X7X>X2X2X>X<X4X4X6X0XrXeXiXeXpXpXeXeXpXpXpXsXaXaXsXaXnXnXnXmXmXBXBXCXCXAXCXZXCXCXCXCXmXmXnXSXdXyXyXeXwXrX<X<X XoXoX7XoXOX>X1X2X3X<X<X8X9X9X9X9XuXwXwX9X9XuXuX#X X@X@X X@X X X@X@X#X=X=X=X=X=X#X=X@X=X%X=X-X#X-X-X9X$X-X-X-X-X9X%X%X.XV.V.[.S.V.V.V.A..X%X$X3X$X5X9X9X9X5X8X8X8X4XqX6XqX6X6X5X2X5X>X,X+X+X+XG.H.H.H.H.Z.A.n.x.x.y.t.t.3.3.,.,.O.X.| G L D b x x l 3 3 : ; ; ; + + O O . O O O . .               .   .                                                                                                     ",
"                                                                                                                                                                                                o           o         o   o o     o   . o . X o % % O O + + > 5 t v v v v b D F R ..o.<.4.5.4.2.7.w.w.y.w.b.b.b.N.C.N.M.N.C.b.b.C.B.M.M.b.M.M.k.M.k.k.e.w.l.k.k. X X[.{.k.k.q.q.<.=.&.) ) ) R J F F F H F J ! ) ) ) ) $.=.=.r.r.=.-.=.-.=.<.0.0.q.e.e.w.w.e.w.k.p.b.k.M.M.{.{.[.[.[.|.@X#X@X#X#X#X=X-X9XuXuXyXcXbXcXMXMXBXMXMXBXBXBXmXBXmXmXnXdXdXdXrXrXrXrXeXrX6XrX6X6XrX<X7XG.7X7XD.D.F.F.oX$X4XwXeXtXyXaXsXsXnXmXNXCXVXBXZXGXGXAXHXHXGXHXHXGXJXHXJXGXZXZXBXBXBXmXnXnXbXyXdXfXrX6X6X7X7X,X,X,X1X>X>X,X3X>X2X<X4X4X0XrXeXpXiXiXeXtXiXpXpXpXaXsXaXaXsXnXnXnXnXNXNXBXBXCXVXAXBXCXCXCXCXCXmXnXdXMXbXaXdXrXuX<X<X7XoX7XoX7XoX7X7X1X4X3X3X8X9XwX9X9X9XuXuX9X9X9X8X=X#X#X X#X#X#X#X#X=X=X=X=X9X=X-X=X*X@X#X=X=X%X$X=X-X9X-X9X-X$X-X$X%X@X|.V.N.V.V.N.V.V.|..X@X$X5X9X5X9X$X9X8X3X5X9X8XqXqX6X9X5X5X2X5X>XOX,X+XG.+XH.H.H.H.A.Z.n.x.u.u.t.u.3.3.,.:.,.%.%.| L D P x x z 5 : : ; ; + + + O O O O O . . .   .   .   .                                                                                                             ",
"          o                                                                                                                                                                                                   o     o o   o o       .     . . o . O O + + + , 2 9 v V C v b D F R ..*.:.>.4.3.>.5.y.y.p.p.p.b.b.b.C.C.V.m.b.b.b.M.b.C.M.M.M.M.l.l.M.k.l.l.e.k.{. X@X X{.M.k.k.l.q.0.<.-.&.&.&.R R F J F G E R R R ) $.&.=.=.;.-.=.=.-.-.-.<.<.0.0.q.w.w.w.w.e.w.k.a.M.M.M.{.V.{.{.[.[..X=X$X$X-X$X=X9X=X9XuXyXaXbXbXMXmXBXMXMXBXBXmXCXmXmXmXsXaXyXrXgX0XrXrXiX6X6X6X6X6X6X7X7XoXD.D.D.G.D.G.oX2X8XqXeXpXtXpXaXnXnXmXBXCXBXVXZXGXGXJXGXHXHXHXGXHXHXAXGXAXGXZXZXVXmXmXnXbXaXsXeXeXrX6X7X<X7X7X>X>X>X1X,X2X1X2X2X4X4X0X0XtXiXiXtXiXiXiXiXiXiXpXpXfXdXdXdXsXnXbXnXmXNXNXCXAXNXCXCXAXCXCXCXNXmXmXnXnXbXaXyXtXuX4X<X<X7X7X7XoX7X7X7X7X4X<X6X6X6X4X8X0X9X9X9X9X9X-X9X-X$X3X=X#X=X#X@X#X=X=X=X9XuX9X-X9X@X#X=X#X#X=X=X#X=X$X9X-X$X-X#X@XXX.X.XV.V.B.V.[.V.V..X.X$X$X$X3X5X9X3X3X5X5X4X2X8X5XqXqX4X6X2X2X>X$X+X+X+XG.H.H.A.H.A.A.Z.S.J.u.u.t.t.+.3.,.O.:.X.| } L m b x x z 7 1 : : ; + + + + O O % . . . o   .                   .                                                                                                 ",
"o                                                                                                                                                                                                               o   o   o o o     o         o o . . . O O + ; < 9 q v v v b n F R R o.*.2.5.2.5.5.5.w.w.p.b.N.b.N.N.V.V.B.C.C.b.M.C.l.b.l.C.M.B.k.M.B.M.k.l.{.{. X@X=X X{.{.{.M.k.k.q.0.0.<.-.*...R R R R R R R R ) ) &.&.&.=.=.&.&.=.-.-.<.-.<.4.0.0.0.w.e.w.w.e.k.a.a.M.B.{.{.B.{.|. X@X$X-X$X-X9X=X9XuXyXyXcXcXMXMXMXMXmXBXmXBXmXNXNXmXnXnXaXdXrXiX6XrX6X6XiX6X6X6X6X<X7XoXoXoXD.D.G.D.G.oX2X8X0XtXtXtXaXaXnXnXBXCXBXCXCXZXGXGXGXHXGXGXHXGXHXHXGXGXGXGXGXZXCXmXmXnXnXaXaXtXeXrX6X<X7X2X7X7X<X>X1X2X>X1X2X2X4X4X0X0XtXtXtXdXrXiXiXiXiXiXiXpXiXdXdXdXsXsXnXnXmXmXmXBXBXBXBXCXCXZXCXNXBXNXNXnXbXaXaXpXyXrX0X<X<X X7X7X7X7X7X2X7X6X<X<X6X4X6X0X0X9XqX9XwX9X9X9X$X$X=X=X#X#X#X#X#X#X=X9X-X9X-X-X9X#X#X@X#X#X#X#X$X$X=X$X$X#X#X@X%X@X}.[.[.V.N.V.V.V.|.F.@X%X$X$X5X5X5X3X5X5X3X5X3X5X5X5X5X5X4X2X2X>XOX+XoXoX+XXXXXH.H.H.S.S.J.J.u.u.u.t.3.3.:.O.O.X.%.G L D P x x z 7 1 : 1 ; ; ; > + % O % % % o . .       .   . .         .                                                                                               ",
"            o                                                                                                                                                                                               o     o o o o   o       o   o   o . . . . O O + ; 4 9 t v v v v Z F G R %.-.4.4.5.2.3.5.y.p.b.b.n.N.N.C.C.N.n.C.C.N.C.C.l.C.b.b.l.M.l.B.M.B.k.k.{.[.=XuX-X@X X;X[.{.{.{.k.e.e.e.q.<.&.&.&.....R R R R R $.$.&.&.&.&.&.=.$.;.*.<.<.-.4.<.7.0.e.w.w.M.M.M.M.M.M.B.B.B.B.{.|.@X%X=X$X=X9X$X-X9X9XuXyXcXbXbXMXMXBXMXmXBXBXNXNXNXnXnXaXsXiXrX0X0X6XrX6X6X<X6X6X7X7X7XoXoXoXD.D.D.F.G.oX1X8XqXeXtXpXpXaXnXmXmXBXCXZXZXAXGXGXHXGXHXHXGXHXHXHXGXGXGXZXGXVXVXCXmXnXnXaXdXeXrXrX<X7X2X7X7X7X>X1X>X>X2X2X7X2X2X4X0X0XrXtXrXtXiXiXiXiXiXiXiXdXdXdXdXdXsXsXnXnXnXmXmXmXBXBXmXVXCXCXCXNXCXCXmXnXnXnXaXaXyXwXuX8X<X<X7X7X7X7X7X7X6X2X2X4X6X4X0X4X0XwXwX9X9X9X9X$X9X3X=X3X#X=X#X#X#X#X$X9X9XuX9X9X9X X#X#X@X X#X#X@X#X@X%X@X|.@X.X@X.X[.[.V.[.V.[.F..X.X.XoX+X$X$X3X$X$X3X3X3X3X<X<X3X1X2X5X6X2X<X1XOX+XoXoXXXXXXXH.H.A.H.A.Z.J.J.u.u.t.3.3.3.:.:.O.%.} | L D P x x z 2 1 : : ; ; > @ + O O % . % . .     .   .   .           .                                                                                               ",
"                                                                                                                                                                                                              o       o o o o o   o       o . o . . . O O + > < 5 k k v z v n F G R $.:.4.5.5.>.2.5.6.p.p.n.N.b.n.N.N.V.C.V.C.C.B.B.M.l.l.l.C.l.M.k.{.{.M.M.B. X-X-X-X@X X@X@X X X{.{.{.M.k.k.e.1.-.1.&.&...) R ) ..R ) $.$.&.&.&.$.&.&.-.-.<.-.-.<.4.0.w.w.M.e.a.M.M.M.M.{.{.B.B.[.|.@X%X=X-X$X=X=X9X-X9XyXyXaXbXbXMXMXBXBXBXBXmXCXCXmXmXbXaXpXdXiXrX6XrX6X6X6X6X6X<X6X7X7X|.G.D.D.D.D.D..X+X1X5XwXeXpXtXaXaXnXmXmXCXCXZXZXAXAXHXGXHXGXHXHXHXGXHXHXGXAXGXZXZXCXmXmXnXaXaXdXeXrX0X6X<X<X<X7XoX7X>X>X1X>X>X<X4X4X0X6X0XrXrXtXtXpXiXiXiXiXiXiXiXiXiXiXdXaXaXsXnXnXMXmXmXmXmXBXCXCXCXCXCXCXNXCXNXnXbXnXaXtXeXrX0X8X7X<X6X7X6X7X2X6X6X6X4X2X4X4X8X4X9X9X9X9XuX9X3X#X#X$X#X#X#X#X#X=X#X=X-X9X9XuX9X9X#X#X#X#X@X X@XoX#X#X@X@X@X.X X.X|.A.V.N.N.V.V.D..X.XoXOX#X$X$X5X$X3X<X3X1X1XOXOX7X1X2X2X3X1X7XoXOX+XG.F.H.XXH.XXA.H.Z.Z.Z.Z.u.S.u.t.t.3.3.,.:.%.X.X.} L D Z x x z 7 : : ; ; > + + @ O % % % . .   . .           .                                                                                                         ",
"o         o                                                                                                                                                                                                     o o o o o   o       o   o   o   % . O % + + , 4 9 q v v k v D F K R o.:.4.0.5.2.4.5.5.p.n.N.b.b.C.N.m.C.N.C.C.N.m.B.B.b.C.b.k.l.b.B.{.B.B.M.{.[.-X9X9X-X@X@X@X X@X X|.{.{.{.M.k.q.q.<.<.1.1.&.&.&.&.$.$.&.&.&.&.&.&.&.*.-.<.*.-.*.<.4.4.w.e.e.b.k.M.{.M.M.{.V.{.B.B.|. X#X-X=X-X9X=X=X9X9XuXcXcXcXbXnXmXmXBXBXCXNXNXNXNXnXaXaXpXiXrX0X0XrX6X6X6XgX7X6X7X7X7XD.oXD.D.C.D.F.G.oX$X4X0XeXeXtXdXsXnXmXCXCXCXZXAXAXHXGXGXJXJXHXHXJXJXHXGXGXGXGXGXZXCXCXnXnXbXaXiXrXrX0X<X2X7X<XOXOX>X,X1X>X5X1X1X3X2X6X6XqXrXrXeXiXiXiXiXiX6X6XiXiXfXiXdXdXdXdXdXnXbXnXmXmXmXmXmXCXCXCXCXNXNXAXNXNXnXnXnXaXsXtXtXeXqX6X6X6X6X6X6X,X6X6X6X6X6X0X4X8X4XqX9X8X3X3X=X=X<X#X=X#X#X#X#X#X#X=X$X-X9XuXuX9X9X$X-X$X@X@XoX@X#X@X#X@X#X.X@X.X|.}.V.V.N.V.B.V.|.oX.X#X$X$X$X5X$X3X1X<X$X7XOX<X<X<X<X1X1X1X7X#X7XoXoXF.F.F.H.F.XXA.A.A.Z.Z.S.J.n.u.t.t.3.3.3.:.:.X.X.K H P N x N z 7 > ; ; ; + > @ + O O % O . . .   .             .                                                                                                       ",
"                                                                                                                                                                                                            o       o   o   o               . o . . . O O O $ < 9 q v q v C Z F G R o.-.4.5.4.5.2.3.5.y.b.N.N.N.N.C.N.V.C.N.V.C.B.B.M.C.M.C.C.b.k.B.B.[.B.M.{. X$X-X-X#X@X@X@X@X X X{.|.{. X{.{.k.l.l.q.4.<.q.<.1.1.1.&.&.1.=.1.&.*.=.-.1.-.:.<.<.4.4.q.w.w.M.e.M.M.M.N.B.[.{.V.{.[.|.@X$X=X$X9X$X9X9XuXuXuXyXbXbXMXMXmXBXBXBXmXmXmXmXmXnXaXyXtXuXrX0X0X6XrX6X6X6X6X7X6X7X7X7X|.G.D.D.D.D.D.oXOX4X0XeXtXpXdXaXnXmXNXCXZXZXZXGXAXHXJXJXHXHXHXGXHXHXGXGXGXGXGXZXCXNXmXbXbXyXeXrX0X6X2X7X7X>X7X>X>X>X,X>X>X,X1X1X4X6X6XqXqXrXiXtXyXiXiXiXiXiXiXiX6XiXiXiXdXdXdXaXnXnXmXmXBXmXBXBXCXCXBXmXCXNXBXNXmXmXnXbXaXaXtXeXwX6XiX6X6X6X6X6X6X6X6XrX6X4X4X6X8X8X5X9X8X8X<X3X#X3X#X#X#X#X#X#X#X$X3X9X9X9XuX9X-X9X9X$X#X#X@XoX#X#X#X#X%X#X#X@X%XoX@X|.|.[..X.X%X#X#X1X3X9X5X3X3X4X3X3X3X$X<X<X$X>X1X1X1X<X7XOXoXG.F.F.F.F.F.A.A.A.S.Z.Z.Z.Z.S.u.u.u.3.3.3.:.:.:.%...} L D x N x z 7 1 : : ; ; + + + O O % . . . . .       .   .   .       .                                                                                               ",
"                                                                                                                                                                                                              o o   o   o o o             o . o . . % O O + $ 6 9 t q v v v Z F G R &.:.4.5.5.4.2.3.5.p.N.C.N.N.N.N.m.V.C.m.n.B.V.V.C.N.B.M.M.b.b.M.B.{.B.M.B.[.=X=X=X=X@X@X@X X@X[.B.{.{.{.[.{.{.k.M.M.l.k.k.l.q.0.7.q.0.4.q.q.<.0.4.9.<.q.q.4.0.q.w.e.k.b.M.M.M.N.M.{.V.{.{.B.B.[.|.@X$X-X9X$X9X=X=XuXuXyXcXbXMXMXMXBXBXmXmXCXmXmXMXnXbXaXtXtXrX0X0X6X6X6X6X6X6X6X7X6X<X7XD.G.D.D.m.m.V.F.G.OX4X4XeXtXtXaXsXnXNXCXCXCXAXZXGXHXGXHXHXJXJXHXHXHXHXHXGXGXGXZXZXZXBXmXnXdXdXrXrX4X6X2X7X7X7X+X>X>X>X>X>X5X1X>X2X2X4X4XqXeXeXeXeXeXiX6X6XiXiX6X6XfXiXiXiXdXdXdXaXaXnXnXnXnXmXmXmXCXmXBXmXBXNXNXmXmXNXnXnXbXaXpXtXtXiXiX6X6X6X6X6X6XiX6X0X6X0X4X0X4X8X4X8X3X<X<X#X<X#X#X$X#X#X#X#X#X9X$X-X9XwX9X9X9X$X=X#X#X#XoX%X#X$X=X3X$X#X$X$X$X$X$X%X#X$X#X$X$X$X3X3X9X5X9X9X9X8X5X4X4X3X2X<X1X<X1X1X3X2XOX#XoXoXD.F.F.A.F.A.A.Z.m.S.S.S.Z.S.c.y.t.3.3.3.,.:.*.%.} L L N x x N 0 7 : : ; ; ; + @ @ O O O O . . .     .   .   .                                                                                                           ",
"o                                                                                                                                                                                                           o       o o o   o o       o     . o o o . . O + @ 4 9 5 q 0 v n Z F J R o.-.4.4.5.5.6.3.5.b.N.N.n.C.m.m.V.N.V.V.m.m.C.V.V.B.V.B.C.M.b.M.B.V.M.k.N.[.@X%X$X@X@X X X@X X[.{.B.{.|.[.[.D.{.{.B.{.B.B.k.l.w.w.w.l.w.q.w.q.z.q.w.q.q.w.q.w.w.l.M.M.M.M.M.p.M.M.N.B.[.[.[.[.|. X@X#X=X-X=X=X8XuX9XwXyXyXbXnXMXmXmXmXmXCXmXmXnXnXbXaXtXtXeX0X0X4X4X6XrXqX4X6X6X6X7X7X XoXG.D.D.D.m.V.m..XoX4XqXeXeXpXaXbXnXNXCXCXAXAXGXGXGXHXHXHXJXHXHXPXJXHXJXJXGXGXZXZXCXNXmXbXdXdXiXrX6X2X7XOX7XOX>X+X,X1X>X>X>X1X1X2X4X6X4X6XqXeXeXiXeXiXiXiXiX6XfXiX6XrXiXiXpXdXdXpXaXaXsXnXnXnXnXmXmXBXmXmXmXNXBXNXmXNXmXnXbXbXsXaXpXiXiXiXiX6X6X6XfX6XrXrX6X0X0X4X6X5X8X3X<X9X#X3X#X3X<X<X#X#X#X<X<X=X9X9X9X9X9X9X-X9X9X9X$X<X=X9X5X9X$X9X9X9X9X=X9X9X$X9X3X9X3X9X5X9X9X9X5X9X5XqXqX4X4X8X4X4X3X2X1X1X2X1X2X>X>XoXoXG.G.H.Z.F.F.Z.Z.S.J.c.J.S.J.J.u.y.6.3.3.:.:.:.:.%...K D P N x l z 2 1 ; ; ; + + + + O O % . . . . .   .         .         .                                                                                               ",
"                                                                                                                                                                                                                o   o   o o o           .   . o o   o O O O @ , 5 5 q v v v Z F J R *.<.4.5.5.5.5.5.t.b.N.V.N.N.V.A.A.A.V.N.N.V.V.V.V.V.V.V.N.b.M.b.M.V.M.b.b.B.|. X@X|.|.@X@X|.[.[.{.B.{.{.|.[.[.|.|.|.{.B.B.k.M.l.k.l.k.l.l.l.l.e.w.e.l.l.e.l.w.M.M.M.N.M.M.e.M.b.M.B.[.[.}.|.[.|.|.@X#X=X-X9XuX9XuXwXuXyXcXbXmXmXmXmXmXmXmXmXmXnXnXnXdXyXrXuX0X0X0X0XqX6X6X6X6X6X6X4X2X<XoXG.D.m.m.C.m.m.G.K.2X6XrXeXtXdXsXnXNXCXAXAXAXGXGXHXHXHXHXHXHXHXJXJXHXHXGXGXZXZXZXCXBXnXnXaXrX6X6X0X6X7X7X7X,X+X+X,XOX>X>X5X1X1X2X2X4X4XqXqXeXeXrX6X6XiXiXiX6XiX6XfXqXiXiXiXiXtXpXpXaXsXaXnXnXnXnXmXBXmXBXmXNXmXNXmXNXmXmXnXnXaXsXdXiXfXiXiXiXiX6XiX6XiX6XqXqX6X0XrX0X8X8X8X8X<X<X<X<X$X#X$X3X<X$X3X3X9X9X9X9X9X9X=X#X9X3X3X9X9X9X9X9XqX9X9X9X9X9X8X9X9X9X3X3X5X9X9X9XqXqX9XqX9XqX9X9XqX6X9X5X5X4X5X5X1X5X1X1XOXOXoX.XF.D.F.A.Z.Z.Z.J.J.a.J.c.S.J.p.t.t.5.3.:.:.:.;.%.} H H P x l z 7 7 1 1 > > ; + @ + O . O O . .   .         .   .                                                                                                         ",
"            o                                                                                                                                                                                                       o o   o o         o   .   o o o o % O O $ , 8 9 0 q k v Z F K R o.*.4.4.0.5.5.5.p.n.N.S.N.m.V.A.[.A.V.V.m.V.V.V.V.V.[.V.B.C.N.C.N.B.b.l.l.M.V.|.|.|.[.|.[.|.|.{.|.B.B.[.{.|.B.|.{.B.B.|.|.B.B.b.M.l.b.k.M.k.l.l.k.l.b.l.k.M.M.k.M.M.{.B.M.b.k.p.M.N.V.[.|.[.[.[. X@X#X=X9X-XuXuXyXuXyXcXcXMXBXmXmXmXmXmXmXmXnXnXnXsXdXyXuXrX0X4X8X6X6XqX5XqX6X6X4X2X2X7XoX.XD.D.D.C.C.D.D.oX<X0XrXeXeXpXsXnXNXNXCXAXGXAXGXGXHXHXKXHXHXJXJXPXHXHXJXGXGXZXZXZXmXmXaXtXfX6X6X7X7X7XK.7X,XG.>X+XOX>X$X>X>X1X1X2X4X6XqXqXeXqXrXrXfX6X6XiXiX6X6XfXiXiX6XiXeXpXiXpXsXaXsXaXnXbXnXmXmXBXmXBXBXNXBXNXmXmXmXmXnXnXsXsXpXiXpXiXiX6XiXqXiX6XiX6X6XiXrX6X0X6X8X4X8X4X3X3X3X3X<X<X$X#X<X3X3X3X3X9X$X9X9X3X9X3X9X8X9X3X9X9X9X9X9X9XqX9X9X9X9X9X8X4X8X8X9X5X9X9X9XqXqXwX9XqXqXqXqX8X4X4X3X4X$X5X5X$X1X1X+X+XG.F.F.Z.A.Z.Z.S.S.u.u.c.S.c.n.u.t.5.,.3.,.,.:.:.$.} L D N N z z 7 7 > > ; > > + + + O O . . . . .     . .             .                                                                                                   ",
"o                                                                                                                                                                                                                 o o o o o o             o o o o . X . O O @ , 4 9 0 k v v b F G R &.:.4.4.5.4.5.y.p.m.S.V.N.A.A..X.XV.Z.V.m.V.N.B.N.m.A.V.V.C.C.C.B.N.b.w.6.z.M.B.[.|.|.|.|.|.|.[.[.[.{.[.[.B.D.{.|.B.{.D.[.{.B.M.M.k.M.B.B.{.k.k.M.k.k.k.M.k.M.M.B.{.{.B.M.M.b.b.M.M.N.V.[.[.[.|.@X@X=X=X9X9X9XwXuXuXyXyXbXnXmXmXNXmXmXmXmXnXnXnXnXaXdXrXrX0X8X8X4X4X6X5X5X6X6X4X4X2X3X>XoXG.D.D.m.v.C.m.D.7X3X4XrXeXeXaXsXnXNXCXAXAXGXGXGXHXHXKXKXHXJXKXHXHXHXHXJXGXAXGXZXCXmXnXaXdXgX6X6X6X7X7X7XK.7XOX+X+XOXOX>X>X>X1X1X2X4X6X6XqXqXiX6XiX6XiXfX6X6XiX6X6X6XiXqXiXeXiXiXiXpXpXsXaXaXnXbXnXmXmXBXmXCXmXNXNXCXNXmXmXnXnXsXsXsXdXdXiXiXiXiXqXiXiXiXqX6XrX6XrXqX0XqX8X8X8X4X8X3X<X3X3X<X<X1X<X3X3X3X8X8X3X3X9X9X3X8X4X3X3X8XqX9XqXqXwX9X9XqX8X9XqX8X8X8X9X8X9XqXqXqXwXwXwXqXqXqX8XqX4XqX4X4X5X5X5X5X5XOXOXOXOXG.H.F.Z.A.Z.S.J.S.c.c.c.S.S.n.u.3.3.3.:.>.:.:.%.$.} H D N N M z 7 2 1 1 ; > + + + O O O O . . . .   .       .     .       .                                                                                               ",
"                                                                                                                                                                                                              o   o     o   o     .     o o o o . . o % . O % $ < 4 9 q q v C F E R ..*.4.4.4.5.5.y.b.N.N.N.N.A.A.}..XA.V.m.m.V.m.m.V.V.V.V.V.V.M.N.C.B.b.x.w.x.b.B.[.V.[.|.|.|.[.B.B.[.B.D.{.|.B.{.D.|.B.B.B.B.B.B.B.k.B.B.B.B.[.B.B.B.B.l.B.M.M.B.V.B.N.[.M.b.e.b.p.M.B.N.{.V.[.[. X#X$XuX9XuXuXuXcXyXyXcXMXmXmXmXmXmXmXmXmXmXnXnXaXpXrXuX8X8X8X4X4X4X5X6X6X6X6X6X4X4X2X1X7X.XG.m.m.C.C.m.D.G.2X6XqXeXiXaXnXnXNXNXAXAXAXHXGXHXHXHXKXKXKXKXPXJXHXHXGXGXGXZXZXZXmXMXaXtXfXfX7X7X7X7XK.7XG.,X+X+X+XOXOXOX$X>X1X1X5X6X6XqXrX6XiX6XiX6X6X6XiX6XfX6X6X6XiX6XrXeXeXiXeXpXpXsXaXbXnXbXmXmXmXBXmXCXNXNXCXBXmXmXmXmXNXsXsXfXdXpXiXiXiXiXiX6XiXqXiX6XrX6XqXqX0X0X0X8X9X4X8X<X<X3X8X3X<X3X<X3X<X8X#X<X3X3X8X<X8X8X8X8X9XwXqXwXqXwXwXqXqX0XqX9XqXqXqXqXqXqXwXqXwXqXeXwXwXqXqXqX8XqX4X8X5X4X5X5X5X$X1XOXOXOXF.F.F.Z.A.Z.Z.Z.u.c.c.a.c.J.a.p.t.3.3.>.,.:.%.%.@.} K H N N z z 7 1 1 > ; > + + + % % . O O . . . .   . .                                                                                                                 ",
"o                                                                                                                                                                                                                   o o o   o       o   o o o o o o o . O O % $ < 2 9 k v v C F K R ..*.4.5.5.5.3.p.n.N.V.m.N.A.XX}.A.A.V.m.m.V.V.N.m.V.N.V.V.N.n.C.C.b.b.6.6.6.l.b.M.B.V.[.|.[.V.V.B.B.D.B.[.B.B.D.B.B.B.D.B.B.B.B.k.B.B.B.B.[.B.B.B.k.k.B.M.B.M.{.B.V.{.N.B.M.b.M.p.b.M.M.V.B.B.[.@X=X-XuXuXuXyXuXyXyXcXcXnXnXmXmXCXBXNXNXnXnXaXsXyXyXrXgX4X8X<X4X4X5X8X6X6XqX6X6X4X4X2X1X+X.XF.D.D.m.m.m.F.oX>X6X0XeXiXsXsXNXCXCXAXAXGXHXHXGXKXKXKXKXKXLXHXHXHXHXHXAXGXAXZXCXmXnXaXrXrX0X6X7X7XK.K.oX7XG.XX+X+X+XOXOXOXOX1X3X5X5X6X6X6X6X6XiX6X6X6X6X6XfXfX6X6X6XiX6X6XiXiXeXeXpXpXpXsXaXaXMXnXmXmXmXBXNXBXAXBXmXCXNXNXNXnXnXnXsXfXdXiXiXiXiXiXiX6XrXrX6XrX6X6X0XqX0X8XqX4X8X8X3X3X4X3X3X<X<X3X<X3X3X3X<X3X8X3X4X8X8X8XqXqXeXwXwXeXeXrXrXrXqX0XrXqXqXwXqXrXrXqXeXwXeXeXeXeXrXqXqXqX0XqXqX5X4X3X5X5X5X$XOX+X+XXXF.A.Z.A.Z.Z.S.S.c.c.u.S.n.c.u.t.5.3.,.,.*.*.%.@.@.H H N N M 7 6 1 1 > > ; + + + % O O . . . .   .   .     .     .                                                                                                       ",
"          o                                                                                                                                                                                                   o o   o o o o o   o     o o o o o o o o X . . O @ 4 4 9 q k v C F J R ..-.4.0.4.4.4.t.n.S.S.N.N.A.F.}.F.Z.C.n.m.m.V.m.N.N.V.m.m.N.C.N.b.b.y.6.7.7.7.z.b.C.C.B.B.B.B.B.B.B.B.[.|.B.{.D.B.B.B.B.B.B.M.B.B.C.k.B.B.V.B.{.D.B.B.l.l.B.M.B.{.B.B.[.B.M.w.p.b.M.N.N.M.M.V.[.@X9X9XwXuXuXuXyXyXyXyXcXMXmXmXmXmXNXNXnXSXnXnXaXdXyX0X8X<XgX8X<X4X4XqX5X5XqX4X6X4X2X5X1XOXoXD.D.C.m.C.m.F.oX<X6XqXiXiXsXnXNXNXCXAXAXAXHXHXHXKXLXKXKXKXKXKXPXHXHXHXAXGXAXZXCXmXnXdXtX0X0X6X7X7XK.K.K.7XG.G.+X+X+X+X+XOX>X>X2X5X5X6X6X6XiX6X6X6XfX6XfX6X6XK.6XiX6XiX6XiX6XrXiXeXiXtXpXpXyXaXbXnXMXMXMXBXmXNXBXmXCXCXmXCXNXNXNXnXsXsXdXiXiXiXiXiX6XiXrXrXiXrXrX0X0XqXqX0X0X0X4X4X4X8X5X4X<X3X3X<X3X4X3X8X3X3X8X8X0X0X0XqXqXwXeXeXeXeXeXiXiXeXrXqXeXeXrXwXqXwXeXwXeXeXeXeXeXwXqX0X0X0X4X4X4X5X4X5X5X$X>XOXOXoXG.H.F.F.Z.A.A.Z.S.S.c.u.c.u.S.a.u.6.5.5.2.,.:.%.%.} ! ! H N M 7 7 7 1 > > > > + + + + O . O O . . .   .   .                                                                                                                 ",
"            o                                                                                                                                                                                                 o o   o   o     o   . o     o o o o   . . . O O @ < < 5 q q v V F K R $.*.4.4.4.4.5.y.a.V.N.S.V.A..XXXF.V.n.C.m.V.V.m.N.C.n.n.C.C.b.C.C.b.x.6.6.7.7.z.l.b.M.V.B.B.B.B.B.B.B.B.B.B.D.B.B.C.B.B.B.B.B.B.M.l.M.B.B.V.B.B.B.k.l.l.C.M.B.B.[.[.{.[.V.M.b.b.b.b.N.M.N.B.[.[.-X9XuXwXuXuXcXyXyXcXyXcXnXmXmXmXNXNXNXNXnXbXaXaXtX0X0X<X<X<X<X<X<X4X6X5X5X6X4X6X6X5X2X2X7XG.F.m.m.C.C.m.F.oX1X6XqXeXiXsXsXNXNXAXAXGXHXGXHXHXHXKXKXKXLXKXHXHXHXHXJXJXZXAXZXCXBXnXaXtXrX<X6X7X7XK.K.K.G.G.G.+XXXoX+X+X+XOX>X1X2X6X5X6X6XrXrX6X,X6X6X6X6X6X6X6X6X6X6X6X6XiXrXrXeXeXiXiXpXaXaXbXbXbXMXnXmXmXmXBXBXBXBXmXNXNXNXfXNXsXsXsXpXpXiXiXiXiXiX6XiX6XrX6XrX6XqXqXqX6XqX8X8X5X4X5X4X1X<X3X3X3X9X3X8X8X8X8X0X0XqX0XqXqXqXiXeXeXeXeXiX6X6XiXiXeXrXrXeXeXeXeXeXeXeXeXeXeXeXwX0X0XqX0XqX4X8X5X5X5X5X1XOXOXXXoXF.F.A.F.H.H.Z.A.J.c.a.a.c.c.u.p.t.5.5.,.>.*.$.@.K K H H N M z 7 1 1 > ; > ; + + + O O O O . . . .   . .   .     .     .                                                                                                   ",
"o                                                                                                                                                                                                           o       o o o o o o       o o o o o . o . X % . O $ , < 4 0 q v C F J R ..*.>.0.5.4.5.t.n.N.Z.N.N.A.XXXXXXm.N.n.N.m.S.m.C.n.C.N.n.C.n.n.N.b.b.6.x.6.6.x.l.b.C.B.V.C.B.B.B.B.V.B.[.D.D.B.B.B.C.C.C.B.C.C.B.C.C.B.B.B.D.B.B.k.l.C.l.M.M.[.B.B.N.[.{.C.M.M.B.B.N.[.V.[..X@X$X-XuXuXuXyXyXcXcXcXbXMXmXBXmXNXBXNXNXnXbXSXaXyXyX0XgX7X<X<X<X<X4X4X5X9X6X5X6X5X6X6X2X1XOXG.D.D.m.C.v.C.F.oX>X6XrXeXiXdXNXNXNXAXAXAXAXGXHXHXKXKXKXKXKXKXKXJXHXHXJXAXGXZXZXZXmXnXaXtXrX0X7X7X7XK.K.G.G.G.G.+XG.XX+X+X+XOX>X1X5X5X6X6X6X6X6X6XfX6X6X6X6X6X6X6X6X6X6X6XiX6X6XrXeXeXeXpXpXtXyXaXbXbXMXMXMXmXNXmXmXmXBXmXNXNXNXNXNXsXfXdXdXpXiXpXrXiXeXiXrXiXiXrXeXrXeXeXqXqX0X0XqX8X4X4X4X<X>X<X<X4X4X8X5X5X8X4XqXqXrXrXqXrXeXqXiXiXeXeXiXiXiX6XrXrXrXrXeXqXeXrXeXeXeXeXeXeXrXrX0X0XqXqX4X4X8X5X5X5X1X1X$X+XoXG.XXF.F.Z.A.Z.A.S.S.S.J.u.a.S.n.u.p.t.5.5.,.*.X.@.@.L H H N M 7 7 1 > ; ; > > + + @ O O O O . .     .           .             .   o                                                                                         ",
"                                                                                                                                                                                                          o     o       o o   o   o       o o   o o . . % . % O $ , 2 9 q v C F E K $.&.2.0.5.4.5.y.n.S.V.n.S..X%XXXA.S.n.C.m.V.m.n.N.n.n.b.n.C.n.n.N.n.n.b.b.x.b.b.b.C.b.N.V.C.B.B.C.V.B.V.[.V.V.B.B.C.C.C.b.b.l.b.C.C.C.M.C.V.B.V.B.M.l.x.l.C.N.B.[.V.V.V.[.V.V.V.V.V.D..X|.|.@X=X-X9XyXcXuXcXyXcXbXMXMXmXmXmXVXmXBXnXmXnXnXdXdXdXrXuXuX<X7X7XoX$X1X1X5X5X5X6X6XqX5X3X5X$XOXoXD.m.m.C.v.C.F.oX>X6XqXeXiXdXNXNXNXAXAXAXHXGXHXGXKXLXLXLXLXLXLXFXKXHXHXJXJXGXAXCXNXnXfXiXfX,X6X6XK.K.G.K.G.G.G.G.+XoXXXG.oX+X>XOX1X2X2X2X5X2X6X6X6X6X6X6X5X6X6X2X6X2X6X4X6XqXqXeXrXrXeXeXtXdXdXyXdXbXsXbXnXnXnXnXmXmXmXmXNXNXnXnXNXsXsXfXsXpXpXeXeXiXiXrXdXrXdXrXiXeXeXeXqXwXqX0X6X4X6X4X2X7X<X2X2X6X6X6XqXqXrXeXqXeXqXeXqXrXrXiX6XrXiX6XfXiX6XfXiXrXiXiXiXrXrXiXiX6XiXrXiXiXrX6XrX6XqXqX6X6X3X2X5X5X$XOXOXoXoX.XA.XXH.A.A.A.A.A.J.S.n.u.c.a.p.y.p.e.5.8.>.*.%.} G H H Z N z 7 1 > ; 1 > ; + > + + O O O . . . . . . .   o                         o     o         o   o     o                                                             ",
"o           o                                                                                                                                                                                             o o   o   o           o o   o o   o   o o . . . . . % @ , 6 9 9 k C Z F R ..&.>.4.5.4.4.p.a.N.N.S.S.XXXXXXH.A.m.m.m.m.N.m.m.m.n.n.n.n.m.N.m.m.n.n.b.n.b.b.b.b.C.V.V.V.V.N.V.V.V.D.|.D.D.B.C.C.b.b.b.y.C.C.b.B.V.M.V.B.B.B.B.C.z.l.b.l.C.B.B.B.[.A.[.[.V.|.|..X@X#X#X#X#X3X9XuXyXyXyXuXcXcXcXMXMXmXmXBXBXBXBXmXmXnXbXdXcXyXuX0X<X<X#X#XOX7X1X1X5X5X5XqX5X5X5X2X5X5XOXXXF.V.C.v.C.m.F.oX>X5XqXeXiXdXfXNXNXAXAXAXAXGXHXHXKXLXLXLXLXLXLXKXKXHXJXJXGXGXAXAXmXnXfXiX,XfXK.K.K.K.K.G.G.oXG.XXXXG.XXoX+XoXOX,X,X1X2X2X2X4X6X6X2X6X2X6X6X5X5X2X1X1X2X2X6XqXqXqXrXtXtXtXtXtXdXdXaXaXdXbXnXnXnXnXnXMXnXmXmXnXnXnXnXnXsXsXsXpXpXiXeXiXrXdXrXiXiXrXeXeXeXwXwXqXqXqX0X4X4X4X<X2X7X7X,X6X6X6X6XqXqXqXeXeXeXeXiXeX6XrXfX6XiXiXiXiXfX6XiXiXiX6XiXiXiX6XiXiXiXiXrXrXrXiXqXqXqX6X5X4X5X2X5X1X1XOXOX+XXXXXXXH.H.A.Z.A.H.S.S.c.S.n.S.n.n.p.p.6.5.4.>.%.@.K G H Z N z z 7 1 : > ; ; ; > + + @ O O . O . . .   o   .   .   . . .                 o     o o                                                                             ",
"          o o                                                                                                                                                                                           o           o o   o o   o   o       .     . . . O . . O @ > 4 9 0 k v Z F G R %.-.0.0.5.5.p.a.N.S.V.A.A.XXXXXXS.m.n.m.m.m.m.m.m.m.m.m.V.A.V.Z.V.V.S.V.N.C.b.b.b.C.V.V.V.V.B.V.V.V..XD.V.V.m.C.b.l.z.b.z.l.b.C.B.C.C.C.V.B.V.B.B.b.w.b.b.M.B.V.[.[..X@X.X.X.X#X%X$X-X9X-XuX9XuXwXyXuXyXcXcXbXMXMXVXVXmXBXmXCXBXmXmXNXnXdXyXyXyX8X<X<X<X#X#X7X$X1X1X5X5X5X4X2X1X1X1X1X+XoXD.m.m.C.C.m.D.oX>X5X6XrXiXsXnXNXNXCXAXAXAXHXGXHXKXPXLXLXLXLXLXKXKXJXHXJXGXAXGXZXNXnXfX6X6X6X,XK.K.K.K.G.G.G.G.G.oXXXG.XXXXOX+X7X1X>X1X1X>X2X2X6X6X6X6X4X5X2X5X2X7X<X<X2X6X6X6XqXrXrXeXtXtXiXdXtXdXaXbXdXsXbXnXnXnXmXmXmXNXnXnXNXnXsXaXsXpXpXpXeXtXtXiXrXpXrXtXiXtXeXeXeXwXqXwXwX0X0X4X6X4X7X2X<X6X6XqX6XqXqXeXeXeXeXeXeXiXeXiXiXfXiX6XiXiXiX6XiXiXiXiXiX6XiXiXiXiX6XiXiXrXiXrXiXqX6XqXqX4X4X5X3X5X1X1XOXOX+XoXG.F.XXA.A.H.H.A.A.Z.S.p.c.c.a.p.y.t.w.5.8.>.%.} K L D N x M 7 2 1 : > ; ; ; ; + + @ % O O . . . . o . .   .                   .     o         o           o     o                                                           ",
"o                                                                                                                                                                                               o           o o o           o     o       o   . . . . . . . . O O > < 4 9 q v C J J R $.*.4.5.4.5.6.n.N.N.S.S.A.A.XXH.A.C.m.V.V.A.F.V.F.m.V.A.A.A.A.V.A.A.V.A.V.V.N.C.C.C.C.V.V.C.V.B.V.D.V.|.V.B.B.B.b.b.b.b.b.b.b.b.C.B.C.V.B.B.V.B.C.l.6.l.b.V.B.V.[..X.X#X%X$X#X#X3X$X$X9X9X9XwXuXyXyXyXcXyXcXcXMXMXMXmXVXMXBXCXmXmXMXmXnXbXdXyXuXuX<X<X#XOXOXOXOX1X5X5X6X5X5X3X1X$X1X1X+X.XD.m.C.m.n.C.F.G.,X6X6XrXiXsXnXNXCXCXAXAXGXAXHXHXHXKXLXLXLXLXJXLXKXKXHXJXHXAXZXCXNXnXfXfX6X6X6X,X,XK.K.G.G.G.G.oXG.G.XXG.oX+XOX>X>X1X1X>X1X2X2X5X2X2X2X2X2X,X1X1XOX7X<X2X4X6XqXqXrXrXtXeXtXtXdXdXdXdXdXdXsXsXbXnXnXMXnXmXNXnXnXnXnXnXsXsXsXpXiXtXiXiXtXiXrXiXtXtXeXeXtXeXeXwXwXqXrX0XrX0X6X6X2X6X6X6X6X6XqXeXeXeXeXeXeXeXeXeXeXiX6XiXiXiX6XfXfX6XiXiX6XiXiXiX6X6XrXiXiX6XiXrXiX6XeXqX6XqXqX5X5X2X$X5X>X$XOXoXXX.XXXF.H.H.A.H.H.A.S.J.n.c.n.c.p.p.e.6.5.4.>.&.} L D D x l z j 3 1 1 ; > > @ + @ + + O O O . . . . X   o   .   .   .         .             o     o o     o                                                                   ",
"                                                                                                                                                                                                        o   o   o     o o     o o     o       . . o . . . . % O O > , < 2 9 z n F G R $.*.4.4.>.5.5.a.N.N.n.N.A.A.XXXXS.m.m.V.F.F.F.F.A.A.F.F..X.XF.A.A.A.V.A.A.V.V.C.b.C.M.B.B.C.B.C.B.V.V.|.B.V.B.C.b.b.b.C.b.C.b.C.B.B.C.B.D.B.B.B.C.b.6.z.b.C.B.V..X.X#X%X$X$X$X$X9X9X9X9X9XwXuXwXyXyXcXcXyXcXbXMXMXmXmXBXmXmXBXmXmXnXmXbXdXyXdX0XgX<X<X#X<X<X<XOX1X5X5X5X5X2X1X7XoX#X>XoXXXD.m.C.C.v.C.D.G.OX5X6XrXiXfXsXNXNXAXAXAXGXGXGXHXKXKXLXLXLXLXLXLXKXKXJXJXGXZXZXCXmXnXdXiX6X6XK.,XK.K.K.G.G.G.G.G.G.XXG..XXXoX+XOXOX1X1X>X>X7X2X2X2X2X2X2X<X7X7X7XoX7X<X2X2X6X6XqXrXeXeXeXtXtXdXyXdXaXaXaXbXbXnXnXnXnXnXmXnXnXfXnXsXnXsXpXpXdXiXtXtXiXiXiXpXiXtXiXeXpXeXeXeXeXrXrXrX0X0XrX0X<X6X6X6XrXrXrXeXrXeXeXeXeXtXeXiXiXiXeXiXiX6XiX6XiXrXiX6XfXiX6XiXiXiXrX6XiXiXiX6X6XiX6XrX6X6X6X4X4X5X2X1X1X>XOXOX+XG.F.F.H.H.XXXXH.A.A.S.m.n.c.n.y.y.y.t.w.5.>.>.%.} G D P N x z j 7 1 1 ; 1 ; ; + + + @ O O . O . . . . .   . .                       o       o           o                                                                     ",
"                                                                                                                                                                                                o   o   o         o       o       o o   o o .     . . . . . . . O + ; , < 9 z v H J R ..;.>.>.4.5.p.b.N.n.n.n.S.A.A.A.A.m.Z.A.F.F..X.X.XXXXXXXXXoXXX.X.X|.F.A.V.V.V.V.C.C.C.m.B.B.m.B.B.V.|.D.D.V.B.B.C.C.B.C.C.C.C.C.B.C.B.B.V.D.B.B.C.b.z.b.M.M.V.[.|.%X%X$X$X$X$X$X9X9X9XuXwXuXwXyXyXyXuXyXcXbXMXMXMXmXBXmXCXmXmXBXmXnXnXbXyXyXuX0X<X<X<X<X#X$XOX$X1X5X5X5X5X3X$XoXoXoXoXoXG.m.m.v.x.C.m.F.G.>X2XqXeXpXfXNXNXNXNXAXAXAXHXHXHXKXKXLXLXLXLXKXKXKXJXJXJXJXZXZXCXnXnXsXrXiX,X6XK.,XK.G.G.G.G.G.G.XXG.XXG.XXG.+X+X>XOX>X,X>X<X1X2X2X2X2X2X7X7XoXoXoX7X3X2X4X6X6XqXwXrXrXeXrXtXrXrXyXaXaXdXdXsXsXsXbXMXMXnXnXnXnXnXnXsXsXsXsXdXyXpXpXtXdXyXpXtXiXtXpXtXeXtXtXeXtXrXeXrXrXrXrX6X6X6XqX6X6XiXeXeXeXeXpXpXiXiXiXeXpXpXiXrXiXrXfXiXiXiXiXiXiXiXiX6XiX6XiXiXqXqXiXiX6XiXqXeXrX6X6X4X5X5X1X5X$X>X+X+X.XH.F.XXXXF.A.H.H.S.Z.S.n.p.n.p.p.y.5.5.4.4.-.%.K L D N N z z 7 7 7 ; > ; ; > > + @ @ O O O . .   . .   .       .     .             o   o   o   o   o         o o                                                             ",
"o         o                                                                                                                                                                                         o       o o   o o     o o     o           o .   . . . . . O O + + > 1 2 z l Z F R $.*.:.4.>.2.5.a.b.n.a.n.N.A.A.A.A.A.A.F.G.XXXXXXoXXX+X%XOXOX+XoX.X.X.X.X.XV.V.B.B.N.V.C.B.V.C.C.B.B.D.[.D.B.D.B.B.B.B.B.B.C.C.B.C.V.C.B.B.V.[.|.V.B.B.V.V.B.[..X.X%X$X-X$X$X9X$X9X9X9X9X9XwXyXyXyXyXyXyXcXbXMXmXMXmXVXBXmXmXNXmXnXbXnXaXyXwXwXuX<X<X#X#XOXOX$X>X1X5X$X5X5X2X$XoX.X.XoX.X.XD.C.v.C.v.m.D.G.OX5X6XrXiXsXfXNXNXCXAXAXGXGXHXHXKXLXLXLXLXLXLXLXLXJXJXJXGXAXAXAXnXsXdXrXiX6X6XK.K.K.K.H.G.G.G.G..XoXG..XG.oXoXoXOXOX1X1X1X<X1X1X<X7X1X2X7XoXoXG.oX7X<X2X4X4X6XqXwXrXrXtXtXtXtXtXdXtXdXdXdXbXdXsXbXnXnXnXnXnXnXnXnXsXaXsXpXsXiXtXpXdXtXiXdXdXdXtXtXiXtXtXtXeXrXtXeXrXrXrXrX6X0XrXqXrXeXeXeXeXrXiXtXpXtXpXpXpXiXpXiXiXiXiXrXiXiXiXiXiXiXiXiX6XiXiX6XiXiXrXiX6XiXrXrX6X6XqXqX5X5X2X5X1XOXOX+X+XXX.XF.XXH.XXH.XXH.A.Z.n.n.n.n.p.p.y.w.5.>.>.*.%.} G P N x z k 7 2 1 > : > ; ; + ; + + O O O O . . . o     .   o             .           o o     o o                                                                           ",
"                                                                                                                                                                                                          o           o       o o   o o   o .     . .   . . . . O + + + ; 4 q v Z F R $.*.-.<.>.>.6.p.n.n.p.n.n.S.XXXXH..XF.XX.XoX+XOX+XOXOXOX$X$X$X$X$XOXXXoX.X.XD.D.B.B.V.B.V.B.B.C.B.B.D.B.|.D.V.D.B.D.D.D.|.B.B.B.D.B.V.D.D.|.|..X.X|.V.V.[.D..X#X$X$X5X9X$X9X9X9XwX9X9XwXyXuXwXyXaXcXbXbXnXbXMXMXMXBXmXmXBXmXmXmXnXbXbXpXeXuX0XgX<X#X7X#X#XOXOX$X1X5X$X5X5X1X#X.XD.F.oXXXF.m.m.C.v.C.m.D.G.>X5X6XiXiXsXsXNXCXCXCXAXGXGXHXHXKXLXLXLXLXLXLXLXLXKXJXJXGXAXVXBXnXsXdXiX6X6X,XK.K.K.K.H.G.G.G.D.XXXXXXG..XXXG.oXOX$X1X1X1X1X>X1X>X1X2X<X7XoXoXoXoXoX7X3X2X4XqXqXrXwXwXrXrXtXrXtXtXdXyXdXdXdXbXbXdXbXbXnXbXnXsXbXsXsXaXaXsXpXdXtXdXrXdXiXtXiXyXiXpXiXtXtXeXtXtXrXtXiXtXiXrX0XrX6XqXqXeXeXrXrXtXeXpXpXpXpXtXiXpXpXiXiXrX6XiXiXiXiX6XiXiX6XiXiXiXrX6XiXiX6XiXiXiX6XqXqXqXqX6X4X5X2X5X>XOXOXOXoXG.G.F.H.XXH.H.H.F.A.Z.S.n.b.b.p.y.5.5.4.>.-.*.$.G L D D N z z j 3 1 : > ; ; > + + @ % O O O . . . . . . o   .   .   . .             o       o       o   o     o                                                               ",
"          o                                                                                                                                                                                         o           o     o       o     o     o .     .   . .   . . O O + + < 4 q 5 Z F R ..&.*.*.2.>.5.p.b.a.b.n.m.S.A.XXH.H.XXXX+XOXOXOXOX$X$X$X>X$X>X$X$XOX$XOX#X.X.XD.[.D.V.V.V.V.C.B.C.B.B.B.D.V.D.[.|.D.|.|.D.|.D.V.|.D.D.[..X.X.X#X%X#X@X.X|.@XoX$X$X9X=X$X9X5X9X9XqX9XwXwXtXyXwXyXaXaXaXbXbXMXMXmXmXNXCXCXmXmXmXnXnXSXdXdXrXrXuXgX<X#X#X#XoX$X$X$X$X5X5X5X3X$X#X|.F.F..XF.F.D.m.C.v.v.m.G.G.OX2XqXeXiXdXsXNXNXCXAXAXAXGXHXHXKXKXLXLXLXLXLXLXJXJXJXJXJXFXVXBXbXdXrXrX6X6X7X,XK.K.K.K.H.H.H.G.G.XXXXXXXXG..XoXoXOX$X1X1X3X>X7X>X1X1X1X>XoXoXoX#XOX1X5X5X6X4X4XrXrXwXrXeXrXtXtXdXiXdXdXaXaXdXbXnXdXnXnXnXnXnXsXsXsXsXdXsXaXpXaXdXdXdXyXtXaXdXtXdXdXtXtXdXrXdXdXiXtXtXeXtXrX0XrXrXeXeXeXeXpXeXiXtXpXpXtXdXrXdXiXrXiXiXrXeXiXiXiXiXiXrXiXiXrX0XrXiX6XrX6XiX6XiX6XrX6XrX6X6X6X5X2X1X1X1X>X+XG.G.F.F.XXH.XXH.H.H.A.m.m.n.b.y.p.w.6.4.4.:.:.*.X.K G P N N z z 7 3 7 1 1 > ; > + + + + O O . O . .   .           .           .         o o     o o       o     o                                                               ",
"o                                                                                                                                                                                               o           o     o o     o o   o     o   o   o     . . . . . . O O + + > 2 0 z b Z F ..$.%.-.-.4.5.p.p.p.n.n.N.A.F.XXXXXXH.+X+X+XOX$XOX$X>X$X5X$X5X5X3X5X5X5X$X#X#X#X#X XoX X.XD.|.D.|.D.|.D.|.D.D.|.D.|.|.@XoXoX.X|.#XoX|.|.#X$X#X=X$X$X$X#X#X#X#X#X$X9X9X9X9X9XqX9X9XwXwXwXtXyXyXyXaXbXbXbXbXnXmXmXNXmXNXmXCXmXnXMXnXdXdXyXyXuX0X<X<X#XoXoXoXOX$XOX5X5X$X$X3X$XoXF.|.|.D..XF.m.m.x.v.C.m.F.G.OX2X6XeXiXsXsXNXNXCXCXAXAXGXHXHXKXKXLXLXLXLXLXLXLXLXJXFXGXZXAXmXnXdXfXrX6X6X6X,XK.H.H.H.H.H.G.G.F..XG.oX.X.XG.oXF.oXOXOX+XOXOXoX>X1X>X2X>X7XoXoXOXOX1X5X5X4X5X4X0X0XeXeXeXeXrXtXtXtXyXaXdXaXdXaXbXbXbXnXnXnXnXnXnXsXsXbXaXaXpXpXdXdXpXdXpXpXtXdXtXiXdXdXyXdXrXyXtXpXeXtXeXrXrXrXeXrXeXiXtXtXpXyXpXtXtXdXdXrXrXdXdXrXrXdXpXiXiXiXiXiXrXrXrXiX6X0XqX6X6XiX6XiXiXqX6XrX6X6X5X6X5X5X1X1XOXOX+XoX.XG.F.G.XXG.+XH.H.A.m.n.n.p.b.x.6.6.5.2.-.*.%.$.K G D D x z z 3 2 2 1 1 > ; + > + + O O O O . . . .   . .   .         .           o o       o                                                                                 ",
"            o                                                                                                                                                                                           o     o   o       o     o     o   o     .   .   . . . . O O + + 1 4 5 k v b F K R ..*.>.4.5.p.a.n.b.n.m.A.H.H.XXXX+XOXOX$XOXOX5X$X>X5X5X$X5X5X5X$X5X$X1X3X$X$X#X$X#X#X#X<X#XoX#X#X#X#XoX.X X|.#XoXoX#X#X<X#X#X$X#X#X$X$X8X$X$X$X9X$X1X$X#X#X#X$X5X9X9X9X9XqXwXwXwXwXwXyXyXtXaXaXbXnXnXnXnXnXmXmXCXNXBXNXmXmXMXaXdXyXyXrXrX0X<X7X#X#X#XoX$XOX$X$X$X5X$X5X#XoXD.A.F.F.F.A.m.C.x.x.C.m.F.G.OX2X6XeXiXsXsXNXCXCXAXAXGXHXHXHXKXKXLXLXLXLXLXLXLXJXJXJXGXGXVXBXsXdXiXrX6X6XK.,XK.K.H.K.H.H.H.H..XF.F.F.G.F..XF.oXoX+XOXOXoXoXoX>X1X5X>X1XOXOXOX7X>X1X5X4X3X4X4X8X0XrXeXiXrXtXrXpXdXpXpXaXdXdXyXaXbXbXbXbXsXnXsXsXnXsXdXaXsXaXdXaXaXaXaXaXdXdXyXdXyXyXdXyXyXdXyXpXyXdXtXpXrXtXrXeXeXeXtXtXtXpXyXaXyXdXtXrXdXpXiXyXiXiXdXiXiXeXiXiXiXrXiXiX6X6X6X6X6X6X6XiX6X6XiXrX6X6X6X6X6X5X2X5X,X,X+X+XG..XG.H.H.G.XXH.H.A.A.m.n.x.y.y.b.6.7.4.2.*.*.%...K L D N x z z 3 3 7 < 1 ; ; ; > + + O O O . O . . . . o   .     .                         o       o o           o                                                             ",
"                                                                                                                                                                                                    o           o     o o     o   o     o       .     .   . . . O O O + 1 4 5 q v b Z F K ..*.-.5.5.w.p.a.N.n.n.A.XXXX+X+X+XOXOXOX$X$X>X5X>X$X5X5X3X3X5X5X5X5X$X3X3X$X<X$X1X$X$X<X3X#X3X#X8X<X<X3X$X#X$X<X#X$X<X9X3X$X3X3X#X$X5X3X9X9X9X3X9X3X3X$X3X9X9X$X9X9X9X8XqX9XwXwXeXtXtXtXyXaXaXbXnXnXnXmXnXNXNXNXmXmXmXNXmXnXaXdXtXrXyX0XuX<X*X#XoX#XoX+X$XOX$X$X$X$X$XOX.X.XD.[.F.F.F.m.C.x.v.v.m.D.G.+X2X6XeXiXdXsXNXNXCXAXAXGXGXHXHXKXKXLXLXLXLXLXLXLXJXJXJXGXZXZXmXsXdXrXrX6X6X6X,XK.K.K.H.H.K.H.H.F.XX.XF.G..XF.G.oXoX+X>XOXOXOXOXOX1X>X5X1X>X$X>X1X1X5X2X2X5X2X3X0X0XrXeXeXtXyXrXtXtXaXaXdXaXaXaXaXsXbXnXnXsXbXbXnXsXsXbXsXaXaXdXdXaXaXpXyXdXpXdXdXdXdXyXdXdXyXdXaXdXdXtXyXiXrXtXtXeXtXiXpXpXyXdXpXdXdXdXdXdXyXtXdXiXpXrXeXpXiXeXiXtXrXiXiX0X6X6X6XiX6XiX6XiX6X6XqXqX6X6X5X2X5X5X5X1X,X>X+XoXG.F.F.F.H.+XH.H.Z.S.n.x.b.b.p.6.7.5.2.-.*.$.$...G J D x x c j 2 2 2 1 1 > ; > + + + + O O O . . . . .   .   .   .   .                 o o     o o       o     o                                                               ",
"o         o                                                                                                                                                                                     o   o           o             o     o     o         .   . . . . O O O + , 4 5 5 z b b F G ..o.*.5.6.p.p.b.b.C.n.A.H.XXXXH.+XOXOXOXOX$X>X$X>X5X5X5X5X9X5X5X5X5X5X9X5X$X9X$X9X$X$X9X$X$X3X8X9X9X9X9X$X$X$X#X$X3X$X3X9X$X9X$X$X9X=X$X9X9X5X9X9X3X9X3X8X=X<X8X8X9X9XqXqXqXeXeXtXtXpXyXdXdXbXnXnXnXnXnXNXNXNXNXNXmXmXmXnXnXaXdXyXeXrX0X0X<X<XoX#XoX|.%X+X$XOX$X$X$X#X%X.X.XV.F.F.A.V.v.v.x.x.m.m.G.G.OX7X6XqXiXfXsXsXNXCXCXAXGXHXHXHXKXLXLXLXLXLXLXLXLXJXFXJXGXAXAXmXfXiX6XfX6X6XK.K.K.K.H.H.H.G.XXF..XG.F.XX.XF..X.XoXXXXXoXoXOXoXOXOX1X5X>X5X$XOX$X1X$X5X5X3X2X2X4X0X0X0XrXrXrXtXtXtXpXpXpXpXaXdXdXbXaXsXbXnXsXnXsXdXnXfXnXbXdXdXbXsXaXaXaXaXpXaXaXyXdXaXdXaXyXdXyXdXyXdXtXtXeXtXrXtXeXtXpXyXaXdXaXaXaXaXyXdXyXdXtXiXrXpXtXiXiXiXdXtXeXrXeXrX0X6XgX6X6X6X6XiXiX6X6XrX6X6X6X2X2X,X5X,X5X,XOXoXG.G.G.D.G.H.H.H.F.Z.J.b.x.b.y.x.w.6.7.2.2.*.$.....G L P N c z 7 3 2 2 1 1 > ; > + + + O O O . O . .   .   .     .           .           o         o     o                                                                       ",
"                                                                                                                                                                                                        o     o     o o   o o   o     o     .     .   . . . . . O O O @ + < 2 9 z v b m F R $.*.>.5.e.p.a.n.n.n.A.F.XXXX+X+XOXOXOXOX>X>X>X5X5X5X6XqX6X5X8X4X4X8X9X9X$X9X9X5X9X9X9X9X9X3X8X9X9X9X9X$X9X$X$X$X9X9X9X$X$X9X9X$X$X9X9X5X9X9X9X3X9X3X3X8X4X8X8X8X9X0X9XwXwXeXeXeXtXdXdXbXdXnXbXnXnXnXNXnXNXNXmXNXnXmXmXnXbXaXdXyXeXuXuXuX<X#X<XoXoXoXoXoXoXOXoXoXOX%XoX.X[.F.[.F.V.A.v.v.z.v.v.D.m.G.+X7X6XqXiXfXNXNXNXCXAXAXAXGXGXHXKXLXLXLXLXLXLXLXLXJXJXFXGXVXAXmXfXfXfX6XK.6X6XK.K.K.H.H.G.G.G..XF..X.XF.F..X.XG..XoXoXoXoXoX%XoXOX1X>X5X>X5X>X5X5X5X5X5X2X1X2X4X0X0XrXwXrXeXeXiXpXtXpXpXaXaXaXaXaXaXaXbXaXnXnXaXnXdXnXdXsXbXaXbXaXaXaXaXaXaXaXpXyXdXyXdXdXdXaXaXaXaXyXdXtXpXyXrXtXpXtXdXpXdXaXdXdXaXaXdXdXdXdXyXdXdXiXtXiXtXiXtXiXeXrXeXiX6X6X0X6X6X6XiX6X6XiX6XqX6X6X6X6X2X5X5X5X,X,XOX7XG.G.H.H.H.H.G.H.A.S.m.v.x.x.y.6.6.5.4.*.*.*.%.$...G F D N z z 7 3 1 2 1 1 > > ; ; + + + O O O . . . . . .   .       .   .     .       o     o o     o       o o     o                                                           ",
"                                                                                                                                                                                                o     o         o   o           o     o   o .     . .   .   . . % % O + , > 4 5 z v b Z F K $.%.>.4.5.p.p.b.n.N.A.F.XXXXH.+XOXOXOXOX>X1X1X1X5X5X5X5X5X5X4X6X5X4X9X9X9X9X9X9X9X3X9X9X9X9X9X9XqX9X9X9X$X9X9X$X9X$X$X9X9X9X9X9X$X9X9X9X3X9X9X9X9X3X8X8X8X8X9X8X9XqXqXwXeXeXeXpXdXdXdXdXsXdXfXnXnXdXNXNXNXNXNXNXmXmXnXbXbXsXaXyXeXwX0X0X8X<X#X#XoXoXoXXXoX%X#XXXoXoX.X.XF.V.V.F.D.m.m.x.x.x.v.Z.D.G.oX>X6XqXiXdXnXNXNXCXCXAXGXGXHXHXKXKXLXLXLXLXLXLXKXJXJXGXGXVXVXNXiXiX6X6X6X6XK.K.K.K.G.H.H.G.G.F.F.F.F.A.F.F.F.F.G.XXoXXXoXXX+XOX>X>X>X>X>X>X$X5X$X5X>X5X3X2X1X<X4X0XqXwXrXeXeXtXpXpXpXtXpXaXdXdXaXaXnXsXnXnXsXnXfXnXdXnXsXdXnXdXsXaXaXaXaXaXaXaXdXyXaXaXaXaXdXdXdXaXaXpXdXpXtXrXpXtXtXpXaXaXaXaXaXdXaXdXdXdXaXdXdXdXtXpXiXtXiXiXtXeXeXeXrX0XfX6X6XiX6X6X6XiX6X6XqX6X6X2X2X2X5X5X5X,XOXOXG.G.F.G.F.F.H.F.F.m.m.c.b.x.x.6.6.6.7.4.1.*.o.....} G F P N z j j 1 3 2 1 1 ; ; > + + + O O O . O . . .   o                             o     o o     o                                                                           ",
"o                                                                                                                                                                                                         o     o       o o   o           o         .     . . . . O % + + < 5 4 c z b m m G ..&.*.>.5.6.y.p.n.n.A.H.XXXX+XG.OXOXOXOXOX>XOX$X5X5X5X6X8X6X6X4X5X9X5X5X9X9X3X9X9X9X3X3X9XwXwXwX9X9XwX9X9X$X9X<X$X$X9X$X9X5X$X5X9X$X9X9X9XqX9X8X8X9X8X8X8X8X8X0XwXqXwXeXeXeXeXtXaXdXdXbXdXfXSXnXnXnXNXnXNXNXNXmXnXnXnXbXaXsXaXyXwX0X0XuX<X<X#XoX#XoXoX.XXXoXoXoXoX@X.X.XF.V.F.F.m.C.v.x.x.z.v.J.D.G.oX>X6X6XiXsXsXNXNXCXZXAXAXHXHXKXKXKXLXLXLXLXLXLXPXKXJXGXGXZXCXNXfXiXfX6X6XK.6XK.K.G.H.H.G.G.F.F.D.F.A.D.A.D.D.F..XF.F.oXXXoXoXOXOX$X5X$X5X>X>X>XOXOX5X>X1X1X>X1X4X0XqXeXeXeXeXeXtXtXpXdXaXaXaXdXaXbXbXbXbXsXaXsXMXdXnXdXbXsXsXsXaXaXsXaXaXpXaXyXaXdXaXdXaXaXbXdXaXaXaXaXdXyXpXdXpXdXpXaXaXaXaXaXaXaXaXyXdXdXaXdXrXdXpXpXdXeXtXiXeXtXrXeXrX0X6X6X6X6X6X6X6X6X6X6X6X6X6X6X6X6X5X5X,X5X>X>XG.G.G.G.F.Z.F.Z.Z.m.n.x.x.x.y.y.w.6.7.2.*.*.o...R K G L D x z j 3 3 1 1 < 1 ; + > ; + + + O O O . . . .   . . o       . .                   o     o       o   o     o                                                             ",
"                                                                                                                                                                            o     o     o   o                                           o   o   o   o   .     . . % % O @ 1 6 7 v z n b F G ..$.%.:.4.5.5.y.b.n.A.F.XXH.XX+X+X+X+XOX$X$XOX>X5X1X4X4X4X6X0X4X4X4X8X0X8X8X4X8X8X8X9X9XwX9XwXuXuX9X9XwX8X3X1X1X<X1X3X<X$X3X3X$X9X9X3X9X3X8X9X5X9X8XqX8X0X0XwXwXwXrXrXrXtXtXiXpXaXsXpXsXaXnXsXnXnXnXnXNXNXNXNXNXnXsXbXsXdXaXdXyXtXwX0X0X<X<X3X#XOXoXoX.X.XOX%XoX.X.XF.V.V.V..XV.Z.N.n.x.y.x.m.m.F.F.oX7X2XqXeXpXsXNXNXNXAXAXGXHXHXKXKXKXKXLXLXLXLXLXLXLXFXJXFXZXVXMXpXiXiX6X6X,XK.K.K.K.K.K.K.H.H.H.Z.m.Z.F.D.Z.F.D.F.F.F.F..X.XXX+X+X>X>X>XOX>X5X>X>X5X>X5X>X5X$X>X5X6X9XqXqXqXqXeXtXpXpXpXaXaXaXaXbXbXMXbXbXnXbXsXbXsXsXsXsXsXsXsXsXaXsXaXsXaXaXaXaXaXaXaXaXaXaXaXdXbXdXbXbXdXdXdXdXdXaXbXbXaXbXMXbXdXdXbXaXaXaXaXaXpXaXpXpXtXtXpXpXeXtXeXeXwXqX0X0X0X0X6X6X6XqX6X6X6X6X6X,X6X6X,X6X,X,XK.oXG.G.F.F.D.D.J.m.m.v.v.x.y.6.6.6.3.4.2.*.*.o.R ..K K D Z b c 7 3 2 3 2 1 > ; ; > ; + + @ O O O O . . .       .   .         o   o   o o o o o     o       o                                         . . .   .         .           ",
"            o                                                                                                                                                                                                                   o             . o   o   . . . . o % % % > , 2 9 5 z l b D G R o.*.:.2.7.6.y.b.m.A.A.XXH.F.XX+X+X+X+XOXOX$X5X5X5X4X5X6X8X6X4X4X4X8X4X8X4X8X8X8X8X9X8X9XwX9XwXwXuXwX9X8X3X<X#X$X<X1X<X<X3X3X3X$X9X9X3X5X8X6X9X8X8X8XqX8XwX0XwXrXrXtXeXiXtXtXpXpXaXaXaXnXaXnXsXnXnXNXnXnXNXnXNXnXnXsXaXaXaXsXyXyXwX0X8X8X<X#X<XOXoXoX.XoXXXoXoX.XoX.X.XA.V.A.A.A.N.b.y.y.x.v.m.F.F.oX7X4XqXeXpXsXsXNXNXAXAXGXHXHXHXKXKXLXLXLXLXLXLXLXLXJXJXGXZXBXmXpXiXrX6X6X,X6XK.K.K.K.K.H.G.H.J.F.m.D.m.Z.D.Z.A.F.F.D.F.F.G.G.oX+XOX>XOX1X,X>X>X>X>X5X>X>X>X>XOX1X5XqXqXqXeXeXeXeXpXpXaXpXaXdXaXMXMXbXnXnXbXnXnXnXsXbXnXsXsXaXaXaXsXaXsXaXaXsXaXdXaXaXbXaXaXbXaXbXdXbXdXdXdXvXdXbXbXbXaXbXMXnXnXMXbXMXdXbXaXaXaXaXaXaXtXyXaXpXyXtXtXtXeXeXrXwX0X0X0X0X0X6X0X6XqX6X6X6X6X6X,X,X6X,X,X,X,XK.G.G.D.D.Z.D.m.m.v.v.z.x.u.y.6.6.6.4.>.*.%.&...} R J D Z N z 5 2 3 3 < 1 : ; ; > @ ; + + O O . O . .     .   .               o   o o   o   o   o                                           .               .   . .     .   .     ",
"o                                                                                                                                                                         o           o o     o                                         o   o o o o o           . % % @ @ < 9 9 5 v c b m G R ..o.*.>.5.5.y.b.C.Z.F.H.XXH.XXXX+X%X+X+X$XOX$X5X5X5X4X4X0X6X8X4X6X8X8X8X8X8X8X8X8X9X9X9X9X9XuXwXwXwX9X9X9X<XOX<X<X1XOX<X3X3X$X$X$X9X3X8X9X8XqX9XqXqX0XqX0XwXrXeXrXeXeXtXeXiXtXdXpXaXsXsXnXnXnXnXnXnXnXnXnXnXNXnXsXsXaXaXaXyXtXtXwX0X8X3X<X#X1X$XoX.X XoXoXoX.X.XG.F.V.D.V.V.V.V.m.x.x.6.x.C.m.m.F.oX>X2X6XiXiXsXNXnXNXCXAXGXHXHXHXKXLXLXLXLXLXLXLXLXLXFXFXGXZXBXMXfXiXiX6X6XK.6XK.K.K.H.H.H.H.Z.G.m.m.m.D.F.m.D.Z.V.F.F.m.F.F..X.X+XOXOX>X>X>X1X>X>X5X>X>X>X,XOX+X$X5X5XqXqXqXwXwXtXiXtXpXaXaXaXaXbXbXnXMXMXnXbXnXaXnXsXaXnXaXsXsXsXaXsXaXaXaXsXaXaXaXaXaXbXsXbXaXbXdXdXbXMXdXbXbXbXMXbXbXnXnXnXMXnXnXnXbXbXbXaXnXaXaXaXaXsXaXpXpXpXeXeXtXtXwXrX0X0X0X0X6XqX6X6XqX6X6X6X6X6X6X,X,X2X2X,XK.K.G.G.H.D.Z.m.m.v.x.x.x.x.7.7.u.6.7.3.2.*.*.$...R K J F Z x z 2 3 3 3 < 1 > > ; ; + > @ @ O O O O . . . .                     o o o o o o   o   o o   o                                           .     . . . .   . .       .     ",
"                                                                                                                                                                            o     o                                                         o o o o o . o . . . % . % % , 4 9 0 z c v b b F K ..%.:.:.2.5.y.y.n.N.A.A.H.H.H.XXXX+XXXOXOX>X5X5X5X4X6X8X6X0X6X0X8X0X4X8X4X8X8X8X9X9X9XuXwXwXwXuXwX9X9X9X9X<X<X<X1X1X<X1X3X$X3X<X<X3X9X5XqXqX9XqXqX0X8X0X0XqXwXrXeXeXeXiXpXpXdXdXdXsXaXsXaXsXnXsXnXnXmXnXNXNXNXnXnXaXdXaXyXaXtXtXwX0X0X8X$X1X#XOX#XoX.X.XoXoXoXF..X.XF.V.A.A.V.N.n.x.u.6.x.v.m.D.F.oX>X2X6XrXdXNXfXNXNXAXAXGXHXHXHXKXLXLXLXLXLXLXLXLXJXFXJXZXVXmXbXiXfX6X6X6XK.K.K.K.K.H.K.H.K.G.Z.m.m.m.m.m.A.m.D.F.m.D.F.F..XG.G.+XOXOXOXOX1X,X>X>X>X>X5X>X,X+XoX$X5X5X5XqXqXeXeXtXeXdXpXpXsXdXaXbXnXbXbXMXnXnXbXbXsXsXnXsXsXdXsXaXsXaXsXaXsXaXaXaXaXaXaXbXaXsXaXbXnXMXdXbXMXdXbXbXbXbXMXMXnXMXnXMXnXbXbXbXbXnXaXbXaXaXaXaXtXaXaXtXtXtXeXeXeXrX0X0X0X6X6X6X6X6X6X6X6X,X6X,X6X,X6X2X,X,X,XK.G.G.D.Z.D.m.m.v.v.x.x.x.6.u.6.6.3.2.2.*.*.....} K F D Z x z 5 5 3 3 < 1 1 1 ; > > + + @ % O O . . . .   . .     .         o   o     o o o o o   o       o                       o         .     .   .   .   . .     . .       . ",
"o                                                                                                                                                                 o   o     o       o     o                                                 o o o   o o .     . . % O % $ 6 9 q q z b x m D K ..%.*.:.:.2.3.y.x.N.Z.A.F.A.F..XH.XXXXOX$X$XOX3X5X5X4X6XqX8XqXqX0X8X8X8X8X8X3X9X8X9X9X9X9XuXwXwXuX9X9X9X9X3X<X3X2X5X4X3X3X3X3X3X3X4X3X8X8X8XqXqX9X0X0X0X0XrXeXeXeXeXiXpXtXpXpXaXpXaXsXsXsXbXnXnXnXnXnXnXnXsXnXsXsXaXaXdXdXrXdXrXrXwX0X3X<X<X$XOXoX.XoXoX.XoXoX.XF.D.A.V.V.m.V.n.n.y.6.x.x.x.v.m.G.oX>X5X6XrXpXsXsXNXNXAXAXHXHXHXHXLXKXLXLXLXLXLXLXPXLXJXGXZXZXmXbXfXiX6X6XfXK.,XK.K.H.H.H.H.H.G.v.v.m.m.m.m.m.F.m.m.F.m.D.F.F.H..XG.+X,X+X+X>X1X>X1X,X1X>X>XOXoXoXoX2X4X6X6XeXiX6XrXiXdXdXdXdXsXaXaXbXbXnXbXnXbXsXsXnXsXsXsXsXdXsXsXsXaXaXbXsXdXaXaXaXaXnXaXnXaXbXnXdXnXnXnXnXnXnXnXMXnXMXnXMXMXnXMXSXfXbXnXbXnXnXsXaXaXaXaXaXpXyXpXpXtXeXeXeXrX0XqXqX6XqX6X6X6X6X6X6X6X6X6X6X,X6X,X2X,XOXG.G.G.F.G.Z.m.m.C.C.x.x.6.u.7.6.7.5.2.2.*.*.....K G H D Z x z 5 2 5 3 < 1 1 > > > @ > @ + O O O % . .     . .   .           o o   o o   o o o   o o                           o             .           . .   .   .             . ",
"          o                                                                                                                                                                     o                                                       o o o o o o     . . o . . . % @ , 6 9 q z z v b C F G R ..o.*.:.:.2.3.y.b.n.m.Z.A.F.F..XXXXXXXOXOX$X5X5X5X4X8X8X8XqX4XqXqXqX9X8X8X8X9X8X9X9XuXwX9X9XuXwX9X9XqX6X4X3X3X4X9X5X4X4X8X3X3X3X8X8X8X8X9XqXwXqX0X0XwXwXrXeXeXeXeXtXpXpXpXpXpXsXaXaXnXaXnXsXsXnXnXMXnXnXnXnXnXsXaXaXyXdXdXyXyXrXwX9X4X<X#X$X#X#XoX.X.XoX.X.X|.F.F.V.V.V.V.C.n.n.x.y.3.x.x.m.Z.F.XXOX5X6X6XpXfXNXNXNXAXAXGXHXHXHXKXLXLXLXLXLXLXLXLXJXJXFXGXBXMXbXfXiX6X6XK.6X,XK.K.H.H.H.H.H.J.G.m.m.m.m.F.m.V.F.A.m.D.F.F.F..XF.G.+X+X+X7X>X>XOX,X1X,X>XOXOXoXG.OX1X5X6X6X6XrXiXrXtXrXiXyXdXpXsXaXbXbXbXnXbXsXnXnXaXsXbXsXbXnXsXsXaXaXsXaXaXaXaXaXnXbXaXbXnXnXbXnXbXnXnXnXnXMXmXnXMXnXmXMXnXmXmXnXnXnXbXMXnXbXnXbXaXaXaXaXaXyXsXaXyXtXtXtXeXeXeXqXqX6X6X6X6X6X6X6X,X,X6X6X,X6X,X2X,XOX,X,XG.G.D.Z.D.D.m.v.v.x.x.x.y.3.6.5.5.2.2.*.X...K R G F D Z x z 5 5 3 3 3 2 1 1 > > > > @ @ % O O O . . . .             .       o o   o o o   o   o     o                                           . .   o . o . o . . o   .   .   ",
"            o                                                                                                                                                           o                 o o                                           o   o o o o   o   .   . % % O % $ 6 9 9 q z l x b D L G } ..X.X.O.2.3.6.y.c.m.N.V.A.A.F.XXXX+X%XOX$X5X3X8X8X4X6X8XqXqX8X9XqX8X8X8X8X8X8X9XwX9XuXwXwXwXwXwX9X9XqXqX4X4X4X6X5X4X8X9X3X9X8X8X8X8XqXqXqXwXqXwX0XqXeXwXeXeXtXtXpXpXpXpXaXaXaXaXaXaXsXaXnXnXnXMXbXnXnXnXnXsXdXdXdXdXdXyXtXrX0X0X8X<X#X#X7XOXoX.X.X.XoX.X.XF.D.F.V.V.V.N.n.n.b.y.6.3.u.v.m.D.F.oX+X5X5XeXiXsXnXNXNXAXAXGXHXHXKXKXLXLXLXLXLXLXLXLXFXJXFXZXBXMXMXiX6X6X6X,XK.K.K.K.H.H.H.H.H.J.J.m.v.m.m.m.F.m.m.F.V.F.V.F.F.F.G.+X+XG.,X+X,X,X,X1X,X,X,X+X7X7XG.OX7X5X5X6XqXiX6XrXrXdXdXdXdXdXpXaXsXbXsXnXnXbXnXaXsXsXnXnXsXdXnXaXsXsXbXbXdXaXsXaXbXnXbXnXbXnXbXmXnXmXnXmXmXmXnXmXmXmXmXmXmXmXmXMXmXMXnXnXnXnXnXbXnXnXaXaXaXaXaXaXpXtXtXtXeXeXqXqXqX6X6X5X6X6X5X6X6X6X6X,X,X,X6X,X5X,XOXG.G.G.F.G.D.m.m.C.v.v.x.6.3.3.6.7.3.2.*.*.o.....K G D D C x z z 5 2 2 4 1 1 1 1 > > > @ @ % O . % . . .   .   .   .         o o   o o o o o   o   o                                         . .         . . .   .     .   .   .   ",
"o                                                                                                                                                                 o   o     o       o                                                       o o   . .   .   .   o o % + $ 6 9 9 0 z z l b m F G G ....X.o.:.4.y.y.y.n.n.m.Z.A.F.H.XXXX+X+X$X$X3X3X5X8X8XqX8X5X9XqX9X0X8X9X9X8X8X9X9X9XwX9XuX9X9X9X9X9XqX9X8X4XqXqX4X4X8X8X8X8X9X8X0XwXqXwXwXwXeXwXwXwXwXwXeXeXeXtXtXpXpXpXpXsXsXaXsXnXnXnXaXbXnXbXbXnXnXnXbXbXdXdXdXyXiXtXrXrXuX8X4X<X#XoX#XoX.X.X.XF..X.XF.A.D.V.A.V.V.V.m.n.b.x.6.x.x.C.m.Z.D.G.7X5X6XqXpXsXsXNXNXCXAXGXHXHXHXKXLXLXLXLXLXLXLXLXLXGXZXVXVXMXbXfX6XfX6XK.6XK.K.K.H.H.H.J.H.J.J.J.n.m.m.m.m.m.Z.m.m.m.F.F..X.XG.H.+XOXG.+X7X,X,X,X1X,X7X,X+X7XG.+X2X5X6X6XqX6XiXrXiXrXdXpXdXdXpXaXaXaXnXaXnXsXnXsXnXaXsXnXfXnXdXsXaXsXaXdXsXaXaXnXsXbXsXaXbXnXnXSXnXnXmXnXmXmXmXmXmXNXMXnXmXmXMXmXmXMXmXmXmXmXmXnXbXnXaXaXsXaXaXyXaXtXpXtXeXeXqXqX0X6X6X6X6X6X6X6X6X6X,X6X6X6X,X,X,X,X+X+XG.G.F.F.D.D.m.n.m.x.x.u.6.6.3.4.2.2.*.*...R G G J D H C l k j 5 5 2 3 < 1 > > > > > @ @ O + O O . . .     .                   o     o o o o   o                             o       .         .   .     . o . o   . .         . ",
"                                                                                                                                                                o     o         o   o     o                                                 o o o o     .   . . o . % @ $ 6 9 9 q k l x x D D F G G ..o.*.2.4.5.y.b.n.n.n.n.A.F.A.XX%XXX%XOX$X5X3X3X8X5X9XqX9XqX9XqX9X9X9X9X9X9X9X8XuX8XwX9XwXwXwX9XqX9X8XqX6XqX9XqXqXqX9X9XqX9XwX0XwXwXwXrXwXwXwXrXwXeXrXeXeXtXpXpXpXpXpXaXaXsXdXsXbXdXnXnXnXnXnXbXbXbXbXsXdXaXaXdXdXtXrXrX0X<X8X<X<XoXoXoXoXoX.XD.F..XD.D.V.D.V.D.A.V.m.n.b.x.x.7.3.x.v.m.Z.F.oXOX1X4XqXeXsXnXnXNXCXAXGXJXHXKXLXLXLXLXLXLXLXLXKXFXFXFXFXBXMXbXtX0X6X2X7XK.K.K.K.H.H.H.H.Z.J.Z.m.m.v.Z.J.m.m.m.H.m.G.Z.F.F.F..XG.G.G.+X+X,X,X2X5X,X,X,X,XOXOX,X,X6X,X2X6X6X6XiXeXeXiXpXpXpXpXpXaXaXyXdXbXsXsXnXsXsXnXaXnXnXsXbXaXsXbXdXbXbXnXsXsXbXbXbXbXnXnXmXfXmXnXNXmXmXmXmXmXBXNXNXCXmXNXBXmXmXmXmXmXmXmXMXnXnXnXbXbXsXbXsXaXaXpXtXtXtXwX0X0X6X6X4X6X2X6X2X,X6X6X6XK.6X6X,X,X>X,XG.oXG.F.G.D.Z.D.m.m.m.v.y.6.3.3.2.2.2.o.*.o...R G G D D D Z x z z 5 5 2 2 1 2 1 1 > > > @ + $ % O O O . . .     . .               o o   o o o o o   o                                         o   .   .   o . o .   .   .   .       ",
"o           o                                                                                                                                                               o                                                         . o   o o o o o     . . . . % % % $ , 9 9 0 k z l x Z D D G G ..%.O.:.3.5.6.y.b.n.b.n.m.V.XXXXXX%XXX$X$X5X3X3X3X8X3XqX9X9XwX9XwXwXwX9X9X8X8X8X8X8X9X9X9XwX9XqX9XqXqXqXqX6X6XqX9XqXwX0XwXwX0XrXrXrXrXwXeXeXwXeXwXeXwXeXeXeXtXpXpXaXaXpXaXsXbXdXnXsXnXbXnXdXnXMXbXnXnXbXdXdXyXdXpXtXyXrX0X0X8X4X<X#X XoX.X|.oX|.[.F.F.V.V.m.V.m.V.V.N.C.n.p.x.u.6.x.C.m.Z.F.XX>X1X6XqXtXpXsXNXNXCXAXAXHXHXHXLXLXLXLXLXLXLXLXKXKXFXFXZXVXMXbXdX0X4X6X7XK.K.K.K.K.H.Z.H.H.Z.m.J.v.m.m.H.J.m.m.v.D.m.D.A.F.F.F.G.G.+XG.OX,X2X2X,X5X5X,X,X>XOXOXK.6X6X2X6X6XiX6XeXeXpXiXpXpXpXpXpXdXdXdXdXbXsXsXnXsXnXnXnXsXnXbXsXbXsXsXdXnXsXbXnXbXnXaXbXnXnXmXmXmXmXmXNXmXmXmXmXNXBXBXmXCXBXmXnXSXmXmXmXmXmXnXMXmXnXnXbXsXaXbXaXaXtXyXeXtXwXrX0X6X4X4X2X6X6X2X6X6X,X6X6X,X,X,X,X>X,XOXG.G..XF.F.F.F.m.m.v.x.x.6.d.2.3.2.2.o.o.....K G F m D Z Z b z 0 2 5 5 2 2 6 1 > > > > , + % O . O . .     .               .   o   o o   o o     o o   o                   o                   .     o . o . . . . .   . .     .   ",
"          o o                                                                                                                                                           o   o             o o                             o               o o o o o   . .   . . . . % % @ , 4 q 0 q z x x C D L L G K X.%.:.3.6.6.y.b.x.b.n.N.Z.XXXX%X+X%X$X$X$X3X3X3X3X9X9X9XwXwXwX9XwXwX9X9X9X8XuX8X9XwXuXwXwXqX9XqXqX9XqXqX8X6XqXqXqXwX0X0XwXwXwXwXwXwXtXeXwXeXeXwXwXwXtXtXtXpXpXpXsXsXtXaXaXbXsXnXnXnXfXnXMXnXbXbXnXbXsXdXdXdXdXpXiXiXrX0X6X0X<X<X|.oXoX.XoXF.F.D.F.F.D.V.m.V.D.V.V.n.b.n.x.u.6.y.x.C.m.Z.D.+XOX1X5XqXeXsXsXNXmXCXAXAXHXHXHXLXLXLXLXLXLXLXLXLXFXFXFXVXBXnXbXdX0X6X2X2XK.K.K.H.H.H.H.Z.Z.Z.J.m.v.v.Z.D.J.v.J.m.m.Z.D.F.F.F.F.G.G.G.,XK.,X,X2X,X2X,X,XOX,X,X,X6X,X6X,X6X6XiX6XiXiXiXpXpXiXpXpXdXpXpXdXdXsXaXsXnXsXsXnXnXnXbXdXbXbXbXdXsXbXbXnXnXbXMXnXnXnXmXnXmXNXmXNXNXNXBXmXBXNXNXBXCXCXmXNXNXSXNXNXNXSXmXmXnXnXMXnXbXsXbXsXaXaXdXtXtXeXrXrXqX6X4X6X2X2X2X2X6X,X,X6X,X,X6X6X>X>XOX+XoXG.G.G.D.F.D.Z.m.m.x.u.7.2.+.2.+.o.o.o...| G G G D D D Z x k j j 2 3 2 1 < < > 6 > > @ $ @ % O . . . .   . .     .     o       o   o     o o o   o                                             .       . . . o   o o .   o .     ",
"o                                                                                                                                                               o     o         o     o                                       o     o       o   o o o     .   . . . % . @ 6 9 q 0 z l z N N D D L } } %.*.2.5.5.t.y.p.b.x.b.n.N.A.XXXX%X$X$X$X$X3X3X3X3X9XqX9X9XwXwXwX9X9XwX9X9X8X8X8X9X9XwX9XwX9X9XqX9XqX8X6XqXqXqXqXqXuX0X0XwXwXwXrXwXeXwXwXtXtXwXtXeXtXeXeXtXtXtXaXpXaXsXaXaXsXbXbXnXsXSXMXnXMXnXnXbXnXbXdXyXyXdXiXtXrX0X0X0X8X4X<XoXoX|..XG..XD.F.|.D.m.D.V.V.A.V.C.C.n.b.x.x.6.6.x.m.Z.Z.D.XXOX5X5XqXeXpXnXNXmXCXAXGXHXHXHXLXLXLXLXLXLXLXLXFXLXLXFXBXBXMXbXiXiX6X2XK.K.K.K.K.J.Z.H.H.Z.Z.Z.Z.v.J.m.m.Z.m.D.m.m.m.Z.A.F..XF.G.oXG.G.OX,X2X2X5X,X,X,X,X,XOX,X,XK.6X6X6X6XiX6X6XrXiXiXpXpXiXtXtXtXrXyXaXdXsXaXsXsXnXnXbXnXsXnXsXdXsXbXbXnXdXnXnXbXnXmXnXMXnXmXmXNXmXAXAXNXCXCXNXBXBXBXCXBXBXBXNXCXNXNXNXmXNXmXmXmXmXnXbXbXbXsXaXaXyXdXtXtXrX0X0X4X4X2X6X6X2X2X6X,X6X,X6X,X,X,X>X>XOX+X+XG.G.G.G.F.G.D.D.m.v.x.d.2.+.:.O.o.o.o...G G G D m D Z Z x l 7 0 5 5 2 7 6 1 1 > > > > + % + . O O . . .   .     .           o   o   o o o   o o                                         . .   o   o . .   .   . .     .         ",
"                                                                                                                                                                    o           o     o                                                     o o o   .     .   . . . % O % , 9 9 0 q k z x Z N D F G K %.*.:.3.5.6.y.y.n.b.c.n.n.A..XXX%X%X$X$X$X$X3X9X$X5X9X9XwX9X9XwXuX9XwX9XwX8X9XwX9X9X9X0X9X9XwX9XqXqX8XqX6XqX8XqXqX0XwXwXwXwXrXyXrXeXtXeXeXtXeXtXeXeXtXtXtXtXdXdXaXsXsXdXbXnXbXnXnXnXmXnXnXMXnXbXbXnXsXaXdXdXiXpXeXeXqX0X4X8X8X<XoX XoX.X|..X.XV.F.A.m.V.V.V.V.V.N.n.b.b.x.u.u.x.x.n.m.Z.D.G.OX5X5X9XeXpXaXnXNXBXAXGXHXHXHXLXLXLXLXLXLXLXLXLXKXJXZXVXBXbXbXiXrX6X2XK.K.K.H.K.J.H.H.H.J.J.m.J.v.m.J.m.m.m.m.Z.m.m.Z.G.F.F.XXG.G.OXG.OX,X,X,X5X,X5X,X,X,X,XOX6X,X6X,X6X6XiXiXiXiXiXiXiXpXiXpXrXdXdXrXdXdXsXsXsXnXnXnXnXnXnXnXfXnXbXnXnXbXnXdXnXnXnXnXnXmXnXmXNXNXNXCXNXNXBXBXNXNXAXBXCXCXCXBXAXNXSXCXNXNXCXNXnXmXnXnXbXnXbXaXaXaXtXyXiXtXrX0X6X6X6X,X2X,X6X,X6X,X6X6X5X,X5X,X>X>XOXOX+XXX+XXXG.F.F.Z.F.m.v.6.7.+.2.2.o.o.o.G G G G G F m D D C b z z 0 5 2 2 2 < < 1 > > > @ @ % O O O . .           .           o   o     o o o o   o     o                   o                 .   .   o . . . .     o .   .         ",
"                                                                                                                                                                          o o             o o                                             o   o o o     .   .   o % . O $ @ 6 9 0 z z l N N D D L L } ..%.:.4.5.6.y.p.p.p.n.b.b.Z.}.XX%X%X%X$X$X9X$X$X9X9XqX9X9X9X9X9XwXwXwXwX9X9XwXwX9X9X0X9X8XqX9XqX9XqXqXqX4X6XqX0X0XrX0XwXwXyXrXrXyXeXtXtXeXeXtXeXeXtXeXeXpXyXdXdXsXsXdXbXdXnXsXnXnXmXnXnXmXnXMXnXbXnXaXaXdXdXpXpXiXeXrX0X4X4X<X#X#XoX.XoX.XF.D.F.D.D.V.V.m.m.V.m.m.b.c.b.y.6.6.6.x.C.m.F.F.+XOX>X5XqXeXtXsXnXNXAXGXAXJXHXHXLXLXLXLXLXLXLXLXLXJXFXGXZXmXbXaXiXiX6X7XK.K.K.K.H.H.H.J.Z.Z.J.J.J.v.v.J.m.J.J.Z.Z.D.m.F.Z.F..XH.G.+X,XG.G.,X,X5X,X,X,X,X,X,X,X,X,X,X6X6X6XiX6X6XiXiXiXiXiXiXeXeXdXrXrXpXyXdXsXaXnXnXnXsXSXnXnXnXMXnXdXdXnXnXnXnXmXnXnXnXnXnXmXmXNXSXCXNXBXAXCXmXAXNXBXAXCXCXCXAXNXAXNXCXAXNXNXCXmXmXMXnXnXbXbXbXbXyXaXpXyXrXwXrX0X6X6X6X2X6X6X2X,X6X,X,X,X,X,X>X>X>XOX+X+X+XG.+XG.F.F.D.F.m.x.x.3.2.+.2.2.o.o.R G ..R m L D D D Z v l z z 5 5 5 7 6 < 6 , , ; > @ @ % O % . . .   . .   .       o     o   o o   o     o o                                           o       .       . . .     . o     .   ",
"o         o                                                                                                                                                       o   o                                                             o       . o o o       .   . . . % % % $ 6 6 7 q z z x N D D D L G ..%.*.2.5.t.p.y.n.n.n.p.n.N.A.XX%X$X%X$X$X#X9X3X3X-X9XwX9X9X9X9X9X9X9XwXwXwXwXwX9X9X0X9X8X9X9XqXqX9X0X6X0XqXqXqX0X0XwXwXeXrXyXrXrXeXeXeXtXtXeXeXtXtXeXpXtXdXpXaXaXdXdXdXnXnXsXNXnXmXnXNXfXnXMXbXnXnXnXaXdXdXiXdXeXeXrX6X0X4X<X<XoX#XoXoX.X|.V.D.D.D.V.m.m.V.V.m.b.b.x.x.x.x.u.u.x.n.m.A.F.XX+X5X5XqXeXpXsXmXNXCXAXJXGXHXHXLXLXLXLXLXLXLXLXLXFXFXFXVXMXbXbXiX6X6XK.K.K.K.H.K.J.J.H.F.J.J.v.m.v.v.J.J.Z.D.Z.Z.m.m.Z.D.F.G.XXG.G.G.G.+X,X,X,X,X,X,X>X,X,X,X,X,X6X6X6X6XiXiX6XiXiXiXiXiXeXiXiXrXrXeXpXpXpXpXaXnXnXnXnXfXnXnXnXSXdXnXnXnXnXnXnXnXnXnXnXmXnXmXNXNXNXCXCXNXSXCXCXCXSXAXCXCXCXSXNXBXCXCXmXNXBXCXmXNXnXmXMXbXnXnXsXbXaXyXtXtXtXeX0X0X6X,X6X,X6X6X,X6X,X2X,X,X,X5X,X>X>XOXOX+X+XG.+XG.F.F.F.m.m.n.y.3.2.+.O.O.o... .G  .G m m D D b Z x l z z 0 0 5 6 2 < 1 1 > ; $ @ % O O O . . . .         .         o o o o   o o   o o   o                               o   .       .   .   o . .   .       . .         ",
"                                                                                                                                                                          o     o     o     o                                                 .     o       .   . . . % @ @ < 9 7 0 z z l N D D D L G } %.:.>.5.5.6.p.b.p.y.n.b.n.A.XX%X+X$X$X$X$X$X#X9X9X9X9X9X9XwX9XwX9XwX9X9X9X9X9X9X9XwXwX8X9XqX9XqXqXqX0XqXqXqX0X0X0X0XwXtXrXrXyXrXtXeXtXtXeXtXtXtXiXtXtXpXaXdXaXdXdXbXsXsXnXnXnXnXnXNXNXSXMXMXnXaXnXaXaXpXyXiXtXpXeXrX6X4X3X4X<X#XoXoX.X.XF.A.m.V.m.C.m.D.C.m.V.n.b.x.x.x.6.7.x.x.b.m.F.H.+XOX5X5XqXwXtXsXnXNXBXAXJXJXHXKXLXLXLXLXLXLXLXLXLXLXJXGXZXBXbXaXfX6X6XK.K.K.K.K.K.H.K.J.Z.Z.J.J.v.v.v.m.m.J.v.Z.J.G.m.D.Z.F.F.G.G.OXG.OX+X,X,X5X,X,X,X,XOX,X,X,XK.6X6X6X6X6X6XiXqXiXiXiXiXiXrXiXrXdXeXeXpXsXsXsXfXnXnXnXnXnXnXnXnXdXdXnXbXnXMXnXmXNXMXnXmXmXmXNXNXmXNXNXNXmXAXmXCXmXCXCXBXAXCXAXmXCXBXBXBXBXNXCXnXSXnXnXnXbXbXbXaXaXyXaXyXtXeXrX0X6X6X6X6X6X6X,X2X2X2X2X,X5X,X,XOXOX,XOX+X+X+X+XG.G.F.V.A.m.v.6.3.d.2.*.2.o. .R G R G G D D D Z Z b v k 0 z 0 0 7 < 7 1 , , ; $ @ @ % O O . .     . .               o     o o   o o o   o                                               .     o     .   . .     o   . .   ",
"          o                                                                                                                                                                 o     o     o   o                                 o                   .   .   o .   o . . . % $ 4 < 5 5 z z x x D b m m G } X.%.>.5.6.y.y.b.y.c.p.n.n.N.XX%X%X+XOX$X$X$X$X$X9X9X9X$X9X8X9X9X0X9X8X8X0X8XuX0X0X0X0X0X0X8X0XqX0XqXwXwX0X0X0XwX0XwXwXwXyXdXyXrXrXrXdXtXrXdXtXtXpXdXdXdXyXdXbXdXbXdXsXbXnXnXnXnXnXNXnXnXnXnXnXnXbXsXdXdXtXpXpXiXeXrXqX4X8X3X1XOXoXoX.X.XF.D.V.m.m.m.m.D.m.m.n.b.x.p.y.6.x.y.x.x.n.m.A.F.+XOX5X5X9XeXpXnXmXmXZXAXGXJXHXKXLXLXLXLXLXLXLXLXLXJXFXJXFXMXMXyXrXrX6X2X7X7XK.G.H.H.J.Z.Z.J.J.m.v.v.v.m.J.J.m.J.D.Z.Z.Z.m.F.F.F.XX+X+X+XOXOX,X,X,X,X,X,X,X,X,X,X,X2X6X6X6X6XiXiXiXiXiXiXiXiX6XiXrXrXdXyXpXaXaXaXnXnXnXnXNXmXmXNXMXnXnXnXnXMXnXmXmXnXmXSXNXNXNXmXNXNXmXSXNXAXNXCXCXCXCXCXAXCXBXBXCXBXmXmXCXNXmXmXmXmXmXMXnXMXbXbXbXaXaXyXtXtXrXwX0X0X6X6X2X6X6X6X,X,X2X,X2X2X,X,X,XOX>XOXOX+X+XG.XXF.Z.D.A.C.x.u.2.+.*.+.+.o.o.G G G F m m Z b Z b C l k z k q 5 2 2 2 < : ; ; + @ + O O O . . . .     .               o   o   o o o o   o   o                                                         o o                 ",
"o                                                                                                                                                                 o o                                                             o     .   . .         .     . . o . . % + , : 2 5 z z v b b P m D G | o.%.>.2.5.6.y.p.b.b.x.y.n.m.A.XX%X%X%X$X%X$X$X$X$X$X5X9X3X9X#X9X9X8X8X8X8X8X0X0X0XuX0X0X0X0X8X9XqX9XqXwX9X8XwX0X0XwXwXtXrXyXtXyXyXdXyXpXyXdXdXdXrXyXtXdXdXaXdXbXdXbXbXnXnXnXnXmXmXnXNXnXMXnXbXnXbXaXdXdXpXpXpXiXeXeXqX4X3X3X<XoXoX.X.XF.D.F.Z.D.m.m.m.m.m.V.n.x.y.x.y.x.6.y.y.x.C.m.A.F.+XOX$X5XqXeXpXaXnXNXAXZXGXHXHXKXLXLXLXLXLXLXLXLXKXKXFXFXVXVXMXaXiXrX6X<X7X7XG.K.H.H.Z.Z.m.J.v.J.m.m.v.J.J.D.J.v.J.Z.m.Z.D.A.F.F.XXoXoX+XOXOXOX,X+X,X,X,X,X,X,X,X,X6X6X6X6XiX6XiXiXiXiXiXiXiXiXiXrXdXdXrXpXsXsXnXnXnXmXNXNXmXNXnXnXnXnXnXnXnXnXMXmXmXNXnXSXmXNXNXAXNXNXNXNXSXCXNXNXCXCXCXVXCXBXAXAXmXCXCXNXCXCXmXmXmXmXmXMXMXMXbXbXbXyXaXaXyXeXrX0XrX6X6X6X2X2X2X6X6X2X6X2X,X5X,X,XOX,XOX,XG.G.+XoXF.D.A.m.v.y.6.2.2.2.2.o.o.G G G G G F D b Z b Z C l k k v k 5 0 2 2 < 1 1 1 + + O O O O . . .     .   . .         o   o   o   o     o   o o                                                     .           .           ",
"            o                                                                                                                                                             o           o o     o                                 .   .           .   .           .   O % % , , 4 4 5 0 z x C b D m L G | ..%.:.5.5.t.p.b.p.b.b.y.n.n.A..XXX%X%XOX%X$X$X$X$X9X3X3X<X<X<X<X<X8X8X8X9X0X8X0X8X8X0X0X8X0X0X0X0XwXwX0X0X0XwXwXwXwXwXtXtXrXtXrXrXyXpXtXrXdXrXyXtXtXdXdXaXaXdXsXdXbXSXnXnXnXNXNXnXmXNXNXnXnXnXdXsXsXaXdXpXpXpXeXeXeXqX6X2X1X$X#XoXG.D.F.D.Z.Z.D.V.m.D.m.D.m.n.b.b.x.x.y.x.6.y.x.n.m.F.F.%XOX$X5XqXeXpXaXnXmXCXAXGXHXHXKXLXLXLXLXLXLXLXKXLXKXFXFXVXmXMXaXiX0X6X2X,XK.K.G.H.H.H.J.J.J.v.J.J.v.J.J.v.D.J.G.Z.Z.m.m.m.A.F.F.XXG.oX+X+X+X,X,XK.,X,X,X,X,X,X,X7X2X6XiX6X6XiXiXiXfXiXiXiXiXiXiXiXgXdXrXpXsXsXnXnXnXNXnXSXNXmXmXMXmXnXMXMXnXMXnXmXmXNXNXNXmXmXCXNXSXNXNXAXmXmXCXAXAXAXCXAXBXBXAXBXCXNXAXCXCXmXmXmXmXmXnXnXMXbXMXbXbXaXtXdXyXtXwX0X0X6X4X2X2X2X2X2X2X,X,X,X5X,X,XOX,X,X,X+X+XG.G.G.D.m.V.m.b.u.3.+.2.2.o.o.o.o.n G G n G D b b b C C x v k v k 5 0 2 3 < ; ; + + + O O . O . . . .               o   o o   o o o o o   o   o   o                                             o     o   .   .   .           ",
"                                                                                                                                                                  o         o     o                                             .         .   .           . .   . . . % % $ , , 2 5 z l x C b Z m m D G } X.:.4.5.6.y.p.y.c.p.x.y.b.N..XXXXX+X%X$X$X$X$X$X$X5X3X9X#X<X#X$X3X3X4X8X8X8X8X0X8X<X8X0X8X8XqXwX8XwX0X8XwXwXtXwXwXwXwXeXyXtXdXdXrXtXpXdXyXdXdXpXdXdXyXaXdXbXbXbXdXdXsXnXnXNXnXNXNXnXNXMXnXnXbXbXsXsXdXpXpXpXiXeXeXqXqX1X1XOXoX|.D.D.D.F.D.F.V.m.m.m.D.m.m.n.x.y.y.x.6.y.y.x.c.n.Z.F.H.OXOX5X5X9XeXaXsXmXNXAXAXGXHXHXKXLXLXLXLXLXLXLXLXLXFXKXFXFXBXbXsXiXrX0X6X,X7XG.G.H.H.Z.J.J.J.J.v.J.m.v.v.J.J.J.v.m.J.D.Z.m.m.D.F.oXoXXX+XOX+X,X+X,X,XK.,XK.,X,X,X2X6X6X6XiXiX6XiXiXiXiXiXiXiXiXiXfXyXdXdXsXsXnXnXnXNXnXNXnXnXNXmXmXnXnXnXnXmXmXmXNXmXmXNXNXmXCXNXNXmXNXAXmXmXAXCXSXNXNXCXBXBXAXBXAXCXmXNXCXmXNXCXmXmXmXMXMXnXbXnXbXyXcXaXyXyXwXrX0X0X0X6X6X6X6X2X2X2X2X2X5X,X,X5X,X,XOX+X+XG.G.H.F.A.m.m.n.y.6.3.2.2.2.+.o.R  .n n m F n b b N C C C B k v v k 5 5 2 < : 1 ; ; + @ @ O O . . . .   . .     .             o       o   o   o o                             o                                           o     ",
"o         o                                                                                                                                                       o   o     o       o     o                                         .       .   .   .   .   . o   . . # $ , 4 4 9 0 0 v b b Z m D m m G } ..*.2.5.5.6.y.y.x.b.b.y.n.n.A..XXXXX%X+X%X#XOX$X$X1X3X$X1X#XOX$X<X3X4X<X<X<X3X<X<X4X8X8X8XqX0X0X8XwXwX0X0XwXwXtXwXwXeXeXyXtXrXyXyXyXyXyXdXdXyXdXyXdXdXdXaXbXdXaXsXnXnXnXnXnXNXNXNXSXfXnXMXbXbXsXsXaXdXpXpXpXpXeXeXqX4X<X<X7XD.D.D.D.F.F.A.m.m.m.D.m.D.m.m.n.x.x.y.6.x.x.y.x.b.n.A.A.H.+XOX>X5XqXwXpXaXnXmXAXAXGXHXHXKXLXLXLXLXLXLXLXLXKXKXJXJXZXBXbXsXiXeX6X2X,X,XG.K.H.J.J.J.J.J.J.J.J.m.J.v.J.m.J.G.J.Z.D.J.A.D.F.F.XXXX+X+X+X+XK.,X,X,X,X,X,X,X,X,X6X,X6X6X6XiXiXiXfXiXiXiXpXiXfXpXiXdXaXdXaXsXnXnXnXNXNXmXNXmXNXmXnXMXmXnXmXnXmXMXmXmXmXmXCXmXmXCXNXAXCXCXCXNXNXCXAXBXCXCXBXBXAXSXCXmXCXSXCXNXNXBXmXmXmXMXnXMXbXbXbXaXbXyXaXyXtXeXwX0X0X6X6X2X6X2X6X2X5X,X,X,X,X,X,X>XOXOXG.G.G.F.F.m.m.C.x.u.3.2.O.2.O.*.o.o.G G F m m n b b l v C C v k k v k 0 5 2 2 < ; ; ; + + O O O . . .   . .       .         o   o     o o o o     o                                                           .                   ",
"                                                                                                                                                                                o                                                   .   .           .           . . . O % $ , < 0 0 k v b Z D Z D D D G | ..%.2.w.6.y.6.y.y.x.y.x.b.n.V.XX.XXX.X%XOX%X$XOX#X$X$X3X$X#XOX$X<X3X3X<X#X#XoX<X<X<X4X4X0X8XqXwX0X0X0X0XwXwXyXwXrXtXtXrXyXtXtXyXdXyXdXtXyXtXpXyXdXaXaXaXaXsXbXbXbXbXnXnXNXNXNXNXNXNXNXnXnXbXnXnXsXnXaXaXpXpXpXeXeX6X6X4X7XoXD.m.D.F.D.D.F.D.F.V.m.m.m.m.n.n.x.p.x.y.y.6.y.x.b.n.A.H.XXOX$X5X9X8XeXtXaXmXmXAXZXGXJXHXKXLXLXLXLXLXLXLXLXLXKXJXFXVXVXbXaXiXrX6X6X,X,XK.G.H.H.H.J.J.J.v.v.m.v.v.m.v.m.m.J.D.J.H.Z.m.Z.A.F.XX+X+X+X+X,X+X+XK.,XG.,X,X,X,X,X,X6X6X6XiX6X6XiXiXiXiXfXiXiXiXiXiXdXaXsXaXnXnXnXNXNXmXNXNXmXNXmXmXmXnXnXnXMXmXmXmXmXBXmXNXmXNXmXmXNXmXBXNXSXCXCXBXBXCXCXAXBXCXCXCXCXNXCXNXCXBXmXmXmXmXMXnXMXbXMXbXbXcXaXyXtXyXwXrX0XqX6X6X6X2X2X2X2X,X5X,X5X,X5X,X,XOXOXG.G.F.F.D.m.C.c.x.6.+.2.O.2.2.O.o. .m m F m D b b x b C l v l k v l q 0 5 4 2 1 ; ; ; + + O O O . . . .       .             o       o     o   o o     o                                                                           ",
"                                                                                                                                                                        o                 o o                                                             o   . . . # O % , 4 4 9 q z v b Z Z Z m D m G G ..o.:.5.6.6.t.y.y.p.x.y.y.n.S.}..XXX.X+XoX%XoXOXOX$X#X$XOXOX<X1X1X<X7X7X XD.oXoX<X<X4X8X8XwXqX0XwX0X0XwXwXwXeXwXyXeXtXyXyXdXtXrXyXyXyXtXdXtXaXtXaXaXaXaXbXsXsXaXnXnXnXNXNXNXNXNXNXNXNXnXnXnXnXsXnXsXsXsXpXpXpXeXeX0X4X2XOXG.D.m.D.D.D.F.V.F.m.D.m.m.m.m.N.c.b.x.y.x.6.y.x.x.n.m.A.A.XX+X$X$X5XqXwXdXdXmXmXCXZXJXJXKXKXLXLXLXLXLXLXLXLXFXLXJXFXVXVXMXaXiXeXqX2X5X,XG.G.H.J.J.J.J.J.J.J.Z.c.J.c.v.J.J.J.m.Z.J.D.m.D.F.F.XXOXOX+X+X,X,X,X,X+XK.,XK.,X,X,X6X6X6XfX6XfXfX6XiXiXiXdXpXpXiXpXaXaXsXaXsXsXnXnXnXNXmXmXNXNXmXmXmXMXmXMXmXmXBXMXmXmXBXmXAXmXBXBXCXNXAXBXAXBXAXBXBXAXCXCXAXBXBXAXNXBXBXBXBXNXBXmXmXmXMXnXMXMXMXbXbXbXcXaXyXdXtXeXwXwXqX4X6X2X2X2X,X2X5X,X,X,X>X>X>XOX+X+X+XH.F.D.A.m.v.x.y.6.+.2.O.:.*.o...G G m m F n b x x v x l B l v v v z 5 2 2 < : ; ; + + + O O . . . . . .     .   .               o   o o o o     o o                     o                                                       ",
"o                                                                                                                                                                 o   o     o       o                                                       .                   o o . O % , , 4 9 0 z l b Z b F D b D G G ..%.:.5.5.6.p.6.y.y.b.b.y.x.N.A.XXXXXX%XXX+XXX%XOX%XOXOXoXOXOXOXOX<X7X7XoXD.D.oX#X<X<X8X8X8XwXwXwXwX0XwXeXwXwXwXeXtXtXyXrXyXyXyXdXpXrXyXrXaXtXaXpXaXsXaXaXbXbXaXsXnXnXNXnXnXNXNXNXNXnXnXnXbXsXnXnXaXsXpXsXpXiXeXrXqX6X<XoXD.C.C.D.F.D.m.F.D.D.m.m.C.m.C.n.n.b.b.b.y.6.y.x.y.b.m.A.F.XXOXOX5X5X8XeXyXdXnXmXCXGXGXHXHXKXLXLXLXLXLXLXLXLXLXLXJXGXZXBXnXaXiXiXqX2X,X,XK.H.J.H.H.J.J.J.J.v.n.Z.J.n.J.v.J.D.J.v.H.J.m.m.A.F.oXXX+X+X+X+X+X,XK.+X,X,XK.,X,X,XK.6X6X6X6X6X6XfXiXiXfXiXdXpXpXpXaXaXaXsXnXnXmXnXmXmXmXNXNXNXSXmXmXmXmXnXmXMXmXMXmXBXBXBXBXBXCXBXCXSXNXAXAXNXBXBXBXAXCXCXNXAXBXBXAXBXBXmXCXCXmXBXnXmXmXmXnXMXbXnXbXMXbXbXyXyXyXwXwXqXqXqX6X2X4X2X2X,X,X,X5X5X,X>XOX,X+XoXG.H.F.F.m.m.n.x.y.3.3.:.2.:.:.O.o.G G m m n b b v x v C B x l l v v z q 5 2 < : , ; ; + + O O . O .       .                 o   o         o   o o   o                         o                                                   ",
"                                                                                                                                                                o     o         o   o     o                                                             .     o . . % % % $ 6 6 9 9 z l v C Z b b m D m G ..%.%.5.w.6.6.t.y.p.y.b.y.x.n.A.XXXX}.XXXXXXoX%XOX%XOXOXoX+X1X1XOX1X$X7XD.D.D.7X<X<X8X0X8X9XqX0X8X0XwXrXrXyXyXwXyXyXpXtXtXyXaXyXyXyXdXyXdXyXaXdXaXaXaXnXbXsXnXsXnXnXnXnXNXnXNXNXNXNXNXMXnXbXnXsXnXdXdXpXpXpXpXeXeX6X4X<XoXD.D.D.C.D.D.G.D.J.m.m.m.C.C.n.n.b.x.x.y.y.6.y.x.x.b.m.A.F.XXOXOX5X5X9XwXtXsXmXNXAXAXFXPXHXLXLXLXLXLXLXLXLXKXFXLXLXFXFXVXcXyXrXrX6X4X7X7XK.H.H.J.J.J.J.v.c.c.Z.J.Z.c.J.J.Z.J.m.Z.Z.Z.Z.m.Z.H.+X+X$X+XOX+X,X,XK.K.+X,XK.,X,X,X6X6X6X6X6XiXiXiXiXfXiXfXdXpXdXsXsXnXnXsXnXnXnXnXNXmXmXBXBXBXmXmXBXmXMXmXmXMXBXmXBXBXCXCXCXBXBXBXBXAXCXCXVXZXCXZXBXCXBXBXAXAXBXBXSXNXAXNXNXBXmXNXmXmXmXmXmXMXnXMXbXbXcXaXyXyXyXtXeXwX9XqX4X4X2X2X2X,X2X,X,X>X>XOX,XOX+XH.F.F.D.m.m.n.x.u.6.3.2.O.:.:.:.X...G m m D n b b b v C N B C l k v k k 0 5 < 1 : ; ; + + + O O . . . . . .   .               o     o o   o   o o   o                                                             .                 ",
"            o                                                                                                                                                               o                                                             .                   . X . . . % @ , 6 4 0 0 k b C b Z Z D m F F R o.*.4.5.w.6.w.y.p.6.y.p.b.n.A..XXXXX.X.XXXXX+X+XOX$XOX+X+X$X$X1XOX1X#XoX|.oXoX#X<X8X8X8XqX9X0XwXwXwXrXyXeXeXyXeXyXrXyXtXyXyXdXrXyXyXdXyXdXyXaXaXaXaXaXnXnXaXnXaXnXnXNXfXSXNXNXNXNXNXmXnXsXbXnXsXnXdXpXpXpXpXeXeX0X6X2XoXD.D.v.D.D.D.D.D.m.D.m.C.n.C.C.c.n.x.b.x.y.x.x.6.x.n.m.A.F.XX+X$X$X5XqXwXtXaXNXmXBXAXGXJXHXKXLXLXLXLXLXLXLXLXLXFXLXFXVXVXnXyXrXfX6X<X7X,XK.H.H.H.Z.J.J.c.J.J.J.c.c.J.J.m.J.v.J.m.Z.D.Z.m.D.F.%XOX+X+X+X+X+XG.,XG.G.K.,X+X,X,X6X6X6X6XiX6XiXfXfXiXfXiXfXpXsXsXsXsXsXnXnXnXNXmXmXNXNXBXmXBXBXBXBXmXBXMXmXmXMXBXBXCXBXCXCXBXBXCXBXBXVXVXCXCXCXCXCXBXAXBXCXBXBXAXCXNXNXAXNXBXCXmXmXmXmXmXMXmXMXnXcXMXbXcXbXyXyXtXwXeXqXqX6X4X4X2X,X2X6X,X,X,XOX,X>XOX+XG.F.F.Z.m.n.C.x.y.3.d.:.+.O.:.O.o.G L m m b b C b b l C B C B l l k v v 0 2 2 1 ; ; + + + O O O . . . . . .         .           o o       o o o   o o o   o                                                 .                       ",
"o                                                                                                                                                                       o   o             o o                                                               o   o . . % % $ , , 4 5 q k v C C Z Z b D D G G o.*.>.5.5.5.6.y.y.6.y.y.b.m.S.A.XX.X.X.XXXH.XX+XXXOX$XOXXXOX$XOX>X5X1XoXoXOX7X<X<X8X8X8X9XwX0XwXwXwXrXyXrXyXyXdXyXpXaXtXdXyXyXrXyXrXyXdXyXaXaXaXaXaXnXaXbXsXsXsXnXnXnXnXNXnXNXNXNXnXnXnXbXnXnXsXsXdXaXpXpXiXeXqX6X2X<XK.D.D.D.C.D.D.D.D.D.m.C.m.C.C.x.n.b.x.p.y.x.y.y.y.y.b.n.Z.H.XXOXOX>X5XqXeXtXaXnXmXBXAXGXJXJXKXLXLXLXLXLXLXLXLXLXLXFXFXVXBXMXaXrX6X6X2X,X,XG.H.H.J.J.J.c.c.J.c.n.n.c.c.v.J.m.J.J.Z.Z.Z.D.Z.H.G.%X+X$X+X+X,X,XG.G.K.G.,X,XK.,X,X6X,X6X6X6XfXiXiXdXiXfXfXdXdXsXsXsXnXnXnXNXnXNXmXmXNXBXmXBXmXBXmXBXmXBXMXMXBXBXBXBXBXBXVXBXBXCXBXBXAXCXAXCXZXVXCXSXCXCXCXAXCXBXAXmXCXAXNXBXNXmXCXmXmXmXMXmXMXMXnXMXcXbXyXaXyXyXyXyXwXwX8X6X4X4X2X2X,X,X,X,X,X,X,XOXOX+XH.F.A.A.m.v.x.y.y.3.3.O.:.:.O.X...G m m m D b C b x C C C B M M k k v z 5 5 < : ; ; ; % + + O % . . . .       . .               o     o o o   o o   o o                                                                             ",
"                                                                                                                                                                o   o           o     o                                                               o         . . . % % $ , 6 < 5 q k C C C Z b D b D G K ..*.4.5.6.5.6.w.y.p.6.y.n.N.A.[.A..XXXXX.XH.XXXX+X+XOXXX+XOXOX$X5X5X3X<X#X3X<X<X<X0X8XqXqXwXwXwXwXwXrXrXyXrXrXyXtXyXyXtXyXyXdXyXtXtXdXyXdXdXaXaXaXaXaXbXsXnXbXnXnXnXnXNXnXNXNXNXNXNXmXnXbXbXbXsXnXdXpXpXpXpXiXeXqX4X7X7XD.C.m.m.m.D.Z.D.m.m.m.C.x.x.x.c.b.x.x.b.y.6.x.x.x.c.S.A.H.XX%XOX5X5X5XwXpXaXmXMXAXGXGXJXHXKXLXLXLXLXLXLXLXLXFXLXFXFXZXBXMXtXrX0X6X2X2X,XK.H.H.H.J.J.J.c.c.c.c.J.v.J.v.m.v.J.J.m.Z.m.Z.m.Z.G.+X%XOX+XOX+X+XG.G.G.G.G.G.,X,X,XK.6XK.fXiX6XiXiXiXdXiXiXdXsXsXsXsXsXnXnXnXNXmXNXNXmXBXmXBXBXBXBXBXBXMXMXBXMXMXBXBXBXZXBXZXBXCXCXAXBXVXCXZXCXCXCXAXNXCXCXCXCXCXBXCXCXNXSXNXAXBXmXmXmXmXmXnXMXnXbXMXMXMXbXbXcXyXtXtXwXqXqX8X6X4X4X,X2X,X,X5X,X,X,XOX+X+XH.F.F.m.m.x.x.y.3.3.O.+.:.:.X.X.} G m m m b b b x C v C B B C B l v v v 0 5 4 : , ; + + + O O O O . . .   .       . .               o     o o o   o o                           o                                                   ",
"o                                                                                                                                                                   o           o     o                                                                         . X . % O @ $ , < 9 0 k v Z C b Z b D D F G X.%.>.7.5.5.5.y.p.p.y.y.n.S.A.A.A.A.F.XXXXF.+XXX+X+X+XoXXXoXOX$X$X5X9X3X3X8X9X<X9XwX9X9XwXwXwXwXwXyXyXwXyXyXyXtXpXyXaXyXaXyXyXyXyXyXaXyXaXyXyXaXaXbXaXnXaXaXsXnXnXnXNXNXNXNXNXNXNXnXnXnXnXnXnXnXdXdXpXpXpXtXiXrX0X6X<X7XD.D.C.D.D.m.D.D.V.C.m.C.b.x.x.b.x.x.y.x.y.x.b.y.b.n.m.F.H.+X+X$X5X3XqXwXpXaXnXmXBXAXGXJXHXKXLXLXLXLXLXLXLXLXKXJXJXFXZXBXbXyXgX6X2X2XK.K.K.H.H.H.J.J.c.c.c.c.c.v.c.c.J.J.J.n.m.Z.Z.Z.Z.Z.F.XX+XOXOX+X+X+X,XG.H.G.G.K.G.K.K.,XK.6X6X6XfX6XiXfXfXdXdXdXfXsXsXsXnXnXnXNXnXmXmXmXmXBXBXmXBXBXBXBXmXmXBXVXVXMXMXVXBXBXBXBXCXCXVXVXVXAXVXZXZXZXZXZXAXBXAXCXCXCXSXAXmXBXCXNXCXNXNXBXmXmXnXmXnXMXMXMXMXMXbXcXbXyXyXyXwXwXwX9X6X4X4X4X6XK.6XK.,X,X,X,XOX+XXXH.H.A.Z.m.v.x.u.3.+.O.O.:.:.X.X.| m m P m b b b b v C C C B B B l v v k 5 5 < : ; ; ; + O O O O . . .   .     .     .         o o o       o   o   o o   o                                                       .     .             ",
"          o                                                                                                                                                               o o             o o                                                             o   o . . . % O @ @ , < 7 9 k v v Z Z b Z n D G G ..$.2.4.0.5.6.p.b.y.y.p.m.N.A.}.XXF..XF.XXXXXX+X+X+X+XXXoX+XOXOX5X5X5X5X9X5X4X8X9X9X0X9X9X0X8XwXwXwXwXrXrXyXyXtXaXtXaXyXyXbXdXyXyXyXyXaXyXbXaXaXaXaXbXsXsXnXnXnXNXnXnXnXNXnXNXNXnXNXmXmXdXbXsXsXsXsXpXpXpXeXiX0X0X6X7XG.D.D.D.C.m.D.F.Z.V.m.C.v.z.x.x.y.y.x.x.y.y.b.x.b.n.n.A.F.XX%XOXOX1X3X9XqXtXaXnXmXAXAXJXGXHXLXLXLXLXLXLXLXLXLXLXLXJXFXZXVXbXeX0X6X2X2XK.K.K.H.H.J.J.J.J.c.u.v.c.c.c.c.c.J.J.J.J.J.Z.Z.A.A.A.XX%XOX%X+X+X+X+XG.G.G.G.G.K.K.G.7XK.6X6XiX6XfXiXfXiXdXsXsXsXdXsXnXnXnXnXNXNXmXnXmXNXmXBXBXBXmXBXBXVXMXmXMXmXMXBXMXBXBXCXVXVXZXCXZXAXVXAXZXCXZXBXZXCXBXBXCXCXCXBXNXBXBXCXCXmXCXBXmXmXmXMXmXMXnXnXMXMXMXbXcXcXaXyXtXwXwXqXqX8X8X4X2X6X,X,X,X,X,X,X,XOX+X+XH.F.A.m.m.x.x.3.3.3.:.O.O.O.X.| | L m x b b C v v N v N C B B B l k v z 0 3 < : ; + + + + O O O . . . .   . .                       o     o o o o   o o   o                                                                         ",
"            o                                                                                                                                                   o     o                                                                                         o . . . O @ $ > < 4 0 k v V Z C b Z F D F K ..X.:.4.5.w.6.b.w.y.y.n.N.Z.A.A.XX}.F.XXXXXXXXXXXX+X+XoX.XoX$X$X$X5X8X9X3X9X9X8X9XwX9XwX9XwXwXrXwXyXwXyXrXtXpXyXtXaXaXyXyXaXaXyXyXyXaXyXaXyXyXaXaXbXbXaXsXaXsXnXnXNXNXnXnXNXNXNXmXnXnXnXsXnXnXnXbXdXpXpXpXiXrXrX6X<X7X7XG.D.D.D.m.D.D.D.m.m.C.C.x.x.x.x.6.x.p.x.b.y.b.b.n.m.Z.H.XX+XOX$X1X5X0XwXtXaXmXmXSXAXGXGXHXKXLXLXLXLXLXLXLXLXFXLXJXFXZXCXMXuX0X<X2X,X,X,XK.H.H.K.J.J.J.c.c.J.c.u.c.c.c.v.v.v.J.m.Z.Z.F.Z.A.XX%X+XOX+X+X+XG.G.H.G.G.K.G.G.K.,XK.6X6X6XiXiXiX6XfXfXsXfXsXfXsXsXnXNXNXnXmXnXmXmXBXmXmXBXBXBXMXVXBXVXBXMXMXMXMXBXBXBXVXZXVXCXZXVXVXZXVXZXZXZXZXAXBXAXBXCXCXCXAXBXNXBXCXNXCXNXmXBXmXmXmXnXMXMXbXMXcXMXcXbXbXyXyXyXyXuXwX8X4X4X4X3XK.,X,X,X,X6XK.,XOX+XG.XXF.A.m.n.c.y.t.3.3.3.:.O.X.| | G m m m x b b b l N B B C B C B v v v z 5 2 4 : ; ; + + O O O . . . . .       .               o     o       o o o o o                       o                                                       ",
"o                                                                                                                                                                         o     o     o     o                                                       o         .   o . . . + $ @ < 4 9 q v C C Z C C F F J K ..$.*.4.5.6.6.w.p.y.b.b.n.S.A.}.A.XXA.A.F.XX+X+X+XXX+XXXoX+XOX$X$X5X5X8X8X8XwXwXwXyXwXwXwXwXwXuXwXwXrXyXyXtXyXdXaXaXaXbXyXaXdXyXyXyXyXaXyXaXaXbXyXaXaXaXbXsXnXnXnXnXnXNXnXNXmXNXNXmXMXnXbXbXsXsXsXdXpXpXiXiXeXrX6X4X7X#XoXD.D.C.D.D.D.Z.m.m.C.x.x.x.y.y.x.y.x.6.y.x.y.n.n.m.A..XXXXXOX$X5X5X4XrXeXaXnXnXCXAXGXGXKXLXLXLXLXLXLXLXLXLXLXFXJXFXZXCXdXyX0X<X2X5X,X,XK.K.J.J.H.J.J.d.c.d.c.u.u.c.c.c.v.v.m.Z.Z.F.Z.F.H.XX+XOXOX+X+X+X+XG.H.H.G.G.K.K.K.K.K.6X6X6X6XfXiXfXdXdXdXdXsXdXsXnXsXnXnXNXNXNXNXmXmXCXBXBXBXBXBXVXMXBXMXBXMXVXBXBXmXCXVXCXCXVXCXAXZXZXZXZXZXZXZXCXSXBXAXBXAXCXBXBXBXBXCXCXBXCXBXBXnXmXmXMXnXMXnXbXbXbXcXaXcXtXyXtXwXwX9XqX4X4X4X2X6XK.7X,X,X,X,X,X+X+X+XH.F.A.m.m.v.u.3.+.3.3.O.O.X.X.|  .m m x x b v x v v M C C C M B B v v v 5 2 < : ; + + + O O O . . . .   .   .   .   .           o         o       o     o                                                                 .         ",
"                                      o                                 o     o                                               o                                                                                                                             o   . . . o . O % , , 4 9 q v B C C Z Z F F G E ..o.1.:.7.4.6.6.w.p.p.b.n.m.A.A.[.XXXXA.A.XXXXXX+X+X+XXXXXoX+X$X3X5X9X5X9X9X9X9XwX9X9XwX9XwX0XwXwXyXwXyXpXyXaXyXdXaXaXbXaXyXbXyXdXcXaXdXdXcXaXaXaXaXaXsXnXsXnXnXnXnXnXnXNXmXnXnXNXmXnXnXbXnXsXsXsXdXiXpXiXiXiX6X6X2X2X<X7XG.G.D.D.D.D.F.D.V.C.x.x.6.y.x.y.x.b.c.n.y.p.n.n.S.A.XXXX+X+X$X3X5X9XeXeXpXMXnXSXAXAXJXHXKXLXLXLXLXLXLXLXKXLXJXGXFXBXBXbXuX0X<X<X<X2X>XG.H.H.Z.J.J.J.d.c.J.u.u.c.d.J.c.c.c.J.Z.Z.Z.A.A.A.H.+X+X+X+XG.G.K.G.H.H.G.G.G.K.G.,X,X,X6X6X6XiXiXiXfXiXdXsXdXsXsXsXsXNXsXNXNXNXnXNXmXCXBXCXBXBXBXBXBXBXMXBXMXBXBXMXCXCXCXVXCXVXAXVXZXZXAXZXAXFXVXAXAXVXCXCXZXBXCXCXBXCXZXBXBXCXmXmXmXmXMXmXnXMXbXaXbXcXyXdXyXyXyXrX0X0X0X8X4X2X2X2X,X,X,XK.K.,X,X+X,XG.H.H.F.Z.m.Z.x.x.6.+.3.:.O.O.X.| } L m P b x n v l v v C C B C v v B v l k 0 2 1 > ; + + O O O . . . . .   .                                                                                                                     .   . ",
"o           o                                                                   o   o     o o                                                                                                                                                                   . . o X O O $ $ , < q q v B B C Z n Z F F R R ..*.<.4.7.6.w.p.w.b.b.C.N.Z.}.F.A.A.XXXXH.XXXXXX+X+X+XXXoXoX$X5X3X9X9X9XqXwX9X9XwXwX9XwXuXuXyXyXwXyXyXyXyXyXaXdXcXaXbXbXaXcXaXdXdXaXcXbXdXcXaXcXsXaXaXsXnXsXnXnXnXNXNXNXNXnXmXmXNXnXbXsXaXaXsXsXpXdXiXiXiXrXiX6X2X2X7X7XoXD.D.D.D.F.D.Z.m.C.x.6.y.6.6.x.p.y.p.y.b.b.b.m.A.F.F.XX+XOX5X5X9XqXqXtXpXdXnXNXAXAXAXHXKXLXKXLXLXLXLXLXLXKXGXGXZXBXVXMXyX8X4X4X<X,X,XK.H.H.H.Z.J.J.J.u.J.c.u.u.u.c.c.c.c.c.Z.A.Z.Z.A.F.F.XX+X+XG.G.G.D.K.H.H.G.G.K.+XK.G.,X,X6X6X6XiXiXiXpXdXfXsXiXsXdXsXsXsXNXnXnXNXNXNXmXNXmXCXBXBXBXBXBXnXmXMXMXBXSXMXBXBXBXVXCXAXZXAXZXGXVXZXAXZXZXZXVXAXVXAXCXCXZXBXBXBXBXCXCXBXBXmXmXmXnXnXnXbXbXbXaXbXyXyXyXyXrXrXwX0X4X4X6X4X6X2X,X,X,X,X,X,X,X,XG.G.H.H.Z.Z.n.n.v.y.3.3.3.O.O.%.X.| G L m b x b x l b z v v C C C B M v B M k 0 3 < 1 ; + + + O O . O . .   .                                                                                                                             ",
"          o o                                                                       o           o                                                                                                                                                         o     . . . . . % % $ , 4 9 q q B V C Z Z Z F F K R ..&.2.4.4.0.6.w.y.y.b.n.N.A.A.A.F.A.H.A.XXH.+XXX+XOXXX.XXX+X$X$X3X9X9XwX9X9X9XuXwXwXwX9XwX0XwXwXwXyXyXtXaXdXyXyXbXbXaXbXaXdXyXcXcXaXaXdXbXbXaXbXaXaXaXnXnXnXnXnXnXnXNXnXnXnXmXnXmXnXnXsXaXsXsXsXdXpXpXiXiXiX6X6X6X7X<X7X7XG.D.D.G.F.D.D.m.C.x.z.6.y.x.y.x.y.b.y.y.y.n.m.A.A.XXXX+X+X$X5X5X6XqXeXsXbXMXNXCXPXJXJXHXLXLXLXLXLXLXLXKXJXJXFXGXCXCXbXuXgX2X<X2X>X,XH.H.H.J.Z.J.J.d.u.J.u.u.u.c.u.c.c.c.n.Z.Z.S.Z.Z.F.F.XX+XG.H.H.D.K.v.Z.F.H.G.G.,X,X,X,X,X,X6XiXiXiXiXiXdXiXfXfXsXsXsXnXNXNXsXNXnXnXNXNXmXmXCXBXBXBXBXBXBXBXmXBXMXmXMXBXVXBXCXCXCXVXZXZXVXVXZXVXAXZXAXVXAXCXAXZXCXCXCXCXBXBXCXCXBXmXBXmXnXnXbXnXnXbXaXaXyXyXyXeXyXrX0XrX8X4X4X4X4X2X2X6X,X,XK.,X,XK.K.G.H.F.Z.Z.m.n.m.x.y.3.2.O.:.%.X...| G D P x x c b v z v l b C V v B B B B M k 0 2 < : + + + O O O . . . . . .                             .                                                                                               ",
"o                                                                       o                 o                                                                                                                                                             .     .     . o . O % % $ 4 9 q q B B Z v Z F F G E R ..&.-.4.4.5.5.6.w.6.p.n.m.A.A.A.A.}.H.XXXXXXXX+XXX+XXXXXG.oXOX3X3X9XqX9XwXwX9X9X9XuX9XwXuXuXwXyXtXuXyXyXyXyXyXaXaXyXbXaXaXdXaXdXaXcXbXaXbXaXbXyXaXaXsXnXnXnXnXnXmXnXNXnXNXmXnXnXNXnXnXsXnXsXsXsXpXpXpXiXiXiX6X6X6X7X4X7XK.G.D.D.D.F.Z.V.m.m.x.x.6.6.6.y.x.y.y.b.y.n.n.N.A.F.A.F.XX$X$X5X5XqXeXtXpXfXnXmXAXZXJXJXKXLXLXLXLXLXLXLXKXKXFXGXGXZXCXmXgX<X4X<X<X>XOXG.H.H.H.H.J.J.c.J.u.J.u.c.u.c.c.c.c.v.n.m.m.Z.A.F.F.H.H.H.F.H.Z.v.G.m.Z.H.G.G.G.G.K.,X2X6X6X6XiXiXiXiXfXdXsXdXdXaXsXsXfXsXNXfXNXnXNXmXNXmXCXCXmXBXmXmXmXmXMXMXmXmXSXBXBXCXVXVXZXVXAXZXZXAXZXZXZXAXVXAXCXCXVXCXCXVXZXBXZXCXBXCXBXmXmXMXmXnXnXbXbXaXbXbXaXyXyXyX0XuXrX0X0X4X4X6X4X4X2X,X6X,XK.,XK.K.K.H.H.Z.Z.Z.v.c.n.x.y.6.+.3.O.X.X.| | L P x x c x x v l z v B C B B x B B C v k 0 3 1 ; ; + + O O O . . . .   . . .                                                                                                                   .   . ",
"                                                                  o               o o   o     o               .               o                                                                                                                                   . . . . . . # $ 4 9 9 q v B B V Z F F G E R ..o.*.2.2.4.6.p.6.p.b.b.n.S.Z.A.}.}.H.A.XX+X+X+XXX+XXXXX.XXX$X$X5X5X9X9XwX9XwX9XwXwX9XwX9XuX0XyXuXyXtXyXaXyXaXyXbXaXbXaXbXaXbXyXaXaXaXaXbXyXbXaXbXsXnXnXnXnXnXnXmXnXmXNXmXnXmXnXmXnXnXsXsXsXsXsXdXdXiXiXiXeX6X6X6X2X4X2X7XG.D.D.G.F.D.m.m.v.z.6.7.6.x.y.x.x.y.b.u.n.n.V.A.A.F.F.F.oX$X5XqXqXqXpXpXnXnXSXCXAXGXHXKXLXLXLXLXLXLXLXLXKXFXGXZXBXBXMXuXgX7X<X<X,X,XK.H.H.J.J.J.J.J.u.J.c.u.u.c.u.c.c.c.v.n.m.Z.m.Z.A.F.H.H.F.A.G.v.m.m.m.G.G.G.G.,XK.,X,X2X6X6XiXiXiXiXpXiXfXsXdXfXsXsXsXNXNXsXNXNXsXNXNXNXmXmXNXBXBXmXmXmXmXmXMXBXMXBXBXBXVXCXAXZXVXZXZXZXVXZXZXZXZXZXVXCXCXCXCXVXBXBXBXBXBXBXmXCXmXmXMXnXnXnXbXbXaXaXbXyXtXtXrXwXuX0X0X0X<X4X6X4X2X5X6X6X,XK.,X,XG.G.H.H.J.J.J.J.c.c.c.y.3.+.O.O.X.| | G m m m c n c v l l l l C Z Z C Z V V S V l 0 2 1 ; ; + + O O . . . . .       .                                                                                                                   . .   ",
"                                                                        o             o   o                                                                                                                                                           . .     .       . . . O % $ * 9 4 v v B B b Z F F F F R R ..&.1.4.4.6.6.6.6.x.b.n.n.V.S.XXH.A.XXXXXXXX+XXX+XXXXXXX.X$X5X5X9XqX9XwX9XwXwXuXwX9X9XuX0XuXwXwXyXyXyXyXaXyXyXaXyXbXbXyXyXyXbXaXbXbXaXbXbXbXbXaXaXbXnXnXnXnXnXnXmXmXnXnXnXnXnXnXnXnXsXaXsXsXsXdXdXdXiXiXrXiXiX6X4X2X1X7XK.D.D.D.D.m.m.m.v.6.6.3.6.6.6.x.p.x.p.b.n.n.Z.A.F.A.F.F.+XOX3X5XqXwXeXpXdXnXNXAXGXJXHXHXKXLXLXLXLXLXLXLXJXJXGXGXVXCXMXrX0X<X<X2X,X,XG.H.H.H.J.J.J.J.J.u.c.c.c.d.c.c.c.c.x.c.c.m.m.m.Z.Z.A.F.A.Z.v.G.m.m.D.Z.D.G.G.G.,X+X,X2X6XiX6XrXiXiXdXdXsXsXdXsXbXsXsXfXsXNXNXNXNXnXNXnXNXNXCXmXNXBXBXMXmXMXMXmXBXMXBXCXCXVXVXCXVXZXZXZXZXZXZXZXZXCXVXCXCXVXCXCXZXBXBXBXBXBXBXmXmXmXMXnXnXbXaXaXaXaXyXaXtXtXyXrXrX0X8X4X0X4X5X6X6X1X,X,X,X,XK.K.G.G.H.Z.Z.J.n.J.n.S.c.y.6.3.:.O.X.| |  .L P x x c z b z l v v C V Z Z V Z Z Z B k 0 2 1 1 + + O O O . . . . . . .                                                                                                                             ",
"o         o                                                                           .                 .       . .                                                                                                                                         .       .     . . # % 4 9 t q v V v C Z S F F G R R ..*.1.4.4.6.w.w.w.y.b.b.N.N.A.A.H.A.XXXXXXXXH.+XXXXXXXoXOX$X3X3X9X9X9X9XwX9XwXwXwXuX9X9XwXwXyXyXtXyXyXaXyXyXbXyXaXaXbXyXbXbXaXbXbXbXbXbXbXbXbXbXbXaXnXnXnXnXnXmXnXmXmXnXnXnXNXnXNXnXbXsXsXsXbXdXfXpXiXiXiX6XqX6X4X2X1X7XG.D.F.D.D.m.C.C.z.x.7.7.3.6.y.y.p.y.p.c.n.n.A.A.A.A.F.F.oXOX5XqXqXeXpXpXnXnXmXCXGXJXHXKXLXKXLXLXLXLXLXLXKXFXGXZXVXBXMXuXgX4X<X2X,X,XG.H.J.J.J.J.J.J.v.v.c.c.x.c.u.c.c.c.x.c.v.v.n.Z.m.Z.Z.F.A.Z.D.v.D.m.m.J.H.G.G.,X,X,X,X2X6X6XiXiXiXiXdXsXdXfXsXsXsXnXNXfXnXnXNXNXnXNXmXNXNXBXNXmXNXmXmXmXmXBXBXSXMXBXBXBXCXBXBXCXZXCXZXZXZXZXCXZXVXZXCXCXVXCXBXBXBXCXBXVXBXBXBXBXmXmXnXnXnXbXaXaXyXdXtXtXtXtXyX0XrX0X0X0X4X6X2X6X2X2X,X6X,X,XK.K.G.H.H.m.J.v.Z.J.J.S.n.y.6.+.O.X.|  .L m m m x c c z l l l x C Z Z Z V Z V H Z C z 7 2 1 ; ; + O O . O . .     .   .                           .                                                                                         .     ",
"                                                                                                            .                                                                                                                                                         .   . % . % , 4 9 q a y v B n Z F F F G R ..&.2.4.4.6.5.w.y.b.x.b.n.Z.A.A.}.XXH.XXH.H.XXXX+XXXXXXX%X$X$X3X5X9XqXwX9XwXyXwXyXwXwXwXuXwXwXyXwXyXyXyXaXaXyXbXcXyXbXbXbXyXaXcXaXbXbXaXaXbXbXaXbXnXnXnXnXnXmXnXnXnXNXfXSXnXnXmXnXbXsXbXsXsXfXdXdXiXpXiXrXrXqX6X2X4X>XoXG.G.D.F.D.m.C.v.x.x.7.7.3.7.6.x.y.x.p.b.N.N.A.F.F.F.Z.F.oXoX5XqXeXeXeXpXdXnXBXAXAXGXHXKXKXKXLXLXLXLXLXLXKXJXGXZXCXNXSXyX8X8X4X2X,XOXK.G.K.J.J.J.J.J.v.v.c.u.u.x.x.x.c.x.c.x.n.n.n.m.Z.Z.Z.Z.A.Z.J.m.J.v.D.G.J.G.H.,XG.G.,X6X6X6XeXiXiXiXdXfXsXsXsXsXsXnXnXnXfXNXsXfXNXnXmXNXmXNXNXNXmXmXBXmXmXmXMXBXmXmXBXBXVXCXVXZXVXZXZXAXCXZXCXVXZXZXCXCXCXCXCXBXBXBXBXBXBXBXBXmXBXnXMXnXaXnXaXaXdXdXtXtXeXwXrXrX0X6X0X6X6X<X6X2X2X,X,X,X6X,XK.K.G.H.m.m.v.J.S.u.J.J.c.x.3.2.O.o.| G m m P x x c c c z v v v C C Z V Z V Z V S B q 7 < : ; + + + O O . . . . .       .                                                                                                                       . ",
"          o                                               o           o         o                           .   .     o o                                                                                                                       .                       .   . . % $ 4 5 q t v v B C S S F F E G R $.*.4.4.6.w.p.b.y.y.b.n.S.A.A.H.A.}.H.H.H.A.A.XXXX%X+XXX$X3X9X9X9XwXwXuXwXwXwXwXwXwXwXuXwXwXyXyXyXyXaXyXaXcXaXyXaXbXaXcXaXbXbXbXbXbXbXbXbXdXbXbXbXnXnXnXnXmXnXNXmXnXmXnXnXnXnXnXnXnXnXsXsXsXdXdXdXdXiXiX6X0X6X6X2X1X>XoXD.D.G.D.v.v.v.x.z.7.+.3.7.y.y.x.p.b.n.N.S.A.A.F.A.Z.F.oX<X8XeXeXiXiXsXaXnXCXCXGXHXHXKXLXLXLXLXLXLXLXKXKXJXGXGXBXBXbXyXrX0X0X4X6X7XG.H.H.J.J.J.c.J.c.J.x.u.d.x.c.x.x.x.d.x.x.x.n.m.m.n.D.J.Z.Z.m.D.m.Z.G.J.K.G.K.K.OX,X,X6X6XiXiXiXiXiXdXsXsXsXNXnXnXnXnXsXNXfXnXnXNXnXNXNXNXNXmXNXBXBXCXmXBXmXSXBXBXMXVXCXCXBXVXBXZXZXZXCXZXZXZXCXCXCXBXBXBXBXBXBXBXBXBXVXmXBXBXmXMXnXmXbXnXaXaXaXaXdXpXeXeXrXrX0X0X0X2X6X6X6X2X2X6X5X6X,X,X5X,XG.Z.Z.v.v.v.J.J.u.J.S.n.y.6.:.o.o. .G m m P b x c c v z l M V M Z V H H V V A Z M 0 7 < : : ; + O O . . . . .   . .                                                                                                                         . . ",
"o                                                               .             X       . .                 .     . . . o                                                                                                                                                   . . . % $ 4 4 9 q v k v C n F F F F R R o.<.4.4.4.6.6.6.y.y.y.n.S.S.A.A.H.XXH.H.A.A.H.XXXXXX%XOX$X3X9X9X9XuXwXwXwXyXyXyXyXwXuXtXwXyXwXyXyXyXyXaXyXaXyXaXcXcXaXaXyXyXbXbXbXbXbXbXbXMXbXnXMXMXMXbXnXnXnXmXnXmXnXnXmXfXSXnXnXsXbXnXsXsXbXdXdXiXiXiXiXrX6X4X4X>X<XoXF.D.D.D.C.C.z.x.6.7.2.3.6.6.y.6.x.p.n.n.N.A.F.F.F.F.F.oX<X6XqXeXeXiXpXsXmXNXBXAXJXHXHXLXLXLXLXLXLXLXLXKXJXGXZXVXBXMXcXgX0X<X6X2X,XK.H.H.H.J.J.J.v.S.v.c.x.u.x.d.x.x.x.c.c.x.x.v.m.m.Z.Z.m.J.Z.Z.m.D.Z.m.m.K.G.G.K.,X,X,X5X6X6XiXiXiXiXsXsXsXnXNXnXnXnXnXNXNXNXNXnXnXNXNXNXNXNXNXNXmXNXmXBXmXmXmXBXMXBXVXBXVXBXCXZXVXVXZXCXVXCXBXZXCXZXBXBXBXBXMXBXBXBXBXMXBXMXMXmXmXMXbXbXbXaXaXdXpXtXiXeXiXrXrX6X0X6X6X6X2X6X5X6X2X2X,X6X,X5X,XH.m.m.v.v.v.v.J.c.u.J.x.y.3.+.O.o. .G m P P x v c c c x M M C Z V H Z H Z Z Z V M 7 7 < 1 ; + + O O . . .   . .                                                                                                                                 ",
"            o                                                           o - h 8 - - - - = = = = h = = = = - X o                                                                                                                                             .         . . o . O O % 4 4 9 q q v v C n Z A F E G ....*.4.4.5.0.p.y.6.y.y.n.n.S.H.}.H.A.XXA.A.A.A.H.XX%XXX%X$X5X9X9X9XwXwXyXwXuXyXwXwXwXyXwXyXyXyXyXyXyXyXbXyXyXbXaXaXbXaXcXaXbXbXbXbXbXbXbXbXbXbXnXMXnXbXMXMXMXmXnXNXmXmXNXnXmXnXnXnXbXsXsXnXsXdXdXiXiXiXiXrXqX6X6X4X>X>X7XG.D.D.m.v.v.x.x.7.+.2.3.3.x.6.y.b.n.b.n.Z.A.H.A.A.H.H.OX3XqXqXeXeXiXpXdXnXBXBXGXHXKXJXKXLXLXLXLXLXKXLXKXJXFXFXVXBXMXyXyX0X0X6X2X,X,XG.H.J.J.Z.Z.J.S.c.c.x.x.d.x.6.x.x.x.x.d.c.c.n.m.n.v.J.m.Z.m.v.J.D.m.K.H.G.G.K.7X,X,X2X6XrXiXiXpXdXfXsXfXNXnXNXnXnXNXnXNXnXmXnXmXmXNXNXmXmXmXmXmXBXNXCXNXBXmXmXmXBXCXBXVXVXCXVXVXZXZXZXBXZXCXCXBXCXBXBXBXBXBXBXmXBXVXMXMXMXBXmXmXnXnXbXaXsXdXdXdXpXtXeXeXrXrXrX0X6X6X6X6X6X5X6X2X2X6X,X2X,XK.D.m.v.v.c.u.J.c.c.c.u.c.y.5.3.O... . .m m b x n c z c z M M N N A H A S N S S N M 7 2 < 1 ; ; + O O O . . .     .   .   .                                                                                                           .       .   ",
"                                                              .   . . - 8 f ( ( ( S f ~ ~ f T f T T f S S f p 8 X . o o       o                                                                                                                           .         .     . . . O % $ 4 9 q q v v b A S Z F J R R o.*.>.4.4.5.y.6.y.y.y.p.N.A.A.H.A.A.A.Z.Z.Z.A.A.XXXX%X$X$X9X$X9X9X9XuXwXyXwXyXwXyXwXwXwXuXwXyXyXyXyXyXyXaXyXyXcXaXcXcXyXcXyXbXbXbXbXbXbXMXdXSXbXMXMXMXnXnXnXmXmXnXnXnXnXnXmXnXnXnXbXdXsXdXnXfXsXfXiXiXrXiXiX6X6X5X1X7XoXG.G.m.m.C.C.x.x.7.2.+.2.7.6.y.y.p.p.n.n.N.A.A.F.F.H.XX1X5XqXqXeXiXiXpXnXmXmXAXZXHXHXKXLXKXLXLXLXLXLXLXKXJXGXZXBXBXMXyXrXrX0X6X6X,X,XG.H.H.H.Z.Z.Z.J.J.v.x.x.u.u.x.d.x.6.d.u.u.c.v.v.m.v.v.v.Z.D.G.J.Z.J.D.D.G.G.K.G.>X5X2X6XiXiXfXiXdXsXsXNXnXNXNXNXNXNXNXnXNXNXmXNXNXCXmXNXCXNXCXNXNXBXNXNXCXmXBXBXBXBXBXCXBXBXBXVXZXVXZXCXCXZXBXVXCXBXVXBXBXBXMXBXMXBXBXmXVXMXBXMXnXbXaXaXaXdXpXtXiXiXeXeX6X6X6X6XrX6X6X2X2X2X2X5X,X6X,X,X,XK.G.D.v.c.c.J.c.u.u.u.J.u.u.3.2.o.o.R m m m x x c z c z l l M V N Z V A Z S M Z M 7 7 2 < < ; + + O O . . . .   .                                                                                                                                 ",
"o         o                                                 o - # = w f ~ { 9.9.[ ' { ' { _ { ' ' ( ' { { _ ~ f t = X                                                                                                                                           .   o .   . . . O % $ : 4 9 v q B V Z Z F F J R R ..*.1.2.4.5.w.p.6.y.y.n.n.A.A.XXA.H.A.Z.S.Z.Z.A.XXXXXX%X$X$X5X3X9XwXwXwXyXyXyXyXwXwXwXwXyXwXwXyXyXyXyXyXaXyXbXcXbXyXyXyXyXyXbXbXbXbXbXbXnXbXfXMXMXnXnXnXMXmXmXnXmXnXmXmXnXSXfXNXnXbXSXdXsXsXsXsXdXpXiXiXeXeXrX6X6X1X>X7XoXD.m.C.v.C.x.z.7.+.2.2.7.6.6.p.b.n.n.n.V.A.F.H.H.G.+X1X4XqXeXeXeXpXsXnXNXNXAXAXJXHXJXKXLXLXLXLXLXLXLXKXJXJXFXVXBXMXaXtXeX0X4X,XK.K.K.H.K.J.H.Z.Z.Z.J.c.c.x.x.u.d.x.d.d.x.d.x.x.v.n.J.v.v.v.J.J.J.G.m.H.D.G.G.G.G.,X+X,X,X6XrXrXiXpXdXsXsXNXNXNXmXBXNXNXNXmXNXmXmXNXBXmXCXNXBXmXCXBXmXAXAXNXmXBXmXBXBXVXmXVXBXVXBXVXZXCXCXZXCXBXCXBXBXBXBXBXmXBXMXBXBXBXMXmXMXBXMXnXbXbXaXaXdXtXdXdXtXiXiXiX6XrXiX6X6X6X6X6X6X2X2X,X2X5X1X>X>XK.D.v.v.J.c.J.c.J.u.u.u.c.y.3.3.O...G G m P x c x c c z l M N N H V H Z H V V S M 0 7 1 < : : ; + O O . .   .       . .                                                                                                                   .     . ",
"                                                            o - p a S ( ' [ P.9.9.[ ' ' [ [ ' [ [ ' [ [ ' [ { _ ( S p * .     o                                                                                                                       o           . .   . . . . O % ; 4 5 0 q v B n S F F F E G ..$.&.2.-.2.4.6.6.y.y.p.n.S.A.}.A.A.A.A.Z.Z.Z.m.A.XXXX%X$X$X9X9X9X9XuXwXwXyXyXwXwXuXuXyXwXyXyXyXtXyXyXyXyXyXyXyXbXyXbXcXvXdXvXbXbXbXbXbXMXbXMXMXMXMXnXMXMXnXnXMXNXmXmXnXnXnXnXnXmXMXnXfXnXbXsXsXsXsXdXpXiXiXeX6XqX2X3X7XoXG.D.m.v.C.z.x.x.7.7.2.3.5.y.p.b.p.n.n.N.A.A.A.H.H.+X+X5X4X6XeXrXeXiXdXfXNXmXAXZXPXKXJXKXLXLXLXLXKXKXKXKXJXZXVXCXBXMXcXsXeXrX4X6XK.K.H.H.J.K.J.H.Z.J.Z.v.v.x.x.6.x.u.x.7.d.x.d.x.x.v.n.m.v.J.m.J.m.v.G.m.Z.G.G.G.G.oX,X7X5X6X6X6XiXiXdXsXnXNXnXCXNXmXmXNXCXNXmXmXCXmXNXCXmXCXmXmXCXNXCXNXBXCXmXCXBXBXCXBXBXBXVXBXVXVXBXVXZXCXBXBXCXBXBXMXBXmXBXmXBXMXBXMXVXmXMXBXmXMXMXnXaXaXaXdXpXiXtXqX6XiX6X6X6XrX6X,X6X6X2X2X2X5X2X5X>X>X+XG.v.m.v.u.J.J.c.u.u.J.J.y.y.3.+.O.o...G m b n x n c z z l l M C V Z V H Z Z C N M 9 2 1 < > , + + O O O . . . . .                       .                                                                                                     .   ",
"                                                            # h f ~ ( { { ' ' { { { { ( _ { { ( ( { ( { ' { [ [ ' ' ( S = X                                                                                                                                       . .   . . . . O + , < 2 5 k k C V S Z F A E R R R %.*.-.:.>.6.6.y.y.b.S.S.A.H.A.XXF.A.A.S.Z.m.A.XXXXXXXX$X9X9X9X9XwXwXwXuXuXyXuXyXeXwXwXuXyXwXtXyXyXyXaXyXcXaXcXbXbXdXdXyXyXcXbXbXcXbXbXMXMXMXMXMXMXMXMXMXmXmXmXmXnXnXSXnXnXnXnXnXdXnXbXnXsXfXsXsXdXpXiXiXiXrX6X6X2X7X7XG.D.D.C.v.x.x.3.d.2.+.2.6.y.y.b.a.n.N.S.S.A.A.H.XX+XOX5X9XqXqXeXiXiXsXnXNXmXNXAXHXHXKXLXLXLXLXKXKXLXKXKXJXFXAXBXBXMXcXpXiXiX6X6X,XK.K.H.H.H.J.Z.Z.S.J.c.v.x.x.x.u.d.d.d.6.d.7.x.c.v.v.J.v.v.J.J.v.J.G.D.F.F.G.G.7XOX7X2X2X6XqXeXiXpXfXsXnXnXNXNXNXNXBXCXCXBXCXCXmXCXCXCXmXCXCXCXCXCXCXNXAXCXNXCXBXBXBXBXBXmXVXBXVXVXZXCXCXCXCXCXBXCXBXBXBXBXMXBXMXBXMXVXBXMXSXMXMXMXnXbXaXaXpXtXiXyXiXiXiX6XiX6X6X6X6X6X6X6X2X2X2X,X2X5X,X,X7XK.D.v.v.J.J.J.J.J.u.c.u.u.y.3.:.o.o.| G m x x x c c z z l M B C V H V Z S N M V M 7 2 1 < 1 : + + O . . . .   .               .                                                                                                                   ",
"o                                                     o   . - p f ( ( _ ( ( ~ ~ f S ~ f f a f S f I S S S ( _ [ [ [ [ [ ( p X .                                                                                                                         o       o   . . . . . O O % ; < 4 5 q k v v Z S F F J E ....*.*.:.:.4.w.t.y.y.b.S.S.A.}.A.A.F.H.A.A.Z.A.A.A..XF.XX%X$X$X9X9XwXwXwXyXwXwXtX0XyXwXwXyXwXtXyXyXyXyXyXyXyXyXyXaXcXcXdXvXyXdXcXbXbXbXbXMXnXnXnXMXMXMXnXMXnXnXmXmXNXnXnXnXNXnXmXnXnXnXnXsXsXdXsXsXfXdXiXiXrX6XqX6X2X7XoXK.D.m.v.x.x.x.z.7.2.2.3.7.6.p.b.n.n.n.S.A.H.A.H.XXOXOX5X6XqXeXrXiXpXsXnXNXSXAXGXGXJXJXKXLXLXLXLXLXKXKXLXJXFXAXBXBXMXdXsXiXiX6X6X6XK.K.K.K.J.K.H.H.Z.Z.n.v.n.x.d.x.x.7.x.d.u.x.x.v.m.Z.D.m.J.v.D.D.v.J.Z.F.D.G.oXG.oX>X1X2X6XqXiXiXpXsXsXnXNXNXNXBXmXCXCXNXNXBXNXCXCXCXCXCXCXCXCXCXCXmXAXBXAXAXBXBXBXBXVXmXBXBXBXBXBXBXVXBXCXVXBXBXVXVXMXBXMXBXmXBXMXBXmXMXMXBXMXmXnXbXaXsXtXpXiXdXiXeXiX6XiX6XiXiXqX6X6X6X6X6X2X2X2X,X5X5X7X,XK.G.D.v.u.J.J.J.J.u.u.c.y.y.6.3.:.o.G G m b c c z z z c l l M C N S Z Z Z V M M z 7 1 1 < , ; + + O O . .   .   o                                                                                                                           .   . ",
"                                                    o . o o # 8 f ~ ~ ~ g a p 8 * 8 * * 8 = 4 = r = r 8 = r d T ' [ j.j.' ^ p = o                     o                                                                                           o     o   o     .   . . . . O O + ; < 2 5 0 k z C Z Z F J J J ) ..&.*.>.-.4.5.w.y.b.b.N.V.A.F.A.A.H.H.A.A.Z.A.H.H.H.F.F.XX$X$X$X9X9XwXwXyXwXyXtXwXeXuXtXuXyXyXyXrXyXyXyXyXyXbXcXbXcXdXaXyXbXyXyXbXbXbXbXbXnXnXmXMXMXnXMXmXMXmXmXmXmXnXmXnXnXSXfXnXnXnXbXsXaXsXdXsXpXpXiXiXiX6XqX6X6X,XK.D.D.C.C.v.v.z.x.7.+.2.2.7.y.y.b.b.m.n.A.A.A.F.H.XXOX,X6X6X6XiXiXiXpXsXsXnXNXCXZXJXHXHXKXLXLXLXLXLXKXKXKXHXGXZXBXBXMXMXbXaXtXeX6X2X7X,XK.H.H.F.H.A.A.Z.Z.v.c.c.x.d.x.d.x.3.7.6.x.m.m.A.J.m.v.m.m.Z.Z.D.Z.G.G.G.G.K.7X7X3X6XqXwXeXtXdXaXnXnXNXNXNXBXCXmXCXCXCXCXNXAXCXCXCXNXAXAXBXNXBXCXBXVXAXCXCXZXBXBXCXBXmXCXmXNXNXNXmXBXBXBXBXBXmXBXMXBXMXBXMXmXBXMXmXmXnXSXMXnXMXbXbXdXyXdXrXfXiXrX6X6X6XiXfX6X6X6X6XK.,X6X,X6X,X,X>X1X1XOX+XH.Z.Z.J.J.Z.J.c.c.u.u.x.6.3.*.O.o...G m b z z z j z 0 k l M N C S Z S V Z V M q 6 6 1 6 1 > @ + O O .   .                                                                                                                           .     .   . ",
"            o                                       . o . o - 8 p g f a p - - # % # # % % % * % * % o . & % * * f ( [ [ [ ' ~ f = o                                                                                                               o o o o o o   .   .     o . O O + , < < 5 0 z l C Z Z Z F J K R ..$.*.-.:.>.5.5.6.p.a.n.S.A.A.A.A.A.A.H.A.Z.Z.A.A.A.F..X.X$X$X5X9X9XwXwXwXyXwXyXwXuXwXeXwXtXyXyXyXyXyXyXyXyXbXbXyXcXbXcXyXcXyXbXyXyXbXbXbXbXbXmXnXmXnXSXfXMXnXmXMXnXMXmXMXnXMXMXnXnXnXnXaXsXsXsXsXfXsXsXdXiXrXqX6X6X1X7XD.D.C.v.z.x.z.6.7.2.7.3.7.6.x.x.n.n.n.A.A.F.F.G.G.OX,X6X6XqXqXiXiXiXsXnXnXNXCXZXAXJXHXKXKXLXLXLXLXKXKXKXJXGXFXVXBXmXMXnXaXpXeX6X6X,XK.K.G.H.H.H.H.A.A.J.c.c.c.x.x.3.x.d.d.x.x.n.m.A.F.G.J.D.m.J.D.Z.m.D.m.D.D.G.G.oX7X3X5XqXeXeXpXdXsXnXNXmXNXNXCXBXCXCXCXCXCXCXCXNXCXAXCXNXNXAXAXBXCXAXVXVXAXZXZXVXBXAXmXNXNXSXNXmXNXBXBXBXmXBXMXBXBXBXMXMXmXVXmXMXBXBXMXnXmXMXnXbXdXdXdXdXdXiXiXrXfX6XiX6X6X6X6X6X6X6X6X6X6X6XK.6X,X1X>X>XOX+XH.Z.J.Z.Z.Z.J.c.u.c.u.u.x.3.+.o.o...m m b c z z z 0 z k l M C C V M Z S Z V M q 7 1 1 1 > > > + O . . .             o                                                                                                                           ",
"o                                           .     . o . o X X - h 8 h - # X X . . % % o # * % % % . . . . o   . * r S ( ' [ ' ( ( p X X                       o                                                                                       o o o   o   o   . . . . O O + > < 2 9 0 z l l N C Z F F J R R $.&.*.:.>.4.5.w.p.n.N.S.A.}.A.A.H.A.A.A.Z.A.A.A.A.A.A..X%X1X$X9X9X9XwXwXwXyXyXeXuXwXuXyXeXyXyXyXyXyXyXyXyXyXcXyXbXyXyXyXdXyXyXbXbXyXaXbXbXbXMXmXnXnXnXmXmXnXmXmXmXnXnXMXmXMXMXnXnXnXbXsXsXsXsXsXfXsXfXdXiXiXrXqX6X>XK.D.C.v.m.z.x.x.6.7.7.7.3.7.6.y.b.n.n.n.m.F.A.F.H.+XOX,X6X6XqXiXiXiXiXfXfXmXNXCXZXGXJXHXKXKXLXKXLXLXLXKXKXJXGXZXVXBXBXMXnXbXpXeXiX6X,X,XK.G.H.H.H.H.H.S.Z.S.c.c.c.d.u.7.7.x.x.x.m.m.F.F.G.Z.Z.Z.Z.Z.D.m.J.v.K.G.oXoXoX7X3X8XwXeXtXpXaXsXNXfXmXNXCXmXNXBXCXCXCXCXCXNXNXCXNXCXCXSXBXBXVXSXAXVXZXVXZXVXBXCXBXCXmXNXNXnXSXNXBXBXmXVXBXmXVXBXMXBXBXMXmXmXBXMXMXBXnXMXMXnXnXbXdXdXrXdXrXgXgX6XiX6XiX6X6X6X6X6X6X6XK.,X6X,XK.,X1X1X>X>X+XH.A.Z.Z.Z.S.J.c.c.c.u.x.u.3.2.O.o...G m x z j z 0 0 z l z l B C C B Z Z V N V 9 7 2 1 1 > > ; + O . . .   .     o                                                                                                                           .   ",
"                                                .   o X o o % X @ # @ # % % . % * * 4 4 4 r 4 * * * * * * # . o   o = p T { ' [ ' ( p = - o o                                                                                                   o   o o   o o o     .   . . . % + + > < 2 0 0 z l l N C C Z F J K ..&.*.*.-.-.4.w.5.p.p.n.S.A.S.A.A.A.A.H.A.H.A.H.A.A.A.F..XoX$X5X5X9X9XuXwXyXwXwXuXeXwXrXwXyXwXuXwXyXyXyXyXyXyXyXbXcXyXbXyXcXyXaXyXcXbXbXbXbXbXMXnXSXsXSXMXnXMXMXmXMXmXMXnXMXnXnXnXMXMXbXaXbXsXsXsXsXfXsXiXiXiXiXqX6X7XK.D.C.v.C.v.x.x.x.7.7.7.7.7.y.z.x.n.C.m.Z.A.F.F.H.+X,X5X6X6X6XiXiXiXiXdXsXnXNXCXZXGXJXHXKXKXKXLXLXLXLXKXKXJXGXGXBXBXmXmXnXnXsXpXeX6X6X,XK.K.G.H.H.A.H.H.Z.n.u.c.c.x.y.d.3.d.y.v.V.F..XXXF.G.D.m.J.D.J.m.m.G.D.G.oXoX1X<X5X6XeXeXtXpXsXsXNXNXSXNXNXCXBXCXCXCXCXCXCXAXCXCXCXNXmXCXCXCXBXBXVXVXAXAXCXCXCXCXmXCXmXSXNXNXNXNXmXmXBXmXmXmXmXMXBXmXmXBXmXBXMXBXMXMXMXMXbXMXbXdXaXdXiXfXrXfXfX0X6X6X6X6X6X6X6X6X6X6X6X6X,X6X,X7X1X1XOXOXH.H.F.Z.H.Z.S.J.c.u.c.c.x.y.3.2.*.o...G m b c z j 5 0 z z l M M B C V V V S V M q 7 1 1 1 > > + O O O . . .           o                                                                                                                         . ",
"o                                       .     .   o o o o o . X o   . . o . . . * 8 r r t d t 4 % % % * * . o . o o . * 8 f ( ' ' ( ~ f p = X o       o o                                                                                       o   o o o o o o   . .     . O % + + , < 2 0 7 M l M x C b Z F F J R $.%.*.*.>.4.4.5.p.p.N.N.m.A.A.A.H.H.H.A.A.H.F.F.F.A.A.F.OX$X$X9X9X9XwXwXyXwXwXwXuXwXtXwXyXyXrXyXuXeXrXdXrXyXyXdXyXbXyXyXyXyXcXyXyXaXbXaXbXbXMXMXMXMXnXnXMXmXMXmXMXMXnXMXnXMXMXnXbXnXbXsXsXsXdXsXdXdXdXdXiXrXrX6X2X7XD.m.v.z.x.x.z.x.7.3.7.2.7.3.x.x.b.n.m.m.A.F.F.H.XXoX,X5X6X6XrXiXiXiXiXsXsXnXNXAXZXGXHXHXHXKXLXLXLXLXKXKXKXKXGXZXZXBXBXmXNXnXsXpXiX6X6X7XK.K.G.G.+XH.H.A.Z.c.n.u.c.u.u.6.7.6.x.v.A..XXXXXF.F.V.Z.D.m.Z.m.m.m.D.D.G.#X>X2X5XqXeXtXpXsXsXsXNXNXNXNXNXNXCXCXCXCXCXZXBXCXNXCXNXCXNXBXBXBXBXBXCXCXVXCXZXCXCXBXCXNXmXmXSXNXnXnXmXmXmXmXBXmXmXmXMXmXmXmXmXMXMXmXmXmXMXnXbXbXbXdXaXdXdXrXiX0XrX0X6X6X6X6X6X6X,X6X6X2X2X2X2X7X,X7X$X>X+X+XH.H.H.A.Z.Z.Z.J.u.u.u.u.u.y.3.O.:.o...G m b j c z 7 7 0 z k M B C B V H Z S M M 9 < 1 1 > > ; + O O . .     .                                                                                                                             .       ",
"          o                                     . o o X X . o X . o . . . . . % r t a S S S a t * $ * * O . . . . o . o o - p ( { ( { ( ( a w -                                                                                                   o o   o   o   o   . . . . . O % ; , < 2 7 0 z z l l v b C Z F K R R &.%.*.-.>.5.6.6.p.n.n.Z.S.}.A.A.A.A.A.H.A.XXF..XF..X.X#X$X$X9X5X9X9X9X9XwXuXwXeXwXwXyXyXwXwXyXyXyXyXuXyXyXyXvXyXyXyXcXyXcXyXyXcXaXaXbXbXbXnXnXmXnXbXnXMXnXmXnXnXmXmXMXmXnXbXMXnXMXsXbXnXnXsXsXsXdXpXfXiXrXiX6X7X7XD.C.x.x.6.x.x.6.x.7.7.7.7.6.6.x.n.n.N.m.A.F..XG.G.OX,X5X5X6X6XrXiXiXdXfXnXnXNXSXZXGXJXHXKXKXKXKXLXLXLXLXKXJXJXGXVXCXBXBXCXnXaXpXiXrX6X2XK.G.G.G.+XH.H.A.Z.J.n.J.c.x.x.d.d.x.x.v.F.XXXX+XG.F.F.V.F.Z.Z.m.D.Z.D.G.F.oX$X2X9XqXeXtXpXfXnXsXsXNXNXNXNXAXNXCXCXCXBXCXCXCXCXNXCXNXNXBXBXBXMXBXBXCXCXBXCXCXBXCXNXNXSXmXnXNXSXNXmXmXMXVXMXmXnXMXmXMXmXmXmXmXmXBXMXMXbXMXbXaXaXyXyXdXtXdXiXrXrX0X6X6X6X6X6X6X6X6X5X2X,X2X,X,X7X,X>X$X+X+XH.H.A.H.A.H.Z.S.u.J.c.u.6.3.3.*.o.o.R G Z x c 5 0 j j 0 z k l B B B Z V S V B k 9 2 1 1 > > + + O O . . . .                                                                                                                                   .   ",
"            o                                 . .   . o . . . o . . . . . . # 8 d S T T W ( T a 9 4 4 % * . . . .     .     & = S ( { ' { ( f p o                                                                                                   o o   o o o   o .   . . O % % + , < 6 0 0 z z l v N b C Z F J K R ..%.%.*.4.0.5.w.y.p.N.N.A.A.A.A.A.H.A.A.XXXXXXH.XXXXXXOX$X$X9X9X9X9XwXwXwXeXwXuXwXwXwXwXyXyXwXuXrXuXyXyXyXyXyXyXyXyXyXyXyXyXyXyXcXcXaXbXbXMXmXnXMXnXMXnXMXmXMXnXMXMXmXmXMXMXnXnXnXbXsXsXsXsXdXsXdXdXiXiXrX6X6X2XoXD.z.z.d.z.x.x.x.x.7.7.+.6.6.y.b.n.n.V.S.A.F.XX+XOXOX,X5X6X6XqXiXiXiXdXdXsXNXNXNXZXGXGXHXHXHXKXKXKXKXKXKXKXJXJXGXZXBXCXBXCXnXaXpXpXeX6X2X7XG.G.G.+X+XH.H.Z.Z.c.c.c.x.d.x.3.x.v.m.H.XXOX$X+XXXF.F.F.D.F.D.J.G.Z.D.F.oX>X3X5XwXtXpXpXsXnXNXNXNXNXNXNXNXNXCXCXCXCXCXBXNXmXCXmXNXmXBXmXBXmXBXCXBXCXCXCXCXmXNXCXNXmXNXmXmXfXmXnXmXmXnXnXmXMXmXmXmXnXmXMXMXmXMXsXSXbXbXaXbXdXyXdXyXrXtXrXrXrX6X6X6X6X6XK.6X6X6X5X5X>X>X>X>X>X+X+X+XXXH.H.H.H.Z.Z.Z.S.u.J.u.u.u.6.3.+.o.o.%...G m x c 5 5 3 5 0 0 z k M B B Z Z C V V q 7 1 1 ; ; > + + O O . .               o                                                                                                                           ",
"o                                               X     o o o . X .   . .   . 4 t V A _ _ _ ' E T t 4 + % % O O o O .   .       o - r f ( _ [ ( d o &                                                                                             o     o   o   o   o .   . . . O @ @ 1 6 2 0 0 0 z l l v B b Z Z F G K ..$.&.-.4.5.6.6.y.p.n.S.A.A.XXA.H.A.XXH.A.H.XXoXXXXXXXOX$X5X$X5X-X9X9XwXwXwXwXwXwXtXtXyXwXyXrXyXyXrXrXyXyXyXyXyXyXyXyXyXyXyXyXyXyXaXbXaXbXMXnXmXMXMXnXmXMXMXnXMXmXMXnXmXnXbXMXnXbXnXbXbXnXsXsXsXfXsXpXiXrX6X6X7X.XD.z.d.z.6.x.x.x.7.6.7.7.7.6.y.x.C.N.m.S.A.F.XX+XOX,X,X6X6X6X6XiXeXfXpXfXnXfXNXAXZXAXHXHXHXKXKXKXLXKXKXKXKXHXJXGXZXCXCXCXmXmXnXsXiXeX4X2X7XK.7XG.H.H.H.A.A.Z.n.J.v.x.x.u.x.x.n.m.XXXXOX$XOXoX.XF.F.F.F.F.D.m.D.D.F.oX1X5XqXeXeXpXpXsXNXfXNXNXNXNXNXAXCXNXCXZXBXCXCXBXNXmXNXmXmXmXmXmXMXMXmXNXCXNXNXCXCXmXNXmXmXmXMXmXnXMXmXmXMXMXmXMXMXnXMXmXmXMXmXmXMXmXbXbXbXbXbXbXaXdXtXdXrXrXrXrX0X6X6X6X6XK.6X6XK.6X5X,X>X>X>X>X>X+X+X+XH.H.A.A.Z.Z.Z.Z.J.J.u.u.u.u.6.3.2.o.o.o.G F m b j 5 j 3 5 5 0 k k l B B V V S C M z 7 1 : ; > ; + O O O .   .                                                                                                                           .         . . ",
"                                            . . o . o   . o . o . . .   . # q V T ' ' =.[ 1.' E T t + % O O * * $ * .       o     - = f ( ' { ~ = -           o                                                                                   o o o   o o o       .   . O O $ , > < 2 0 0 z M M l l M b C Z F F G } ..$.%.>.4.5.w.6.p.b.N.A.A.A.F.A.A.H.H.H.XXXXXXXX+X+X$X$X$X3X3X5X3X9X9XwX8XwX0XuXtXwXtXtXwXeXwXyXyXrXrXrXyXgXdXtXyXyXwXyXyXuXcXyXcXaXbXbXMXMXMXMXMXMXMXnXMXnXMXMXbXnXMXbXMXMXMXbXbXbXsXsXsXsXdXsXdXiXtX0XrX0X7XoXv.x.+.z.7.x.x.x.7.6.7.7.6.x.b.b.n.n.V.A.F.H.XXOX>X,X,X2X6X6XiX6XiXiXiXfXfXNXmXBXAXJXHXHXHXKXKXKXLXLXKXKXKXJXJXFXZXCXCXCXNXCXnXdXtXeX0X6X>XoXoXG.+XH.H.F.Z.Z.J.n.v.x.u.u.y.x.v.A.XXOX$X$X$XOX%X+XG.+XXXXXK.D.D.Z.G.K.7X3XqXeXtXtXsXsXsXNXNXNXNXNXCXNXmXCXBXBXBXBXmXBXNXmXNXnXNXNXmXmXmXmXNXmXmXNXmXNXBXNXNXmXnXmXMXnXMXnXMXMXmXnXmXMXbXbXnXbXMXnXmXMXnXMXbXnXbXbXaXdXaXyXpXeXeXrXrXqXrX6X6X6X6X2X2X2X5X2X,X,X,XOX+X>X+XoXXXH.F.F.Z.A.S.Z.S.J.J.u.u.u.u.t.3.3.:.o.X...R F m b c 5 5 3 5 0 0 k k B M B Z V V C M 7 6 1 : : > + + O O O . .                                                                                                                                         . ",
"o           o                             .       o . o o   o   o . . O % 8 a T ' ' [ 9.1.j.' ' E a 4 , O % * 4 4 * #     o         o = p ( ( ( f p -                                                                                               o   o o   o o o .   . . . O @ + > < 9 0 z k M l M M C b Z Z F F F R ....%.4.4.5.5.p.p.n.m.A.A.A.XXA.A.A.A.XXXXH.+XXX%X+X$X$X$X3X$X5X9X8X9XwXwXwXwXeXwXeXwXwXwXyXyXwXuXrXuXyXyXyXtXyXyXyXyXyXyXyXyXyXyXbXbXbXmXnXnXnXnXbXMXbXMXbXbXMXMXbXMXMXbXnXnXbXbXbXbXsXsXdXsXsXdXdXrXrX6X<X7XG.C.z.z.d.3.x.b.x.6.6.6.6.6.x.b.b.C.n.V.A.F.XX+X+X>X,X6X5X6XqX6X6XiXiXdXsXsXsXmXBXAXGXJXHXHXHXHXKXKXKXLXLXKXJXJXGXAXVXCXCXBXNXmXaXdXtXrX4X7X7XoX+X+XG.H.F.Z.J.m.J.v.c.u.x.u.x.C.F.XXOX$X$X$X$XOX+XOX+X+XOXG.H.D.D.G.G.OX2XqXeXyXsXpXsXsXNXNXNXNXNXNXNXCXNXBXBXBXBXNXNXmXNXNXNXnXnXnXnXmXnXmXnXmXnXmXnXmXmXmXmXmXmXmXnXnXMXnXMXnXnXnXbXnXMXMXnXMXMXnXnXMXnXbXbXbXbXyXyXyXyXtXeXrXwXqXeX0X4X6X5X2X2X5X5X,X>X,X5X,XOX+X+X+XG.XXF.A.Z.Z.Z.J.S.J.J.c.x.u.y.u.3.3.3.:.o.o.o.G L b x z 3 3 5 3 5 z k k k V Z V B S M M 7 < : : ; > + + O O O . .                                                                                                                                     .     ",
"          o o                       .         . o   o   . o   . . . . # = 8 a _ [ [ 9.1.j.9.9.1._ S 5 4 4 4 4 t a 8 4 & o               X = f ( ( f p = X                                                                                       o   o     o o o       o   . . O $ + > < 6 0 0 z l M l N v C Z b D D F K R ..%.-.>.5.6.w.p.b.n.m.A.A.A.A.A.H.F.XXXXH.XX+X+X+XOX$X$X$X9X5X3X9X9X9XwXwXwXwXrXeXwXwXwXwXwXwXrXwXrXrXyXyXrXyXyXwXyXwXyXyXcXyXaXaXcXbXMXnXmXMXnXMXMXnXnXMXMXnXnXMXMXnXMXMXMXbXnXbXbXsXaXsXdXdXdXiXiXrX6X<X7XD.C.z.d.7.x.x.z.y.y.6.6.6.p.b.n.C.N.N.Z.A.XXXX+XOX>X5X5X6X6XqXqXiXiXiXiXfXsXNXNXCXAXJXJXHXKXHXKXKXKXLXLXKXKXHXJXGXGXZXZXZXBXNXNXbXaXtX0X8X<X7XOXoX+XH.F.F.Z.J.m.m.v.x.x.d.x.x.m.A.$X$X$X$X5X3X5X$XOX$X$XOXK.G.D.D.G.oXOX5X9XtXpXsXsXsXnXnXNXfXNXNXNXCXNXCXCXNXmXNXNXNXnXnXnXnXnXnXnXnXnXnXnXnXnXnXnXnXnXnXmXnXmXmXnXMXMXMXnXnXnXbXMXnXbXbXnXbXnXnXnXnXMXaXbXcXdXyXaXyXdXrXtXwX0X0XqX6X6X6X5X,X,X2X,X5X,X>X>XOXOXOX+X+X+XG.H.H.A.Z.Z.n.J.J.S.J.c.u.u.y.6.+.2.2.O.o.o.....m b c j j 3 3 3 0 q k M k M C B B M M M 7 1 : : ; ; @ O O O . . . .                                                                                                                                         ",
"o                                         .     . o . o o . o . . . . $ $ r S ' 9.9.9.' 1.1.j.9.1.W v 4 4 4 t V S d t = * o o       o     o r f ( ( T f = X                                                                                         o o o o   o o o   . . . . % % + , < 7 0 0 z k l l M v C b Z D F F G G ..$.*.4.4.5.6.p.p.n.N.A.A.A.H.A.A.A.XXXXXXXXXXXX+XOX$X$X3X$X$X5X9X9X9X0X0X0XwXwXwXwXwXtXwXyXwX0XyXuXrXwXeXtXtXyXwXyXyXyXyXyXyXcXyXbXbXMXMXbXMXMXbXMXMXMXbXMXMXMXMXbXMXMXnXbXMXnXsXbXbXsXsXdXdXdXiXiXrX0X6X7XK.v.z.7.7.d.x.y.x.x.w.b.6.b.b.N.N.m.m.A.A.A.XX+XOX>X,X,X6X6X6XrX6XiXiXiXsXsXnXNXCXZXJXJXJXHXHXKXKXKXKXKXKXKXHXGXGXZXVXZXCXBXmXnXbXaXtXrX0X<X1X>X+XXXG.F.F.m.m.J.v.v.x.x.u.u.x.N.XX+X$X$X5X5X3X3X$X>X$X>X$XG.G.G.F.G.oX$X5XqXtXpXpXaXsXnXnXNXNXNXNXNXNXmXNXmXmXNXmXnXnXnXnXnXsXsXsXaXaXaXnXsXsXsXnXnXnXnXnXnXmXnXMXMXbXMXbXMXnXnXnXbXbXbXbXbXbXbXbXnXMXaXdXaXbXdXbXyXyXyXeXrXrXqX0X6X6X6X6X2X2X5X1X,X,X>X7XOX+X+XG.+X+XG.+XH.H.Z.Z.Z.J.J.c.J.u.c.u.u.x.u.6.+.:.o.o.....K m n x 5 3 3 3 5 5 k k v k B B V B M M 0 7 3 1 : ; + + + O . . . .                                                                                                                                     . .   ",
"                                          .   . o   o   o .   X % . . $ $ 8 S [ j.j.' E &.9.j.j.9.T t 5 4 4 t T T d d t 8 * # o       o     & = f ~ ( ~ g = X         o                                                                           o o o   o o     o   .   o O O + + , > 2 5 0 k z M l M l N C Z Z F F G G K %.*.-.2.5.6.6.y.n.n.S.A.A.A.A.A.XXF.H.XXXXH.XX+XOX$X$X3X1X$X3X8X9X8X8XqX0XwXwXwXwXwXwXwXeXwXwXwXyXwXwXrXyXuXyXtXuXtXuXyXcXyXcXyXaXbXbXnXMXbXMXMXMXbXbXMXMXMXMXbXbXMXbXnXnXMXbXnXbXsXsXaXdXdXtXiXyXrX4X6X7X|.C.z.d.d.6.y.b.c.b.6.b.p.b.C.n.m.N.Z.V.A.XXXX+X+X,X1X2X6X6XrX6XiXrXiXiXfXnXnXNXAXAXJXGXHXHXHXHXKXKXHXKXKXKXJXHXGXGXZXCXCXBXmXmXmXMXdXwX0X3X<X>XOXoXH.F.F.m.J.J.v.v.c.u.u.x.x.m.F.%X$X$X9X$X5X$X5X5X$X>X>X,XoXG.F.F.oXOX5X8XyXpXaXdXnXnXnXNXNXNXNXNXNXmXNXNXNXmXnXnXsXsXsXsXsXsXsXsXpXsXsXsXsXsXnXnXsXnXnXnXnXnXbXnXbXMXbXbXbXbXnXcXfXbXcXbXbXbXnXMXnXbXSXbXbXbXaXyXyXyXtXwX0X0X0X6X2X3X7X5X2X5X,X>X>X>X+X+XoXG.XXG.G.+XG.A.H.A.A.Z.J.J.J.a.u.u.u.u.n.t.3.2.O.o.o...| G n x c j 5 3 3 5 q k k B k M B V V M M z 7 2 1 1 1 > + O O O . . .                                                                                                                                     .     ",
"                                            o   . o . o . o o . . . . % O * ( 9._.q._ W E ' 9.j.9.E v 5 4 t v I T S d T d r * & o             o = g f ( f p -                                                                                   o   o     o o o o   .     . . % % + ; < 2 0 z k z M M l N M b Z Z D D G G K ..%.*.>.4.5.6.y.b.n.S.S.A.A.A.A.A.F.H.H.XXXXXXXXXXOX$X$X$X3X$X3X9X8X8X8XwX0XwXqXeXqXwXeXwXwXwXwXwXwXrXrXrXwXtXwXyXwXyXyXyXyXyXcXcXbXMXMXbXMXMXbXMXnXnXMXnXbXMXnXMXnXMXMXMXbXnXbXnXnXsXaXdXyXpXtXrXrX6X<X7XG.C.x.z.+.6.y.x.p.b.b.l.b.N.C.N.N.N.V.A.A.XXXX+XOX>X2X,X2X6X6X6X6XiXiXiXpXfXNXNXAXAXAXHXJXHXHXHXHXKXKXKXKXKXHXGXJXGXZXVXCXBXmXmXMXbXyXeXwX2X2X1XOX+XG.F.F.Z.m.v.v.J.c.u.x.y.c.m.XXOX$X$X$X9X9X$X9X$X5X3X5XOXoXF.G.oXoXOX1X0XrXaXpXnXfXnXNXfXNXnXNXNXNXNXmXmXmXnXfXsXsXsXfXsXfXdXpXpXpXpXsXaXsXsXaXsXsXnXaXnXnXbXnXMXbXMXbXaXSXbXbXbXMXbXdXbXbXaXbXnXnXbXdXbXbXyXdXdXdXtXeX0X0X0X6X<X<X7X7X,X,X,X>X>X>XOXoXG.G.+X+X+X+X+XH.H.H.A.A.Z.Z.s.J.J.J.s.J.u.n.y.3.2.O.o... .E m m n c 5 3 3 : 3 5 k v B B v B B v M M 0 7 7 2 1 1 + + O O O . .   .                                                                                                                                         ",
"o         o                                 .   o   o   o . o . . . . O O % T 9.].9._ S E 1.9.l.j._ n 5 5 t n n S T T T ( T r * o o     o   o o X = p f f g h X                                                                                     o o o o o o   o   . . . . O + % ; < 2 0 q k M z M M l M C C Z F D D G K ..%.*.:.2.4.5.y.p.y.S.S.A.Z.m.A.F.F.H.H.F.H..XXXoXOX$X$X$X$X<X3X9X3X8X0X0X0XqXqXwXwXwXwXeXwXwXrXrXrXuXwXyXyXwXwXyXyXwXyXyXyXcXcXaXaXbXMXbXbXbXnXMXMXMXbXnXMXMXnXMXMXMXMXnXbXbXbXnXaXaXaXdXdXpXrXrXrX0X<X7X|.m.z.z.+.6.x.b.b.a.b.b.b.b.n.N.N.m.A.A.F.H.oX+XOX>X>X2X2X6XqX6XiXeXiXiXfXnXnXNXAXGXJXJXJXHXHXKXHXKXKXKXKXKXJXJXJXGXZXAXZXCXmXMXmXbXdXtXeX0X4X1X$X,X+XH.D.m.J.v.v.v.v.x.u.x.n.A.XX$X$X9X5X5X9X9X3X3X5X5X5XOX+XXXoXoXoXOX1X8XrXyXdXfXbXnXfXNXfXNXNXNXNXNXmXnXnXfXSXdXfXdXdXdXiXdXpXpXeXpXdXpXdXsXsXaXsXaXsXnXaXbXbXbXbXMXfXbXfXbXMXbXfXbXbXbXdXbXdXbXdXbXdXaXaXaXyXyXyXeXrXwX0X0X4X<X7X7X7X>X>XOX>X>X+XoXoXG.XX+XH.G.+XXXG.H.A.Z.A.Z.Z.a.J.S.u.J.u.n.y.y.3.:.O.o.| | G m b c z j 3 : 3 2 0 q V v M B B B M k k 7 7 7 2 3 1 + + O . . . .                                                                                                                                             ",
"                                  .           .   o . o   o . o . . . O . O T _._.j._ S W 1.j._.k.' W v 5 v T d I S T ' ' ( d = o o o     o o       - p f ~ a =                                                                                   o   o o         o .   . . . O + + ; < 5 9 z k M M M M M C C Z Z F D F F G $.%.*.:.>.2.5.6.y.b.N.m.m.A.A.m.A.F.F.XXF.XXG.XX+XXX+X$XOX$X$X3X8X9X8X8X8X0XwXwXwXwXwXwXtXwXwXuXrXyXyXrXwXwXwXyXuXwXyXuXcXyXyXcXbXcXbXbXbXMXbXMXMXbXbXMXMXMXbXMXMXbXMXMXMXMXMXnXbXnXsXdXdXdXpXtXrXrX6X2X<XD.C.z.d.x.3.x.b.C.b.b.b.b.C.N.V.V.V.A.A.F..XXX+XOX,X,X,X2X6X6XiX6XrXiXpXsXsXNXCXAXAXGXJXHXHXHXHXKXHXKXKXKXKXHXHXHXJXZXZXZXAXmXmXMXnXyXyXeXwX4X3X1X,XG.H.D.m.m.v.v.v.v.c.d.u.c.A.XX$X$X$X$X9X5X3X3X$X5X$X1XOX+XG.G.oX+XOX>X<X0XeXdXdXsXnXfXNXNXNXNXNXNXNXmXnXnXMXbXdXdXiXiXdXiXpXiXiXiXiXiXpXpXdXpXdXsXaXaXbXnXbXbXMXbXaXSXMXbXdXdXbXcXdXyXbXbXaXbXcXbXdXaXaXyXyXdXyXyXeXrX0X0X6X4X7X7X7XoXOX>XOXOX+X+XG.G.G.G.G.H.XXXXG.XXH.A.H.H.A.Z.J.J.S.J.u.J.c.b.y.3.2.O.o.o.G G m x c j 5 5 : : 3 0 k v B k k B M M l q 7 7 7 2 1 1 ; + O O O . . .                                                                                                                                     .   . ",
"          o                             o       o . o . o . o . . . . . . % ( ].*Xj.W n E _ l._._.=.W V V S W W W W ' j.j.j.W s * * o   X X o X o o   - a ^ f p - .           o                                                                               o o     . . . O . O @ > 1 7 7 7 M z k l l l C C C Z D D F H L } $.X.*.:.3.5.w.t.p.n.m.S.V.S.V.A.F.F.F..XF.H.+X+XOXOXOXOXOX5X$X9X5X8X0XwX0X9XwXwXwXwXwXwXrXwXwXrXyXyXwXyXwXwXyXyXyXyXyXyXyXyXaXaXcXbXMXMXMXMXMXMXbXbXMXMXMXnXMXmXMXmXMXmXMXnXnXnXbXaXsXaXpXtXtXeX0X2X1XOX.XC.z.d.7.6.x.b.N.b.b.N.M.C.C.N.V.A.V.V.F.XXG.+X+X>X>X5X2X2X6XiX6XiXiXiXfXnXNXCXGXGXHXHXHXHXKXKXKXLXJXLXJXKXJXJXJXHXGXGXZXZXCXNXmXbXbXyXeXwX8X8X3X$XOX+XF.m.v.v.v.v.v.x.u.x.c.Z..XOX5X$X9X3X3X5X3X3X5X$X5XOXOXoXoXoXoX+X7X2X0XeXtXpXsXnXnXnXnXNXNXNXNXNXnXnXnXsXdXfXdXiXiXfX6XfX6XfX6X6XfXfXfXiXfXpXpXsXaXaXaXbXbXbXbXbXbXSXdXdXbXaXaXaXaXdXaXaXaXaXaXaXaXaXtXyXpXrXrXrXrX0X0X6X4XOX#XOXOXoX,X+XK.,XG.H.H.F.F.F.Z.G.G.G.H.H.A.H.A.A.S.J.S.u.u.u.J.n.u.u.5.3.O.o...G G n x j 3 3 : 3 : 4 c v v v v v v M l k 0 7 3 0 0 1 1 > + + O O . .   . .       .                                                                                             .           .     .     .         ",
"                                      o   o . . . o   o . o   . .   . % . @ A _.*Xj.( S S _ j._.k.' T V S S E E ' ' z.'.gXj.' t 4 & o o X o X - o     - p f ~ Q = # .   .                                                                                         . .   . o . O + @ > 1 6 7 7 z z k M M l M C C Z Z H D L K } X.%.%.*.>.5.6.p.p.a.N.N.S.S.Z.A.F.D.F.F.F.XXXXXX+X+X+XOX#X$X5X$X3X3X8X9XqXqXwXeXwXwXwXyXrXyXyXwXwXwXyXyXyXyXwXyXyXyXyXyXyXyXcXaXbXbXMXMXMXMXMXMXcXMXbXnXMXMXnXMXMXmXBXMXMXMXbXMXnXaXsXaXtXtXtXeXqX<X7X7XD.v.x.7.x.6.x.b.C.N.M.N.N.N.B.V.m.V.A.A.F.F..XXXoXOX5X5X5X6XrX6XiXiXiXpXsXnXNXCXAXAXHXHXHXHXKXKXJXJXLXFXKXJXJXJXKXHXGXGXGXVXCXCXmXMXbXyXtXwX0X3X3X$XOXH.H.m.m.v.v.m.c.c.x.x.c.F.XXOX$X$X9X5X9X9X5X9X5X5X3X1XXXoXoX+X+XOX+X<X4XeXeXiXsXsXnXnXNXNXNXNXNXNXmXnXnXbXdXdXdXiXiX6XfX,XfXfX,X6X6X6X6XiX6XiXiXpXsXaXaXbXbXcXbXbXcXnXcXbXdXdXcXdXdXcXdXyXaXaXtXtXtXpXtXdXtXtXrXrXrX0XqXqX2X7XoXOXOX>XG.+X+X+X+XG.H.Z.H.H.H.H.H.H.H.H.H.A.A.Z.Z.Z.S.S.J.J.s.u.b.y.5.2.o.o. .G m n x j 3 3 3 3 3 2 c q v v v l B M l z j 7 2 7 7 1 1 + @ + O O . . .                                                                                                       .       .               .     .   . ",
"                              o     o   .   o     o o . o   . o . . . . O O S ).'._.E V v E j. X_.' E V d W W ' 9.j.'.fXfX'.' d * & . o o o o X o o     - g I ~ f 8 #     o                                                                                     o   o . . o . % O @ > > 7 7 7 M M M k M B M C C Z D D D F K ! $.X.X.:.>.5.5.t.p.n.n.Z.S.V.Z.S.A.A.F.F.F.H.XXH.+X+XXXXXOX$X$X5X9X4X8X0X8X9XwXwXwXwXwXrXyXwXrXwXyXyXyXyXwXyXyXyXyXyXyXyXcXbXbXaXbXbXMXMXbXbXMXbXMXMXbXMXnXMXnXMXmXmXMXmXMXMXMXnXbXaXbXaXeXeXpXeX4X1X<XoXD.z.7.6.z.x.b.n.N.N.M.N.M.N.V.V.V.A.A.A.A.F.F.XXoX>X1X5X6X6X6XiXiXeXiXpXsXnXNXZXAXHXGXHXHXJXLXKXKXLXJXKXJXKXJXKXJXJXJXJXZXZXCXBXmXMXbXyXyXtX9X8X5X5XOXoXH.Z.m.v.v.v.v.x.d.x.c.A.G.$X$X3X5X5X9X3X5X9X$X5X3X5XoXoXoXOXOXOXoX#X2XwXeXtXpXaXsXnXNXNXCXNXNXmXNXNXnXfXdXdXiXdXiX6X6X6X6X,X6X6X6XiXiXiXiXiXiXfXiXsXaXaXaXcXbXbXyXbXdXdXcXaXbXdXcXbXyXdXaXtXaXtXaXyXtXpXpXdXrXrXuXqXqX8X4X1XOXOX>X,XG.G.,XK.G.G.H.F.H.D.Z.H.G.G.H.A.A.A.Z.Z.Z.S.u.a.J.u.u.u.p.6.3.O.O.o.R G G P c j 3 3 3 : : 3 0 z v v v x B B k z z 3 7 7 7 3 1 ; + + + O . .   .                                                                                                         .     . .   .   .     .   .     ",
"                                        . o     . o   o . o o . .   . % O . S )._._._ V t _ ). XB.j.W V t E ' j.j. XgXfXfXgXj.W * %     o o o o o o     X 8 g ~ f g =     . o                                                           o                         o     . . . % O + > > 6 7 7 z z 0 l k l B v C Z Z D D H L } } $.X.*.,.4.5.w.y.p.a.N.S.V.N.V.A.F.V.F..XG.XX+XXX+X+XoXOX$X$X3X3X<X8X9X8X8XqXwXwXwXwXtXuXrXwXwXyXwXyXtXyXuXyXyXyXyXyXyXyXbXyXcXbXbXcXMXMXMXMXMXMXMXMXbXMXMXmXnXMXMXVXMXMXMXnXbXnXaXaXaXtXtXeXwX8X1X7XG.C.x.7.6.x.b.C.C.N.B.N.N.V.B.V..XV.V.A.F.F.F.F.H.oXOX,X5X6X6X6XqXiXiXpXpXsXnXNXCXGXGXHXHXHXKXJXPXKXKXKXJXJXJXKXJXJXHXGXGXGXZXVXBXmXbXaXdXyXwX0X8X5X5XOX+XXXF.m.v.v.J.v.c.c.c.v.m..XOX$X3X5X9X5X9X5X5X5X5X5X5XOX+XOXOXOXOXoXoX2XqXeXtXpXsXnXmXmXNXNXNXSXNXNXnXnXSXfXdXfXiXiXfX6X6X6X6X6X6X6X6X6XiX6XeXiXiXiXtXaXyXaXaXbXyXbXcXdXbXaXdXyXcXdXyXaXyXdXaXaXyXtXtXpXtXtXrXiXrXrXqXqXqX5X2X7X7XOX+XOX,XG.+X+XH.H.H.H.H.H.H.G.G.H.H.H.A.Z.S.J.J.J.J.u.J.u.c.u.3.3.*.o...G G m b c 3 3 : : 3 3 3 z v l v v v B l l q 0 7 2 3 1 1 > @ + + O O . . . .   .                                                                                                 .     .                 .           ",
"                                . .   o o .   . . o o o o . o o . . . # O . a 9.]._.[ _ T 1._. Xj.1.W V t W j.gXfXfXfXmXfXgXf.W 4 * % * o o o . o o o     - p f ~ ^ a X     .                                                                                   o   .   . o . O O % > > 1 7 7 7 7 q M M M B l C Z D D D D G K } ..X.*.:.4.5.t.t.y.n.N.Z.N.m.m.V.A.F.F.XX+XXX+X+X+XoXoXXXOX$X5X1X$X<X9X8X8X0XwXwXwXwXuXrXuXtXtXeXyXyXyXyXyXyXtXyXyXyXcXyXbXcXaXbXbXcXMXbXbXMXMXbXMXMXMXnXMXnXMXmXmXVXMXMXMXnXnXnXaXsXtXtXtXeX0X<X7X7XoXC.z.2.6.x.b.b.N.[.V.B.N.N.V.V.V.A.V.A.A..XF.D.F.oXoX7X5X2X6XiXiX6XeXiXdXaXmXmXCXAXGXHXHXJXFXLXJXLXJXLXLXJXHXHXHXHXHXJXGXGXZXCXBXBXbXSXbXyXwX0X8X4X2X$XoXG.G.Z.m.v.v.J.v.u.c.v.m.XX$X$X$X5X5X9X9X5X3X5X3X3X2X1XOXOXOXOXOXoXoX<X0XeXtXpXaXnXNXNXAXNXNXNXCXmXmXnXnXdXdXfXiXiXfX6X6XfXK.fXfXK.6XiXfX6X6XfXiXfXtXtXtXtXtXyXaXyXaXaXyXdXaXyXyXaXaXyXaXyXaXyXaXtXpXyXtXtXrXdXrXrXqXqX6X5X1X$X$X5X,XG.+X+XG.,XG.H.A.H.H.A.H.H.H.H.H.A.Z.Z.S.S.S.u.u.u.u.u.u.u.5.2.o.o... .G F x c 3 3 : : : : 5 z z v v v k v l k z 7 7 1 2 1 1 1 > + + O O . . .     .                                                                                                     .   . .             .   .   .   ",
"                            o       .     o .   o   . o . . . . . . O % O . a ' _._.).9.j.l.]._.j.' W t n 1. XNXfXNXdXfXfXgXz.' t * . * O o X     o o o   X = p f ~ f p o                                                                                         o . o . . % . O + + > 1 2 7 7 z M z k k l B C Z Z Z D D L K K ..X.X.*.:.3.5.5.y.p.n.N.n.n.m.S.V.F.F.XXXX+XH.XXXX+X+XoX$X>X$X3X<X8X4X8X8X8X9X0X0XwXwXrXrXwXrXyXwXyXyXyXaXyXyXyXyXyXbXyXyXbXaXbXbXbXbXMXMXMXMXMXbXMXMXMXMXmXmXMXMXMXnXMXnXnXbXbXaXyXeXeXtXrX8X<XoXOXD.C.7.+.7.b.b.N.V.A.V.N.B.M.M.V.V.A..XF.A.F.D.F.F.G.oX>X5X4X6X6X6XiXiXiXdXsXnXNXCXAXGXHXHXKXJXLXPXKXJXJXJXKXHXKXHXHXHXGXJXGXZXZXBXBXnXMXyXyXyX0X8X<X5X1XOXG.D.D.Z.J.J.J.v.c.x.c.Z.XX%X$X5X9X9X5X5X3X$X5X9X5X3X<XOXOXOXOXoXoXoX7X8XwXtXaXaXnXNXmXNXNXAXNXNXNXNXnXnXbXdXdXdXrX6XfX6X6XfX6XK.fX6X6X6X6XiX6X6XfXeXtXyXtXtXyXyXyXyXyXyXcXyXyXaXyXyXaXaXyXaXyXyXyXtXtXiXeXrXrXrXrXqXqX6X5X5X5X5X>XOX,XK.+X+XG.G.H.H.H.H.H.H.H.+XH.H.A.Z.S.J.J.J.J.u.u.u.t.u.t.3.O.o.o. .G m m b c 3 3 : : 3 5 5 5 v v v v k l l z 7 z 3 2 1 1 : > + + O O O . .     .         .                                                                                       .         .     .   .         .     . ",
"                                      o .     . . o o . . o . . . % # O . . p ( 9._.*X*X*X'._.j.' _ E d n f.gXNXfXfXgXrXgXfX7Xj.n * . % . . o     o o o     X - p f ~ g = o                                                                                       o   . . o . % O O + > 1 < 7 7 7 z z M l B l N C D D D H G L K } ..X.:.:.>.,.3.6.y.n.N.n.n.n.V.V.A.F.XXXXXXXX+XXX+XoXXXOX$X$X5X<X3X8X3X8X8X8X8X8X0X0XwXwXrXwXeXwXyXwXyXyXyXcXyXbXyXyXcXaXyXcXaXbXcXbXcXbXbXbXnXbXMXMXnXmXMXMXMXMXMXMXBXMXMXMXbXdXyXwXwXrX0X<X7XoX7X.XC.z.+.z.b.C.N.[.V.V.N.N.C.V.V.[.F.A.A.F.F.F.F.F..X7X>X2X5X6X6XrXiXrXtXpXsXnXmXCXGXJXHXHXJXKXJXLXKXLXJXJXJXKXJXHXKXKXJXGXGXZXVXVXBXmXMXdXdXwXwX0X8X5X5XOXXXH.Z.Z.Z.Z.J.v.c.x.c.A.H.OX$X$X9X$X5X$X9X9X3X3X5X5X$X#XOXOXOXoXoX#X7X3XqXtXpXaXnXnXNXSXNXNXNXNXmXmXnXnXdXdXdXiXiX6X6X6XfXK.6XK.6X6X6X6X6X6X6XiXiXeXeXeXtXtXtXyXaXyXdXyXyXyXaXaXtXyXtXtXtXtXyXpXtXeXeXpXeXtXrXeXrXqXqXqX6X6X5X3X>X+X,XG.G.G.+XG.H.H.H.H.H.H.H.H.H.H.A.Z.J.J.u.u.S.u.u.u.u.t.t.+.O.o.o.G m D D c c 3 : : : : 5 z v v v l z z k k k z 7 3 2 1 : ; ; ; @ O O . . . . . .                                                                                                         .         .     .             ",
"                          .   . .   .   .   .   . . . o o . o % . # # . . . 8 S [ ].gXSXSXgX*Xj.W T W V d ' gXNXNXfXfXgXfXfX7Xz.W 4 O % O o # o     o o     . o - p ~ f p # o                                                                           o       o o     o . . . O O + ; > > 7 0 y z z k k l B b C b Z D D L L } | } X.%.:.:.>.3.5.y.a.n.p.n.n.V.A.A.F..XH.XXXXH.+XoXXX+XOX$X$X3X3X3X8X3X8X8X8X8XwX0XwXwXwXwXyXwXyXyXyXyXyXtXaXyXyXyXyXaXcXaXaXbXbXbXbXbXMXbXMXMXMXMXbXMXMXMXmXmXMXMXMXmXMXnXaXdXdXyXwXrXwX0X8X<XoX<XoXC.7.7.z.m.N.B.V.[.V.N.B.V.B.V.V.V.[.F.A..XF.F.G.oXOX7X2X4X6XrXeXeXiXiXdXaXnXNXZXAXAXHXHXHXJXLXFXLXJXLXLXJXKXKXKXJXKXJXJXGXZXZXCXNXSXbXvXdXuXrX8X8X5X2XOXoXD.G.Z.Z.J.J.v.u.c.c.S.XXOX$X$X5X9X9X9X$X$X9X3X5X$X5XOXoXOXOXOXG.OXoX<X8XtXaXaXnXNXmXNXNXNXAXNXNXSXnXMXdXdXdXfXiXfX6X6X,XfX6X6X6X6X6XK.fX6X6X6X6XqXeXeXeXeXtXeXtXtXyXtXyXtXyXyXyXyXaXyXaXtXyXtXtXeXtXeXeXeXtXrXrXqXqX6X6X6X5X5X>X,XG.+X,X,XG.G.G.H.H.H.H.H.H.H.H.A.Z.J.S.J.u.J.u.u.u.u.u.3.3.,.O.o...G G m n c 5 3 : : : : 5 5 z v v v z k z z z j 5 2 1 1 ; ; ; + + O O O . .                                                                                                   .     . .         .     . .       .   .   ",
"                  o   .     .   o   o .     X . o . . o . . . . . . . . . O 8 d ( j.*XVXFXIX].1.T A d n d ' 7XfXfXfXgXfXfXfXfX].W t O O . O . & o o o o o o     - - p ~ f p - o                                                                                   o   o o o o . O O O ; , 1 < 7 7 z z M z M M N C D D D D L L } ....X.%.%.:.:.:.5.y.p.n.p.n.m.S.F.F..XF.XXXXH.XX+X+X+X+XOX$X5X$X3X3X3X3X3X8XqX8X0XqX8X0XwXwXeXyXyXyXyXyXyXyXaXcXyXaXcXbXcXaXyXbXyXbXbXbXbXaXbXMXMXMXmXBXMXmXMXMXmXMXmXMXMXnXbXaXdXeXwXuXiX0X4X<X<XOXoXB.C.b.C.N.V.N.B.[.N.N.M.B.V.V.V..XA..XA.F.H.G.oXOXOX2X5X6X6X6XrXiXeXpXpXnXnXNXCXGXGXHXHXKXJXKXKXKXKXJXKXJXJXJXJXJXJXJXJXJXZXZXZXVXMXMXbXdXuXrX0X8X4X4X7XOXG.G.v.m.Z.J.J.v.v.x.v.H.OX$X$X5X3X9X9X9X$X9X3X5X$X1X$XOX+XoXoXoXoX7X<X8XtXaXnXbXmXNXNXNXCXCXCXNXNXmXnXnXsXsXpXiXiXrX6XiXfXK.6X6X6XK.7X6X6X6X6X6X6XqXrXqXqXeXeXeXpXtXtXtXtXtXtXtXtXtXtXtXtXtXtXtXtXtXeXeXeXrXrXeXrXqX6X6X5X5X5X5X,X+X+X,X+X+XG.+XH.H.H.A.H.H.A.A.Z.Z.J.u.J.u.J.u.t.d.+.t.5.3.O.X. ...G m b x c 5 : : : : < 5 0 k b v v z k k z 0 0 0 3 : : 1 ; + + O O O . .   .   . .                                                                                                     . .           .     o . .       ",
"o           o         o o .     . .   . o . . . . . o . % . . . . . . . O % 8 a A [ ].gXIX*Xj.' S d t t t W ].fXfXfX6X7XfX7X7XK.1.t * % % * . # o . & . o       . X = a g 8 X                                                                                   o   .   . o . . O O O + 1 > < 7 7 z M z M M N N C b Z D D F K K | ..X.%.O.%.:.3.3.5.p.p.y.n.n.V.|.A.F..XXXXXXXXXXXXXXX+XOXOX$X>X3X3X<X3X3X8X9XqX9XqX0X0XwXwXwXeXtXyXyXyXaXyXyXaXyXaXaXyXbXaXbXbXbXbXbXbXbXcXbXMXMXMXmXMXMXBXVXMXMXBXnXbXbXbXbXaXdXtXrXwXrX0X4X<X3X1XoXD.C.N.V..XV.B.V.V.V.B.B.C.B.V.V.D.|.D.XXF..XG.oX+XOX,X5X2X6X6X0XiXiXtXdXsXmXBXZXZXGXJXHXHXKXKXJXJXJXKXJXJXKXKXKXJXKXJXFXJXGXFXZXVXBXmXbXcXdXuX0X8X4X2X1XoXG.m.D.Z.H.J.J.J.v.c.m.F.OX$X$X9X3X$X9X$X5X5X3X3X$X1X1XOX+XoXoXoXOX#X<X9XtXaXnXMXmXNXCXCXAXNXCXNXNXnXNXnXsXsXfXiXiXiX6X6XK.fX7X6XK.6X7X6X,X6X6X6X6X6X6X6X6XqXqXeXeXeXtXtXeXeXeXtXtXtXtXtXtXtXtXtXeXiXeXeXrXeXrX6X6XqXqX6XqX5X5X>X,X,XG.G.G.G.+XH.H.H.H.H.H.H.H.H.Z.Z.J.u.u.S.u.u.t.t.3.3.3.3.O.o.| G m m n x j 3 : : : : 3 9 z v v v v z z k z 0 7 7 < : 1 + ; + + O O O . . . .                                                                                                     o           .     .     .         .   ",
"  o               . o .   o . . o o   o .     . . o . o o o . . O . . O O # r p d T [ j.]._.9.( U d t t w W j.fXfXfX7X7X7X7XfX].1.d e * * % # & * * & & o           - p p = o                                                                                           . o . . O O + + + , 1 9 7 7 z M M N M C N D N D D L G K ..} X.%.X.%.,.O.5.t.p.y.y.n.N.Z.A.A.A..XH.XXH.XX+XXXXX+X+X$X$X5X3X5X$X1X$X9X5X9XqX8X8XwX0XwXwXwXwXyXyXyXyXyXaXyXyXcXaXcXyXaXaXyXyXbXbXbXbXMXbXbXMXMXMXMXBXMXmXMXMXmXMXbXbXbXbXpXdXtXrXiX0X0X4X<X1XOXoX|.V.V.[.[.[.V.N.N.B.B.N.C.V.B.V.V.A..XF.F.XXXX+XoXOX7X5X2X6XrXrXiXpXiXaXsXmXNXCXGXJXHXJXJXJXKXKXKXKXJXJXKXJXJXJXJXLXJXJXJXJXGXFXZXVXMXMXbXyXgX0X0XqX5X1XOXG.G.Z.H.Z.Z.Z.J.v.v.Z.F.%X$X$X5X3X5X5X5X9X5X$X3X5X>X$X$X+XoXoXoXoX#X3X9XtXyXbXnXNXNXCXNXNXCXCXAXNXNXnXnXnXsXsXpXfX6XiX6X6XK.K.6X6XK.7X,XK.6X7X6X2X6X6X6X6X6XqXqXeXeXeXeXeXwXeXeXeXtXtXwXwXeXiXtXeXeXeXeXiXrX6XrXqX6X6X6X5X5X5X>X+X,X,XG.G.,XG.G.H.H.H.H.H.H.A.Z.Z.S.u.J.J.J.u.u.d.+.3.,.3.2.O.X. .G m m x c 3 3 : : : : 2 0 k C C v l l z k z z 0 5 1 ; ; ; + + + O O O . .     .         .                                                                                               . .   .       .       . .       ",
"          o       .     o o   .   . .   o o . . o . . o o . . . O . . % * 4 r a t V T ( ' [ [ ( T d d t r W j.gXfXfXgX7X7XfXfXK.z.d w * % * * * = = = * & . o o .   X = p = o                                                                                     o . o . X . . . O O $ ; > , 9 7 M M z M M M C Z b Z D D L L } ....X.X.X.X.:.:.3.6.t.p.y.n.n.V.S.A.A.A.A.XXXXH.XXH.XXXX+XOXOX$X5X$X$X$X3X5XqX9X9X9X0X0XwX0XwXyXyXyXyXyXaXyXyXbXaXyXyXbXbXcXbXbXbXbXbXcXbXyXbXMXMXMXMXMXcXBXMXBXMXMXMXbXbXbXbXtXyXeXrXgX0X0X8X4X3XOXoX|.D.V.V.[.[.V.B.B.N.C.V.B.V.V.V.V..XF..XXXG.oXoXOX>X2X5X6XrX6X6XiXeXpXpXaXmXCXZXAXJXJXKXKXKXJXKXJXKXJXKXJXKXJXJXKXJXJXLXJXGXGXGXZXVXmXMXnXpXiX0X0X6X4X7XOXG.H.D.m.H.H.Z.Z.n.n.S.F.$X$X$X3X$X9X9X3X$X9X9X9X$X3X$XOXoXoXXXoX.XoX3X9XwXyXaXbXmXCXCXNXAXNXNXCXNXNXnXSXsXsXdXiXiXiXiX6X6X6X6X7X7XK.,XK.K.K.7X7X2X2X2X2X5X6X6X6XqXrXeXrXwXqXqXeXeXeXeXwXeXwXrXrXeXqXeXeX6XrXrXrXqXqXqX6XqX5X5X,X,XG.+XG.G.G.G.+XH.H.H.H.Z.A.H.Z.J.S.J.u.u.u.u.u.t.3.+.3.3.2.o.o.G  .m m x c 3 : : : : < 2 0 v V V C v v k z k z 2 2 2 : ; ; + + O O O . . . .               .                                                                                       .                 .     . . .     .   ",
"o                 . . o . . o     o o . . . o . . . % o . . . . O . # $ 8 8 p a t p p d T T ( W U W d w w W f.7XNXfXgX7X7XfXfX7Xj.n * * * * * w = = = * # o . X . .   X # X                                                                                               o . o . O O + + ; 1 6 7 j z k k B B C C D b D H H L } ..} %.O.X.X.:.:.3.5.y.y.y.p.m.N.A.m.N.A.A.H.XXXXH.XXF.XXXX+X$X>X$X5X$X1X3X5X9X9X8XqX9X8X0X0XwXwXtXyXaXyXyXyXaXyXyXbXyXyXyXaXcXaXaXMXbXbXbXMXcXbXMXMXMXMXMXMXVXMXMXMXMXnXaXbXyXyXrXrXyX0X0X8X6X6X5X5XoX.XD.[.|..X[.V.M.B.B.M.C.V.V.V.|..XF.G.XXXXXX+X+XOX>X5X2X5X6X6XeXiXiXpXaXnXmXmXCXGXJXHXJXLXJXHXKXPXJXKXJXKXKXJXLXJXLXLXJXFXJXFXGXGXBXBXmXnXdXyXrX0XrX6X2X7XG.D.H.m.G.H.J.Z.Z.v.m.F.XX$X$X9X3X9X3X$X3X5X9X$X1X3X$XOXoXoXoXoX#XoX#XwXyXtXbXnXmXNXNXCXAXCXNXCXAXmXmXmXNXsXsXdXiXiX6X6X6X6XK.7XK.K.K.K.K.7XK.7X,X2X7X7X5X2X6X6X6XrXrXrXqXeXqXeXeXqXeXqXrXrXrXrXqXeXrXrX6XrXrX6XqX6XqX6X5X5X5X1X,X+XG.G.G.G.G.G.H.H.Z.H.Z.H.Z.Z.J.J.u.J.u.u.u.u.d.,.+.+.3.:.o.| | L m P c j 3 : : 1 1 2 9 z v C Z V B v l l k q 5 2 < : ; ; + + O O . . . .   .             .                                                                                             .   .   .       .   o         . ",
"  o       o o     . o . o o o o X . . o o . . o . . . o . % . . O O % $ = 8 t p d t p t d U U W s d s w r d f.gXfXfXfXfXfXfXfX7Xz.W 4 r * 4 * w r w 8 * # - % o o       X o o                                                                                       . . .     . O . O % @ > , 7 7 7 0 z l l l C Z x D D D G L G } X.} %.%.,.O.:.3.5.y.y.y.b.n.n.N.n.n.J.S.A.H.A.XXF.F.F.XX+XOXOX5X1X$X$X5X5X9X9X8X8XqX0X0XrXwXwXtXyXtXyXyXyXyXbXyXbXcXaXbXbXaXbXaXdXbXdXcXdXbXbXMXMXMXMXVXMXMXmXMXMXbXdXbXaXdXtXuXrX0X0X8X4XqXqX6X$XoX|.V..X.X[.[.N.C.N.C.C.C.C.V.V.V.D..X.X.XXXoX+XOX>X1X2X6X6X6XiXqXiXpXtXpXnXmXCXZXGXGXHXJXKXJXHXHXHXJXKXKXJXJXKXFXJXJXJXJXKXFXJXGXFXVXBXBXMXaXdXuX0XqX6X2X<XK.H.Z.D.H.J.H.Z.Z.n.m.A.+X$X$X$X$X9X9X3X3X9X$X5X3X3X1XOXXXoXXXoXoXoX#X8XwXyXaXmXmXmXNXBXNXCXCXCXNXSXmXmXnXnXfXpXiXiXiX6XfXK.6XK.6XK.K.K.K.7X7X7X,X,X,X7X,X2X2X6X6X6X6X6X6X6X6XeXqXeXqXqX0XrXrX0XqX6XqXqXeX6XqX6XqXqX5X6X9X5X1X$XOX,XK.+X+XG.G.G.H.H.H.Z.Z.Z.Z.J.S.J.u.u.u.u.u.d.t.+.t.,.3.:.X.o.G m P c c 3 3 : 1 1 < 4 0 k v Z Z n C v l l k z 5 5 1 ; ; + + + O O O . .   .   .                                                                                             .   .   .             .         . o .   .   ",
"o             o . . o . . o . . . . o . . o o . . . . o . . . . . O % $ $ 8 r a d p t r r d d d s d s e e W ' 7XfXfXfXfXfXfX7X].' U 4 w r w r r r r r = = # X X .   .     X o                                                                                     o   . .   . . . O O + + + > < 7 7 0 k k M l C C Z b D D L K } } X.| %.X.%.%.,.>.5.y.y.p.n.n.n.b.b.c.S.S.A.A.A.H.F.F.F.F..X+X$X$X$X$X1X3X5XqX9X8X8X8X0X9XwX0XtXwXyXyXyXyXyXyXyXyXyXcXyXcXaXaXaXcXdXbXcXcXbXbXMXbXMXMXMXcXMXMXMXMXnXMXcXcXaXyXyXyX0XwX0XqXqX6XqX5X$X.X.X|.[.[.[.V.B.M.B.B.l.M.C.C.B.V.V.|.F.XXoX+XOXOX1X,X5X5XqXqX6XiXeXiXpXaXnXmXNXZXZXJXHXHXHXHXKXHXHXKXJXJXJXLXJXJXLXJXJXLXJXJXJXGXGXAXVXBXmXbXdXiXrXqXqX4X1XG.G.m.Z.H.H.J.Z.Z.v.n.F.%X$X$X$X$X3X3X$X$X9X9X3X3X$X$X$X+XoXoX.XoX.X#X9XyXyXbXnXmXNXCXCXCXCXCXCXAXAXNXNXNXNXfXsXiXiX6X6X6X6XK.6X6XK.K.K.K.G.G.K.7XK.K.7X7X7X,X6X6X6X6X6X6X6X6X6XrX6XqXqX6XrX0X0XqXeX6XqX6X6XrXrX6XqX6X6X5X5X5X5X,X+X,XG.+XG.H.H.H.Z.H.Z.Z.Z.Z.J.J.u.J.u.u.u.u.t.t.t.O.,.:.O.o... .m P c j 3 3 : 1 < < 5 q q B V V Z C b v v k k 0 2 : ; ; + + + O . . . .   .       .                                                                                                     .         .       .             ",
"o       o o       . . . . . . . o . . . o . o . o . o o % . . . . . . # $ = r p r s r r s d U s t U Y e e W W ].fXfXfXfXfX7XK.z.W s w w t t r r r r p r 8 - % X o o                                                                     o                                 o   . . O . + @ + > 6 7 0 z k z l v C Z x D D D F L G } } X.%.X.X.:.O.3.5.t.y.b.y.p.x.n.u.p.n.J.S.A.A.F.F.A.m.F.G.+XOX$XOX$X$X$X5X9X5X8X0X8X8X0XrXwXwXwXyXyXyXyXyXyXbXaXyXaXbXyXbXcXbXcXbXMXdXbXdXbXMXMXMXMXMXcXBXMXMXMXbXcXdXdXaXdXrXwXrXwXqXeXqXqXqXqX2X#XoX.X[.V.[.V.M.C.M.B.C.C.b.M.C.V.V.F..X.XXX+X+X>XOX1X5X6X4XrXeXeXiXtXpXaXaXmXCXZXGXJXHXJXHXJXHXHXHXJXJXKXLXJXJXJXKXKXLXLXJXJXJXJXGXGXZXCXBXMXaXdXrXqX0X6X2XK.G.D.H.H.Z.Z.Z.Z.c.m.A.XXOX$X$X$X3X3X9X5X9X$X5X$X5X$X$XOXoX.XoXoX|..X$X9XyXcXnXmXmXCXCXCXCXCXCXAXNXmXNXNXsXsXsXfXiXiX6X6XK.6XK.K.K.7XK.K.K.G.G.K.K.K.G.G.K.,X,X2X2X6X2X6X2X6X6X6XrXqX6X0X0X0X0XqX6XqXqXrX6X6X6XqX6X6X6X6X5X5XOX,X,X,X+XG.+XH.H.H.H.Z.Z.J.Z.Z.Z.J.J.u.u.J.u.u.u.+.+.+.3.3.O.o. .G m x c j 3 : : 1 1 2 q k v B C Z Z C C B l z 0 2 2 : ; ; + + O O O . . . .   .   o                                                                                                   .   .   . .       .     . .   .     ",
"            .   . . . o . . . .   . . . .   o . . . . .   . . . . . % o % * w r w r r s s d g f s s s w w d ` ].7XfXfXfXfXK.f.z.W t w r t s s t s t r w w w & & . .     .                   o                                                                         .   o . . . . O O O ; , 6 2 7 0 k k l N x C Z m D D F G K } } X.%.X.X.*.%.:.3.y.p.y.b.u.b.y.n.y.n.n.n.S.A.H.A.Z.A.F.F.+XOXOXOXOX$X1X5X5XqX5X8X0X0X0X0XwXrXyXrXyXyXyXyXyXaXyXbXyXbXaXbXyXbXdXbXaXaXbXbXbXbXcXbXMXMXMXMXMXMXbXbXbXaXaXtXeXrXwXrXrX0XrX6XiXrXqX3X7XoX|.|.V.B.C.M.b.M.M.C.C.b.b.b.C.V.F.F.oXoXOXOXOX5X5X5X6X6XwXrXeXtXtXaXMXnXCXCXZXGXJXJXJXJXKXJXJXKXJXJXLXLXFXKXKXJXKXHXKXKXJXKXJXJXFXFXAXVXVXMXyXtXqXqX6X>XK.H.D.D.H.H.F.J.m.n.n.F.XX$X$X$X3X3X$X3X3X5X9X$X3X$X$X$X#X%XoXXX.X|..X#X8XaXyXmXmXCXCXAXCXAXAXCXAXCXBXNXNXNXsXsXfXfX6X6X6X6X7X2XK.K.K.K.G.K.D.G.J.K.K.G.D.K.K.K.,X,X,X,X5X5X6X6X6X6X6X5X4X6X6X4X6X6XqX6X6XqX6X6X5X6X6X5X5X2X5X>X>XOX+X+XG.G.G.H.H.H.J.Z.Z.Z.S.J.J.u.u.u.S.u.u.u.d.,.+.3.,.+.X.| G m b c j 3 3 : < 2 9 9 q v V Z V S n V B C k 0 2 1 ; + ; ; + O O . . . .       .   .                                                                                                               .     .   . .     .   ",
"        .   . o . o . . . . . . . o   o . .   .   . .   . . . . o . o . . o * = & * w p s g f ^ g U Y w e t W j.:XfXfX7XgXz.W W s r w r s t t s t s t s r w * o o       .   o                                                                                     .       . . . . . O + + @ , 6 < 7 0 0 k z v x Z C D b D D G L } | X.X.X.X.O.:.:.5.6.p.p.y.n.u.n.b.u.p.a.n.S.Z.A.S.Z.Z.A.H.XXOXOX+X+XOX$X5X5X9X4X8X8X0X0X0XrXrXyXyXyXyXyXdXaXyXbXyXyXaXaXcXbXyXdXbXyXbXaXcXbXbXcXbXcXMXMXcXMXMXcXbXbXyXtXtXeXwXrX0X0X0XrX6XqX6XqX5X#X X|.|.V.B.b.M.b.b.M.b.l.b.C.l.C.V.D..X.X.XOXOX>X5X5X4X6XqXrXwXwXaXaXaXMXmXBXZXGXJXJXFXLXLXJXKXKXJXLXFXJXJXJXJXJXJXKXHXKXHXHXKXJXJXJXJXFXZXCXmXaXtXeXeX6X1X7XK.Z.F.F.H.Z.Z.m.v.m.Z.XXXX$X$X$X3X5X$X$X9X$X9X$X$X$X$X$X+XXX.X.X.X|.#X#XbXyXMXNXCXAXAXAXCXCXZXCXAXCXNXnXnXsXdXfX6XfXfX6X6X7XK.6XK.7XK.K.G.G.G.K.v.K.v.K.v.v.K.,X,X,X,X,X,X,X2X5X6X6X5X4X4X4X2X5X6X5XqX6X6X6X6X6X6X2X2X2X5X2X1X>XOX+X+X,XG.G.H.H.H.Z.Z.Z.Z.Z.Z.J.J.J.S.J.u.u.u.t.3.,.3.,.O.o.| m m P c j 3 : : 2 < 9 0 q q V V C Z C Z Z C M z 3 1 ; ; + + O O O . . . . . .                                                                                                       .           o                 .     . ",
".         .   . . . . . . . . .   . .   .   . . . . . . . . .   % X o     o * = & * w u s g g ^ U s U w w s W j.:XgX:X7X].z.W W t r w t t W t d d t d t r r * o . o   .             o                                                                             .   . .     . . O O O + @ > 6 2 7 0 z z l v C Z b b D m D D G } | } %.X.X.X.X.O.2.6.y.u.n.p.n.p.y.c.p.c.c.S.S.A.Z.S.A.A.F.+X+XOXOXOXOX5X5X5X4XqX4X9X0X0X0XrXyXyXeXtXaXdXyXaXaXcXaXbXyXbXaXaXcXaXaXbXbXaXbXbXcXbXcXMXMXMXMXMXcXaXaXyXaXyXtXwXwX0X0XrX0XrXiXiX6XqX3X$XoX|.|.B.C.b.l.b.l.l.b.l.b.b.x.l.B.D..XoX+XOX$X5X5X4XqX6XqXwXrXwXyXpXaXMXmXBXZXGXGXJXJXJXJXLXKXJXKXKXKXJXKXLXJXLXKXHXKXKXKXJXJXJXJXJXFXFXZXVXnXbXyXeXeX6X2XG.G.F.F.H.F.F.Z.J.v.n.m.F.XX%X$X$X5X5X5X$X$X9X$X$X$XOX#XOXoXXXXXXX.XD.|.#XyXcXnXCXCXCXAXAXAXCXCXAXNXCXNXNXsXsXdXiX6X6X6X6X6X,X6XK.6XK.K.K.G.G.D.v.G.v.K.K.v.K.K.,X,X,X,X,X,X5X5X5X6X5X6X2X4X4X3X5X4X5X6X5XqX6X6X5X5X2X5X,X5X>X2X$XOX+X+X+XG.G.H.H.Z.H.J.Z.Z.Z.Z.S.u.J.u.u.u.u.u.3.3.3.,.,.,.| | G m P c 3 3 3 : < 2 9 q M V V B v Z Z Z C B l c 3 1 : + + + + O . . . . . .   . .                                                                                                     .                 .   . o .         ",
"  .       . . o . . . o . . . . . . . . . . . . .   . . . . . . X o X .   . o * * w w s p g f f U U Y r w s W ` ].7X].].z.W W t w w w r d d d s d s s t t r * & . o       .                                                                                                 . . . . . O O > > 6 5 2 9 0 z l b v x b Z x m D D L L G } X.X.X.X.o.O.2.5.t.y.y.p.y.p.b.u.p.u.p.S.S.S.Z.S.Z.A.F.H.OX$XXXoX+X$X5X5X8X3XqXqX0X0XrXuXrXeXtXyXtXyXaXyXyXaXyXbXaXyXaXaXaXbXbXyXaXbXaXbXbXbXbXbXcXcXMXMXMXcXbXbXyXtXtX0X0XrX6XrXrXrXrXrXrXwX8X#XoX|.D.M.b.w.w.b.b.b.b.b.l.z.b.C.C.A..XoX+X$X>X$X5X6X6XqXqXrXeXeXaXyXbXnXBXBXZXGXFXJXJXLXJXJXJXKXJXJXKXKXJXJXLXJXLXKXKXKXHXKXKXJXJXJXJXFXFXBXMXbXaXtXwX0X2X7XoXG.H.H.H.F.Z.n.x.x.n.A.XXXXOX$X1X$X$X9X5X$X9X#X#X%XoX%XOX%XoX.X.XV.|.#XyXyXbXNXNXCXAXCXCXCXCXAXCXNXNXnXfXdXfXfXiX6XfX6X7X,X6X6XK.6XK.K.K.J.G.K.v.K.v.v.K.v.K.G.K.+XK.,X,X,X5X,X5X5X5X4X4X2X<X2X4X6X5X5X6X6X5X5X5X>X7X>X,X>X,XOXOX+XG.OX+XG.H.H.H.Z.Z.Z.Z.Z.Z.J.J.u.J.u.u.u.u.3.3.+.O.O.O.X.| L D x l j j 3 3 1 2 9 q k y V Z V V Z V Z C k 7 7 : ; ; + + O . . . . . .   .         .                                                                                                     .     . .           o   .     ",
".       . . .   . . . . . . . . . . . . . . . . . . . . . . . . . o . o .   . & = w w u u s g g U Y U s s s U W f.z.z.f.W W n r r w w d W t d n d d d p p r w $ . .     .                     o                                                                               . . . O O + @ , 6 9 2 7 0 z z x C Z m D m Z m D m L G | ....X.X.X.o.:.3.5.y.y.p.p.p.b.u.u.u.a.S.a.Z.Z.S.m.A.F.XX+XOXOXoXG.oX1X3X5X4X4X8X0X0X0XrXrXtXwXyXaXaXtXaXyXaXyXyXbXyXbXyXbXyXbXbXbXbXyXbXbXcXbXbXbXMXcXMXMXaXaXyXaXyXyXrX0XwXqXqXqXeXeXeXqXeX8X<XoX|.D.M.z.6.l.b.M.b.b.b.p.l.z.C.V.|.oXOX$X$X>X5X5X4X6XqXrXwXrXyXyXaXbXbXmXCXZXGXHXJXLXJXJXLXJXLXKXKXJXLXLXHXKXKXHXKXKXKXKXKXHXJXJXJXJXGXZXVXmXbXaXpXeXqX2X>XoXG.G.G.H.A.m.v.v.x.m.A.F..X$XOX$X3X3X$X$X9X$X$X#XoX%XOX$XXX+X.X.XV.|.|.yXyXnXmXCXCXAXCXCXCXBXCXCXmXmXnXsXdXiX6XiX6XiX6X6X,X,X,X,X,XK.K.K.D.J.v.G.J.v.K.K.v.K.H.K.G.K.K.+X,X,X1X5X5X5X1X5X2X1X3X2X2X5X5X5X5X5X,X>X>X7X+X7X>X>XOX+X+XG.+XG.G.H.H.H.Z.Z.Z.Z.Z.Z.S.u.J.u.J.u.u.u.3.3.O.:.O.X.X.G L D P c c 3 3 1 1 2 7 q q B B V n V V Z C v l 7 : : ; + + O O O . . .     .   .                                                                                           .                             .     . . .       ",
".         . o . . o . o . . . . . . . . . . . . . . . . . . . . . . % .   .   o = = = u u p g g U U U s s s s I ` W f.` W W w 4 w r t t d U d d d d t t p t r = o o   .   .                                                                                               . .   . . . O O @ > 1 9 5 0 0 k l v C C C b Z P Z D D L L G ..} |  .o.X.O.2.2.5.y.p.y.y.p.u.p.u.u.u.J.S.S.S.Z.Z.F.H.XX+X+XXXoXoXOX5X5X8X4X0XuX0X0X0XyXtXtXyXyXyXaXyXyXaXaXaXbXbXyXbXyXaXyXyXbXbXbXaXcXbXbXcXcXcXMXMXcXcXaXcXpXtXwXwXwXwXqXqXqXeXeXeXeXeX9X1X X|.B.b.w.6.l.w.b.z.l.w.z.b.b.b.m.F..X%XOXOXOX5X5X4X6XqXqXeXeXtXaXaXaXbXBXCXZXGXHXJXJXJXLXFXLXFXKXKXKXFXKXKXHXKXKXKXKXKXKXKXKXJXKXJXJXGXFXVXBXMXyXtXeXqX6X7X+XoXG.H.H.Z.m.n.v.x.n.m.F.XX$X$X$X5X5X$X9X9X$X$X#X%XoX%X%XOXXXoX.XV.D.|.yXyXMXmXBXCXCXCXCXCXCXNXmXSXnXbXdXdXrXiX6X6X6X6X,X2X2XK.6X,X,XK.G.G.Z.K.v.K.K.G.v.J.G.H.G.G.K.+XOX,X,X,X5X5X5X1X5X2X>X1X2X1X2X2X2X5X2X,X1X7XOX7X+X>X>XOX+XG.+X+XG.G.H.Z.H.Z.J.S.Z.Z.S.Z.J.S.J.u.u.u.u.3.3.3.O.O.o.| | m m b x c 5 2 2 1 1 9 0 q v B V C C Z C C v z 5 3 : ; ; + O O . . . . . . .       .                                                                                                           .   .   .     . .       .   ",
"o .   .     . . o . . . . . . . O . . . . . % o . . . . . . . X % . . o .   X - - e e e u u s g Y Y Y Y s w e s W W ` W W s e e r w t d W s d d d d d p p r r * % o   .   . o                                                                                               . . . . O O O @ > 6 7 7 5 0 q l v C Z Z b P b b m m m L G } } G ..o.X.O.*.2.5.6.y.p.p.y.p.t.u.a.u.S.S.S.S.J.m.A.F.XXXXOX+XXXoXOX1X5X4X0X0X0X0X0XrXrXwXyXtXtXtXyXyXaXyXaXaXyXaXyXbXaXcXyXbXaXyXyXbXbXaXcXaXbXbXbXMXcXbXcXyXdXwXwXwXwXrXeXqXeXeXeXqXqXwXqX<X#XD.b.l.6.6.w.w.b.p.w.z.p.z.b.B.V..X+XOXOX$X1X5X5X6XqXqXrXeXeXtXpXaXbXnXNXZXAXGXJXJXJXKXJXLXJXLXJXFXJXKXKXKXHXKXKXHXKXKXKXLXKXKXKXJXJXJXGXVXBXnXbXyXeXwXqX2X>X+XG.G.H.F.m.v.v.x.v.m.A.XX$XOX$X3X$X3X$X$X-X$X#X%X%X$XOX%XXXXX.XD.B.[.wXyXbXNXNXCXCXCXCXCXCXAXmXnXsXdXdXiXiXiX6X6X6X6X6X2X2X6X,X,XK.K.G.D.m.v.K.K.J.J.K.K.J.H.H.G.G.G.,XK.K.OX>X>X$X1X5X5X1X1X1X1X1X1X1X7X>X+X7XoX+X7X,X>X>XOXXXG.+X+X+XG.H.H.H.Z.Z.Z.Z.Z.J.S.J.S.u.u.u.u.d.3.+.:.O.X.X.| G L D x x j 5 2 3 3 < 2 9 q k B C V V Z C v l z 3 : : ; + + O O O .   . .   . .                                                                                                             .     .       .         .       ",
"        . . o o . . . . . . . . . . . . . . . . . . o . . % o o % X . o   X - - - u u h e u i i s i s s Y e e i Y W Y W Y e e w w 4 t d d W d d d d a d d a r = o o .   o       o                                                                                             . . . . O + @ @ 6 4 5 0 0 z l v b b b D b b m P Z G L G G G } ....o.*.O.:.3.5.y.b.p.y.t.u.u.u.S.u.S.S.S.n.n.S.F.F.XX+X+X%XoXoX$X3X5X8X0X0X0X0X0XyXtXtXyXtXyXtXtXtXaXyXyXaXyXbXyXbXdXbXcXaXbXbXcXbXyXbXcXbXcXcXbXbXbXyXyXuXwX0X0X0XeXqXqXeXeXeXeXqX9XqX<X#XB.b.l.7.7.6.w.l.w.6.w.6.b.b.C.N.|.+X%XOXOX$X5X5X4XqXqXrXtXtXtXyXaXMXmXCXZXAXGXHXJXJXKXKXJXLXJXKXLXLXKXJXKXKXHXKXKXKXKXKXLXKXJXJXKXJXGXFXZXCXBXbXaXeXeXqX5X5XOXoXG.G.Z.m.c.x.x.c.n.A..X+X+X$X3X$X$X$X3X3X$X#XoXOX%X+XOX.XXX.XD.B.{.wXyXnXNXNXCXCXCXCXCXCXBXmXnXnXiXfXiXiXiXiX6X6X6X2X2X2X6X,X6XK.K.G.G.H.G.v.J.J.J.J.v.v.Z.H.H.H.H.H.G.K.,X>X5XOXOX1X1X$X1X1X1X$XOXOXoX7X+XoX7X+XoX+XoX>X+X+XG.+X+XG.H.H.Z.H.Z.J.S.J.S.n.u.S.u.u.u.u.t.d.3.:.O.O.X.|  .G m D P c c 0 3 2 : < < 2 0 k B S C C v v l z 0 1 1 : ; ; + O O . . . .   .       .                                                                                               .                   .       . . o     .   ",
"o .     o o o . . . . . . . . . . O . . . . . . o o X o o X o o o o o o h h h Q i i p h Q g Q g i Q Y i i u e e e i s w w * * e * r t d d T I d S d d a p p t *   .       .                                                                                                   .   . O O O + @ , 2 2 9 0 q z v b Z b Z b m b b P D G G G | K } ..X.o.*.:.2.6.p.p.p.6.t.5.y.p.a.S.c.S.S.J.S.S.A.XXXX+X%X+X+XXX$X$X3X4X4X8X0X0XwXeXtXyXtXtXtXyXtXyXyXtXyXyXaXyXaXyXaXcXyXbXyXaXaXaXbXbXcXaXbXaXbXcXbXyXyXyXwXwXwX0XqXwXqXwXeXeXeXwXwXqX$X|.B.l.6.7.w.w.q.z.w.7.l.b.w.b.C.V..XXX%X#XOX5X5X5X4X0X0XrXeXtXtXaXaXnXnXBXZXGXHXGXHXHXJXJXLXLXLXLXLXLXLXFXHXKXJXKXKXLXKXKXKXKXHXKXJXJXJXGXZXBXmXnXdXrXiXrX4X5X>XOXoXF.D.Z.v.x.x.x.v.m.XXXXOXOX$X$X$X$X$X5X$X%X%XOX%XOXXXXX.X.XV.M.|.<XcXdXMXBXCXCXCXCXmXmXMXmXbXbXyXdXrX0XrXrX6X6X6X2X5X2X2X2X,X,X,XK.G.G.G.v.v.v.v.v.v.v.J.J.J.K.H.H.H.K.+XOXOX>X5X>X>XOX>XOX>X$XOX+XOXOXG.oXG.oXG.oX7XG.+X+X+X+XG.G.H.H.H.Z.Z.J.S.J.c.S.J.J.u.u.u.+.t.+.,.O.O.X.o. .G G m m x x l 5 2 3 : 3 1 < 0 v V C C v B l z z 7 3 1 : , ; % O . O . . . .       .                                                                                                 .                 .         .   o         ",
"    . . . . . o . o . o . . . . . . . . . . . . o o X o o o X o o o o X h h y Q ^ Q f Q ^ / / ^ ^ ^ ^ ^ Q i i h e e e e e e * = w w s d d f d d U d f d s p p * .                                                                                                               . . . . O + > < 2 4 0 0 0 z l v b C b m b Z m D D L L K G } ....o.%.o.O.3.5.p.b.y.p.t.t.t.u.u.S.S.S.S.S.Z.A.A.XXXX+X+X+X+XOXOX5X3X3X4X8X8XwXwXwXwXtXyXtXtXtXyXyXyXtXaXaXyXaXyXaXaXyXbXyXbXaXcXcXbXcXbXbXbXcXbXaXyXaXtXtXwXwXwXwXeXwXeXwXeXeXeXeXwX9X<X|.B.z.w.6.w.6.6.w.6.w.w.z.b.l.V.V..XXXOXOX$X>X3X5X6X4X0XeXwXtXtXyXbXMXMXBXZXAXGXHXHXHXKXKXFXFXLXFXLXFXLXLXLXHXPXKXKXKXKXLXKXLXKXKXHXJXJXJXVXVXMXMXbXdXyXrX6X5X>XOXG.F.Z.m.v.v.c.v.c.m.F.+X$XOX$X$X5X$X$X-X9X$XoX%XOX%XXXXX.XA.V.C.B.8XaXcXnXmXCXNXmXBXBXmXmXMXbXbXyXdXyX0XrX0X6X6X6X2X6X2X2X2X2X5X,XG.G.G.K.J.v.v.v.d.v.v.v.v.J.J.J.J.H.G.G.+XOXOXOX$X5X$X$XOX+XoXoXoXG.oXoXG.oXG.oX+X+X+X+X+X+XG.+X+XH.H.H.H.A.J.J.c.c.c.a.J.u.u.t.t.+.3.+.:.O.X...G G m m C x x z j 3 2 < < < 3 9 v B B C C v B l z 2 3 1 : ; + + O O o   . .     .         o       o                                                                                                       .   .     . .     .   ",
".     o o . o . . . . . . . . . . . . . . . . . X . o o X o o o   o - h h f { { { P.P.P.P.R.P.] { P.] ] / ^ ^ i i h h e e = e e w r s s d U U f f f U d s p r *   .     .                                                                                                     . . . . O O @ @ 6 2 2 9 z 5 v z b C b Z x b m m b D H G J K R ....$.X.o.*.>.y.p.b.p.t.e.t.p.a.u.a.a.S.S.S.S.A.A.XXXXOX+X+XoXOXOX5X3X2X3X8XqXwXwXeXtXtXtXyXtXtXtXtXtXtXtXyXaXyXyXaXyXbXyXbXyXbXaXaXaXaXbXcXyXbXbXyXyXyXyXuXwX0XwXqXwXqXwXeXeXeXeXeX0X8XOX|.C.z.z.7.w.6.w.6.l.6.w.b.b.b.N.V..XXX+X%X$X5X5X3X4X0X0XeXwXtXtXpXbXnXmXCXZXGXGXJXHXHXKXJXLXLXLXLXFXLXLXLXKXKXJXKXKXKXKXKXLXHXKXKXHXPXGXGXFXVXMXMXbXyXrXrXqX5X5X>XK.G.m.Z.v.x.v.x.n.m.F.XXOXOX$X3X$X$X$X$X9X$XOX%XXX+XXXXX.XF.V.b.B.8XyXbXMXmXBXmXmXBXBXmXmXMXMXaXdXrXrXrX0X6X4X6X2X6X2X5X2X,X,X,X,X+XG.G.K.H.v.d.v.d.d.v.J.v.v.J.J.K.J.H.H.+X%X+XOX$X$X$XOXOXXXoXoXG.F.G.+XoX+XG.7X+X,X>X+X+X+XG.+XH.H.H.H.Z.Z.Z.c.J.c.c.c.S.u.u.d.+.3.3.O.O.X.X... .m m P x x x c 7 1 2 : 3 < 2 0 v V C v C v l l z 3 1 3 1 ; + % O . . . .   . . .   .         o   o                                                                                   .         .             .     . .   .     ",
". o . o o . . . . . .   . . . . . . . . . . . .   o o o o o X o o X h h y Q { P.P.P.).`.`.UX`.E.W.E.W.Q.R.T./ ^ ^ i e h u u u u w s p s g d f d f d f d t r = o     . .   .                                                                                                       . . O O % @ > < < 5 5 z q v v b C b b b b b m D D J G K } ........X.*.4.6.p.p.p.p.t.t.t.a.S.S.S.S.S.S.S.S.A.XXXX+XOX+X+X%X$X$X1X3X3X8X8XqXwXwXwXwXtXtXtXtXtXtXyXtXtXaXyXyXyXdXaXcXbXyXaXcXcXbXcXaXyXbXbXaXaXcXyXyXtX0X9XuXwXwXeXwXwXeXeXeXeXeXwX8X#XD.M.6.q.6.7.q.6.w.6.w.6.6.w.b.B.D.XX%X$X$X$X3X5X5X0X0XrXrXeXtXyXaXaXnXMXBXCXAXHXJXHXHXKXKXFXLXLXFXLXKXFXLXKXKXKXLXKXLXLXLXLXHXJXJXKXJXJXJXAXBXMXnXbXdXyXrXqX6X5X>XoXG.Z.m.c.c.x.x.x.m.Z.XX+XOX$X$X3X3X-X9X$X$X%XoX%X%XXXF..XF.V.C.B.3XyXyXbXmXBXnXMXmXmXBXMXnXaXyXyXyXyXrX0X4X6X4X2X2X5X2X2X6X,X,X>X,X,XG.K.K.v.v.d.d.v.d.d.d.d.v.J.J.J.K.H.H.+X+X+X+XOX+X+X+XXXXXF.|.F.F.G.+X+X+X+X+X+X+X+X+X+X+XH.H.H.A.H.H.Z.J.J.J.u.u.u.u.u.u.t.t.O.+.:.O.X.X.|  .m m b x x l z 3 3 2 < < 3 < 0 k v v C v l l z 0 2 3 : : + + % O . . o   .                                                                                                       .                   .   .         o   .     . ",
"o . o   O o . o . . . . . . . . . . . . . .       o o o o o X X X - - h Q { P.Y.~.).UXUXUXjXjXUX`.UX`.`.`.Q.P.P.{ ^ Q i i i h u w w s u s s g f f f U f p w * &         .                                                                                                         . . O O O > > < : 4 0 0 z z l b b x b b b m b D D H G K ..........o.o.>.w.p.p.p.p.t.t.u.a.s.S.S.S.S.S.S.A.XXXXXX+X+X+X+XOXOX>X$X3X3X8X8XqXwXwXwXyXeXtXyXyXrXyXyXyXyXtXyXtXyXyXyXbXyXcXyXbXyXyXcXyXcXbXyXyXcXaXyXyXwXwX9XwXqXwXqXeXqXeXeXwXtXwXeX9X#XD.l.z.q.7.w.7.q.6.q.6.6.l.b.M.B..X.X%X$X$X$X5X5X5X8X0XrXrXrXyXyXaXbXMXmXBXZXGXHXJXLXFXLXFXLXLXFXLXLXLXLXLXLXKXKXKXLXKXLXKXKXKXLXKXJXPXJXJXFXAXSXnXMXyXyXrXqX6X2X7X7XF.m.v.v.x.v.x.x.n.m.F.%X+X$X5X$X$X$X$X$X-X$X+X%X+XXX.XA.A.V.C.B.#XyXyXbXmXmXmXMXmXmXMXMXbXaXyXgXtXrX0X0X4X4X4X2X2X5X5X2X2X,X,X,X,XG.,XK.K.G.v.v.v.d.d.d.d.d.d.c.v.J.J.A.H.H.+X+XXXXXXXOXoXXX.X.X.XH.F.XX+XG.OX+XOXOXOXOX+X+XH.+XH.H.H.Z.Z.Z.J.J.J.c.u.u.u.u.t.+.+.+.:.+.O.o. .| G m m x x z z z 3 2 7 2 2 2 2 0 k B v b B l z z 5 3 : : : ; + O O . . .   o . o     o     o                                                                                                           .           .   o         ",
". o o . o o o o .   .   . . .   . . .       . o o o o o X X X - - - h h Q { ~.~.~.UXUXUXUXjXjXUXUX`.UXW.UX`.UX).T.P./ Q i i i i s s u s s d U I g s f d s * & o .   .                                                                                                         .   . . O O O @ , > 4 5 9 5 5 z v C b v b b x x P C D H G K R K ....| ..o.:.6.p.p.w.p.t.t.s.u.J.S.a.S.S.S.S.A.XX%X%X+X+XOX%X+X$X$X1X1X3X3X8XqXqXwXwXwXyXtXrXwXyXyXtXwXyXwXyXyXyXyXyXyXyXaXaXcXcXaXaXaXyXyXyXbXyXyXyXwXuX0X8XqXwXwXwXwXwXeXeXeXeXtXwX9X#XD.l.7.6.q.w.q.6.q.q.6.6.w.b.M.N..X.X$X$X$X$X5X5X9XqX0X0XeXrXyXyXyXaXMXmXBXCXGXGXJXFXLXLXLXLXLXLXLXLXLXFXLXJXKXKXKXLXLXLXKXKXKXKXKXKXJXJXGXGXVXmXnXnXdXrXdXwX6X2X<XoXF.m.m.m.v.c.c.c.x.m.F.XXOX$X$X$X5X5X-X$X3X$X%X+X%XXXA.F..XV.C.C.#XtXyXbXnXnXMXMXmXMXbXbXyXyXdXtXrXwX0X4X6X2X2X2X2X2X5X2X,X2X,X,X,X7X,X7XK.K.J.v.z.v.d.d.+.d.d.d.x.v.v.Z.Z.H.H.XXXX+X+XXXXXG.XXG.F.F.oX+X+X+X+XOX+X+X+XOX+X+X+X+XG.H.H.H.Z.Z.J.J.u.u.u.u.u.d.t.3.3.:.+.:.X.o.....m m m x x c z j 7 2 0 5 2 2 2 0 v b C B v v z z 3 2 : : ; + + O . . .   . .                       o                                                                                         .             .   .     . .     . . ",
". o . o o % .   .   . . . . . .     . . .   o o o o o o - - h h h h h Q / P.~.UXUXUXUXW.~.W.W.E.Q.Q.W.Q.R.~.UXUX~.R.[ / Q i i i i s s i s g g I U s U f r e & o     .     .                                                                                                     . . . . O O + > : : < 2 5 5 z l v b x b b b P b b Z Z H K K R ..G } | ..:.5.p.p.p.t.t.u.u.u.J.a.S.J.J.a.S.A.}.XX+X%X%X+X+X$X$X1X3X1X3X4X8XqXwXqXwXyXeXyXwXyXrXyXrXyXwXyXtXeXyXyXyXyXyXcXaXyXcXyXyXcXbXyXyXyXaXyXyXwXwX0X8XwXwXwXwXeXwXeXwXtXtXtXeX9X#XV.l.6.q.6.6.6.4.6.5.q.6.l.b.b.V.V.%X%X$X$X$X5X5X5X0X0XwXeXrXyXdXdXdXbXmXCXZXGXJXFXKXKXLXFXLXLXFXLXLXFXLXFXLXKXLXLXKXLXLXKXLXJXKXKXKXJXJXJXJXSXBXMXMXyXtXeXqX6X2X2XK.G.D.m.J.v.m.v.c.x.n.m.XXOX$X$X$X9X$X$X$X$X$X+X%XOXXX.XA.XXV.b.l. XeXyXyXMXbXMXMXbXbXbXcXyXyXgXuXrX0X0X4X<X3X3X2X3X5X5X5X5X,X,X7X7XK.,X,X,XK.K.D.v.d.d.+.+.+.d.d.d.x.v.c.Z.A.A.H.XX+XXXXXH.XXG.XXF.G.XX+X+XG.+X+X+X+XOX+X+XXX+XH.H.H.H.Z.Z.Z.J.J.u.u.u.y.u.t.6.3.+.O.O.O.X.o.R G m m m x c c j j 7 2 7 7 2 2 2 q v C v C v l z j 5 : : : ; ; % O . .   o   .                 o                                                                                                             .   .     . .     .   ",
"o o o % # . o . . . . .   . . . . .   o   . o o o o o X - - h h h h Q Q { Y.~.UXUXP.~.Q.Q.Q.Q.P.P.P.P.Q.P.R.P.`.E.E.R.P./ Q i h u u i w i s g f U s d U u * & & .                                                                                                                 . . . O O @ @ , : : < 5 5 z l N v x b x b b b x x D F G K K G R G G ..%.4.5.w.t.p.t.a.u.a.s.S.a.s.S.S.S.S.A.XXXXXX+X+XOXOX$X1X$X3X3X9X5XqX9XwXwXwXwXeXrXwXwXyXyXwXwXyXtXtXyXyXyXyXyXtXyXyXtXyXtXaXyXyXaXyXaXyXtXuX0XuX8X8XqXwXqXqXwXeXeXeXeXwXwX9X#XB.z.7.7.w.q.7.q.7.7.4.6.w.w.b.V..XXXOXOX$X$X5X5X5X8XqXrXrXrXyXyXdXbXMXMXCXVXJXJXLXFXKXLXLXFXFXLXLXLXKXLXLXKXKXLXKXLXKXKXKXKXKXKXKXLXJXJXJXGXFXMXmXnXdXyXtXeXqX<X7XK.G.D.m.m.n.v.v.c.y.c.m..X$X$X$X9X$X9X$X$X9X$X%X+X%XXXF.A.A.S.b.C.#XeXaXyXbXbXbXbXbXcXbXyXyXyXyXrXrXuX<X4X<X2X2X2X5X5X5X,X,X,X,XoXK.7X,X,X,XK.K.K.v.v.z.+.+.+.+.d.d.d.u.c.c.c.J.Z.F..XH.XXXXXXXXXXG.oXXX+X+X+X+X+XG.+X+X+X+XH.H.+XH.H.H.H.J.Z.J.J.u.J.u.u.y.t.+.+.:.:.O.o.o.|  .G m m m x c c c 7 3 3 0 7 5 9 5 0 v C v C B l z z 5 : : : ; + O O . . . . .   .   .                                                                                                                 .     .           o   .       ",
"o o . & # o . .   . . . . . .   .   .   o o o o X o X X - h h h Q Q { { P.~.~.~.;X~.~.L.L.Q.L.L.L.L.L.L.L.h.T.T.Q.Q.R.R.{ / i h e e h e i i i Y U g g s s w = - X o         . .                                                                         o   o                     . . . X % @ @ > 1 , < 2 5 z z l l x v b C b x x Z D D J J ! K K G G R o.>.4.5.5.p.i.p.p.p.a.n.S.S.a.c.S.S.XXXX+XXX+X$XOXOX$X$X1X1X1X4X4X8X8X0XwXwXwXqXwXwXwXwXwXyXyXyXwXyXyXuXyXwXyXyXyXdXyXyXyXtXyXtXyXdXyXyXwX0X8X0X8X8X0X0X0XwXeXwXtXwXtXwXqX0XoXB.z.1.4.6.6.q.4.4.4.7.7.w.6.b.M..X.XoX+X$XOX5X5X5X6XwXwXwXyXdXdXdXbXMXMXBXAXGXHXHXHXHXHXKXKXKXHXKXLXLXLXFXLXLXLXLXFXLXLXLXKXKXKXJXJXKXJXFXFXFXSXMXMXdXyXgXrX6X6X<X7XD.D.m.J.v.J.v.v.x.x.n.H.%X$X$X$X$X3X3X3X$X$XOX%XXXXXF.A..XN.C.C.|.9XyXyXaXbXbXcXyXcXyXyXyXuXuX8X8X8X8X<X<X1X1X1X5X1X5X>X7XOXoX7X7X7XK.7X,X,XG.G.G.Z.x.d.+.+.+.+.+.+.d.d.d.u.u.u.S.Z.H.XXXXXXXXXXXX+X+XXX+X+X+XXX+X+XH.XXH.H.H.H.H.A.H.H.Z.J.S.c.S.J.u.x.y.u.3.2.O.O.o.o.o...R G m m n c c c 3 7 j 7 7 7 7 7 0 q l v v B v z k 0 3 : ; ; ; + O O O . .     .                       o                                                                                 .                         .     o .   .     ",
"o o o o # # . o .     . . . .   . . X o o o o o o X X - - h g Q { { L.L.Y.~.~.~.~.~.~.~.~.~.Q.Q.T.L.T.h.L.L.L.L.L.P.Q.P.P./ ^ Q i i i e e i i u s Y s g s u u - o         .                 o                                                     o o o o     o         o     o o . . . o % % % ; ; 1 : 2 2 5 z l x b v b Z C b b x x D H K K E R G G } %.*.2.6.6.8.5.p.t.a.a.a.a.n.S.n.S.S.A.H.%X+XXXOX$XOX$X>X1X1X3X4X4X8X8X0X9XqXqXwXwXwXwXeXwXwXwXwXyXwXwXtXwXyXrXuXwXyXeXyXyXyXtXyXtXyXtXeXeX9X8X8X0X0X0X0XrXeXwXtXwXtXwXwX9X4X#XB.6.7.4.6.q.7.4.4.4.<.q.6.w.b.M.V.[.XX+X$X$X5X9X6X9XqXeXwXrXrXyXdXaXbXmXCXAXAXGXHXGXHXHXHXHXKXKXKXKXLXLXLXFXLXLXLXLXLXLXLXKXKXJXKXKXJXJXJXFXFXVXMXnXdXyXyXrX0X6X<XoXG.D.m.G.J.D.J.v.x.x.v.F.+X3X$X$X3X3X3X3X$X$X$X%XXXXXXXA.F.m.m.C..X9XwXyXyXyXyXcXcXyXcXyXyXwXwX8XuXuX#X3X3X3X1X$X1X>X$X>X7XoX7XoXG.7X7X7X,X,X,X,XG.H.J.d.+.o.+.+.+.+.+.d.d.d.s.u.J.Z.A.A.XXXXXXXXXX+XXX+XXXH.+XXXH.H.H.H.H.H.A.H.H.Z.Z.Z.Z.S.J.n.c.J.u.u.3.d.3.+.2.+.2.o.o. . .G m m c c z c 3 3 3 3 7 z 7 7 0 q B V v B z z z 0 : : ; ; ; + O O . .                           o o o                                                                                     .             .     .     .   o         ",
"# o % X & o o o   .   . . . . . . o   o o o X X X X - - - h ^ { P.P.P.P.~.~.~.~.~.~.~.~.!.!.!.~.~.Q.~.Q.L.L.Q / L.L.P.P.P.] { / Q Y i u e i i i s s s U g p w = o o .                   o                                                             o   o o                   .   . . o . % @ , ; : 1 < 3 3 z z x v x b C C b x Z Z Z H J G K K G F } o.*.>.5.5.5.t.t.p.p.n.S.a.S.a.n.n.S.A.}.XX+X+X$XOX$X>X5X1X1X2X4X8X4X8X8XqXqX9XwXwXqXwXwXwXwXyXtXuXyXyXuXuXyXuXrXuXyXeXyXyXtXtXtXyXtXyXrXwX9X8X0XrX0XuX0XrXrXwXtXtXwXtXeX9X8XoXl.7.7.7.q.6.4.<.4.2.1.1.7.7.6.b.B.A..XoXOXOX5X9X5X9XqXeXwXyXiXyXdXdXMXmXmXAXGXAXGXHXHXHXHXKXKXJXLXKXLXLXFXLXLXFXLXKXKXJXLXJXKXKXKXJXLXFXKXFXVXVXMXMXcXdXgX0X0X<X2XK.G.D.J.m.D.D.m.v.z.x.x.A.XX3X$X$X3X3X3X3X$X$XOXOXXXXXA.F.XXm.C.C.|.9XwXyXyXyXcXyXyXyXyXyXyXuX8X8X<X8X<X$X<X3X$X>X$X5X$X>XoXoX7XG.oX7X7X,X,X,X,XK.,XK.H.v.d.+.+.+. .+.+.d.+.d.d.u.u.J.S.Z.A.XXXXXX%XXXXX+XXX+XXXXXH.H.H.H.H.H.H.H.A.A.Z.A.Z.Z.J.J.J.J.u.u.3.3.3.2.2.o.O.o.....m m m P c z c j j 7 j 7 j 7 7 7 q k V v B v k k z 2 3 : : ; + + O O O . . .                   o   o   o                                                                                           .       .       .       . .       ",
"& o & X # # o . .   . .   .   .       o o o X X - - - - h g { P.Y.P.~.P.P.~.~.~.~.~.UX~.xXjX/./.^././.^.Q.L./ / / / ] P.P.P.] / / Y Y i Y e i i Y s i s f s u = & X     .     .                                                                     o   o     o           o       . . . . % % @ ; ; ; : 3 2 2 z z l x v b C C b x Z Z D D J K K R G G G ..*.>.4.5.8.5.p.p.a.a.a.S.n.S.n.n.n.A.XXXX%X%XOXOXOXOX$X$X1X3X4X8X8X8X8X9X9XqXqXwXwXwXeXwXwXuXwXtXwXwXwXrXrXyXwXtXeXyXeXtXtXtXwXeXrXyXrXwX5X8X0X0X0X0XrXwXwXeXeXeXeXwXwX9X5XoXz.7.1.4.7.6.q.4.2.2.<.2.7.7.w.b.V.V..X.XoXOX5X5X5XqXqXwXwXyXyXdXyXdXnXmXCXAXAXHXHXHXHXHXHXKXJXPXKXLXLXLXLXLXLXPXLXKXKXKXKXKXKXJXKXKXJXJXFXJXVXBXmXnXbXdXyXrX0X0X<X7XK.G.D.Z.Z.J.J.x.d.d.x.V.XX$X$X$X3X$X9X<X$X$X$X%XXXXXA.A.A.N.m.B.D.9XwXyXtXtXaXyXcXcXyXuXwXuX9XuX3X<X3X<X$X3X1X3X5X>XOX>X7XoXoXoX7XK.7X,X,X,X,X,X,XK.G.J.d.d.+.+.+.+.+.+.+.+.+.+.u.c.u.S.S.A.H.XXXXXX+XH.XX+XH.XXH.H.H.A.A.A.A.H.A.A.Z.Z.Z.S.S.J.S.S.c.u.x.+.2.2.+.2.O.o...G G G m n x c c 7 5 3 7 7 0 z 7 7 z k V V v B k z 0 3 : ; ; ; + + O O . . .             .       .       o o                                                                         o                     .       .     . .       . . ",
"# X # # # # . o . o .   .   .     o o o o o X - h h h Q Q P.P.).~.P.L.L.L.L.L.~.~.~.~././././.jX/.xXlXxX/.~.L./ L./ L.P.P.T.T.] ] ^ ^ Y Y i i Y s i Y s g s s w * X     o           o                                                               o o o   o     o       o       . . . . . % + + ; ; : : 3 7 5 z l x l x b C C Z x D Z D J J K K K G K X.*.>.2.8.5.5.w.a.p.n.a.a.S.n.n.a.n.A.A.XX%X%XOXOXOX$X$X5X5X5X3X8X4X9X5XqXqX9XqX9XwXwXeXrXwXrXuXwXwXwXuXwXwXuX0XwXtXyXwXtXeXwXtXwXwX0X0X0X4X<X0X0X0XuXrXrXrXtXeXtXeXtXwXqX5X.Xl.7.7.7.q.q.7.4.4.2.1.2.<.7.6.b.B.V..XoXoX$X5X5X5X6XwXwXeXeXtXtXaXbXbXNXBXAXAXHXHXHXHXHXHXJXKXPXKXKXLXKXLXLXFXPXLXJXJXKXKXKXKXJXFXLXFXJXJXFXAXBXMXMXbXdXyXrX0X8X4X7XOXF.m.m.m.J.v.x.x.x.z.m..XOX$X$X$X$X$X$X#X$XOX%XXXXXXXXX}.n.m.B.D.9XwXtXyXyXyXyXyXyXyXwXuX8XuX<X<X3X<X$X1X3X5X5X>X5X$X>XOXOX+XoX,X>X>X5X,X2X,X,X,X,X,XK.H.v.d.d.+.+.+.+.+.+.+.3.t.u.u.u.u.S.S.S.H.XXH.XXH.H.A.H.A.Z.H.Z.Z.Z.Z.Z.Z.Z.Z.S.Z.S.Z.S.J.u.c.x.6.d.+.O.O.o.o... .E G m m b c c 7 7 j j 7 z 7 7 0 0 7 q M y M l k 0 0 3 : ; ; ; + + O . . . .                     o     o                                                                                                       .       .   o .         ",
"* - # # * # & . o .   .   .   .   o o o o X - h h Q Q L.P.P.~.P.~.L.{ / L.L.~.L.P.~.~.~.UX~.!.xXxXxXlXlX/.!.Q.L.L./ / / P.P.T.T.g.h.` ^ Y Y i i Y s s s s Y s w = * o o                   o o                                                   o   o     o   o       o o       o     o % . % % ; , 4 : : < 2 j 5 z l x l b C b b Z D D H H K K R K K } $.*.<.>.:.,.5.i.t.a.a.S.N.n.S.a.n.N.A.F.XXXXOXOXOX$X$X>X>X$X$X5X5X8X8X8X4X9X9XqXwXqXwXwXuXwXrXwXuXeXrXtXyXeXdXyXyXeXtXtXtXwXeXwXwXrXuX0X0X4X8X0X0X0X0XtXwXeXwXtXwXtXwXwX9X9X|.b.7.7.<.z.q.5.4.<.1.2.*.2.4.6.M.B.F..X+XOX>X5X5XqX9XqXwXwXtXtXpXaXdXmXmXmXCXAXAXHXHXHXHXHXHXKXJXKXLXKXKXKXLXKXKXLXKXLXLXJXFXLXJXLXJXJXJXFXFXVXVXMXMXbXdXyXeX0X0X4X2X7XG.F.H.J.v.v.d.d.d.d.m.F.%X+X+X$X3X3X9X$X#X%XXXXX.XH.XXS.n.b.C.D.3X9XwXwXyXyXyXyXyXyXwXwXuX8X<X8X=X<X3X$X5X$X5X$X5X>X>X>XOXOXOXOX,X>X,X5X2X,X,X,X,X,XK.K.H.v.+.+. .+.O.O.O.+.t.d.3.d.t.u.u.c.a.S.S.H.XXH.H.H.A.S.S.Z.S.Z.J.Z.Z.J.Z.Z.Z.J.S.J.J.J.S.u.u.u.3.+.2.+.*.o.o.G G m F m x c j j j 7 j 0 0 z z 7 7 q q k k M k z 0 7 2 : ; : + + O O O . . .                         o   o                                                                           .         o                 .         . .   . .   ",
"* * $ = = * * O % o o . .           o X X - h h Q Q P.Y.UXUXUX).L.L.L.Q L.L.L.~.L.L.~.~.~.~.!././.xXlXlXlX/.!.Q.L.L./ / / P.P.] T.g.h.` / Y i i i Y s Y s g i s u = o   o   . .                                                                       o o     o                 . .   . . . % O ; ; , : : : 5 5 j z l l l C b C Z Z D Z H H J ! K K J K ..*.>.2.>.>.5.5.p.a.n.a.a.S.S.a.n.n.A.}.H.XX%X$XOX$X>X5X5X5X5X3X8X8X8X9XqX8X9XqXwXwXwXwXrXwXuXyXwX0XwXuXuXtXwXwXwXtXtXtXtXwXwX0X0X0X0X0X4X<X<X0XrX0X0XrXwXrXeXeXtXtXtXwX9X4X|.l.7.1.4.6.q.7.4.2.2.*.*.1.4.6.b.V.|..X%XOX$X5X5XqXqXqXwXeXeXtXpXaXdXbXNXNXCXAXAXHXGXHXHXHXHXKXJXKXKXKXLXKXLXKXLXJXJXLXJXKXLXJXJXKXKXFXJXJXJXVXAXBXnXsXyXdXyXwX4X4X2X>XG.G.H.v.v.d.d.d.d.z.c.F.+X$X$X$X=X$X$X$XoX.X.X.XXXF.H.N.y.z.b.|.9X9XwXyXwXyXyXyXyXwXwXwX9X8X8X<X3X3X3X3X>X5X5X>X5X$X,X+X,XOX,XOX,X,X,X,X,X,X,X,X,X,XK.K.K.Z.x.d.+.+.O.O.+.+.+.+.d.3.3.t.u.u.c.J.Z.A.A.H.S.Z.Z.S.J.J.J.J.Z.S.Z.S.S.S.J.S.J.J.S.S.S.u.u.u.3.2.2.o.+.o.o.o.G G m m x c j 0 j z 7 z z k 0 0 0 0 k k M z q 0 5 5 7 : 1 ; + + O O O . .                                                                                                                     .                 .       .             ",
"= = = = = * * * & % o o   . .   o o X - h h Q Q { P.~.UXIXUXUX~.~.L.L.L.L.L.L.L.L.~.L.~.~.~.~.!.lX/./.lXlXlX/.~.T.L.L./ L.] h.h.T.] g.g.] Y Y Y Y s Y i s s s s p = &               o     o                                                         o   o o o     o     o o     .   . . % . O O $ ; : ; 1 < 3 2 3 z l l l b b Z Z Z F H Z F J K K K K K $.:.>.>.>.:.5.6.a.n.a.N.N.n.N.n.n.n.A..XF.%XOX$X+XOX$X$X$X3X5X5X5X8X8X8X9X8XqX9X9XwXwXwXwXwXrXwXyXyXyXrXwXyXeXtXwXwXeXtXeXwXqXwX0X0X0X8X4X4X4X0X0XrXrXeXwXwXtXtXtXwXtXwXqX6X.Xz.7.4.7.w.6.4.4.<.1.*.2.2.2.5.z.V.V..XXXOX>X5X5X5XqXqXeXeXtXeXpXaXsXnXnXAXCXAXAXAXGXGXHXHXHXHXHXLXKXLXLXLXLXLXLXJXLXJXKXJXJXJXKXJXKXJXJXFXFXAXVXmXMXbXdXyXtX0X8X4X1X,XG.F.D.v.v.z.d.d.+.7.c.A.%XOXOX$X$X$X$X$XoX.X.X.XA.F.A.n.6.y.b..X9X9X9X9XwXwXwXyXuXyXuXwX8X8X=X<X<X<X3X1X1X$XOX$X5X>XOXOXOXOXOX,X,X,X,X,X,X5X,X,X,X,XK.K.K.H.v.d.+.o.+. .O.O.O.O.+.O.+.3.u.u.u.u.Z.S.S.A.S.S.J.u.J.u.u.u.J.J.u.J.J.u.J.J.S.u.J.S.J.J.6.6.3.2.O.2.o.o.G G G G F n c j 0 j 7 z z 7 M z 0 0 0 q 0 k y z 0 0 5 9 2 : ; ; + + O O . . . .                 .                                                                                                         .     .       .     . o .   .   ",
"= = 8 w 8 = * = # X X o X o     X h h Q Q { { { P.~.UXIXxXxXUXxXUX~.~.L.L.Q.L.L.L.Q.Q.Q.(.Q.(.(./././.xXlXzXlX/.!.Q./ / / h./ / ] T.T.R.g.h.Y Y Y Y Y Y s s Y s u = &       .                                                                       o   o o   o     o           . o . . % . % @ + > 1 1 1 3 2 7 5 5 z k l l v Z D Z H F H A J J ! K K } $.%.-.>.2.,.5.6.p.p.a.M.n.N.n.n.n.N.A.A.XX.X%X+X+XOX$X>X5X5X$X5X5X9X9X3X8X9XwX0XwXwXwXwXuXtXrXyX0XwXrXyXyXwXyXyXrXrXwXeXrXrXrX0X0X6X2X6X4X4X6X6X6XrXiXiXrXrXiXeXtXtXeXwX9X3X|.z.7.4.7.q.6.q.2.2.*.*.1.2.-.7.p.B.F..XXXOX>X5X5X9X6XqXqXwXeXeXpXaXaXnXmXNXCXCXAXGXGXHXHXHXJXLXKXLXFXLXLXLXLXFXLXFXLXFXKXKXJXLXJXFXLXFXJXFXGXVXVXBXMXaXdXyXtXwX0X4X5X>XG.H.H.J.v.x.7.+.d.+.x.m.XXOX%X$X%XOX$XXX.X.XV.V.V.A.V.p.3.7.x.oX3X8XwXwXwXuXeXwXwX9X9X9X8X9X4X3X3X3X1X1X1X$X1X1X$X>XOXOX,XOX+X,X+X,X,X,X,X7X,X7X,X,X,X,X,XG.D.v.d.O.O. . .+. .+. .+.O.+.d.d.s.u.J.u.S.J.S.u.J.J.u.J.J.u.J.u.J.J.u.J.J.u.S.J.S.J.u.u.u.7.3.+.:.2.o.o...G G G n n x c j j 0 5 z z z M 7 z 7 y 0 M y z 5 9 5 < : : ; + + + O O . . .   .                                                                                                                   .                         .           ",
"8 = = = = = * = * X X X X X o o - h y Q Q { P.P.).UXUXUXUXIXIXUXxXUXUX~.~.~.~.~.Q.Q.Q.Q.Q.Q.Q.Q.~.!.^./.lXzXlXlX^.Q.h.L./ h.h.h.T.] T.R.g.g.` Y Y Y e Y Y s w s p = - o                       o                                                       o   o o   o       o           . . . . % % + > > 1 1 1 2 3 0 j z l l x b C Z D Z H Z H H J J J K K $.%.*.>.>.>.>.t.p.a.p.a.a.N.a.N.n.n.V.A.XXXXXX%X%XOX$XOX$X5X5X3X5X9X9X5X9X8X9X9X9XwXwXwXeXrXyXrXwXyXrXwXwXeXwXrXyXeXeXrXrXrX0X6X6X6X6X6X2X<X<X4X6XrX6XrXrXrXeXeXwXtXwXwX9X3XD.l.2.7.7.6.q.7.<.*.*.o.o.1.2.2.w.V.|..X.XOX>X1X5X6X6XqXqXqXeXeXtXpXaXsXnXNXCXCXZXAXAXHXGXGXJXFXKXFXLXLXFXLXLXLXLXFXFXLXKXJXJXKXJXJXJXJXJXFXZXVXBXMXnXbXaXyXtXrX4X4X5X>X+XH.H.J.v.d.d.+.+.d.y.m.XX+XOX$X$X$X#X%X.X.XV.V.V.A.n.y.+.7.C.#X9X8X9XwX9XwXwXwXwXwX0X9X<X8X3X3X3X1X1X<X1X1X1X>X$X>X,XOXOX,XOX,X,X,X>X,X,X>X,X,X,X,X,X5X,XG.G.D.x.3.+.+.O. . . . . . .+.+.i.d.u.u.u.J.a.J.J.s.S.u.u.u.J.u.J.u.S.S.u.J.S.J.a.S.u.J.u.x.3.2.2.O.*.*.o.o.G G m m b l c z 5 7 j 7 z M y z y 7 z 0 M z y q 9 2 < : ; ; ; + O O . . . . .                                                                                                                                 . .   . . .       . .   . ",
"r = = * * * * * - # X # X X # - h h Q ~ { P.Y.~.~.UXUXUX~.UXUXUXxXxXxXlX/./.UXUX~.Q.Q.Q.(.Q.Q.(.(.Q.(.^.lXlXzXlXlX!.Q.h.h.h.h.h.T.g.E.E.E.T.g.` Y Y Y Y Y e e Y u w = X o     o .                                                                   o o o   o         o         . .   . . % % % + @ 1 6 1 2 2 2 0 0 z c l l C Z Z Z Z Z H H Z J J K L K } $.;.:.>.:.5.w.p.e.p.a.a.n.n.N.n.N.V.A..XXXXXXXOX$X$XOX$X$X3X5X5X9X9X9X8X9XwX9X9XwX9XuXwXwXwXuXrXyXyXrXrXrXrXtXrXtXeXrXiXrX0X6X6X<X6X7X2X6X6X6X6XrXrXrXrXeXtXeXwXtXtXwX8X1X|.l.7.7.q.7.0.4.2.*.&.*.*.o.*.2.z.B.V..XoXOX$X1X5X4X5XqXqXqXeXeXiXpXaXaXnXNXNXCXZXAXGXGXGXHXJXJXKXKXLXLXLXLXLXLXLXLXKXFXFXKXJXJXJXJXJXJXFXJXGXVXBXmXMXbXdXtXtXrX8X2X5X,XG.G.K.J.v.d.d.d.+.d.3.v.F.+XOX%X$X%X%XoX.X.XA.V.C.n.y.3.O.2.B.$X9X3X9XwXqXwXwXwXwX9X8X9X3X4X8X3X3X<X1X<X$X1X5X$X>X>X,X,X,X,X,X,X,X,X,X>X,X,XK.7X,X6X5X5X>X+X,XG.V.v.+.+.O. . . . . .O.O.+.i.u.u.u.s.a.J.u.S.J.J.u.J.u.J.u.u.s.J.J.u.S.u.J.S.J.S.u.S.u.7.+.+.*.2.o.o.R R E m m x x c z 0 j 0 z y M q M z y z 7 M 0 M 5 5 2 < > ; ; + + O O . . . .       o                         .                                                                                             .                 o o         ",
"= = 4 * * * X & * - X X X X # - p Q Q { { P.{ ~.~.~.~.Y.~.P.P.~.Q.~././.xXxXxX/./.!.(.Q.Q.(.Q.Q.Q.(.Q.!././.lXlXzXxXW.Q.T.h.h.T.T.T.T.E.E.E.E.g.Y Y Y e Y e e e u p = &                     o                                                       o     o   o o o     o           .   . . O O + ; > 1 1 2 2 2 7 j 7 z z l x C N Z Z D Z Z Z J H H J L K $.;.*.*.,.4.8.p.p.p.p.a.p.N.n.N.N.N.A.A.A.XXXXXXXX+XoX+XOX$X5X3X9X5X6X9X9X9X8XwX9XwXwXwXyXwXrXyXrXtXuXtXrXtXtXeXrXeXrXrXrX0X6X6X6X7X6X2X<X6X6X6XrX6XrXrXeXeXwXtXtXwX0X9X3XD.z.1.4.7.7.7.4.*.*.o.&.o.1.*.4.6.B.[..XoX$X1X5X5X5X6XqXqX8XeXeXtXpXsXsXnXnXNXCXZXZXAXGXAXGXJXJXLXFXKXFXFXLXFXLXFXLXJXLXJXFXJXJXJXJXJXFXJXFXGXVXVXmXnXaXdXyXtX0X4X2X,X,XK.H.H.Z.v.v.d.z.d.7.6.v.Z.G.XXOX%XOX%XXX%X.XV.C.b.y.5.2.O.7.V.%X9X3X9XwX8X9X9X9X9X9X4X8X9X4X4X4X3X1X1X1X1X>X$X>X>X>X7X+X,X+X+X,X,X+X,X,XK.7X7X,X,X2X2X,X,X,X7X+XF.F.u.d.+.O. . . . . .O.O.+.d.i.u.u.s.J.J.S.S.u.u.u.J.u.a.J.J.u.J.u.u.J.u.u.u.u.u.u.y.3.3.2.O.o.*.o. .R G F n b z c z j 7 0 7 z z z y M 7 7 z y z 0 5 4 4 < ; ; + ; + O O O . . . . o                 .   .                                                                                             .           .       .   .   .   .     ",
"4 * * # # # % o X X X - # - 8 h Q Q { { { P.P.P.P.~.L.L.L.L./ / L.L.Q.!.xXlXzXlX/./.(.Q.Q.(.Q.(.Q.Q.Q.(.^./././.zXlXjX(.Q.T.T.T.T.T.E.E.W.(.E.g.h.Y Y Y e Y e Y u p = - X         .     o     o                                                   o   o   o   o           o       . . . . . O O O ; > < < 2 2 2 j 7 7 7 z z v C N Z Z Z Z Z Z H H H L J K ..;.*.:.>.0.5.a.p.p.p.b.n.N.n.n.N.A.}.}.F.XXXXXXXX+XF.G.oXoX3X8X5X9X9X9X8X8X9X0X0XuXwXwXwXwXrX0XwXyXrXrXyXpXtXtXrXrXrX6XrX6X6X6X2X7X7X2X6X<X6X6XrXrXrXeXeXeXtXwXtXtX8XqX3XD.z.7.1.7.7.7.2.*.*.*.*.o.o.*.4.6.B..X.X%XOX>X5X5X5X6X4X6XqXqXeXtXpXpXsXsXmXNXCXBXAXAXGXGXHXJXJXLXJXLXKXLXLXKXLXFXKXLXLXJXFXJXJXFXJXJXFXGXGXZXVXBXmXMXdXdXiXeX0X2X2X2X,XG.G.H.J.v.d.d.d.d.+.d.x.m.F.XXXX%X$X%XXX.X.XV.C.x.6.7.+.O.6.A.$X9X$XqX8X8X9XqX8X8X8X8X4X3X4X5X3X3X1X>X$X1X$X>X>X>X>X>X,X+X>X,X+X,X,X+X,X,X,X,X,X2X2X2X,X,X,X>XOX+X+XF.Z.b.3.+. .m m  .+.+.+.i.d.d.s.J.J.a.J.u.u.u.u.u.J.J.u.J.J.u.S.u.S.u.J.c.c.x.u.u.6.+.*.2.*.o.o.R G G m m b z c j 0 7 7 z k z M z y z 7 M y 7 0 2 4 < 1 ; ; + + + O O O . . .     o   o                                                                                                   .         .             .       .   o   . .     ",
"= * * % % & & o X X X - - = h f f { { P.L.{ { L.L.L.L.L./ Q Q Q / / L.T.!.xXzXlX/./.^.^.(.(.(.Q.(.Q.Q.(.(.^././.zXlXlXjX^.(.E.T.T.E.Q.E.E.(.:XE.g.` Y Y Y e e e w w w - X o                                                                         o     o o     o   o             .   . . . O + + , < 1 2 1 7 7 2 j z z k l C Z Z Z Z Z Z N N H L H G K @.$.%.*.>.>.5.e.p.a.p.p.p.b.n.N.N.V.A.A.A.A..XF..X.XF.F.F.oX<X9X9X9X5X8XuX8X9XuX8X0X0XyXwXyXwXrXeXeXeXrXyXrXrXrXrX0XrX6X6X6X6X7X6X6X7X<X2X6X2X6X6X6XrXeXeXeXtXtXtXyX0X9X4X|.l.7.7.q.7.q.4.-.*.o.o.1.1.:.2.w.N..X.XOXOX1X1X1X5X5X6XqXqXeXeXeXpXpXsXnXmXNXCXVXAXZXAXGXGXJXJXJXJXFXKXFXLXLXFXKXLXFXJXJXJXJXJXJXFXJXJXFXFXZXVXVXmXMXbXyXtXrX6X6X6X2X,XG.H.G.J.v.d.+.z.d.7.+.y.n.Z.XXXXXX%XXX.X.X|.V.x.6.7.2.*.O.y..X$X9X9X9X9X9X5X8X8X8X8X3X4X4X3X5X3X2X1X5X1X1X5X>X>X>X$X>X,X,XK.K.,X+XG.+X,XOX,X5X,X5X2X2X2X5X6X,XOX$X1X$X+XF.C.d.+. . . . .O.+.+.#.+.d.u.u.u.u.u.u.u.u.u.a.u.J.u.u.S.u.J.S.J.a.u.u.u.u.6.7.7.2.o.o.o.R R G m F b b v z z z z 0 z z M M M z y 7 z 7 M 7 4 1 , 1 ; ; + + + O O . O . . .   o o                                                                                                                               .         . .         ",
"* * * & o # o % o o & X - = p f ~ { { L.{ L.L.L.L.L.L.L.L./ Q Q Q Q / / Q.!./.lXlXlX/./.^.(.(.(.(.Q.(.Q.(.^././.lXlXzXlXjX(.(.(.E.E.W.E.(.:X(.E.g.g.U Y Y Y e e = p = = # X o         o o     o                                                     o o o o   o o o             . o   . . . O O + + 1 6 < 2 2 7 7 3 2 z z k l C N Z V Z H N Z H Z H D H K K $.%.*.>.>.5.5.w.p.p.p.p.N.N.V.N.A.A..XXXA.A.F.XXA.m.V.D.D.oX5X9X9X9X8XuX8X8X<X0XuX0XwXyXwXyXwXwXeXyXrXrXtXrXrXrXrX6X4X6X2X2X,X6X,X6X4X2X6X6X6X6XiXrXrXeXeXwXwXwXwX8X8X3X|.l.7.7.6.7.q.2.1.o.1.o.*.*.<.2.w.M..XoXoX$XOX1X2X4X4X4XqXqXqXeXiXiXpXaXaXnXNXmXCXAXAXAXGXGXJXJXJXJXFXKXLXLXFXLXKXFXFXJXJXJXJXFXJXJXFXFXFXZXZXVXBXnXMXdXdXrXrX6X2X7X7X,XG.H.G.G.v.d.d.7.+.+.3.6.x.m.A.F.XX.X.X.X.XV.b.x.7.+.O.O.:.b.%X$X$X9X9X3X3X8X8X5X8X3X8X4X3X3X3X1X1X1X$X1X5X>X5X>X>X>X7X,X,X,X+X,X+X,XG.+XOX,X,X5X,X2X6X2X,X5X5X5X>X>X$X$X$XXXC.d.+. . . . .O.O.+.+.+.u.u.u.u.u.u.u.d.J.u.u.u.u.J.J.u.J.u.u.c.c.u.u.y.6.3.2.2.o.o...R G G F D b b x c 0 z 5 0 0 z M M M y 7 z y y z 7 < 4 > > + + + + O O O . . .   .   o o                                                                                                                                     .   .   . .     ",
"* * # o o o & o o o X X - = g ^ { { { { L.{ { { L.L./ L.Q Q / Q / Q Q / T.Q.^.lXlXlX/./.^.^.(.^.(.(.(.(.(.(.(.^./.lXzXzXlXjX(.(.W.W.W.W.(.`.:X(.(.E.g.Y Y Y Y e e = u w = - X                                                                     o         o             o         o . . . O O O @ , < < < < 2 7 3 3 0 z z l C Z Z Z H Z Z Z N Z Z D L L K $.%.:.>.>.5.w.i.p.p.p.N.N.N.N.m.V..XA.XXXXA.XXXXF.V.V.C.m.G.$X5X9X9XwX8X8X9X8XuX0X0XwXwXrXwXyXeXeXrXrXrXrXrXrX0X0X0X6X6X2X6X6X6X,X,X6X2X6X6XrX6X6XrX0XrXrX0XwXwX9X8X<X3XoXB.z.7.6.q.7.7.*.2.o.1.*.*.-.2.w.N.|..X+X$X$X1X1X2X2X4X6XqXqXqXeXiXpXsXsXnXNXNXCXCXZXFXGXGXFXJXJXJXKXKXFXFXLXFXKXFXKXJXJXJXJXJXFXFXJXFXGXFXZXVXBXmXMXdXdXdXiX6X2X7X,X,XOXH.Z.J.v.d.+.d.7.d.d.6.x.n.V.A.V.A.V.V.V.M.x.7.2.2.O.O.:.n.@X$X$X9X9X5X8X8X8X8X8X3X5X5X2X1X1X2X5X5X1X,X>X>X$X>X$X>X+XK.OXG.,XG.,XG.,XK.+X+X,X,X,X5X6X2X,X5X5X3X5X$X3X5X6X1XD.z.+.+. . . .O. .#.O.#.+.u.u.u.d.s.d.d.u.u.J.a.u.J.s.J.a.c.n.c.u.u.u.u.y.3.7.+.o.o. .G G G F D b b l z z 0 0 j z M y M y z z 7 7 z 7 7 : : , ; ; + + + + O O . . . .     o o             .                                                                                                       .   . .   .       .   o       . ",
"= % . o . o . o   o   & - u f ^ / { { / { / / / / / L.Q Q Q Q Q Q Q / / h.h.(.jXlXlXzXlX^.^.^.^.^.^.^.^.(.(.(.^.^.jXzXzXzXjX(.W.(.(.(.(.E.(.(.(.(.E.g.^ Y Y Y s e = u = = = =                                                                                                   o   . . o o % . + @ @ + < 6 2 2 2 2 3 j z l N N Z H Z H Z N N N H Z H H H G @.$.%.:.>.5.8.p.e.p.p.b.a.N.N.A.A.A.}.H.XXA.F.A.A.S.b.C.C.D.OX$X9X9X9X9X8X8X8X<X8XwXwXwXtXeXeXwXyXrXeXwXwXwXrX0X0X6X6X2X2X6X6X,X,X2X5X6X5X6XrX6X6X0XeXqX0XwXwX0X8X8X9X9X@XC.7.7.7.7.7.2.2.o.1.1.o.1.O.1.6.B.D..XoX$X$X5X1X1X5X2X6XqX6XeXeXiXpXdXsXsXnXNXNXCXBXZXZXZXFXGXGXGXJXGXHXJXJXJXJXJXFXFXJXJXJXFXFXFXGXFXFXZXZXCXmXnXsXfXdXiXiX6X6X7X,X,XG.G.H.Z.v.d.+.3.d.3.d.y.x.v.V.A.V.N.N.B.C.p.6.2.O.*.o.:.7.C..X$X5X9X$X9X5X9X8X8X3X3X3X5X5X2X5X5X1X1X5X>X$XOX>XOXOX>X,X+X,X,X+X+XG.G.G.K.G.G.G.,X5X5X,X2X5X5X6X5X,X1X$X5X9X$X%X.Xp.2.o. . .o. . .O.O.+.#.+.+.+.i.d.i.a.u.J.s.a.J.J.u.J.u.c.u.u.y.u.3.6.3.2.O.o... .E G m n n b x c c z 7 z 7 7 z M z M 7 7 z y z 7 6 < < , ; + ; + O O O O . . .   .   o o o                                                                                                                             .         . .         ",
"* & o o . o   o     o - - p Q ^ { ^ { Q Q / Q / / Q / Q / Q Q Q Q Q Y / h.T.E.jXlXlXzXzXlXjX^.^.^.^.^.^.^.(.Q.(.^.jXlXzXzXlX^.W.E.E.(.(.(.(.(.(.:X(.E.` Y Y e e = e = u = w = o                                                                                     o     o   o   o   o . o % X O % O , , < < 2 7 3 7 0 z l M N N H D H H H H N N H Z H L L K ....%.:.>.5.5.t.p.p.p.b.N.N.S.}.[.A.H.}.A.A.F.A.m.c.v.n.D.XX$X9X$X9X8X8X8X8X8X8XwXwXwXwXrXwXeXyXrXeXeXwXrXrX0X4X4X4X4X2X2X6X2X2X2X6X6X6X6X6X6X6XrXrX0XqXqXqX0X8X8X#X9X#XB.z.7.7.7.7.2.*.*.*.*.*.*.1.2.6.B..X.X%XOX$X>X>X5X5X5X6X6XqX6XeXiXiXiXsXsXsXnXmXNXCXBXZXZXGXGXGXGXGXGXGXJXFXJXJXJXJXJXFXJXGXFXJXFXFXGXGXFXZXVXmXNXnXsXdXrX6X6X6X7X,X,X,XH.H.Z.x.7.+.d.3.t.3.u.v.n.n.C.N.C.C.b.b.6.4.O.o.o.O.-.7.M.}.$X9X9X9X5X$X5X3X9X4X3X1X2X3X2X1X1X5X1X>X5X>X>X>X>X,XOX,X+XG.+XG.G.G.+XG.G.G.D.F.,X,X5X2X5X5X6X5X5X5X5X$X9X$X$X$XXXm.6.O.o. . . .o. . . .+.#.+.+.+.i.d.u.u.u.J.u.J.a.J.J.S.c.u.u.y.t.6.3.2.2.O.o.R G G F F Z m b b z z z z z z 7 z M M z M 7 7 7 7 7 7 < : ; ; ; + + O O O O . . . .   o   o   o o   o o                                                                                             .                   .       . .   o     .   ",
"= * o o o o   o   o - & = i f ( { ^ Q / / Q Q Q Q / Q / Q Q Q Q Q i Q ^ / h.W.^.kXlXzXlXlXlXjXlX/./././.(.Q.Q.(.(.jXxXzXzXlXjXW.(.(.(.E.E.(.(.(.:X:X`.g.Y Y s e e = w = = = = -                                                                                 o   o     o       o . o % X % % O O + $ , 6 2 1 2 2 7 0 j l l N H N H Z H H N N N N Z P D L G } } X.:.:.4.5.5.p.p.p.M.n.V.S.A.A.A.H.H.A.A.A.A.S.n.x.x.m..X$X9X5X8X9X8X8X8X8X9XqXwXwXwXwXwXeX0XrXeXwXqX0X0X0X4X6X6X2X2X2X6X,X2X,X6X5X6X6X6X6X6X0X6X6X0X8X8X8X8X3X$X3XOXV.z.6.7.3.2.2.*.*.&.*.*.1.*.2.7.b.[..XOX#X$X5X5X5X5X5X6X6XqXrXeXiXiXsXdXfXsXnXNXmXBXBXZXZXZXAXZXGXGXGXGXJXJXJXFXPXJXJXJXJXGXFXGXFXFXGXFXZXAXCXmXnXdXdXfXiXiX6X2X7X,X,X,XH.H.m.x.+.7.d.t.+.6.u.c.n.n.N.M.b.b.w.6.2.O.o.o.o.:.2.w.b..X#X9X-X5X3X9X9X8X8X3X<X1X1X2X1X1X1X,X>X>X>X>X,XOXOX>X>XOX,XG.,XG.+XG.G.G.F.G.D.D.G.>X2X2X5X5X2X5X5X>X3X5X$X$X$X$X$X.XN.7.O.o. . . . . .#.#. .+.#.+.#.i.u.u.u.S.u.S.a.J.u.J.u.u.u.6.3.3.+.2.O.o... .E R F D b b n c z z M 7 z 7 M M M 0 y 7 7 7 7 7 7 7 : 4 ; ; + + + O O O . . . .   . o o o     o                                                                                                                                   . .     .   ",
"* % . o .   .     o - - = p g f ^ ^ { Q Q Q Q Q Q Q Q Q Q Q Q Q i Y Y Q Y / T.(.jXlXlXlXjXlXlXjX/.lX/./.^.(.(.(.(.^.jXlXzXzXjXjX(.E.E.(.E.E.(.(.:XjX:Xg.^ Y Y e w = w w = u 8 #                                                                                                       . o o % . . O O $ , < < < 1 3 3 j z l l C N N Z H H H Z N N N D H D D F G } | %.*.:.>.5.w.p.p.p.n.N.V.V.S.A.A.A.A.A.A.A.n.n.v.b.C..X$X5X3X9X5X8X8X4X8X8XqX0XwXwXeXrXwXeXrXeXrXrX0X0X6X4X<X<X2X2X2X,X,X6X6X6X6X6X6X6X6X6X0X0X4X6X0X8X8X3X<X#X3X#X[.b.6.7.7.2.*.1.o.*.o.&.O.*.*.4.b.V..X%XOX$X$X>X$X5X5X5X5X6XqXiXiXiXiXpXsXsXnXnXmXBXBXBXZXZXAXAXAXAXGXFXGXFXJXJXFXFXFXJXFXFXGXFXGXGXFXZXZXVXCXNXnXfXfXrXrX6X6X2X7X7X,X+XG.H.m.x.3.+.3.3.3.3.u.b.n.n.C.b.b.b.6.4.*.o.o.o.o.2.5.w.C.|.%X$X$X$X3X3X$X3X4X3X3X3X2X1X1X5X1X>X1X>X,XOXOXOX>XOX,X+X+XG.G.G.G.H.G.H.H.D.F.F.G.>X,X,X,X,X>X$X5X>X$X5X$X9X$X-X$X.X.Xn.6.O.o.O. . . . . .#.#.#.+.+.+.u.u.a.u.S.u.J.u.J.s.u.u.d.3.u.3.2.2.O.o. .R G G G D b x v c l c z M 7 z 7 z M 7 M z 7 7 q 7 7 7 : : ; + + + + O O . . . .   .   o   o o o                                                                                                             .     .     .   . .     o   .       ",
"* o o   .       o & = w w u s ^ Q ^ Q ^ Q Q Q Q Q Q Q Q Q Q h Q Y Y Y g Y ` g.(.jXkXjXjXjXlXlXlXlXlXlXlX^.(.(.(.(.^.^.jXzXzXzXxX(.E.E.(.E.E.E.(.:XjXkXE.g.e Y Y u = e w = p p = o                                                                                     o o     o     o . o X o % O O O $ , < < < 3 1 7 3 0 k M N Z N D H H H Z H N D D N P D D L } } X.%.*.>.5.5.6.y.p.p.N.N.N.A.S.A.A.A.A.A.m.m.m.n.v.C..X$X3X3X3X8X8X5X9X3X8XqXwXwXwXwXeXeXwXeXeXwXqXqX4X6X4X2X2X2X7X2X2X2X,X6X5X2X6X6X6X6X4X6X0X6X0X8X8X5X3X1X#X$X#XV.b.6.7.7.2.2.2.*.*.&.*.*.*.*.7.x.B..X.XOXOX>X3X5X5X5X6X6X6XrXrXiXiXpXpXsXsXnXnXNXmXCXZXCXZXAXAXAXGXAXGXGXFXJXJXJXFXFXFXGXGXFXZXFXGXFXZXZXCXBXmXnXdXdXrXiXfX6X7XK.7X,XG.G.H.v.u.3.+.3.:.+.d.u.b.b.y.b.z.p.z.7.o.o. .G o.o.4.w.p.N..X%X9X$X$X$X3X9X3X3X<X<X1X5X5X1X1X5X1X>X>X$X>X>XOXOXOXOX,X+X+XG.+X+XH.H.F.D.Z.D.G.OX$X>X7XOXOX3X>XOX$X>X$X5X9X9X$X%X%X.XA.N.5.O. . . . . . . .#. .O.O.i.u.s.u.s.u.J.u.S.c.c.x.u.7.u.+.3.+.2.o.o.o.G G G F m x c z c z z z M z 7 7 z M M 7 7 7 7 7 0 7 7 : : ; + + + + O O O   . . .   .   o o o   o                                                                                                                                   . .         ",
"* X         o o o & p w w p g g f ^ ^ ^ f Q Q Q h i i Q Q h h h Y Y i Y Y h.g.E.(.jXjXjXjXlXzXlXlXzXzXzXlX^.^.(.^.^.(.jXzXzXDXzX:XE.E.(.(.E.E.(.jXkXDX:Xg.U e e u e = w = u p = o                                                                               o               o     o . . . . O . O + , , < < 2 3 2 7 z z M N N N Z H H H H Z N N Z N N P m L } | ..%.*.:.4.5.5.w.p.p.n.N.V.N.S.[.A.A.A.S.S.m.n.n.C.V..X$X$X1X9X5X8X8X4X8X8X9XqXqXwXwXwXtXwXwXqXeXqX8X4X4X<X<X<X7X2X7X7X2X6X2X5X6X6X6X4X6X4X6X6X0X8X0X4X4X<X#X#X$X#XV.C.z.7.7.2.2.o.*.o.*.o.o.*.o.2.z.N..X.XXXOXOX>X>X5X,X5X5X6XqX6XiXiXpXpXsXsXsXnXNXmXmXBXZXZXCXZXZXZXGXAXGXGXAXFXFXJXGXGXAXZXFXFXZXVXVXZXZXCXNXmXnXsXdXfXrX6X6XfX7X,X,XG.G.Z.v.7.d.3.+.+.:.3.6.y.b.y.6.w.7.2.o.o. .G G o.O.5.6.l.M.|.$X$X$X$X9X$X$X1X3X3X3X2X1X5X5X5X,X1X>X1XOX>XOXOX,XG.oXG.+XG.G.H.H.H.H.A.D.Z.G.+XOXOX>X$XOX7X1X5X$XOX$XOX$X$X$X$X#X.X#X%XA.p.2.O. .P  . . . . .O.#.O.+.d.u.u.u.u.u.J.u.u.x.u.3.3.3.3.+.2.O.o.o. .R  .E F Z b z z c z z z 7 7 z z z M 0 M 7 7 7 y 7 7 7 : , ; + + + + O O . o .   .     o o   o o o                                                                                                                     .   . .   . .   . .   .   ",
"* . o   o     . - = p p p u s g Q Q f Q Q p Q Q h Q i i i h h Q Y U Y Y / h.g.E.(.(.(.(.jXlXlXzXzXlXlXzXlXjX^.(.jX(.(.^.jXzXzXzXjX(.E.E.(.E.E.E.kXIXDXkXf.^ Y e w w w w w r p = *                                                                                                     o o X . o . . O O + , > : 1 1 2 2 0 k M B N C H Z H H H Z Z Z P P N x D D G K ..X.*.>.4.5.5.5.p.p.n.N.V.S.N.N.A.A.Z.Z.m.S.m.m.m.F.XXOX$X5X3X9X3X8X3X4X8XqX9XqXqXwXqXwXwXeXrXqX0X4X4X4X<X2X2X7X2X2X2X2X6X2X2X5X5X6X5X4X4X6X6X4X6X4X8X4X<X#X#XoXoX|.V.b.6.3.2.o.o.*.o.*.&.o.o.&.:.6.b.V.F..X%XOXOX>X,X5X5X6X6XrXrXiXiXiXdXsXsXnXNXNXCXCXCXZXCXCXAXAXAXGXGXGXAXAXGXAXGXFXGXAXZXZXGXZXGXVXAXZXVXNXmXnXsXpXiXiXfXK.K.7X7XG.oXH.Z.v.u.+.3.+.O.3.3.t.y.p.6.7.4.4.&...G G G G o.:.4.w.p.b.[.%X-X$X$X9X$X9X3X3X3X3X3X5X5X2X5X1X1XOXOX>XOXOXOXG.G.oXG.+X+XG.H.XXXXH.F.V.F.F.+X+XOX$X1XOXOXOX1X#XOX$X#X$X$X$XOX%X%XOX%XoXA.t.+. . . . . . . .O.O.+.,.t.d.i.i.u.J.u.S.c.u.y.3.6.3.3.2.+.*.o.R R G G G F Z n z z z z z 7 z z 7 y k M M 7 M 0 7 q 7 7 1 , ; + + + + O O . . . . .   o     o   o o     o o                                                                                           .     .                           .           ",
"* &         o o * p p s r u p s a Q Q g p Q h h i h h i h h h h Y Y ` ` ` g.E.E.(.:XjXjXjXlXlXlXlXlXlXzXlXlX^.^.^.^.(.(.jXzXDXDXzX(.E.E.(.E.g.E.:XzXDXSX`.` Y i e e = u u p u = - o                                                                             o     o o     o     o     . % o . . . . O + ; , 1 1 3 2 0 k l N N N V H H H Z D D Z N Z N P D D L G } %.%.>.>.4.7.6.w.p.b.N.N.N.N.A.N.A.S.m.S.Z.S.m.V.F.XXOX$X3X5X9X8X5X9X3X8X9X9XqXqX9XqXwXqXqXqX0X4X4X4X4X2X1X7X6X2X2X2X2X6X,X6X6X5X6X6X4X6X4X4X6X6XqX5X3X7XoX.X.X.X.XV.C.b.7.+.*.*.o.*.&.o...o.o.:.6.b.C.V..X+X+XOX>X>X5X,X5X6X6X6XrXeXiXiXfXsXnXnXNXNXCXCXZXAXAXAXAXGXAXAXJXZXPXGXGXAXAXZXZXZXVXZXVXZXAXCXSXCXNXmXsXsXpXiXiX6XfX6X7X7X>XG.F.m.v.6.3.3.2.O.:.3.5.6.6.4.*.%.o.R G m m m G o.4.4.w.w.M.[.%X$X$X$X$X3X5X3X$X3X3X1X1X1X1X1X1XOX1X>X>XOX>XOXG.oXF.G.G.+X+X+X+XG.F.F.F.F.G.XX+X+X$X1XOXoXOX+XoXoXOX$X#X.X.XoX#XoX@X%X%X.Xb.+. . . . . . . .+. .O.,.+.i.d.u.s.J.S.u.u.x.u.u.t.7.3.+.+.O.o. .o.R E G D b l c z z l c M z z 7 7 0 M M 7 7 7 0 0 0 7 1 : ; ; + + O O O O . . .     o   o o o o   o                                                                                                             .       .       .     o .   . .   ",
"= o   o o   o * = p d s p w w u u i g g p u u u h i i u w e e s U ` g.f.f.f.E.g.(.(.(.(.jXlXzXlXlXlXzXzXzXlXlX^.^.^.(.E.(.jXzXDXzX:X`.E.(.E.g.g.:XzXDXDX:Xg.Y s e = e w w r p = * X                                                                                             o       o .   o . . . . O + + ; 1 2 1 7 z k l B v C Z F H J H Z H N D N N x x D G G } $.%.*.4.2.4.5.5.p.a.N.N.Z.A.V.N.A.S.S.Z.N.S.A.H.H.XX%X$X>X3X9X5X5X4X3X3X4X5X5X8X8XqXqX9XqXqX4XqX6X2X1X<X7X,X2X2X2X2X2X2X2X5X5X6X2X4X2X6X4X5XqX5XqX5X5X7XoX.XoX.X.XV.B.x.6.7.*.O.*.*.*.o...o.X.*.7.w.b.m.V..X+XOXOX,X5X5X2X6X6X6XeXeXiXiXdXsXnXnXNXNXCXAXCXAXAXAXAXGXGXGXGXGXGXGXZXAXAXAXAXCXCXAXCXAXVXAXCXCXNXmXnXfXiXiXiX6X6X7XK.K.7XG.D.m.x.3.3.:.O.O.O.:.5.p.4.*.o.o.R m n n m m  .*.4.5.e.w.b.[..X$X$X$X$X5X$X$X5X5X$X1X1X1X1X>X5X$X>X$XOX>XOX+X+XG.G.+X+X+X+X+XXXG.XXH.F.XXoX+X%XOX$XOX$XoX.XoXoX$X%X$X%XoXoX#X.XoX.X$X%X%XN.5.O.o. . . . . . .O.O.+.,.3.3.t.u.p.n.u.c.y.y.y.t.3.3.3.o.o.o. .G W E m D b l z M z z z 7 z 7 7 k y M 7 q 7 0 0 q 7 7 1 ; ; + + + + O O . . .   . .     o o     o o o                                                                                                                             .   o   .       ",
"* o       o o & 8 s I f p w w e u u g g i u u u h i p w u w p U U g.g.f.:X:X:X(.E.(.(.(.jXlXlXlXlXlXzXzXlXlXlX^.jX^.(.E.(.xXDXDXDXkX(.E.`.g.g.g.`.kXDXSX:Xf.U u e e e w u p u u = X       o                                                                         o     o o         o   o o .   . . . O O + ; 1 1 < 7 0 k M M x v Z D H H H Z Z D N Z P x D D L G } $.%.;.>.4.4.5.6.p.b.N.N.V.N.A.A.A.A.A.S.A.A.A.A.XXXXOX$X3X5X5X8X3X3X3X4X4X3X4X4X5X5XqXqX5X4X4X5X3X3X1X1X7X2X2X2X2X2X6X2X6X5X6X2X6X5X4X4X6X6X6X6X5X5X$XOXoXoXoX.X.XF.m.b.y.7.2.o.*.*.o.......X.*.2.6.y.b.V.F.XX+XOX>X,X5X,X5X6X6XqXrXiXiXpXfXNXNXNXCXCXCXCXAXAXAXAXAXAXGXAXAXGXAXGXAXFXAXSXAXBXVXBXBXCXBXCXmXmXnXsXaXiXfXiX6X6X6X7X7XK.G.D.n.y.3.3.:.O.%.O.:.4.5.:.o...R G m m x m G o.*.4.w.w.w.M.V.@X$X$X$X3X$X$X5X3X3X1X3X1X5X1X1X1X1X>XOX$XOXOX+XoXoXF.G.H.H.G.XXXX+X+XXXXXXX+X+X+XOXOX+XoXoXF.F.oX#XOXOXoX@X#X$X#X@XoX$X$X%X[.b.3.+.X. . . .m  .O.O.O.3.3.t.t.u.u.y.y.p.u.x.t.3.3.2.+.+.o.o.G o. .G F D x l l z z z 0 y z M 0 z M M z 7 0 7 7 q 7 7 1 ; ; + + O O O O O . .       o   o   o o   o   o                                                                                                                   . .       .   .   .     ",
"& o   o o o o * r p U d p w * = = u p u u = = u p u p u s r s I ` g.f.f.:XkXkXkX:X(.(.(.jXjXjXjXlXlXzXzXzXlXlXlXjX^.(.T.T.jXzXzXzXkX:X(.(.E.T.g.E.:XkXkX].f.U Y e e - w w p u 8 8 X                                                                             o                       o   o . . . . . O O + + > 1 2 0 q k v M l b C F H H H H D Z N P b x x D L G } ..$.*.:.-.2.2.5.w.b.N.N.N.A.A.A.A.A.S.A.A.A.H.XXH.XXOX$X3X5X5X3X5X3X2X3X2X3X2X3X3X5X6X5X5X5X2X2X1X1X>X1X<X,X5X6X2X2X6X6X2X5X5X2X2X4X5X6X6X5X6X5X5X5X1XOXoXOX%X.XXXF.V.b.6.2.2.O.O.%.%.......X.%.:.4.7.y.b.V.F.$XOXOX1X1X5X6X5X6XqXrXiXiXdXsXsXnXNXNXCXAXCXAXAXAXGXGXGXAXGXJXJXAXZXVXAXVXAXAXBXAXNXBXBXBXBXNXmXnXsXsXiXrX6X6XfXK.7X7XoXD.m.n.y.2.:.:.O.%.:.:.>.2.*...G m m n n x m G ..-.6.w.p.w.M.N..X%X$X$X5X3X5X$X5X5X$X5X1X$X1X1X$X$X1X$X>X>X$X+XoXF.F.F.F.XXG.G.XXXXOXXXXX+X+X+XXXXXoX.X.XD.D.|..X%X$X#XoXoX#X#X$X@XoX$X%XXXV.N.b.3.3. . .P  . .| X.O.,.3.5.t.t.u.y.u.u.y.u.u.3.3.+.:.+.o.o.G G G G F Z b l z l z z M z M 7 0 7 k y 7 7 7 7 0 7 7 6 6 ; ; + + + O O . . .   .   o o   o o o   o                                                                                                       .                         .   . . .       ",
"&     o o . o * w t d U r w & e = = u p w h w r p p s d s s d I W ` g.f.`.kXkXkXkX:XjX:X^.jXjXjXjXlXzXzXzXzXlXjX^.^.(.E.E.^.DXDXDXDX:XE.E.E.g.E.f.`.`.`.f.g.^ Y u e e w w u p = u = o       .                                                                       o     o     o     o   o o   .   . . O O + + ; > < 9 0 k l B v b C Z A D H Z H P N Z x x x D H K K $.$.%.-.:.:.>.>.6.p.N.N.m.V.N.[.A.A.Z.A.A.A.A.A.XXXXOX$X$X5X3X2X3X1X$X7X3X1X3X2X3X5X3X5X3X2X1X<X1X7X<X>X2X2X2X,X2X2X2X2X2X2X6X2X6X4X2X6X5X6X4X5X5X$XOXOXoX+X+XOXXXF.N.x.y.3.2.2.*.*.X...X...%.%.:.2.2.6.b.B.F.+XOXOX>X1X1X5X6X6X6X6XiXiXpXsXsXnXNXCXCXCXAXAXAXAXAXGXAXGXGXGXAXGXZXAXAXAXBXBXAXNXAXAXBXBXBXCXNXnXsXdXiXfXrX6X6X,X7XoXoXD.m.b.6.O.O.X.X.%.%.X.:.<.%.G m b m m x m G K $.-.4.w.M.M.N.B.[..X%X$X$X$X$X$X5X3X>X$X1X1X$X>X1X1X>X>X>X$XOX+XoXoXG..XF.G..XoXXXXXXXXX+X%X+X+XoXXX.XF.F..XV.F.XX#X$X$X%XoXOX<X$XOX#X%XoX@XV.N.C.y.5.O. .P P  . . .O.O.O.5.t.t.t.y.t.u.y.b.u.5.3.+.O.o.o.G o.G G n F Z C l l M z z M z 0 0 0 k k M z 9 7 7 9 q 7 6 6 ; + + + + O O O O .     o   o o   o o o o o o           o                                                                                               .   .   .   .       .       .     ",
"&     o o o & * r r s t w * * & h e w w w w = r p f S I I s d I W ^ ^ g.f.:XkXDXzXkXkXlXjXjXjXjXjXxXzXzXzXzXzXjX(.jX(.W.Q.:XzXDXDXDXkXE.E.E.g.g.f.E.g.g.g.` ^ U e e e e u r u u p = X                                                                             o             o       o o . .   .   . O O O + ; 1 < 9 q M k B v b b Z H H H Z N N N N N l x Z L J K K ..%.%.*.-.2.4.6.p.b.N.N.N.V.N.A.A.A.A.A.A.XXH.XXXXOXOX$X5X1X1X1X<XOX#XoX1X1X1X1X3X5X$X1X1X7X>X7X7X>X1X1X5X2X5X2X6X2X2X6X6X4X2X5X2X2X5X4X5X2X2X,X>XOX+XoXoXOX%X.XF.N.b.6.3.2.:.:.%.X...} %.%.%.:.*.2.3.y.b.m.D..XoXOX<X1X5X6X6X6XrXiXiXiXdXsXnXNXNXCXCXCXAXZXZXGXGXGXGXZXJXAXJXAXAXAXAXAXCXCXNXNXBXBXBXCXNXmXnXsXrXrXgX7X<X2X<XoXG.F.V.C.p.5.:.*.X.} ..@...%.%.} m P x b m b F K ..$.*.0.a.M.{.B.N.V.[..X$X$X$X5X5X5X$X$X1X$X1X1X$X1X1X$X5X$XOXOXOX+XoXF.G..XXXXXXXG.XXXX+XXX%X+XXXXXF.V.V.V.D..X.X.XOX$X$X%XoX#X$X$X$X$X$X$X.XV.N.b.p.y.O. . .P P  . .O.,.O.3.t.5.y.t.u.t.y.y.y.t.3.+.O.o. .G G R F F F b C l z z z M z z q q 0 q M q 7 9 0 7 9 0 7 < 1 ; + + + + O O . o o o       o o   o o o o o   o                                                                                                                     .         o .         ",
"& o     o o o * r r r r w * & * & = w w * & r p f I I T S s s I U U U U g.f.:XDXSXzXDXzXzXzXzXkXjXjXzXDXDXzXzXlXjXjX(.W.T.W.kXDXDXDXkXE.g.E.f.E.E.g.g.` ^ ` ^ Y e e h e = u p = p = X       .                                                                         o o     o       o         .     . . O + + + > < 9 q k M k z v b C Z H H H H N N N x x N D H K @.$.$.$.%.*.*.2.4.y.p.N.n.N.N.V.S.S.S.A.A.A.A.XXA.XXXXXXOXOX$X1X1X$X7XoXOX7XOXOX1X1X$X5X1X1X1X1X7X$X>X1X>X2X,X5X,X2X2X2X6X2X5X5X6X4X6X6X6X6X6X2X5X1X1X>X>X+XXXXXoXH.F.N.x.y.2.3.:.:.:.X.} %.} %.*.*.*.o.2.6.y.C.V.D.G.oXOXOX1X4X6X2X6XiXpXiXsXsXnXnXNXCXCXZXZXZXGXAXAXGXAXPXGXGXFXGXVXAXZXSXNXNXCXSXNXBXNXmXmXnXsXpXfXrX6X6X4X2X1XoXD.V.C.b.y.2.X.X.X.} } } } ..} G m x c c x b D K ..$.<.0.e.N.[.[.B.B.V.F.$X$X5X$X$X3X$XOX1X1X$X1X$X>XOX$X>X$X$XOX+X+XXXG.D.oXG.oXG.oXXXOXXX+XXXXXXXXXF.A.V.V.V..X.X%X%X$X$XOXoX#X$X$X3X$X$X$X#XV.C.b.b.p.+. .m P P  . .O.O.,.3.,.t.y.u.3.y.y.y.u.3.+.O.o.o.o.G G G G m D b v M l M 0 z q 0 z k 0 k M M q 0 7 7 9 9 9 < > + + + O O O . . . .       o o   o o   o o o                                                                                               .                       .       . .     . .     ",
"o o     o o # * r r r r * & & e o * w w & * r T ( ( T I f p t d W s w s s I g.`.IXDXDXDXDXDXDXzXkXjXkXzXDXzXzXlXjX^.(.W.E.W.jXzXzXDXkX(.E.E.E.g.g.g.` ` ` ^ ^ U e e e e u p h r w = #                                                                                                   o   o .   . . . . . O + > > < 9 q k q B k l N Z Z H H H P N N N c x x D J K ) } ..&.&.*.*.:.4.6.p.b.n.p.N.C.N.m.S.A.A.A.A.A.H.H.XX+XOX$X$X1X<XOXOX#X#X7X$X>X$X1X1X1X1X>X>XOX1X7X1X<X2X>X,X5X2X6X6X2X6X5X2X5X4X2X5X6X5X4X5X5X5X5X1X>XOXoXoXXXXXF.F.m.x.t.3.2.:.:.:.%.X.} %.%.%.%.X.X.*.2.6.b.n.m.D.D.oXOX>X2X2X<X4XiXiXiXpXsXnXmXNXCXCXZXZXZXAXGXJXGXJXFXGXGXGXAXFXAXAXAXAXNXSXNXBXmXmXNXnXnXaXaXiX0X6X<X<X2XoX.XV.C.b.y.6.>.X.X.} } } } } | G L m c x c x b F K ..&.-.w.M.[.[.{.M.N.V.|.$X$X$X$X>X3X5XOX$X1X$XOX$X<XOX>X$X$X>XOXOX+XXX.XG.oXoXoXXX.XXXXXXXXXXXXX.XXXV.V.V.N.V.A..XoX%X$X$X$XoX$X$X<X$X3X#X$X@XV.b.b.p.p.3.X. .P  .P  .X.X.,.,.3.5.t.t.t.u.y.y.y.3.+.O.o. .G G G G m m Z v x C l z M z M M q M 0 q M M 0 0 0 9 9 9 7 1 ; ; + + O O O O . . .       o   o   o o o   o   o                                                                                                                             . . o       . ",
"& o   o   o & * * * w r w * * w & w s r = * p _ ' ' T I S d p s U s s s s Y ` f.kXDXDXDXDXDXDXDXxXkXzXzXDXDXzXzXjXjX^.(.E.W.(.:XkXDXkXE.E.g.E.g.g.g.g./ ` ^ ^ Y u e e = = u p p p = -     o .                                                                     o     o     o o     o   o             . . O O @ > < 9 0 q a v k k N Z Z H H H H N P x l l C Z L J K K $.$.%.%.*.>.2.5.p.b.b.p.b.n.S.S.A.S.A.XXH.A.XXXX+X%XOXOX1X1X1X7X7XOX$XOXOX1X>X1X$X>X1X$X<X>X>X>X>X>X,X,X5X,X5X,X2X,X5X6X2X4X5X5X6X2X6X5X5X5X,X1X1XOX>X+XXXXXXXF.A.m.x.y.3.3.:.:.:.%.} } } } } %.X.X.X.:.7.y.z.b.b.C.|.oXOX3X2X<X2XqXtXeXsXsXnXNXNXCXCXZXAXAXFXAXAXGXGXAXGXGXFXFXAXAXVXBXNXNXNXmXCXmXBXmXmXnXaXpXrX0X7X7XoXoX.XV.m.b.p.y.5.:.%.%.} @.K } L L D D x x c x b b J $.$.$.>.0.M.[.}.[.M.b.V.A.$X$X$X3X$X5X$XOX1X$X1X$X>X$X$XOX5X$X$XOX%X+X+XXX.XoX+XXX.XF.F.XXXXXXXX.XF.F.V.m.m.C.C.V.F.oXOX$X$X#X%X#X3X$X#X$X$X$X.XV.N.b.b.p.5.O. .P P  . . .O.O.:.3.3.t.y.y.y.y.y.y.t.3.O.o.o. .G G G F Z C x v N k z M M z 0 0 0 q z M M 0 0 q 9 9 7 7 1 ; ; + + O O O O . .       o o o   o o   o   o                                                                                                           .     .     . .     .       . .     ",
"o o         # = = 4 * * w w w * & w w r o * ( j._.[ T T d r r d T d s s r w Y ( ].kXDXPXPXDXDXDXzXkXkXDXDXzXDXzXxXjX^.(.(.E.W.(.:X:X:XE.E.g.g.g.E.g.g.W ` ^ Y Y Y Y w w e w = r 8 u = o                                                                           o o     o     o     o   o   o o o o     . o O % $ , 6 9 q q y k v b Z Z H Z D Z N N M x M N H H ! ! ) ) $.&.&.-.:.4.5.6.p.p.6.b.x.n.n.V.A.H.A.A.H.XXXX+X+X$X$X1X1X1X>X1X1XOX7X1X$X>X1X$X>X1X1XOXOX>X>X,X,X>X,X,X,X6X,X6X6X,X6X2X2X6X2X2X2X5X,X6X,X5X,X>X>XOX+X+X+XXXF.A.Z.n.y.t.3.2.:.O...| G } @.@.@.$.} %.%.2.7.w.b.b.b.V.F.#X1X5X3X9X8XtXtXyXyXMXMXmXBXBXCXCXZXAXAXSXBXAXZXZXVXAXZXVXVXSXBXmXBXmXBXmXBXmXmXMXaXdXtXwX4XoXD.D.D.oXB.b.p.6.5.>.:.%.@.} } K K L D m x x x x x P D J $...$.4.e.M.[.}.[.N.b.n.V.%X$X$X$X$X$X$X$X$X$X5X$XOX$X$X$X$X$X$X+XXX+X+X%XoX%X+X%X.XV.D.F.F..X.X.XF.D.m.C.C.b.C.V..X.X$X$X3X#XOX$X<X3X7XoX#X#X.X.XC.y.b.p.y.O. . . .m  .o.X.O.O.3.5.t.t.y.y.y.p.u.5.:.O.X...G G n G m n x l l l l l l z z q k k 0 k k k q q 7 7 q 7 6 ; ; + + + O O O . . . . o       o     o o   o                                                                                                             .     .       .     . .   .     .   ",
"&     o     & * w * 4 * w 4 w * & r r r * T 9.'.'.j.T S S d s f f d t s r e w U g.].IXDXPXPXPXDXIXjXkXzXzXDXDXzXxXjXjX(.`.(.E.E.E.`.:XE.E.g.g.g.g.f.g.g.` ` ^ Y w s w e w = p = r h - .                                                                         o     o o   o o   o o   o o o o o o o o     . o % $ , 9 9 9 q v k M B Z H H D D P Z x x l l M Z J J ) K ) $.&.%.*.1.4.4.6.6.6.y.y.x.b.n.S.A.A.A.A.XXXXXX+X$X$X$X$X1X>X$X1XOX1X$X1X>X$X>XOX1X>X$X1X>X>X>X,X,X,X,XK.,X,X,X,X,X,X,X2X2X,X2X2X2X2X,X,X5X5X1X,XOXOX+X+X+XXXH.A.Z.n.u.u.5.3.:.:.} G | | } } } } } ..%.*.4.7.6.z.y.C.D..X#X$X3X3X8XuXwXyXyXbXbXMXmXBXBXBXBXNXmXBXAXBXCXAXCXBXVXCXmXBXVXmXmXBXmXmXmXmXmXnXbXyXrX0X<XoXD.D.D.D.C.y.6.4.>.>.>.;.@.@.! ! K L D P x x x x N D F K ) ;.=.0.e.N.}.%X}.N.b.N.m..XXXOXOXOX$X5XOX$X5X$X$X$X$X$X$X$X$X$X%X%XOX%X+X%XOX%X%XF.V.V.V.D..XF.F.m.m.C.b.z.b.b.B..X#X$X$X$XoX#X#X9X<X#X#XoX.X.XV.V.b.b.b.6.O.o. .m m  . .#.O.,.3.5.t.y.y.y.p.p.y.t.3.O.o.o. .G G G m b n z l l z z k z k z q q z z k M z q 0 z 7 7 1 ; ; + + O O O O O . .   .   o     o o     o   o o     o                                                                                                     .       .             o   .       ",
"*         o o * * * * w w w 4 w * r r 4 T [ gXIXgX9.T d T d d d T d d r s w w Y ^ g.:XIXDXPXPXPXIXkXUXkXkXDXDXDXlXkXjX:X(.(.W.E.E.E.E.E.E.g.g.f.g.g.g.W ` Y ^ U Y s s e = = = w 8 r $ o                                                                           o o     o o   o o   o   o o o o o o o o o . o X $ , 8 9 9 q k k M B Z Z F H Z N x x x l M M Z J J K ) ) $.$.&.*.*.<.4.5.6.6.6.6.y.x.b.n.Z.A.H.A.H.A.XX+X%X$X>X5X1X5X5X5X1X1X1X1X$X>X$X$X>X$X1X$X>X>X>X,X,X,X,X,X,X,X,X6X,X,X6X2X2X2X2X2X2X2X5X5X5X,X,X5X>X,X+X+X+XXXF.F.S.m.c.u.y.3.:.:.X.| L L | @.@...} } $.*.2.4.0.w.x.b.B..XoX$X9X9X9X9XwXyXyXcXbXMXMXnXSXmXnXnXbXSXmXmXMXBXMXMXmXBXMXMXBXmXnXmXMXnXnXMXnXnXaXeXrX0X7X.XD.D.V.C.b.6.3.>.:.%.%.%.$.$.@.@.H D Z x x x x D D H K K $.*.-.0.b.{.[.%X.XN.C.C.n.A..X+X%XOX$X$X$X$X$X3X$X$X$XOX$X$X$X$XOXOX$X+X%XOX%X%X.XV.C.b.C.V.V.F.D.V.C.C.x.x.b.C.D.#X#X3X3X$X#X#X3X8X3X7X|..X|..XD.A.V.N.N.y.O. . . . . .o.O.:.t.t.t.y.u.p.y.p.p.p.t.3.O.O.o.G G G m m n c c l l z z z z k 0 q z q 0 M k 0 0 0 9 9 6 1 > + + + O O O . O . . .   .     o o   o   o o o                                                                                                         .         .           . .     . .   . ",
"* o       o o o & * * * r r 4 w * s r d [ gXVXSX].' d t d T d I T T d r r w w s U ^ ] `.kXPXPXDXDXkXUX:XkXzXzXzXkXxXxXjX^.(.W.E.E.E.E.E.g.g.g.g.g.g.g.` ^ ` U Y U U s e = h = p p u = -                                                                         o o   o o   o o   o o     o   o o o         . . O $ $ , < 9 9 k k l M C Z Z D H Z C N M x k N N H J K K R ) $.&.=.*.*.2.2.4.5.5.y.y.p.n.S.Z.A.A.A.A.XXXX+XOX$X$X1X1X5X,X$X2X1X1X>X$X1X>X>X$X1XOX>XOX>X>X,X,X,X,XK.7X,X2X,XK.6X,X7X2X2X,X2X,X2X2X,X,X5X5X>X>X,XOX+XXXXXH.F.A.m.c.n.u.5.2.:.| G | } } } %.@.} ..$.%.<.2.4.6.w.6.b.V..X%X$X$X9XuX9X9XyXyXyXbXaXbXbXnXSXnXSXsXmXMXMXMXMXMXSXMXMXMXMXMXMXMXnXnXSXnXbXnXyXwX8X4X#XD.D.m.m.C.6.5.>.:.*.%.@.;.%.@.! K H D P x x x x Z D K K ) $.=.-.e.e.M.[.}..XA.N.M.n.V.F..XOXOX$X$XOX$X$X$X$XOX%X$X$XOX$X$XXX%X$X$X$X%XOXoXF.V.b.x.b.C.C.m.D.V.C.x.x.z.C.V..X#X$X$X3X#XoX#X$X5X9X7X|..X|..X|..XN.N.n.y.:.o. .m  .G  .X.O.3.t.y.p.y.u.p.n.y.u.6.3.:.X.o. .G m m n x c c l z z k z z 5 0 0 0 0 0 0 M 0 0 0 7 7 6 > ; + + O + O O O . . .   o   o   o   o   o o o                                                                                                               .           .         . o         ",
"X       . o o o & & * * * w w 4 w r d ( '.FXFX]._ f 4 = d d d T I W d r w w t s U U U ] ).kXDXPXPXzXkX`.UXkXzXzXkXlXjXjX(.(.(.E.E.E.g.E.g.g.g.g.g.f.g.W Y W Y ^ I f g e - w w w p = = # o                                                                         o o   o   o   o   o   o o o o o o     .   . . % % $ , < 4 9 q k k l C Z Z D D Z x x x N l B C Z J J J K ) ) $.&.*.1.:.2.4.5.5.6.y.b.n.S.A.S.A.A.H.H.XX%X+X$X5X5X$X5X$X1X1X>X5X>X$X>X$X$X>X$XOX>X>X,X,XOX,X,XG.,X,X,X,X,X6XK.6X2X7X2X2X2X,X1X2X5X,X,X5X>X>XOX+X+XXXXXH.A.A.Z.J.n.u.3.3.:.X.|  .L L } @.! K } ....*.*.<.7.7.4.y.b.V..X@X$X9X9X9X9XwXyXyXyXyXdXaXbXnXdXdXdXcXMXfXdXdXbXbXbXaXSXcXbXbXbXbXbXMXbXsXaXtX0X8X<X7XD.D.C.C.x.7.2.*.:.%.} @.$.@.! K H D N P N N x N N H J ! ) ;.=.-.0.e.M.V.}..X[.N.N.n.V.V..XXX%X$X$XoXOX$X%X#XoX%X#XOX%X+X%XXX.X%X$X%X%X%X.X.XB.b.6.z.b.C.V.V.B.C.x.z.b.C.C..XOX#X$X$X#XoX#X#X<X<X<X XD.|.oX.X.XA.N.N.p.:.X.o. . . .o.O.O.5.t.y.y.u.p.u.n.p.p.t.3.:.O.o. .G G m n c c c z z z z z z z 0 0 0 0 0 z q 0 0 7 7 2 1 ; ; + + O O O O . O . . .   o   o o   o   o   o     o                                                                                                 .       .   .   . .       .       .       ",
"X o       o   o # * * * w 4 w r r r T [ SXLX*X' q = % * t t d T I W d w w e w s U s i U ^ R.kXDXPXDXkX`.UXjXkXzXlXkXjXjX(.E.E.g.E.g.g.g.W h.W ` g.g.g.` h.Y Y W ^ ^ s e - - w = p = = - o                                                                             o o o   o   o   o o     o o o   o     . . O % $ $ 1 < 9 0 k k M C Z Z D Z D D N x l z N C Z F F J K K R $.$.&.*.:.2.2.4.3.6.y.p.n.S.A.A.A.A.A.XXXX+X%X$X$X$X5X>X5X1X1X$X$X1X$X$X>XOXOXOXOXOX>XOX,X+X,X,X,XK.,X,X,X,X,X,X,X7X>X7X2X>X2X7X1X,X5X>X5X>X>X,XOX+XXXXXH.H.A.J.S.S.y.5.3.:...L m L L L K } K K K ..&.*.:.4.-.2.6.b.M.[..X@X%X$X=X=X9XwXyXyXyXyXyXdXgXdXdXdXdXyXbXIXdXyXaXyXdXdXdXbXyXaXbXdXdXaXdXtXtX0X<X<X<XG.B.C.b.7.2.2.*.X...} K @.! J H D N c z x x N N Z H ! ! $.=.-.r.e.e.a.N.[..X[.A.N.C.N.A.XXoXOX$XOX%XOX$X$X.X.X.X.X%X+X%X.X.X.X.XoX%XOX%X.X.XC.x.y.x.C.C.V.B.C.C.z.b.x.l.C.|.#X<X$X<X#XoXoX#X X7X7X|.oX|..X|.[.V.V.V.p.2.X.X. . .o. .O.:.t.p.p.p.p.u.n.p.p.y.t.5.3.X...| G m x x c j j z z z l z z z z q z 0 0 k M 7 0 7 < < ; ; + + + O O O . O . . o   o         o   o   o   o                                                                                                           . .                   . . .   .     ",
"o o         o o & o & * * r 4 r d T ( '.JXLX].8 . O o . * 4 r T d T d r w w w s U I U Y U / R.IXPXDXIXjX`.:XkXkXlXkXlX(.(.E.T.g.E.h.g.g.Y h.h.g.g.W g.g.W Y Y Y I ^ g = & = = = r = = * o                                                                                         o o     o   o o o .     .   . . % @ ; ; < 4 9 q k k l N Z Z Z Z x x x l l l b Z F H A J K ) ) ..&.%.*.2.2.3.4.y.y.b.n.S.Z.A.A.A.}.H.XX+XOX$X5X5X$X>X5X>X5X1X>X$X>X>X$X$X>XOX,X>XOX>X,X,X+X,XK.,X,X,X,X6X,X6X,X>X2X>X2X1X>X>X>X>X>X>X>X>X>XOX+X+X+XXXXXH.A.S.S.S.p.t.3.O.} L m H H L K L L K K R $.&.%.*.*.*.4.w.b.M.{.[..X#X#X#X9X9XwXwXwXyXyXdXrXyXyXfXgXyXyXrXdXyXyXrXyXyXdXuXdXdXyXyXyXyXyXtXwX8X<X7X7XG.D.b.z.2.2.*.*.o...K K K H H N N N z z z N N N A ! ! $.;.-.-.>.0.e.M.{.[.}.}.A.V.m.V..XXX+X%X$XOXoX%X$X%X.X.X|..X.X.X.X.X.X.X.X.X.X.X.X.X[.C.b.z.b.C.C.C.V.B.b.z.x.C.C.B.|.oX#X#X<X7X X XoX7X7X7XD.#XoX.X|.V.V.V.S.p.O.O.o.o.G o. .O.3.t.p.p.y.p.n.a.n.p.y.t.5.,.O.o... .m x c c j c c z l z l c z z q z 7 7 z 7 7 0 3 1 1 ; ; ; + + O O O O O . . .     o o   o     o   o o o     o                                                                                                   .     .         .     .   .   .       ",
"o o       o   o % & * * r w w r d ( [ '.HXJXj.*   . . . o * r d t d t w t w w s U I U s i s ] :XIXDXDXUXkXjXxXxXzXkXjX(.(.E.g.h.g.W h.g.Y Y ` ` g.f.g.W Y Y Y U I I g e o - = p p = = - &                                                                       o     o       o               o o o         . . % % @ $ , , 2 9 z k l l N Z Z D D C x x x l l b Z D F F F K R R ....&.*.>.2.4.3.6.y.p.n.S.S.Z.A.A.H.H.XX%XOX$X$X5X>X$X5X3X$X5X>X1X1XOXOXOXOXOXOX>X>X>XOXK.,XK.,XK.,X,X,XK.,X,X,X2X>X2X>X2X7X>X>X>X>X>X$X$X>XOX+X+X%XXXH.H.F.A.Z.J.y.5.3.:.X.| m P P D D H H H L K $.$.;.&.o.$.>.4.6.p.p.M.N.[..X#X=X9X9X9X9XwXwXiXgXrXrXrXyXrXrXyXrXyXyXrXyXyXrXwXwXuXwXyXeXwXtXeXwX4X<X#X#XD.V.b.6.2.o.o.*.$.K L K H H D N N z x x z M C Z H ! ) $.=.r.r.0.e.e.p.N.N.[..X.X[.A.A..XXX%X$X$X$X.X$X$XoX.XA.V.|.V..X.X.XV.V..X.X.X.X[..XF.B.C.b.C.B.C.B.V.C.b.l.l.z.z.k.D.|. XoX X#X<X X7X X X XD.#X#X@X|.B.B.N.V.p.+.o.X. . .G o.X.2.p.N.n.a.p.p.c.a.p.t.t.6.:.X.o...G m m c c j 5 z z z v l z z z M M 7 z k z 7 7 2 1 1 ; + + + O O O O . . . . o   o o       o o   o   o   o                                                                                                                 . . .         .   o   .   . ",
"X           o o & % # & * # * t ( ( ).vXLXIX'   o . . . . . * 4 t t t p w s w w d W U U Y U ` R.:XIXDXkXkXjXlXkXzXzXkX:X(.g.h.h.h.W / h.Y W ` h.` g.g.g.` W Y W I T U e & & w e = r * - X                                                                                                   o   o o   o     . . O O % , ; , 2 2 0 q z l Z Z Z Z P P b b v c l l b Z Z D J K ! R R $.%.*.2.4.4.4.p.t.p.b.n.S.S.A.A.A.XXXX%X+XOX$X$X5X5X$X$X5X$X$X5X>X$X>XOXOXOXOXOX,X+X,X+XK.,X,XK.,X,X,X,XOX,X,X,X5X,X>X1X>X>X>XOX,XOXOX+X,XOXOXOX+X+XXXH.A.S.Z.S.a.u.t.:.X.| m P x x m D b x Z D H R $.....$.*.4.0.w.p.w.p.M.V.@X%X$X9X9X8X8X8X0X0XrXwX9XqXqXeXtXeXtXwX0XuXrXuXuX0XuXrXwXwXyXwXwX8X3X#X<XoXD.C.7.7.2.*.&.X...K H G H H N M l z z z l C Z Z A ! ) =.=.r.0.0.e.e.M.M.N.[.}..XS.A.[..X%X%X$X%X$X%X$X%X%X.XB.N.V..XF.[.A.F.[.F.A.V..X[.|..XB.b.b.C.B.B.D.B.l.z.w.z.l.C.k.B.B.B.D.|. X|. X XD.z.B.gX8X9X#X|.b.l.C.V.p.2.o.*.X.G G  .X.2.p.a.a.n.n.a.a.u.p.u.t.3.:.%.o.| G m x c c j z z z z z z z z z z z 7 7 7 z 7 7 2 1 > ; + + + O % O O . O .   .   o       o o o o o o   o                                                                                                               .   .     o   . .   o   .     . ",
"o     .     o o o & * * # & 4 I ( [ ].SXLX*XS . . % * % o o # * * r r d t r r w s U I U ^ U ^ g.:XkXDXkXzXkXkXkXzXkXlX(.E.h.` h.` Y Y Y Y Y Y h.g.` g.W ^ Y Y Y I ^ I u & & w w = = = * o                                                                                         o       o o     o o     . .   . O % + ; , < 4 9 0 q l C Z D b Z b C b b c z b b C F Z F J R R ..$.&.*.2.2.2.5.6.y.p.n.n.n.S.Z.A.A.A.XXXX+X$X$X5X$X$X5X>X$X>X5X$XOX>X$X,XOXOXOX,XG.,X,X,X,XG.K.,XK.K.,X,X,X>X,X1X1X5X>X>X>X>X>XOXOX,X,X,X+X+X+XOX%X+XH.XXA.A.S.J.u.y.3.+.X. .m b x x m x x x b D H K R K K $.*.4.4.6.e.w.w.M.{.V.@X$X=X#X3X8X<X4X0X0XwXqXqXwXwXwXwXwX8X8X8X<X0X8XuX<X8X8X8X9X9X9X3X<XOXoX.XB.l.7.4.o.%.o.$.K G H D Z C M k M z l z l C Z A J ! =.;.r.0.0.0.e.e.M.M.V.[..XA.[..XA.XX+X$X$X$X%X+X$X$X.X.XN.C.B.V.[.D.D.[.D.[.|.V.V.V.V.V.B.b.l.B.[.B.B.l.B.z.z.l.z.l.l.l.l.l.l.l.B.D.B.B.D.j.z.B.uXwX=XB.l.w.k.N.l.2.X.o... .G o.O.7.p.N.n.n.a.n.a.n.a.t.t.5.:.:...} L m P c c c c c z z N z N z k k z M z 7 7 7 7 1 1 : ; ; + + + O O O O . . .       o o   o o   o   o o     o                                                                                                   .               .   .     .     . o     ",
".     o     o o # * * * o o s ( [ j.*XJXLX).$   * $ 8 = * % O # * * t t t r r r w s I ` ` U ^ ` E.kXDXDXDXkXkXlXzXzXkX:XE.h.Y / Y Y Y Y Y Y ` W g.' ` g.` Y Y Y I I I u & * = w = = = - &                                                                                                         o   o .   o . . O % + % , 4 < 0 0 z k C Z C P Z D x b z c z b b b Z F F J R R ) $.&.*.-.2.4.5.5.y.p.p.a.n.n.S.S.A.F.H.XXOXOXOX$X$X3X3X$X5X$X5X5X>XOXOXOXOXOX+X+X+X,XG.G.,X,X+XK.K.,X,X,XOX>X5X1X,X1X>X>X>XOX>XOX,X,X+X+X+X+XOXOX%XXXXXH.H.Z.Z.n.x.u.3.2.o. .m m x x b x x x b N D H J K J K $.-.4.5.q.5.w.w.a.V.|.@X$X#X9X3X3X9X5X8XqXqX9XqX9XwX9X8X4XuX8X8X<X<X<X<XuX9X9X8X<X<X#XoX|.D.D.x.z.4.2.o.o...R G H Z Z N M M z z M l k v b Z H ! _ =.r.r.0.q.e.e.{.M.M.N.[.[..X[..XXXXX%X$X$X%X%XoX%X$X%XA.B.C.V.V.[.V.A.|.[.V.V.V.B.B.V.V.C.b.b.B.D.B.M.l.l.l.z.z.l.z.z.z.z.z.z.l.k.l.z.z.j.z.z.z.uXyXuXB.z.7.w.M.p.2.o.*...G  . .o.4.p.n.n.N.n.a.n.p.u.t.t.3.O.O...} m m c c c c z z x N z z z N M z M z 7 z j 7 3 1 1 ; ; + + + % O . O . . . . .   .         o o o   o   o                                                                                                           . .       . o     .       o     .   ",
"    o o     . o & * * &   o T ' j.).IXLXFX[ . . * 4 r t 4 * * % . * r r d t s r w s I ` ` ` ` ` f.`.DXSXDXzXzXkXkXkXlX:XE.h.Y Y Y Y Y Y Y Y Y h.W g.g.g.h.` Y W I ( I s & * w * r w = * &                                                                                                       o o o     o . . . O % % + ; : < 9 0 k z x b Z Z P b P Z b c c v v b Z A F J R ) ..&.&.*.-.:.5.4.6.u.p.p.y.b.u.n.Z.S.A..XXXXX%XoX$X$X5X3X5X5X$X>X$X>X$X>XOX,X+X,XK.+X+X,XG.K.K.,X,XK.,X,X>X>X>X>X1X>X>X>X>X>XOX+X+XOXOXOX+X+XOX+X+X+XXX+XH.H.A.S.S.n.y.3.O.o.G m m x x x x x c n x C D D H F K K $.-.4.4.0.4.5.p.a.[..X%XoX@X%X#X$X3X3XqX9X9X5X9X9X8X8X3X<X<X<X#X=X#X#X#X$X#X#X#XoXoX|.V.C.b.z.7.1.o.&.....R F D Z Z N M q 0 q M V v C S A A _ ) _ r.9.e.q.e.M.M.M.M.N.V..XA.}.A..X+X%X%X$X%XOX%X$X$X%X}.V.b.N.V.V.N.V.|..XV.V.B.B.N.B.B.l.w.z.l.B.B.l.z.z.z.7.<.q.1.q.z.q.j.z.j.z.j.1.z.z.j.' z. XyXcX@Xl.0.w.l.z.1.*.&...G G ..X.5.p.N.a.N.S.a.S.a.p.t.5.,.:.%.| | L x x c c c z x z N z z z N z M M k z z 7 7 2 1 : ; ; ; + + O O O O . .   .   .     o   o o   o o o o                                                                                                             .     .       .     .   o   .       ",
"o   o o     o X - * * *   o ( ).)._.SXLXSX(   % r r t a r 4 * $ o * * t t U t r w t U ` g.f.` ` ] E.DXDXDXzXkXlXlXkXkX:XE./ Y Y Y Y Y e Y Y Y Y g.` g.g.` W Y Y I ^ I s e e e w = w = - -                     o                                                                                 o o   o   .   . O % % % + , , 4 q 0 k z v C b D Z m P b x z v c b C Z F J J R R R $.%.&.:.:.2.4.5.5.p.p.p.u.p.c.S.S.A.F.XXXX+XoXOXOX1X3X5X$X>X$X$XOXOXOXOX+XOX+X+XG.+X,X+XK.,XK.G.,X,XG.OX>X>X>X1X>X>X>X>X+X+X,XOXOXOX+XOX+XG.+X+X+XXXXXXXH.A.Z.n.c.u.6.:.X. .F m m b x x c c v l x b Z D D F F R &.*.-.-.>.2.4.w.a.{.[.[..X.X.X$X3X9X9X9X9X9X9X5X3X3X#X#X<X#X#X X XoX@X#XoXoX.X|.D.B.B.C.w.7.1.*.*.o.R R G D Z N N M M z z M M v v V Z A A J _ =.r.9.q.e.l.k.e.M.M.N.B.[..X.XXX%X%X%X$X%X$X%X#X$X$X%X}.V.N.A.[.V.N.B.V.[.V.N.C.C.C.B.b.l.7.7.l.B.l.z.7.+.1.2.1.1.1.1.1.7.q.1.z.z.1.1.1.1.&.o.' l.gXcX<Xk.q.1.<.4.&.o.&.G G G G *.2.p.N.N.S.S.S.a.a.t.t.3.,.O.X.} | D P P x c z c x z z z z x z M z M z z 7 7 7 1 1 : ; ; + + O O % o . . .   . .     o     o o o   o o o   o                                                                                                       .   .           o     .       .       ",
"    o o     o * * * & *   w 9.'.'.].SXFX*Xd . * t p p a r 8 $ * O * * r t T U r w w Y ^ W g.f.` ] R.:XDXDXDXDXkXkXlXkXjXE.h.Y Y Y Y Y Y Y Y Y ` W g.g.` g.Y Y Y U ^ I s e & * r = r = = X . o                                                                                                     o o   .   . . O % % % $ + , : 9 0 0 k l b Z Z D b b D b c c c C b Z F J E R ) $...&.%.*.-.:.>.5.6.y.p.u.p.u.p.n.m.A.F..XXXXXoX%XoX$X$X1X$XOX$X>XOXOXOX+X+X+X,XG.,XG.G.K.G.G.G.,XK.+X,X,XOX>X$X>X>XOX>X7X7X+XOXOXOX+X,X,XG.OX+X%X+X+XH.XXH.A.Z.J.n.y.3.+.X. .G m m P n c c c z l l v b C C Z F K R &.*.*.*.*.>.5.p.N.V.{.V.[..X$X3X$X9X9X5X5X5X9X$X$X#X#X#XoX|.|.|.|..X|.|..XD.V.B.b.b.z.6.7.2.o.o.o.R K H Z C M M z y q y M y S n S S S A J ) =.=.0.q.q.e.p.k.b.M.N.[.[.%X%X%XXX%X$X%X%X%X%XOX%X$X%X.XV.[.[.|.V.M.b.N.V.V.M.C.l.l.b.b.7.2.4.z.C.l.z.q.z.1.1.&.R R 1.1.9.q.j.9.1.1.W &._ E W W 1.{.yXgX_.q.&.*.1.o.....R G G R o.2.p.M.N.N.N.a.a.t.t.5.5.,.:.X.| L P P c c c x x z z z z z z z z M M z z 7 7 7 1 1 ; ; ; + + + O O O . . . .       o     o   o o o o     o                                                                                                         .         . . .   . o     .   . .     ",
"      o     o X * * & *   = j.gX'._.SXJX].$   % r t a p r 8 $ * % * * 4 t d d t r w s W ` f.f.g.g.g.`.zXDXDXzXkXjX:XjX:XE.h.Y Y Y Y Y Y Y Y Y Y Y ` W ` W ` W Y U W U s e * w w w u = = - o                                                                                                       o   .   . . . . O % + % ; ; , < 5 0 k l b x b b Z b b b z x b b b Z F F J K R R $.$.&.*.*.2.>.5.5.t.y.p.u.u.n.n.S.Z.A.XX.XXXXXoX#XOX#XOX$X$XOXOXOXOXOXOX+X+X+X+XG.K.+XG.,XG.K.G.,X+X,XOXOX>X$X>X>X>X7XG.+X+XG.OX+XOXOX+X+X+X+X+XXXXXXXH.A.A.A.S.n.c.6.:.X.X.G G G m x c c c c l c l x v C v b J E &.$.%.$.%.%.>.5.M.N.M.N.[.|..X%X$X$X$X9X$X-X$X$X#X.X XoX|.|.D.[.V.[.|.D.V.V.V.b.x.z.6.4.*.*.o...R R L D N z z z y z y V V V Z S S S A F E _ _ <.9.q.e.k.M.e.p.M.N.V..X%X%X%X%X%X$XOX%X%X%X%X%X-X$X%XA.}..XA.V.b.w.b.V.[.B.M.b.b.b.6.7.*.1.7.M.l.z.z.1._ R E W G E 1.7.9.1.1.1._ E E E W n n E l.gX X_.9.R o.o.E R R G n F G ..:.p.M.S.}.S.a.u.u.t.3.3.3.O.X.| L P c j j c c x z z x z z M M M z z z z z 7 7 3 1 ; ; ; + + O % O . . . .   .   . o     o o o o   o o o                                                                                                                 .       .       . o             ",
"o     o     o X # * * =   * j.kX'.).LXLXj.. o % $ = r 8 4 * % O % * * 4 t T W t t r d W ` f.f.` ] g.f.kXDXDXkXjX^.:X:X:XE.h.h.Y Y Y Y Y Y Y Y W Y ` ` ` ` h.^ Y U I U Y e & e w r = = = X                                                                                               o     o .   o   .   o . . O O O + % ; , < 7 0 k l v N b b P P b b c c v v b Z Z J J J R ) ..o.&.%.*.>.>.4.5.t.y.u.a.p.u.c.n.A.A.F.A..XXXoXoX%XOXOXOXOXOXOXOX+X+X+XG.+XG.+XG.,XG.G.+XK.G.,XG.+X,XOX,X$X>X>X,X+X+X7X+X+XG.OX,XOXOX+XOX+X+X+X+XXXXXXXH.A.S.S.n.y.y.3.X.X.| ..G G n x c n z z z z l x v x b F J R $.$.} $.%.*.5.e.p.p.p.N.N.|..X#X$X$X%X$X$X#X@X@X|.|.D.[.B.M.B.B.B.B.B.B.M.b.l.6.7.7.2.*.*.....R G D N N z M 7 M y M M V ~ A A A A A E ) ) =.<.q.q.e.e.M.b.l.M.M.V..X%X%X%X%X%X%X%X+X%X%X%X$X$X%X.XV..X[.[.B.b.6.b.V.|.V.M.b.l.z.z.1.o.&.7.l.k.l.z.z.W E n n n E _ 1.1.1.1._ E n E n n v v E ' k._.l.1.E E E n G R m n F G ..:.w.N.N.S.S.a.p.t.t.,.3.,.:.|  .L P P c j c z z N z N M M M M z M M z 7 7 7 7 2 1 1 ; > + + + O o O . . . .           o     o o   o   o                                                                                                             .     .     . .   o     . .   . .   ",
"o     X     # # * * * *   = 9.'.'.).LXFX[ . % % * * $ , $ * % % * % $ % 4 d ( S W t Y ^ W ` f.` ] ` g.:XDXDXDXkX(.E.:XjX(.g.Y Y e Y Y Y e Y Y U U U ` ` Y ` ^ W Y W U s e & e w w 8 * r & o .         o   o         o o     o                                                           o   o     o o       . . % . O % % + ; ; 1 2 7 z l b x x P Z D b b l l x b b C Z A F J K R R ..%.%.*.:.:.3.3.t.t.t.p.a.u.S.n.S.A.H.A.XXXXXXXXXX+X+X+X+X+XG.+X,XG.,X+X+XG.G.,X+XG.G.G.,X+X+XOXOXOXOXOXOX$XOX>XOXOXOXOXOXXX+X>XOXOX+XOX+X+X+X+X+XXXH.F.Z.S.S.n.p.y.3.:.X.X...R R m x c l c v z c z v l l l Z J ) ) ) } $...*.>.e.p.p.w.M.M.V.[.@X%X@X%X%X%X%X.X[.V.V.B.C.M.b.p.M.M.M.b.b.l.w.6.7.7.2.*.&.o.R R G F Z b z 5 5 k M V V V ~ ~ A A A A A E ) _ <.r.q.w.e.k.k.e.w.p.M.B.[.%X%X%X%X%X%X%X%X%X%X$X%X-X$X%X[.[.A.V.N.w.7.w.V.[..XV.B.l.l.6.1.o.*.7.z.k._.z.1.E E n c n v E ' =._ _ E E S v v v v n S W 9.q.9._ E S F F S F n b b n R o.w.N.N.N.N.a.t.t.5.5.3.,.X.X.G D c j j j c c N M N N M M M M M M M z 7 7 7 7 1 1 > > ; ; + O O . . . . .   .           o                                                                                                                         . .       . .   .     o .   .   .   . ",
"o   . o     . X = * # * . * ` j.).].LXSX~ o o % $ * * = * % & # % * * * * S T W W d U W ` ' f.f.g.` g.`.zXDXDX:XE.E.:XkX`.g.^ Y Y w Y s s Y Y U U W ^ ` ` ` ` Y U U U s w & * w w w w = * o .           o     o o                                                                 o o o o     o           . .   . O O % + % + + ; 2 7 q l x C Z b b D b b x v v v b C Z Z F J G K R ..$.%.*.:.:.,.3.5.t.t.a.n.u.u.S.S.A.A.}.A.XX.XXXXXXX+X+X+X+XG.+XG.+XG.G.G.G.G.G.+XG.+X+X+X+X+X+XOXOXOXOXOX>X$XOXOXOXOXOX+XoX+X>X>XOX+XOX,XOX+X+XH.H.H.A.Z.Z.S.J.a.y.3.:.:.X.o.....F m x x b v c z z k q k v V H J K ! ! K @.%.>.8.w.8.p.p.M.N.N.[.[.[.%X@X@X|.[.N.M.b.p.p.w.w.w.w.w.6.6.w.6.7.w.4.4.*.*.....R K F D Z b z 3 0 0 M V V A ~ ! J J E _ E ) _ _ 1.9.q.k.k.e.{.e.w.l.p.{.[.%X%X@X%X%X%X%X@X%X%X%X%X-X%X.X.XV.V.V.C.y.7.w.M.|.@X|.B.k.l.7.1.R 1.1.l.j.j.1._ W n q 5 5 v S E _ E E S V v t 4 4 4 r v n _ ' 1._ S S S n C n b v b D R *.0.M.N.N.N.p.p.t.5.3.5.>.X...G D c j j j c c N M N M M N N M M M M z 7 7 7 7 1 > ; + + + + O O . . . .           .   o     o                                                                                                                           . .     .   . .     . o     o   ",
"o     o     o * * * * #   = ( ' 9.'.LXgX8 . . X % * * * # % o # * % % * * t T ' ` W W ^ ` g.f.g.` g.` R.kXDXDXkXE.E.(.kX(.g./ Y Y Y e Y e e Y U Y Y ` ^ ` ` h.W U U U s w e * w w * = = * # . o     o o o     o   o     o                                                             o   o o   o     o       . . . O O O % + ; ; 1 7 z l l N b Z D Z Z b l b v v b b C Z F F J K G ....X.*.*.:.3.3.t.t.t.a.a.a.a.n.n.S.A.XXA.XX.X.XXXXX+XXX+X+X+XG.G.G.G.G.G.K.+X+XG.+XG.+X+X+X+X+XOXOXOXOXOXOX>X$XOXOXOXOX+XoXOXOXOX,X+X+X+XG.+XG.H.+XH.A.Z.S.c.p.a.y.t.>.:.*.*.*...R D b b x x c z 0 z z k k C Z J K K K ! $.%.-.4.5.6.w.e.p.b.a.M.N.V.}.[.|.[.N.p.w.w.7.4.4.5.4.4.4.4.5.4.4.7.4.4.2.*.o...R K J F D b l z 3 0 q k V H ~ ! ~ J ( E A _ E _ =.r.0.e._.k.{.{.k.e.l.p.M.[..X%X%X%XXX@X.X.XoX%X$X%X#X%X.XA.[.V.b.b.w.6.6.B.@X@X@XB.M.l.4.*.1.1.q.l.z.<._ F v v 5 5 5 5 v A E S S v t 0 9 < 4 4 4 t t S E _ E S V T Z v v v b b n R &.4.e.b.N.a.n.y.t.t.5.3.:.X...D b c j 3 j c l N H N M N N N N M M M z 7 7 7 6 1 1 > ; > + + O O O . . .               o     o                                                                                                                             . o .     o   .   . .   .   . ",
"o   o o     O & * * * . . t ( _ ' '.LX'.  . . . o O % * % X % % * * * * % 4 W [ [ ' ^ W W ' f.f.g.g.` g.:XDXPXzXE.E.`.jX:Xg.` Y e Y Y s Y Y Y Y ^ W Y ` ^ ` W ^ U U U s s w e e w w r = = * . .             o   o   o o     o                                                       o   o     o   o           . . . O O + + + ; ; 1 7 z l x x C b D D Z b b v b b C b b Z Z D F F K K $.%.X.*.:.:.,.3.t.t.y.u.n.u.n.n.S.S.A.A.A..XA.XXXXXX+X+XG.H.G.+XG.G.H.H.G.G.+X+XG.G.+X+XG.+X+XOXOX+XOXOXOXOXOXOXOXOX+XoXG.+X+X,X+X+X>X>XoX+X+XXXXXH.A.S.J.c.c.y.p.t.5.>.*.-.*.&...G D x b b z 5 c 0 0 0 q M V Z H J K K @.;.%.>.0.8.w.8.w.w.e.e.p.M.N.N.{.M.p.6.4.4.2.2.2.:.,.2.>.4.>.2.4.<.4.1.*.&.&.R K G F D Z b z 0 2 0 0 B V A ~ ! _ _ _ _ _ _ ) ) =.1.9.q.e.k.{.e.e.l.w.p.M.V.}..X}..X}.A.[.A.[..X@X%X$X%X@X|.V.M.b.b.w.6.b.B..X@X@XD.k.6.1.&.1.z.B.l.9.) E n 5 4 4 5 : 4 5 V S B v t q 4 5 < , , : 5 4 v T _ E S V F b 5 v B n b F E o.4.6.p.a.p.p.p.t.t.t.5.:.X.| m m j j 3 3 c z M M H H M N M M M z z 7 7 7 1 7 1 > + > ; @ + + . . . . .   .         .     o                                                                                                                       .     .       .   . .   o     .   .   ",
"o     o     o # O * * o . t T ( [ '.KX'..   O . . # # # * o O * % % * $ O * S ' j.f.` T ` ` g.f.g.g.` g.E.DXDXkXE.E.(.:X(.f.g.Y Y Y s Y s Y Y U ^ W ` W h.W ` ` W U U U U w e * * w = r = = & o   o   o     o o     o       o                                                       o o o   o           o   . . . . O O + % + + : : 7 k l v C b Z D D Z Z b Z v C v C C Z Z F Z D G } ..$.*.*.:.,.3.3.,.u.a.a.c.n.n.S.S.S.A.A.H.A.A.XXXXXXXXXXXX+X+XG.G.H.H.H.K.G.+X+XG.+X+X+XH.+X+X+XOXOXOXOXOX$XOXOXOX+XoX+XoXOXOXOX+XoX+XG.oX+X+X+XH.H.A.S.S.a.n.u.a.t.5.>.:.>.-.-.$.L D x x x l z j 7 7 7 7 z M M C Z H K ! ;.%.>.>.0.8.5.0.e.5.0.6.p.p.a.M.p.5.4.*.*.*.O.*.*.*.*.:.:.*.*.*.*.*.o.&.....G G F D D C b l z 2 7 y M A A ! ! { _ E ) ) ) ) =.=.r.9.q.e._.{.M.k.p.p.M.M.N.[.[.[.N.V.M.a.b.N..X.X=X%X%X[.[.V.M.p.p.z.w.M.[.@X@X%XB.B.q.*.o.q.k. X_.9.E v 5 + ; : : : ; 2 q v v q 9 4 < < , ; + ; > < q S ! ~ ~ M S k 0 0 l B C Z J &.4.4.w.p.p.p.t.p.p.5.2.O.o.G m c j j 3 3 j c N N N V N M N M M M 7 7 2 2 1 6 6 > > + @ + + O O . . . .           o     o                                                                                                                         . .   .     .   .   .     .   .   . o ",
"    o .     . # * * *   & d T ( [ *XLX).O   O o . o # # O % . % * * $ * * % t ` j.j.' ( W ` ` f.f.f.g.` E.kXDXDX(.g.E.:X`.g.g.Y Y e e Y e e s s Y Y Y ` U h.^ ` U Y U I U s e e * e = = 8 = * X   o       o o   o       o                                                       o   o     o   o o o         .   . . . O O $ + ; ; 3 7 z k N x C b D F Z Z b b C C b v C Z b D D F G K ..X.%.%.O.O.,.3.t.t.u.u.a.u.a.c.S.S.S.A.A.A.XXA.XXXXXXH.+XH.H.G.H.H.H.H.H.H.G.+X+XG.+X+XG.G.XX+X+X+X+XOXOX+XOX+X+XOXOXoXXX+X+X+XoXG.G.oXG.G.G.+XH.H.A.S.J.c.u.p.u.y.5.:.:.*.>.*.%.} D D b b z 7 3 3 2 < 2 7 z M N N H J ! ;.=.;.-.4.0.0.0.4.>.>.4.e.e.e.p.e.5.>.%.X.X.X.X.&.%.;.%.&.%.*.o.%.&.....K G F D D Z Z Z C v k 0 7 y M V A ~ ! ) _ _ _ _ _ _ _ =.=.<.q.k.p._.{.M.k.w.e.M.{.N.N.N.N.p.w.6.6.M.V.@X.X@X%X[.V.N.b.p.w.w.p.M.M.[. X@X|.{.l.<.1.9.{.*X Xq.E z ; ; ; : ; : : < 9 9 9 9 < < > > ; + + + @ > 4 v A ~ A V B k 0 0 k z v C J ..-.4.4.w.t.p.t.p.p.4.>.o. .G m c 3 3 3 j 5 c N N N N N N M M z y z 7 2 1 1 1 1 > ; @ ; @ + O O . . . .               o     o                                                                                                                             . o   o     . o .   .   . o . ",
"o   o o     o & & * * o 4 f S ( ' gXJX).. . . % . % # # % o % o % $ * $ * % * T f.j.f.' ` ( W g.g.f.g.g.f.kXDXDX:Xf.E.`.(.g.g.Y Y s Y Y Y s Y Y ^ W ^ ^ ` ` ` ` U U U W I s w & * * r = p = * X   o       o   o   o                                                                   o o     o       o       . . . . O O + + ; 1 1 2 0 l N C x D Z D Z Z b C C C b v B b Z D D H G K ..X.*.%.:.:.3.t.,.t.u.u.a.S.S.u.J.S.S.A.A.A.}.XXXXXXA.H.H.H.H.H.H.H.H.H.H.+X+X+XG.H.+XH.XXG.XX+X+X+X+X+XOXOXOX%X+X+XOX+XoX+X+XoXoXH.H.F.G.XXH.H.XXA.A.S.J.c.p.u.p.y.5.:.:.:.>.-.$.K D P b x l 5 3 3 1 : 1 7 7 q z M Z H ! ) $.;.-.>.0.>.8.>.*.-.>.8.4.5.0.4.>.$...........$.%.$.o.o...........R G D D N N N C C C C C k k M y y V A ! _ _ ) _ _ ) ) _ ) _ =.<.9.q._.{._.M.k.w.b.b.M.M.M.p.p.w.6.2.6.w.N.@X}.[.@X[.N.p.w.w.6.w.w.w.w.l.{.{.B.k.q.&._ 1.l. X_.9.A 5 : : ; ; ; ; ; ; < 4 2 < < > > > > ; + , , @ $ y V ~ ~ M V q 0 0 0 z M Z G R &.>.4.5.p.t.p.p.p.3.:.X.G m P c j 3 3 3 j z M N N N M M M z M M y 7 1 1 : > > > + + + + + O . . .   .             o o     o                                                                                                                     .     o .   .   . .   .   o   o .     ",
"      X     o O # o # o w S d f _ IXFX).o . . & O o % # % O % o . % * * * & * W f.j.j.' ` W ^ ` ' g.` W g.:XDXPX:X(.E.`.:XE.g.Y Y Y e e Y e w Y Y ^ ^ ` ` ` W Y U Y U ^ I s * e & e * r = r * &   o o         o o   o o     o                                                       o   o o o     o     .   o     . . O + % + + < 1 2 7 k C l x b Z D F Z Z v C b B C x b C Z D H F K } ..X.%.%.,.3.,.t.t.a.a.u.a.u.S.a.n.S.S.A.A.A.A.A.XXH.H.H.H.H.H.H.Z.H.H.Z.H.G.G.+X+XG.+XG.XXH.+XXX+X+X+X+XOXXX+X+X+X+X+XG.+X+XG.F.F.G.G.F.H.XXH.H.H.A.J.S.u.n.u.p.p.5.>.:.*.>.>.%.} D P C x z z 3 1 3 : : 1 1 7 7 z z Z H K ! $.;.;.;.-.;.-.;.%.;.>.-.-.-.%...K | } K } } K K ..K R K R R K G D D D x x x x M C C Z V B q 7 M M M V ~ ! _ _ _ R _ _ R ) ) =.1.0.e.a.{.{.k.p.w.w.e.p.e.p.w.w.6.5.4.4.p.B.[.[.@X[.[.M.w.0.6.6.w.6.4.-.-.0.q.q.<.&.E F J =.l._.1.S : ; ; ; + ; ; ; ; ; > < , ; ; + + + + + , 6 @ @ 6 y S ~ V y 9 9 2 1 3 0 C F R *.-.4.0.5.6.t.p.w.5.X...G m m c 3 j 3 3 3 c M M N M M M M z 7 7 7 7 1 : > > > > ; + + + O O O . . .     .         o     o                                                                                                                             .       .   o .   .   .     .   ",
"o         o . . o o # & r t d d ( *XPX).  # . o O . % % # % & % % . O * 4 * * 4 W j.j.f.g.W W ^ W g.g.( ` `.DXDXkXE.E.`.`.E.] ^ Y w i i e Y s Y Y U Y W ` ` ` ^ U Y U W ^ U e & * e = r r w 8 * o   o       o   o     o                                                             o   o o   o                 . . . O O + + , 1 1 1 j z z N N Z D D D Z b B C C b v B C Z Z D F L K ....X.%.%.O.,.t.t.t.t.a.a.u.u.s.S.a.S.S.Z.A.A.XXA.XXA.H.A.H.H.J.H.Z.H.H.H.+X+XG.+XG.+XH.H.XXG.oX+X+X+X+XOXXX+X+X+X+X+XoXXXoX+XG.H.F.G.F.D.H.F.H.H.F.A.Z.c.u.p.u.u.a.y.:.:.%.>.*.;.} m D x b x c 3 2 1 1 : : 1 3 7 3 z N H H ! ! ! ;.;.;.@.;.$.$.@.$.;.$.$.@.K L F L L L G G L H G K L F G F D P x x z x x M M N V Z V M y 0 y M V S J _ ) _ ! ~ ) E _ _ ) $.=.9.e.a.M.M.{.e.q.7.4.q.w.w.6.6.0.7.4.5.w.N.}. X[.[.M.e.6.4.2.4.4.<.&.$.R ..R R ) R Z v v F _ 1._ C ; : ; + : ; @ ; + @ + ; + + + + % @ @ @ > @ @ @ 6 a V V V y y 7 7 : : 0 l F E &.-.-.4.5.w.t.p.w.>.O...G m c c j 3 3 j 3 j k z M l z M z M z 7 7 7 1 1 1 6 > + + + + O O O . . . . . . .         o       o                                                                                                                   o       .   .   .   . .   .     .   o   ",
"              o o % % # * r d t ~ kXPXY.  % . . . . O o % % O O O . % * = * * * W f.j.j.W U U W ` g.f.^ ^ E.IXDXDXE.E.`.E.E.g.^ Y Y s i s i i s U Y ^ ` ` g.^ W U s Y U ^ Y e e & e w r w 8 = *   o     o         o o     o o                                                         o   o o     o             o . . O O O % ; > 1 1 7 0 M l l x Z C Z C b b C C C C x C Z H D H F K K X.%.%.:.,.,.3.,.t.t.u.u.s.u.J.a.J.u.S.S.S.A.A.A.A.A.A.A.Z.H.H.J.Z.H.H.H.+XG.G.+XG.G.G.H.H.G.G.XX+XoX+X+XOXOXOX%XXX+X+XXXG.+X+XF.F.F.F.D.F.F.F.F.A.A.J.S.n.u.n.p.p.t.:.:.*.*.>.%.} L D D Z b z 7 2 3 1 : 1 1 3 2 2 7 z C H ! ! ! ! ! $.! @.! K ! ! ! K K H H Z P Z D D D D D Z P N D D Z N N x z c z z z M M N V V V M M y M k M V A ! _ _ ! ! ) ) J E ) &.<.q.e._._.k.k.w.q.2.<.4.0.5.4.4.7.4.4.w.M.[.|.}.[.{.M.w.2.1.*.*.-.*...E F F F Z n n 0 5 3 0 v J A q ; ; ; + ; + + + + + + + + @ + + % @ @ @ @ % @ @ , y a y y y 7 6 1 ; ; 2 0 Z F &.*.4.4.5.6.p.p.p.3.*...G m x j 3 3 3 3 3 j z k l l M M z 7 y 7 7 6 1 > > > > ; + + O + O O O . .           .   o     o o                                                                                                                         .   . o       . o   .   o .   .   . ",
"  o     o   .   . o & o * 4 r r V '.SX).  # . o O o . % % O % O . . * 4 4 * * * W f.].j.' W s U I g.g.I ^ g.kXPXDX`.E.E.`.E.g.^ s e i i Y s i i Y U U ` ` ` ` U U s Y W W s e & & * w r = r = - o     o   o       o                                                                 o o o   o                     . . O O + % , > ; 1 7 7 z c l C Z Z Z Z C B B Z C C C C Z Z H L G K ....X.X.:.,.O.,.t.t.t.i.s.u.s.J.u.s.J.S.S.S.A.A.A.A.A.A.Z.H.Z.H.J.H.H.H.Z.G.+X+X+XK.H.F.G.F.F.F..X.XG.G.+X+X%XOX+X+X+XXXG..XXXXXG.H.G.H.D.V.F.F.F.F.S.S.n.c.p.u.c.p.6.,.:.:.>.>.%.} L L H D b l j j 7 7 3 2 1 1 2 1 1 j M C H H H H H ! L H H H H H H H Z P N x N x x x N N N N N x l x l x z z j j 7 z z k M C Z V V V V M M q q M A ~ _ ) _ ! ) J ) ) E =.9.e.k.e._.k.k.q.<.*.*.*.<.-.-.-.*.:.2.6.k.{.[.|.{.M.w.4.<.*.&.&.&.&.R Z n v v z 5 5 4 : : : : 9 y 4 + , ; + + + + O + O + O O O O O % @ @ @ @ % @ @ # 8 y 8 6 6 6 1 1 ; ; 1 2 x F R &.-.4.4.6.p.p.w.4.o.o.m m c j 3 3 j 3 5 0 z q k k z 0 j z 7 7 7 7 1 ; > > > + + + + + O O . . . . .           o     o                                                                                                               o         .   o     . o . .   o   .       . .   ",
"      .       . o o % o % * * * p '.IX).. & . . . . O o o . . O . . % * * * # # s f.gX].f.U r s U ` ] I i ] kXPXDX:XR.`.`.(.g.^ Y Y i i e Y Y s Y U Y ^ ` ` ` ^ U s s U ^ U e & e * * w = r r *   o       o o o o     o     o                                                       o     o   o           o     o . . . O % + + > ; 1 1 7 z z l x b Z Z C C C C C C C C N Z Z D F H K } ..X.%.%.O.,.,.,.t.t.t.u.u.J.u.s.u.S.a.J.S.S.A.A.A.H.Z.H.Z.H.Z.H.Z.H.H.H.G.G.+X+XG.G.D.Z.F.F.F.F.F.G.XXoX+X+X+XXXXX.XG.F.F.H.XXG.H.G.F.m.D.Z.V.A.Z.Z.S.c.n.u.p.p.y.y.3.:.:.;.-.%.} K H K L Z x z z 0 c 7 3 7 3 2 1 : 7 z M M S N N M N N C N C N N N N l M z z z z l x l M x z c c z j c 7 j 7 7 0 0 k M k M V Z V V V S V M M q M A ! ) _ _ ) ~ ) E ) ) =.0._.k.e.k.k.q.4.<.1.o.o...*.o.....o.o.<.w.M.{.{.{.M.q.<.*.&.*...&.&.E Z z c 5 3 3 : < 5 < , ; + 4 < + , $ O + O O O O O O O . O . O O @ X $ @ % X 6 6 6 6 6 - , , > > > ; 2 0 k b J o.*.>.5.5.6.p.w.5.*.o.G m c j 3 3 3 3 3 j 0 z z z z z 7 7 7 y 7 6 1 > > > @ + + + O O O O . . . . .     .       o o     o                                                                                                                 o   .     .     .     .   .   . o . o   o ",
"                o o o . o # % * 8 '.IX).o % . . % . O . O O O . O . % , 4 * * % t f.].].' U t s U W ` Y i ` :XPXPX:XE.`.`.`.g.` Y i u u i s Y s Y Y I ` ` ` ` ^ U Y Y U I s e e e * w * = 8 r =   o   o   o           o     o                                                     o   o   o   o                 . . . O O O + , ; ; 1 1 7 z z M x C C Z C C B B C Z C C C Z Z D F H K ..} ..%.%.,.O.,.3.d.t.t.u.s.u.u.a.u.a.S.S.J.S.S.S.A.Z.A.Z.Z.H.Z.Z.A.H.A.H.G.+X+X+XG.H.F.D.D.F.D.H.D.H.G.G.+XXXoXXXG.F.F.F.F.H.G.XXH.XXF.m.D.V.m.Z.Z.S.n.n.u.u.n.n.y.t.2.:.*.;.>.%.$.K K K H D N z k z z z z 7 0 3 3 3 2 0 M M M 0 z 7 z N z M z k z 0 7 z 7 7 j 3 7 z z z z z z 7 2 3 3 3 3 7 3 2 y y M y M M V V V V V S V V v q M S J ) _ ) ! ! J E ) &.<.e._.k.k.k.e.0.<.<.<.&.R R ..o.R ......&.<.q.l.M.k.k.q.1.&.....R &.$.E C 5 5 5 < : : : < ; ; ; + , > $ @ @ O O O O . O . . O . . . . O % % % % O % $ 6 6 6 , $ @ @ , > > 1 7 z z n F R &.2.4.5.5.e.w.4.*...G b c j 3 3 j 3 5 5 z 0 0 z 0 7 7 7 7 7 7 6 1 ; 1 > + + + O + O O . . . . . .                     o                                                                                               o       o             .     o   o   .   o   o .     o o . . ",
"o                 . . o % o & % # ].IX).  # . o O o o . O . . % . O % * r * * o t f.z.].` W s s d U W Y s / :XPXPX:XE.E.`.E.g./ i Y i s i i s s U U I ^ ` ` ` ^ U s s U ^ Y e & & & w w = w r =         o   o     o o                                                               o     o o                     . . . O % $ + > 1 1 1 7 c x z l C C Z C B C B C C C C C C D D H L K K } %.X.:.O.,.,.3.i.t.i.s.u.s.s.u.J.s.u.S.s.S.A.Z.A.Z.A.A.Z.Z.Z.H.H.H.H.H.+X+X+X+XH.H.F.D.Z.D.D.G.F.D.G.G.XXXXXXXX.XF.F.D.D.F.G.XXXXG.F.F.m.m.m.m.m.m.n.c.n.p.u.a.y.5.:.:.>.>.>.*.;.} } K ! L N M l z M z l l l z 2 : : : 7 7 7 7 3 3 3 7 7 7 7 7 7 7 7 1 2 2 2 2 2 7 7 7 7 j 7 3 2 1 1 3 2 2 7 7 y M y M M M V V V S V V V V V q q V J ~ _ ) ) ! J ) ) =.9.k._.k.k.k.q.<.<.7.q.1.R E G R R G G E R o.-.q.q.q.e.4.*...E R R ) R J C z 5 3 ; : ; ; + + ; + ; + , + + O + O . . . . .   . . . . . . X % % % % % $ $ - $ @ @ @ @ $ > 1 < 9 q z z b G $.2.4.w.5.5.5.4.*...m m j j 3 3 j 3 5 c 0 0 z 0 0 3 j 7 7 7 7 1 > ; > > ; + + O O O O . O . .   .           o o   o o                                                                                                                         . .   .   .   .   .     . . .   .   ",
"X               o   o . & # o o X ).SX).  # . . % O . % . % . O # % % * 4 r * # w ' ].].' W s t s s U Y s ` kXPXPXkXE.f.`.(.g.` i i Y i u Y s s Y U I ` ` ` ` ^ U U i U I s e * & & w = = p r =           o o o   o                                                                 o o o o   o o               . o . O O O % , ; > 1 1 2 z M z l x C C C C B Z C C Z C N C Z H G H L } } X.%.%.#.O.O.t.,.t.u.u.s.u.J.u.J.u.s.J.Z.S.S.Z.A.A.Z.H.Z.Z.Z.H.H.A.H.H.H.+X+XH.H.D.m.m.m.m.D.D.D.G.D.F.H..XF.F.F.F.A.F.F.F.G.XXG.G.F.m.m.m.m.m.Z.n.c.c.c.u.u.c.p.6.:.O.:.-.-.;.;.$.@.) L H N N N M N z M v v z 0 3 : 3 2 : : : : : 1 2 7 6 6 2 7 1 1 1 7 6 7 1 2 7 0 0 z 7 7 3 1 : 1 : 6 6 7 7 y M M V V V V V V V V V V V M q 9 k Z ! ) ) _ ) J ) ) =.9.e.k.{.e.q.0.4.q.l.k.l.o.G n m m R E G F G R ..1.<.9.<.&.E R E E E E Z v z 2 < ; ; ; + + + + + + + + @ @ O O O . . . . . . . . . .   . . . o . % % @ X @ @ @ @ @ @ > > , 6 0 q v b n K &.4.4.4.5.4.5.4.*...m x c j 3 3 j 0 z 0 z 0 7 7 3 3 2 7 7 7 2 1 > ; > > + + + O O O . O . . . . .   .       o                                                                                                                             .         o   . o   .   .   . o   o   o ",
"o . o       . . .     o o % & . X ].IXY.  % . . o . O . O O O % % % % % * 4 * & w ' ].j.f.W t s w Y U s i ` `.DXPXkXE.f.`.`.g./ u i s i s i Y Y U U U ^ ` ` ` W U s s Y W s e e & * w w = p r - o     o   o o   o     o o   o                                                     o         o           o         . . O O O + $ + ; > 1 1 z z z l x b C C B C B C C Z C N Z Z D J G K K } X.X.%.O.O.,.,.,.3.s.u.u.u.u.s.s.u.u.a.u.J.S.S.S.Z.Z.Z.Z.Z.Z.A.H.H.H.XXH.G.H.F.Z.m.m.m.D.m.D.Z.D.Z.D.H.F.F.F.A.F.V.m.Z.m.F.XXH.XXXXF.A.m.C.m.n.n.n.n.u.n.u.p.p.y.3.:.*.%.*.>.>.*.%.) @.! L P N N N N N x N v l k 2 1 2 2 : ; : : ; : 1 > 1 6 1 > > 1 1 1 1 1 1 > 2 9 7 7 7 3 1 : ; : : 6 6 7 y y y V V V V V V V V M a V V v q 5 0 S A _ =.=._ E ) &.=.r.q._.e.k.q.q.q._. X X{.<.R n x n G G E D n m F R R -.1.&.E G G F E A n q 9 : + + + + + O + O O + O % $ % + O . . . .   .   .   . . . . . o o % . % % @ # # % O @ % > 6 9 9 q v Z D F R &.4.4.5.4.5.0.2.%.R m x c 3 3 j 5 c 0 z 0 0 7 3 2 2 2 7 7 6 1 1 ; ; + > + + + O O O O . . . . .                 o o   o                                                                                                                 .   .     .   .     .     . o   . o . o . ",
"& o   o   o .   .   . o o o &   . ).IX).  # . . . % % O O O % + + % + $ 4 4 * * t ' j.].f.W U r s s s U Y ` ].PXPXkXR.`.:XUX)./ i i i i i i i s s U I ^ ` ` ^ ^ Y Y s s W Y Y e & & w * = t p #       o     o                                                                       o     o                       . . . % @ # $ @ > , 1 < 9 z M B B l B v C B B B Z B C C C Z Z F L K K } ..%.%.%.:.:.O.,.t.t.t.i.t.u.u.s.u.J.J.s.J.S.S.Z.Z.A.Z.Z.Z.A.H.H.H.H.H.G.H.G.D.C.v.m.V.D.m.D.m.F.D.F.V.D.F.D.F.D.A.m.Z.m.F.XXXXH..XA.m.m.S.m.n.n.n.c.n.u.y.y.p.p.6.O.o.O.-.-.-.*.&.%.$.) J H D N N N N N N l l k 5 2 : 1 : ; ; ; ; ; ; > > > > > > @ > ; > > > > > 1 6 7 7 6 6 > ; + ; > 1 6 q M V V V y V V f V V V y M y y 7 5 < v W ) ' =.=.) _ ) ) =.9.e.l.9.0.q.k.{.-X-X*X{.=.D 3 c n E J Z n b n F E E ) &.R E R E n V q 5 4 ; + O O O O O O O O O + @ % % % . . .   . . .   .   .   . .   . . . . . % % O % . O O @ @ , 9 q v V F K $.&.%.4.4.5.3.4.4.:.o.G m n c 3 3 7 z z z 0 7 7 2 7 2 2 7 7 7 1 > > > ; > @ + O O O % . . . . .   .   .   .           .           o                                                                   .       o                         .     o   . o   .   . o . . . .   o . .   . . ",
"&     o o o .   o .   . . o %     ).SX).  X o . . . O . O % + + + ; $ ; 4 4 4 % t ' j.].j.W W t r d U U U ` E.PXPXSX].`.IXkX`.] h i Y i i i s i g U I I ^ ^ ^ W U Y Y U U W w e & * w r r s t -         o                                                                                                       . . o . o # # $ @ > > > 6 7 0 q k M B B C v v B B V V B C C Z D H F L } } } %.%.X.:.:.,.,.t.t.t.t.u.u.s.u.u.u.u.u.J.u.S.J.S.Z.A.Z.A.A.H.H.H.H.H.G.G.D.m.m.m.C.D.m.D.m.D.m.D.V.F.m.Z.D.F.m.D.m.V.m.A.XXH.XXXXXXm.m.N.n.n.n.n.c.y.b.c.y.c.y.6.2.O.*.-.:.<.-.*.&.&.$.K H D D N N N N l M N l z 3 2 : ; : ; + ; ; , @ > @ @ @ @ @ @ @ > > > @ > 6 6 y 7 7 6 ; ; ; ; < 6 9 y a V V V V a V V V V M y y y y y 5 < 5 S ) _ =._ ) _ E E ) =.<.q.0.9.q.e.{.*XuX*X*Xq.E 3 5 c n F n z z v F Z b E ) _ E E A V v 5 4 ; + + O O O O O O O . O O % @ % % O O . . . . . . . . . .   . . . . . . . . . . . . O O + @ > 6 q V C E &.<.-.<.4.6.4.7.4.2.*...m x x j j 3 7 z z 7 z j 7 2 2 6 2 2 6 7 6 1 > ; > > + + % % % O O . .   . .   .       .                                                                                                                                   .     .   . . . o   . o . . . o o . o ",
"&     o     o . o . o o o o X     ).IX).  X . o . . . O + , , , + $ + $ 4 4 4 * r W l.].j.` W U t s U U U ` E.PXPXSX`.kXPXDX`.] e i Q g i u i s i g U U ^ W ^ W Y Y s U ^ W s e & & r w r t r X                                                                                                               .   . o . X % @ @ @ @ > > > 7 9 M k M k v v B v v B B Z V C C Z Z F L G K K } X.%.O.%.O.:.,.,.t.3.i.d.d.i.u.u.u.u.J.u.S.J.c.S.Z.Z.Z.Z.A.H.H.H.H.H.G.D.D.C.C.C.m.m.m.m.V.V.D.m.D.D.F.D.m.m.D.m.m.D.V.F..XXXXXXXF.V.n.N.n.C.n.c.n.x.u.c.y.p.b.3.:.o.*.*.-.-.-.*.-.&.;.! K H D N N N x v B C C k z 2 : , : + ; , ; , $ $ $ @ @ @ @ + + + > @ + > , 6 y 7 8 6 > > > > < 9 9 y a V V V V V a V V V y y 9 q M q 5 : 4 v A _ _ _ E E E A S F ) =.=.=.r.9.k. X*X*X-X{.=.j : : z b n v z n E S v v E _ E A Z v 4 5 < + + O O O O . . O O O O O % # % % . . . . . . . . . . . . . .   . . . . . . . . . . O O O + , 6 q V S _ 4.e.q.4.4.4.5.5.5.>.%.G m x c 3 3 3 j 7 z 7 z 3 7 2 1 2 2 1 7 6 6 1 > > + + @ + O % O O . . . . o   . .                                                                                                                   .       .         . .   o   .   o   . . . . o . . .   . . . . ",
"& o         o   o . . o o o &     ).gX].  o   . . . . % , t t 8 ; ; ; , 4 4 4 % t ' ).].j.' T U d s d U U ^ ].SXPXDX`.'.DXDXkX{ h i g i i i u u g g U U U ^ U ^ U s s U ` ` U & & & w r r r r &       o                                                                                                       .   . . . o o X @ $ @ @ > > 6 6 0 k k k M B v v l B B M B C C Z Z L F J G } } $.%.%.%.%.:.:.3.t.t.i.t.u.u.u.u.a.u.u.S.J.u.c.c.S.Z.S.A.F.H.XXA.XXXXH.D.m.C.m.m.D.m.m.D.F.V.D.D.V.F.D.A.F.D.m.m.m.A.V.A.A.XX.XA.A.m.m.m.n.n.n.n.b.c.p.y.y.b.y.6.2.*.o.*.-.2.>.-.-.-.&.$.K H H H N N l l l l v v 0 0 5 : ; ; , : , ; > @ , 6 > > @ + @ @ > @ + @ > 6 8 7 y q < > , 6 6 4 9 y V V V a V V V V V y y y 9 q M k 4 : : 5 V A ! ! J A Z v b l b E ) &.) &.=.0._.{.-X*X9.S 3 : : v v 5 z Z E n v n E _ E Z v 5 2 , + + O O O . O . O . . . . . O . % . O . . .   . .   .   . . .   . .   .   .   . . . . . O O O + < q S J =.0.k.k.e.6.5.4.6.4.2.o.G m c j j 3 2 j z z z j 3 2 2 2 7 1 2 2 6 1 1 > ; > ; @ O % % % O o . . . .       .   .   .                                                                                           o           .       .               .   .   .   .   o . o . .   o . . . .   ",
"= o         o . . . o .   X # o   [ gX].-   .   . . O @ 8 V V t : , ; , 4 4 4 $ t ( j._.j.' W U U s w U U ^ j.DXPXPX'.'.PXPXkX] h i Y i e u u u g g U U ^ ^ ^ I U s s U W ` U & o & w r r r r o         o                                                                         o         o                     . .   o . % X $ @ + @ > > < 0 0 k k B v k v v v M B B B C Z F J H K L G } ..%.%.:.:.:.O.3.t.t.+.u.d.u.s.d.u.J.c.p.c.c.u.n.n.Z.Z.A.F.XXH.XXXXF.F.D.m.C.C.D.D.D.D.D.V.D.V.D.F.V.m.m.F.V.F.V.m.D.m.A.F..X.XF.A.N.N.n.N.n.C.n.n.y.n.y.y.b.b.6.2.*.*.&.*.-.-.-.-.*.;.&.) ! K H Z Z N M l l C l k q 5 5 < 4 4 4 : , 6 6 6 6 6 > @ + + > @ + + @ @ 6 y y y y 6 6 6 6 9 9 q q y V V y V V V y a M q 9 6 q k M 9 < : 4 2 y S A A Z Z C v c 5 b E R ) E E R &.q. X=X_.9.F c : : 5 3 v E E S n v F E A v q 2 , + + O O O . . . . . . . . . . % . . . . . . . . . . . .     . .   .     .   .   . . . . % O . O + , 9 V ) =.q.k.M.e.w.5.6.6.4.:.X.G m j j 3 3 3 j z z 7 7 7 7 2 2 7 1 1 6 < 1 > + + ; @ + + O O O O . .   .     .   .             .                                                                                           .                       . . o .   . .   .   . . .   . o o . . .   . o ",
"& o   o     .   o     o o o &     [ '.'.s   o . . . O % t S A V 5 < ; , 4 < 4 $ t _ j.].j.[ ( W U r s U U ^ f.DXPXPXkXkXPXPXkX] e i Y i h e u s s U U U I I ^ ^ U s s U ^ g.U & & & = r p t r &       o                                                                                         o               .   . o   X % % @ O O + @ > > 7 q z k k v v k k q M B k B C Z D H G K G } } ..%.X.*.%.:.,.,.,.t.d.i.i.d.u.u.u.u.u.c.y.c.u.c.c.n.m.A.F.F..XF.F.G.D.m.C.C.V.m.m.D.D.V.D.V.D.F.V.D.F.D.D.m.m.m.V.m.V.A.F..XF.F.A.V.m.N.n.n.m.n.n.p.x.y.p.p.p.6.4.:.*.*.*.1.-.<.-.=.=.;.$.) ! H H D C C v B C B l q q 0 9 5 5 < < 4 6 6 8 6 6 6 @ + + @ @ + + @ 6 6 y y y y q 7 7 6 q 9 y q a V y V y V y V M q 7 6 2 9 q M q 2 < ; : 2 q v Z S A J A z : j F E E F A v A &.q.*X*X;X9.E 5 : : 3 b E E S v V S S Z 0 4 4 ; + O O O O . . . . . . . . . . o . . o . .   .   o     . . .     .   . .   . . . . . . . . . O O + $ 9 S _ 9.e.k.{.p.w.7.5.5.>.*...m c j j : 3 3 j z z 7 7 7 2 7 2 2 7 7 1 6 1 > > > @ > @ + O O O O . . . . . .       .     .                                                                                           .                                     o   o     . . . o .   o o   o . o . . ",
"& o o         . .   . o o o o o . { '.'.S   #     . O $ y S S V q 4 4 : < < 4 , t W j.].j.j.' W W U U U U ^ f.IXPXPXkXIXPXLXkX] h i Q i u u i s g g U U ^ ^ ( W W Y s U ( ` I & & & w r p p r o                                                                                                 o               .   . .   . . % % O O O @ + > < 0 q q v v k v k v M M B M C Z D F G G K K } ..$.%.%.:.X.O.,.t.,.i.+.d.i.u.u.u.u.c.n.c.u.c.y.c.c.m.m.A.F.F.F.D.m.C.m.C.v.C.V.m.V.m.D.V.D.D.V.F.V.m.D.V.F.D.V.V.m.V.A.A..X.X}.V.A.N.n.C.N.N.n.n.n.n.p.p.b.p.p.7.:.*.*.*.-.*.:.-.-.&.;.$.) ! K J H Z Z Z Z Z Z V k k 0 5 q 9 9 4 5 6 6 9 8 6 , @ @ + @ @ + + @ > 6 y y M y y 8 9 8 y q y y y y y V y M M a y 9 2 < 1 2 0 M v q 2 : ; : 4 q v S E _ E S 3 : v J J J Z v B J _ _. X*X*X9.V : : 5 A _ W B v n V v v 8 < ; + O O O . . .   . .   . .   . .   . o o o . o . . . o . o . . . . . . . . X . . . o . . . . . . O + , 9 A _ 9.e.e.M.p.w.5.5.4.:.X.G m c j 3 : 3 2 5 z z z 2 2 7 2 1 6 1 2 6 1 1 > + ; @ + @ O O % O O . . .     . . o       .       .                                                                                               .                   .   . o       . . o . . . o   . . . . . o o . ",
"& &   o     .         .   o &   . ~ ].'.(   X   . O O $ y A T v q 5 : : < 4 4 4 t _ j._.j.j.' _ T I I I U W f.DXPXPX'.kXPXLXkXP.e i ^ i e u u i U U I ^ I ( ` ^ W Y U U I ` I & o & w r s t 4 &     o                                                                                                             o .   . . o X % . O O + + > < q q k k B B k k k k k B C C Z D D H G K G } ....X.X.:.,.O.,.,.3.+.i.i.d.i.d.u.s.n.u.u.x.u.x.y.x.n.m.V.m.m.V.m.C.C.x.C.C.C.m.C.V.V.V.V.V.V.V.V.V.V.V.m.V.V.V.m.N.V.V..X.X.X.XA.V.m.N.b.n.n.N.b.n.b.p.b.p.b.6.7.4.2.-.*.*.-.1.-.<.&.$.$.) $.! ! J H H Z J A Z C k z q q q q 9 9 9 6 6 q 8 6 6 @ @ + + + O + + , 8 y y V V y q 9 q 8 q y y y y y y y a V V q 9 6 1 > < 9 q q q 5 : ; ; : 0 v S _ _ =.E 5 : 0 A J S Z k v B B r._.*X=X_.J , + 0 E _ T v t V v v t 4 4 ; O O O . . .   .       .   .   . . . . . X . .   o . o . . o . . . . % . % % . . . . . . .   . . . O , q A ' q.q.e.k.w.w.6.7.4.:.o.G P j j 3 3 3 2 j z M 7 2 1 2 1 7 7 1 1 1 6 > > ; + ; @ @ O O O O O . . . . .       . .   .                                                                                             .                       .               . .         . . . o . o . o   . o   ",
"w o   o   o       .       o o o   a ).'.' O %   . . . % y S A S k 5 : : 5 4 5 4 t _ j.].j.j.' W ` W ` W ` U g.IXPXPX'.kXLXPXIXP.h Y ^ i u u u U U U U U U ` W ^ ^ U s U I ` U & & & * r s s r &     o                                                                                     o   o         o         .   .   . . . . . % O O + + > < z M q v V v k M k k B C C C Z F F G G K R ....X.*.:.:.%.:.3.3.,.t.d.t.u.t.u.n.u.u.n.u.u.y.x.x.x.x.m.m.V.m.C.C.x.x.C.C.C.C.b.B.C.B.m.B.B.V.B.B.V.V.V.m.B.C.V.V.V.V.A..X.X.XV.N.N.n.b.b.N.N.n.n.n.p.p.b.p.6.6.4.<.:.-.1.-.-.*.&.$.$.) $.) ) ! ! J A A J J Z B k v 0 q q q q 5 4 y 6 y 6 6 6 > @ O @ @ O O % 6 6 y a S V y q 9 y y 9 q 9 y 9 8 9 9 y y y y 6 < ; + 1 < 9 q q 0 < : ; : 4 9 0 A ' 9.9.A > 1 0 S H Z V 5 k 5 J 1._. X_.E 5 : v _ _ V v t v v t 4 4 + + O O . O . . .       .   .     . . .   o o . o . . X % % % . . o . X % X # # % . % . . . . . . . O + , q _ =.q.q.k.e.M.w.5.4.:.*.o.G c j 3 j 3 : 3 7 l z 7 7 1 2 2 7 1 1 1 6 6 > > @ ; @ + @ O % O O O . .   .   .         .           .           o                                                                                 .             .     o     .     o .   . X . . o . o . . o . . . . ",
"= o         o     . .       o .   * [ ].P.>   .   . O + y S A C k 0 3 : 4 5 5 4 v E j.l.j.j.j.f.f.f.g.' g.W f.IXPXSXkX'.PXPXDXR.i i ^ i u h u s Y s s U U ^ ^ ` ^ U s s I ( U & & & e s t s r o   o o             o                                                                             o                   .   .   . . . . O . O + ; > 6 q y B v V v k k k k B C b Z D D F H F K } } ..$.X.X.:.,.:.,.3.t.,.t.t.t.u.u.n.n.u.y.c.x.y.6.u.x.x.C.V.V.m.C.x.z.b.V.B.C.b.C.C.C.C.C.C.b.b.C.C.C.m.C.C.n.C.C.C.N.V.V..X.X.XA.V.N.M.n.N.n.b.p.b.b.b.b.p.w.w.6.4.4.4.*.*.<.*.*.&.$.$.) ) ) ) ! ! J ! K ) ) Z C k z q 0 q v q q 9 6 6 6 y y 6 @ % O + @ + % X 6 8 V V S f V y y 9 8 q 8 9 9 6 6 9 < 9 q y 9 9 , ; ; ; 1 1 7 q 9 < ; + ; < 1 < k A 9.9._ y 2 7 S S V v q 0 5 q J ' 9.9.A < + q _ E v t t v a 9 4 < + O O . . . . .   o           . .   . . o o X . % . % . . o . % % % % % % @ # # O % % % . . .   . . O O > y _ r.q.e.e.b.p.w.6.2.:.:...G n c j j 3 : 3 7 k z 0 7 2 1 1 1 1 1 6 1 1 > > @ + + @ @ @ O O O . . . . . .   .   .     .                                                                                                                             . o   .   .   .   . . o . o . . o . . . . . ",
"w o     o       .           o o     ( _.).=   . . . O $ q S S V z 5 : : 5 5 5 4 v W j._.z.j.z.f.j.f.f.f.` I f.DXPXPX'.kXPXPXPXR.i h i g u u u u s s s U U U ^ ^ W U s s U T U & & & = r s t r &   o o     o                                                                                                                 . . o . . O O O + ; 9 q v k v V B B k k k M B C Z D D D F G K G ......$.*.%.O.:.,.3.t.+.3.3.t.u.n.u.y.c.u.c.x.d.6.y.6.x.v.C.V.C.b.x.x.b.V.D.B.C.b.b.b.b.b.b.C.M.b.b.C.C.b.C.b.b.n.C.b.V.V.}.%X.XV.B.b.b.b.b.b.b.b.N.n.a.b.p.y.w.0.4.4.<.*.1.*.-.*.&.) ..) } $.) ) ! ! ! ! ) ) A B k q 5 q 0 q q q 9 6 y y 6 6 6 - @ + O @ O % @ 8 y f S S S V y 8 8 8 9 6 6 < , , > + , < 4 6 < > > ; + ; ; < 6 4 6 + + + 4 > ; < V 9._.Y.S < : M y S v k 0 5 < 0 V ( ) S 2 + q ) _ t q q V V q 4 + + O O . o . . .       o             . o o . o . X % @ X % % % % % % @ @ @ @ # # + % % O . . . . . O O O 6 M _ 9.e.e.k.k.M.p.5.2.2.*.o.G P c j 3 3 3 3 z M z z 0 7 1 1 1 > 1 1 6 , > > + + @ @ + + % O O . O . .   .     .                                                                                                                     o o           .   .   .     .   . . . . . o . o o . .   . o ",
"w o   &     .       . .   o o o . X a P.).f   o   . O ; 5 S C S v c 3 3 5 z v t t ' j.B.j.z.f.1.z.f.j.f.g.` f.SXPXDX'.kXPXPXPX`.^ h i g h e u i s s s Y U ^ W ^ ^ U s e U W U * & & w r r t w &     o           o                                                                 o                                 .     .   o . . o . . O + + 1 9 q y k V a q B k k k N v C Z Z D F G G K K } ..o.X.o.%.,.3.,.,.i.3.t.t.y.u.y.c.u.y.y.x.u.6.d.x.x.x.C.V.C.z.y.z.b.V.D.V.b.y.z.6.b.z.l.b.b.z.b.b.b.b.b.b.b.b.b.C.V.V..X}..XN.N.b.M.b.p.b.p.a.b.b.p.w.w.w.w.0.7.7.2.1.*.*.&.&.&.R ) ) ) ! $.$.) ) ! ) ) ! A C q v q z q z t q 9 6 y 7 y y 6 @ @ O + % @ $ , 8 a V A ~ A V a q 9 6 6 6 6 > @ @ @ + + , 4 6 , $ ; ; ; + + ; , 1 , ; + ; , : + 1 9 ' _.].! ; + 9 0 v y B 9 9 < 5 q V S V 4 + 9 T A v 5 t a t q , O O O O . o . .               .     . . X o . % . % X @ @ @ % @ % @ @ $ > $ @ 6 $ @ % $ . O . . . . . O O 6 V _ 9.q.k.e.k.e.w.5.2.O.o...m c j j 3 3 : 3 z z M q 7 7 1 1 1 1 6 > > > @ + + + @ + O O % O . O . . . .   . .     .     .                                                                                               .                         o     o     .   o   . . o     . o     o . .   ",
"w & o   o   .       .     o o o o # = Y.).{ .   . . O + 4 v C S b v 5 5 j z 5 5 v W j.k.j.j.z.f.f.f.z.f.` W f.DXPXPX'.kXDXPXPXUX{ e u i h u u s g s s g U I ^ ` ` U u w U I U * o & w r r s r o     o o                                                                                 o                                         o o . % O O + > < q q k B v v q k k k l x C C Z D D F G K R ....X.$.%.:.3.3.3.+.,.t.t.t.y.y.u.u.y.u.x.y.y.u.7.7.x.b.C.C.b.z.z.b.b.V.D.D.B.z.6.z.7.7.x.b.b.l.6.b.b.b.C.b.b.b.b.b.N.[..X.X[.N.b.p.b.p.b.p.b.b.n.b.p.w.w.6.w.6.4.7.4.*.&.*.&.&.$.$.) R ) ) ) $.) J J ) ) ) H M 0 k q k q q q q t y 7 y y q 8 @ + O O O @ $ 6 y V ~ S ~ S S a q 8 , , , , @ ; + $ $ $ + $ , $ + @ @ + + @ ; > , > + + + ; ; + + ; ~ _._.[ + + < 9 q M V 0 9 < 9 9 y V V 4 + ; v a t 4 4 5 t 4 , + O O O O . . .     o     .           . o . X o % @ @ @ - - @ @ @ > 6 6 6 h 6 6 6 @ @ % % O . . . . O O O 1 V =.9.q.e.e.p.M.p.5.2.o.o.G m c j j 3 3 3 7 z z M 0 7 7 1 1 1 1 1 1 > > @ @ + + O + O O % O O . . . . .   .   .                                                                                                     .                             o   .     . . .   . o . . .   o o . o .   . o ",
"r & & o o   .   .     .     . o # o # P.].[ =   . . O % 6 v V Z Z b c 5 5 z n 5 n E j.k.j.z.f.z.j.f.f.f.g.` ).SXLXPXUX'.IXPXPXkX] h u i e u u g U s s g U I W ^ ` U s w U T U e o & w r w t w &   o             o                                                                                                                 . % . O . O + + , 4 q k q q v k k k k l v v b b b m F F G G G ....X.X.O.,.,.,.t.+.3.t.t.u.y.u.c.y.y.y.u.6.6.6.7.6.x.b.C.z.x.b.b.B.B.V.D.B.p.7.7.+.7.z.b.z.b.l.z.b.b.b.6.z.b.p.b.C.V.V.V.V.b.l.p.w.p.w.6.b.p.M.b.p.w.5.4.0.5.0.4.<.-.*.&.&...$.R $.) R ) $.) ) ! ! ! ! J A l k k k k q v q q q 6 y y 8 8 6 > + + O O @ $ 8 p f ~ ~ ~ ~ V a 8 6 , ; + + + > ; , , $ , $ + , + @ + + + + @ + + @ + + ; + + O + O V Y._.9.< + > > M S ( C q 4 9 2 q V v 4 + + 9 4 4 ; , 4 4 < , + + O O O X % o .               . . . o X o X X % - @ 6 6 6 6 6 6 6 6 7 7 y y y 6 > > @ % . . . . . O O + 4 S ' 9.e.k.e.w.w.w.4.:.o. .G m c j 3 3 3 7 7 0 M q M 7 7 2 6 1 > > > > > ; + @ + @ + O O O O O . O . .   . .         .   .     .                                                                                         .                 .     . .     . o       .   .   . o . . . . . . . o . ",
"p = o o o o o   .     o o   o o =   o [ ].).f . o . O + 4 k S F F n n c 5 5 c 4 n _ j.z.j.j.z.j.z.f.j.f.' ` ).SXPXPX'.kXIXDXPXkX] h u u e i u s g s s s U ^ W ^ ^ I Y s U T I e & & & r s s w &   o o       o                                                                     o               o                           o   . . . . O O + + 1 < q q v q q k k M k z v l b b b m D F G R ..K X.X.X.%.,.t.,.,.+.t.t.t.u.y.y.u.y.u.u.y.u.7.d.6.z.y.x.z.l.b.z.z.C.B.D.V.B.z.7.7.1.4.7.l.w.b.b.b.b.b.l.b.p.w.b.b.b.N.V.N.N.b.6.6.6.6.w.w.p.b.p.p.p.6.6.6.4.0.7.7.<.*.*.&.o...R R ..) R ) ) =.) ! ! J J J Z z k k k k k y v v q 6 y 8 y q 6 @ + + O O O @ $ p V V ~ S ~ S a 4 , + + + + + , , 4 4 4 , $ $ $ @ + @ + + + + + + + ; + + + + + @ @ y [ ].9.V + 1 + 0 ~ _ _ V y 4 , 9 a a q ; + < ; + + , , + + , + O O O O X % .                 .   . o % X # # # 6 6 6 6 6 7 6 y y y y y M M y y 6 6 @ @ O . O . . O + + 0 J =.9.q.e.w.w.w.5.2.O.o. .m m c j 3 3 3 7 0 M M M 0 7 7 6 7 1 1 > > > + @ + + + @ O O O O O . O . . .   .   . .       .       .                                                                                 .               o   .               . o     . .     .   .       .     o o . . . ",
"p - & o     . . .     . . o o # =     ~ '.'.[ o . . % ; 4 k n Z F F Z v c n n n W E 7.j.z.' ' j.f.f.z.f.] ] ].PXPXPX:X'.kXPXDXkX] h u u u g w g g s s U U I ^ ( W U Y r U I I e o & e r r t w &     o                                                                                                 o                   .       o o . . . O O + ; < q k y v k M M k z z l l l x b b D F G G R } ..%.X.X.:.,.,.+.i.+.t.t.t.y.u.y.y.y.y.6.6.6.6.x.7.6.z.b.b.z.b.l.b.B.V.B.M.w.7.2.*.1.7.6.6.l.b.M.C.b.b.p.z.p.z.l.b.b.M.M.b.p.w.4.6.w.6.w.p.w.b.p.w.w.0.4.0.4.4.4.1.*.&.1.&.$.R R ) ) R ) =.) ) ) K J A Z C l k l k q v v y v q y 7 y 9 8 , > O O O O O % % 8 a ~ S ~ S V q 6 ; O O + + + $ , 8 4 4 $ $ , $ $ @ @ O O @ + O O % + + O O % @ @ @ 6 ~ _.9.~ + 6 O 2 ~ ' ' S v < ; < q t q + O , O ; + , , + + + O O O . . .                         . X % X # # $ 6 6 6 6 6 6 7 y y M M M M M M y 7 6 @ % O O . # . O O ; q ~ =.9.q.q.w.w.4.2.*.X... .m m c j j 3 7 z 0 M M M M 0 2 6 7 1 1 > > > > + + + + O O O + O O O . O . . .   .       .   .                                                                                                                           o       .     . . o . . . . . . . . .   . . . ",
"s e & o o     o     .       o o - *   = j.gX].8   . # % 4 z n E m E m n c n n n W 1.z.1.1.1.' z.j.f.' f.' f.].SXPXDX:X].kXIXSX:X` Y e e i i u U U s U s I I ^ ( ( U s w U ^ I w & * w r r r r &     o       o   o o                                                                                                               o . . . O O O O O 1 5 q v q V M M N M z z x l x x Z m D F G R ......o.%.2.3.,.3.3.t.t.t.t.y.y.x.u.6.6.y.6.6.6.w.6.z.6.6.b.b.l.6.b.M.M.B.B.l.q.2.o.1.*.7.z.z.C.B.M.M.M.w.w.w.b.M.M.p.M.M.w.w.6.4.7.7.0.w.w.p.p.p.w.4.0.4.4.4.4.<.-.-.*.&.&.$.) ) ) ) ) ) ) $.) ) J F Z C l z z k k l M V V M y q 9 q 8 q 6 # @ O O O O O O $ a ~ V V V V y h , + O . O O % * 8 8 = * $ $ # % O O % . O . O O O O O O O O O O O $ ( ' 9.( @ + + + V [ 9.! y 6 @ , 9 a 8 , + + + O + + O % % O O . . . . .   o                       . . % O $ 8 9 6 6 6 7 7 y M M M H V V V M y 9 , + O O . . % . % + , V _ r.9.q.e.w.5.4.>.O.o.| m m c c c j j 7 l M M z M q 7 7 1 1 > 1 ; > > > + ; + + + O + O . O . . O .   .   .   .         . .                 o                                                                       o         o           .   .   .       .     .     .     . .   . o . o o   o ",
"s = o o o o o . .     . . . o o # -   . [ '._.( . . % + < t n E R ..R n m n m n o.1.1.1.1.' 1.j.z.f.f.z.' ' ].NXPXSX:X`.kXkXkX`.` e e e e e w s s s s U I I ( ^ ^ U w s I ( T r & & * w r t w #   o       o o o o o                                                                                                         o           . . . O + + ; 4 q y k k N C N N l l x N x C b P D F G K R ....o.X.:.:.,.3.5.3.t.5.y.y.y.6.3.3.6.x.6.6.z.z.z.w.6.l.b.l.z.q.z.l.l.l.b.w.7.<.&.R o.1.7.w.l.k.l.b.l.6.l.M.M.B.B.M.M.M.p.w.w.4.4.4.4.6.q.e.w.w.0.4.4.2.-.>.<.0.<.-.=.&.&.) ) E ) ) R ) $.=.&.) J Z b v l c z k k k k M M M q y 6 6 7 6 6 % % + O O O O O @ a S f ~ f y 6 @ @ O O . O . % $ = 8 * $ # # # % # % % % O O . O O . O O . O O O O . V _ _ ~ % O + . y ' 9.' S 7 $ + 9 q 9 , O O O O O O O O . O O . .   .           o                   . . O $ 8 8 9 8 6 7 q M M M Z V H A M M M 8 @ O . O O . . . O + 8 V _ 9.9.0.q.0.4.:.*.X.|  .G m P c c c j 7 z l z q M 0 7 7 1 1 1 > 1 + ; + ; + + + + + O O O O O . . . . .   .         .                                                                                                                   .             .     . o   .     .   o   .         . .   ",
"g e & o & o o       .     o   o X - o   ( ].*X[ # . O % , 5 n E R R E G m x n o.+.1.1.1.W z.z.j.f.z.f.f.f.f.:XPXPXDX`.].:X'.:X].` Y e e e Y e s s g d g I I I ( I U u u I ( I s & * * r w r * &   o o     o o o o o                                                                                                               . . . . . O O O + , < 9 q v M M C C M N l M C l b C Z m F F G R ......%.*.2.3.5.t.t.3.t.t.p.y.3.3.3.6.6.6.7.6.b.l.l.w.w.z.w.q.z.6.7.q.l.l.l.7.2.o.E o.&.4.w.q.w.w.z.q.w.w.k.B.N.{.B.M.M.b.w.7.4.4.<.4.4.q.q.w.q.5.4.4.-.>.<.4.4.-.-.-.&.&.$.R E ) ! ) ) ) $.) J F C v z j 5 z k k k q q a k q 7 6 6 6 6 > % % O O . O O . + 8 y f V y 8 6 @ @ O O . . . . * * 8 * $ # # % % # O % % . O . . O O O . O O O O O O a S ( a % @ O . + S [ [ A 8 @ , 6 q q , + O O O O O O O . O . . .   . .       o               o . . . . % , 8 q 8 6 9 9 q M M M A H ~ H H M M 6 @ O O . . . O . O @ 9 ~ _ 9.q.q.8.0.>.:.%.o.| G m P c c c 5 c 0 z k z k k 0 7 2 1 1 > ; > ; ; ; + + + + O O + O O . O O . . . . . .     .                                                                                                             o             . . .   . .     . .   .   o . .   .     . o .   o . ",
"g u & & & - o o       . . .   o o & * . S ].IX).r . . % ; 5 n E E ..o.o.m m n o.+.1.+.1.' 1.f.z.z.f.z.W ` f.gXPXPXIX:X].'.:X:XR.^ Y e e i e w Y s d s U I T ^ I I U r u U ( I u & * 4 w w r r *     o       o   o o                                                                                                           o   o   . . . . O + + ; < 9 q q B M N M N M l N N x C D b m F F J K ....o.o.:.5.5.t.t.5.t.6.y.p.y.2.+.3.6.z.7.q.6.z.w.z.w.6.q.l.l.k.l.q.7.q.l.l.q.1.o.E R o.1.q.w.7.q.4.4.7.q.l.M.{.B.{.M.M.l.w.q.4.*.*.*.4.0.4.4.0.0.4.4.4.-.4.0.0.-.-.-.&.&.) E J K J J J ) ) ) J Z z j 5 j 5 2 z 0 0 0 M V k 9 6 6 > > @ @ % O O O . O + O O , y y V y 8 @ @ @ O O O O O o O X $ * $ * * % O % % O O O . O O . O . O O O O O O O 8 y a y % O O O . t _ r.~ 6 % + 6 8 8 , % + O O O O . O O . . . . . .       .                 . . . O O @ 8 y q 9 9 9 0 M M N H H ! H ~ ! V y 6 @ O O O O . . . O @ M ~ =.9.9.q.0.w.4.:.X.X...m m P c c z c 5 0 z k z 0 z 9 2 < 1 1 ; > ; ; + + + + + + + + O O O O . O . . .     .       .   .         .                                                                                                       .               .       o     .     .   o   . .   . o   ",
"f i - o & o o         o     o o o X # . a 9.*X].d O O + 4 5 n J R ..o.o.o.m  .1.1.+.1.' ' 1.1.j.f.f.z.W W E.IXPXPXIX`.`.:X:X`.R.^ Y e e e u w Y f g s f I I ( I I U u u I ( I w & & w r w t * &   o o       o o o                                                                                                     o               . . . O O + + , 4 9 q M B V N M M N M M N C b P Z C m F F K R ....X.*.5.5.y.y.5.t.p.y.t.5.2.+.2.7.6.7.7.z.p.z.w.w.q.7.l.k.k.l.4.1.7.l.l.<.1.o.G E R 1.q.7.q.1.4.7.4.q.l.B.[.B.{.M.k.w.w.q.4.1.*.*.4.4.4.<.4.<.-.-.<.-.<.r.r.-.;.=.) ) J J J J J J A ! ! ! F b c 3 3 3 2 2 0 2 0 0 k y y 9 6 > > > @ @ O O O O . . O O . $ 8 p a 8 8 $ @ @ O O . . . . . . % % # * % $ % . O . O . . O O . . O . O O % O O O $ , 8 , + O O @ . 1 ( ' ~ 6 @ + @ 6 , $ O O O O O . O O . . . . . .       .         .       . . O O O @ , 9 a k q k q M M S H ~ ! ! ! _ ! S y 6 , O O O O . . O $ 4 B _ =.9.q.0.e.5.>.*.%... .m m m c c c z 5 0 z 0 0 0 0 5 3 2 1 ; ; ; ; ; ; + ; + + + O + + O O . . O . . . .   .     .   . .                                                                                                               .                 o   o   .   .   .   o   .     o o .   . ",
"^ s e & o & o o o   o     o o o X - #   p ' '._.T $ . $ 4 z b n G o.2.*.o.m  .+.7.1.+.o.+.W 1.1.f.z.f.f.W :XSXPXPX`.].].:X'.`.f.` e e e i u u s s s g f I ( I ^ I U u u I ( I s & e * * w r w *   o       o o o o                                                                                                                     . . . . O O + ; < 9 q k V V M N M N N C N Z Z Z D Z D D F G G ....%.:.5.5.t.5.5.p.6.p.6.2.O.*.2.7.7.7.7.w.l.w.q.q.4.q.k.|. Xk.<.1.<.q.l.9.1.R G G R 1.q.q.<.<.1.<.4.q.k.{.{.{.B.k.l.w.w.0.<.&...1.<.<.<.-.<.<.<.<.-.-.<.<.<.-.&.) ) K F Z Z Z Z Z Z H A ! Z l 3 : 3 3 3 < 2 < < 9 q M q 9 6 > + @ @ + O O O O . . O . O $ 8 8 y y 6 , @ @ O O . . . . o . . O # # * * * % O . . O . . . . O . O O O O O O O O % $ $ % + % @ . + a ~ y @ @ + + $ , @ O O O O O O . . O . O . . .     . .   .       . . . . . O O @ > 6 y V V V v B V Z H H H ! ! ) ! ~ H M 9 , + + O O . O O + 8 S _ r.9.Y.0.0.0.>.*.X...G m m x c n c c z z 0 0 0 9 7 2 < < > : ; ; + + + + + + + + + O O O O . O . . . . . .   .       .     .                                                                                             o                 .   . .   . .     .     o   .   .   .   o .   . o .   ",
"( f u - & & & & o o o o       X # * # . r ( j.].[ q . % 4 5 n n n ..*.2.o.G G 2.7.1.1.W 1.1.W 1.W f.f.W W 7XSXPXIXE.R.`.].`.R.[ ^ Y e e e s u s s s s I I ( I I U s r s I ` I s & * w r r r w #     o       o   o o                                                                                                                   . . . O . + + , , 6 0 q M N N M M M N N Z Z C Z b C D Z D F G G ..%.:.5.5.6.5.t.t.p.p.5.:.2.*.O.<.7.<.7.q.z.q.1.*.<.q.{.@X XB.<.&.1.7.l.q.1.&.E F R 1.q.q.q.1.<.<.q.0.l.k.{.M.k.q.q.q.4.4.-.&.&.&.-.-.-.=.1.<.<.<.<.<.<.-.-.=.$.K J F Z C M N V C N Z H N M 0 : : : < : : : 1 1 1 9 y q 6 > > O + @ O O O . O . . . . . $ 8 8 8 8 8 , @ $ O O O . . .   .   . . % = 8 8 $ . O O . . O . O . . . O O % % O + % % + % $ % $ O . O 8 a 8 O O + + $ $ @ O O O O O O . O . . . . . . o .           . . . . O O + + @ 6 9 9 M V C V V Z Z H J ! ! ! ;.) ! ! ~ N 9 < + + O O O O O , a J ' r.9.0.0.0.5.-.;.%...|  .m n j c c 5 z z 7 0 7 2 2 2 < < , ; ; ; + ; + + + + + + O + O O . O . . .   .   .         .                 .                                                                                                 .   .               o   .   . .   o   .   .   . o     . o ",
"` ^ p - & & - - o & o   o o . o o X O . t V [ _.j.V % , 4 5 v n m o.*.2.O.o.o.2.+.+.1.+.W 1.7.f.z.f.W W ` :XSXPXIXf.f.].`.`.R.] ^ Y e i e e w i f g s U I I I I I U w u I W I r & & * w = t w &   o o         o o o                                                                                                                       . . O % + , , < 9 q q V N M M M M N C Z Z Z Z C C Z D F F K ..X.-.>.4.5.5.6.6.6.t.7.2.O.o.2.2.2.1.q.z.q.1.o.R <.Y. X-X@X_.1.R &.9.l.q.1.&.R J _ 9.q.l.7.9.<.1.1.<.9.k.l.k.l.9.0.0.9.<.1.&.) &.1.=.1.&.=.=.r.r.-.-.-.=.$.$.K J Z C l z M M N N M M M M k 9 : ; : 1 1 : ; ; + > 6 q 9 1 > @ + O + O . O   O . . . . O $ 8 8 8 8 8 , @ $ O . . O .     .   . . % = y p r O . . . . . . . . O . . O O O O % O % O O O O O O O O @ 8 $ O O O O O + O . o O . . O . . O . . . . . . o   .     . . . . O O + $ + 6 7 9 q B A S Z H H J J K ! ! ! ) ) ) ! ! V q 4 : + + O O O % 9 V _ r.9.0.9.0.4.0.>.%...G G m m n c c v 5 5 0 0 2 9 7 5 < < 1 1 1 + + ; @ + + + + + + O O O O O O . . . . . .   .   .         .                                                                                                         o           .   .   .     .   o     .   .   o   .   . .   o . ",
"` ` g e - e e - & & o         o o   # # t t _ j._.' 4 O 5 5 5 n n  .o.2.7.2.2.3.z.o.o.o.1.1.1.z.j.' ' I f.IXHXPX:Xf.f.].`.E.f.` U Y e e e e w s s g s I I I ( I U s p u U ( I r o & * w * r w & o     o o   o   o o o                                                                                                                   . . . O O + > < > < 9 q M M M M z M N M Z N C C N Z Z D F D G K X.>.4.5.5.5.5.5.5.w.3.2.1.o.*.2.1.1.7.z.1.R E R q._.*X*X*Xq.&.R &.9.k.q.q._ E E &.q._._.9.9.1.1.1.1.<.q.q.q.q.<.=.<.1.1.&.$.R &.=.&.) _ &.1.<.=.=.=.=.) ) J H H C z z 0 0 q k M M z 7 M 2 : ; ; 1 : ; ; + ; ; + , 9 9 8 + + + O O O . O . . . . . . O # 8 8 8 = , $ $ O % O O . .   .   . . . . $ p a p $ X . . . . . . . . . . O . % % % % % % O O O O . O . % @ O O @ O O + O . O . O O . . O . O . . . % o . .     .   . . . % % @ , , < 7 0 k M Z S J F F F J K K K ! ) $.$.) ) E Z v 5 4 + + O + + @ y ~ ' r.9.0.0.0.4.4.-.%...G L m x x c c c 5 z 3 2 2 9 2 < 1 < ; ; ; ; + + + + + + + + + O O O O O . . . . . . .   .                 .                                                                                                           .   .           .   .       .   . .   .   .     .   o   ",
"] ` ^ e & e & - & - &   o       .   % # 4 8 W j.j.[ S , % 4 5 v n G o.+.6.y.y.x.+.o.E o.o.' W 1.W ` W W f.SXPXPX].f.f.f.f.R.g.` U i e e e e e s s s s U ( ( ^ I I s u u I ( I w o & e = * r 4 *         o     o o o                                                                                                                   .   . . O O O @ , , > 2 q 7 M y z M M M N C N N N N C C Z D L G G o.-.5.5.5.6.6.6.w.6.7.2.1.*.o.1.2.7.<.9.R F n E 9.{.*X X_.1.E J _ 9._.k.9.&.K E =.q._.e.q.9.1.=.=.=.1.<.9.9.<.1.&.&.&.&.R _ E _ ) _ ) ) R _ =.=._ ) ) E J Z M M z 7 2 2 2 0 q M y 7 7 7 9 1 ; ; , 1 + ; + ; ; + ; 6 8 6 @ O O O O . . . .   .     . o % = 6 8 , 4 $ % % O O . . . .   . .     . - 8 p 8 $ X . . . . . . . O . O . % O % % % % % + O O O . O O . % O . O O O O O O O O . . O O O . . O . . o o o . o .     . O % @ $ 6 6 9 0 k M B Z A H J F F J K K K K $.$.$.$.&.R J Z v 9 : + + O + + 7 S ) =.r.9.r.r.-.>.-.;.$.G L D m c c j 5 5 5 5 2 2 2 5 2 < : < > ; ; + + + + + + + + % O + O O O . . . . . . . . .     .   . .   .                                                                                                                       . .           o       .   o     .   o o   .   . ",
"] [ ` i u e h e - & & & o o o   . - & * 4 4 T ' )._.' q + 4 v n m  . .+.p.S.F.A.+.o.G  .W o.W 1.W W W W  XSXHXIXf.f.] f.f.f.g.( Y Y e e e e i s s s s U I ^ I I U s u s I ( U w & & w * w r r &       o     o o o o                                                                                                               o       . . O O + @ , > > 2 q 7 y z z z z M M M N M M M N Z D D F G K X.-.3.0.w.w.w.p.6.6.7.1.2.1.o.2.1.q.9.1.Z v b _ l.{. X_.<.) J E 1.q._.e.9.&.E E =.Y._._.q.1._ E E ) _ 1.1.=._ ) _ ) R _ ) E R E E E E J E _ _ ) _ ! J J Z B z 0 2 2 : 1 6 7 0 q q 7 6 1 < ; + ; > ; ; + + + + + + 4 4 , + @ + O . O . .   .     . . . % = $ $ $ * % % O O O . . .   .   .   . . # # = 8 X % . . . O . . O . . . O . % % O % % % O O . % % . . . % O . O O O O . O . O . O O . . . . . . . % o o o o . . . O . % @ , 6 7 k k M C Z Z H J K J K R ) ....@.$.$.&.&.&.) J F v q 4 ; + O + 4 M ~ _ r.9.9.r.r.-.-.*.%.} G D P x c j 5 3 5 5 5 2 2 2 4 2 < 1 < ; ; + + + + O + + O + + + O O O O . . . . . .     .   .                                                                                                                           .             .   .               .   o   .     .   .   ",
"] [ { U e e e e e - - & o o o     # * 8 * t v ' j.].j.W 4 5 5 n m G o.o.p.XX%XA.+.+.n n o.W ' W W W d f.IXAXAX:Xf.g.f.f.f.g.g.^ Y Y e e e e e Y s p Y U I W ( I U s u s I ( U w & & * w * r * &   o     o     o o o                                                                                                                     . . . . O + + > > 1 < 9 7 7 y M 7 7 7 M l l M x N N N Z F F F K $.*.4.5.e.p.p.w.w.5.2.2.*.o.1.1.<.q.1.R v 5 n _ j.{._.9.E A Z J ' k._.9.9.) E _ 9.e.{._.9.=.E E E E _ _ &.' ) E E E E J A J A E J F S S A A ) ) ) J A A B k 0 2 1 1 1 : , 6 7 y 7 6 1 > , ; + ; ; ; + + + + + O + , , 4 % + O O O . . . .   . .   o o O % # $ - * % O O . . . . . .   .     . . . . # # % # . . . . . . . . O . . o % % % % % % % O % * # % . . % % O O O O . O . . . . . . . . . . % . . . o o o . . . . O % @ , 6 7 0 q l N C Z H J K K K K $.;.$.$.$.$.;.&.&.&.&.R F V z : ; + + , 5 V ~ ' 9.9.0.r.r.>.-.;.$.G H D P c c j 5 3 3 3 4 2 2 < 3 < 1 1 , , ; + + + + + + + + + O O + O O O O . O . . . . .   .     .   . .                                                                                                                 .   .   . .             . .   o .   . . .   . .   . o . ",
"[ f.] U i e e e e e - & o X o     X X 4 4 4 t W 9._.'.j.T 4 n v W G o.o.6.XXXXn.+.o.n n E R E E T T S j.AXPXIX].` g.g.g.g.g.` I s i e e i e w u s i s g I ( I I U s e s I ` U e o & & * * r * o             o o   o                                                                                                                       . . O . O + > ; > 1 < 7 7 7 0 7 y z M z M M N M N Z Z F F G K X.-.4.w.p.w.p.p.6.2.1.*.1.o.&.*.1.1.&.S j : n =.9.Y.r.) A v C A =.Y.Y.9.r.! ~ _ =.Y._.Y.=._ S S S A E _ ) _ J A S Z S S S S S A F S C v S H J A A S V B k q 2 1 ; ; + + > 6 6 q 6 , @ @ > + + $ > @ + + O + + O + + , * @ O + O . . . .   . .     . o o % % * O % . O . . . . . . . .     . .   . . . . . . . . . . . . . . . . . O % % % % % O O . $ 8 8 = .   % % O . . O . O . . . . . % . . % . . % . . % o . % o o o O % @ @ 9 9 M M N Z H H J ! @.R ....%.*.*.;.;.*.-.-.-.1.&.R E n v 4 ; + + 1 q S _ _ 9.0.9.=.;.;.$.%.K L D x c j j 3 3 3 3 5 4 < 3 4 2 < : < > + + + + + O + + O + + O + O O O . O . . . . . .     .       .   .                                                                                                                               .   .   .         .   .     .   .   .   . ",
"] f.] ^ i e e e e e - & & * # X X - * = 4 t t d ' j.gX X' T n W o.G o.O.5.}.%Xn.o.o.m G G W E E T W W '.PXAXIX].' ` ` g.f.g.` ^ Y Y e i e u w s p p s d I ( ^ I I Y w u T ( d e & & * * * w w o o o o   o   o o                                                                                                                           . . . O O + + ; > > 1 6 7 7 q y z z z M M z M l C Z Z H F J ..$.*.>.4.5.p.p.k.7.<.*.*.&.1.o.1.1.*.E v 4 : v _ 9.9._ S b v v J ' 9.Y.9.' _ ! ! ' 9.9.9.) W S n n Z A E E E A V v n n v V v B S S v y k V V V S S Z V V q 7 1 ; ; ; + + + @ , 6 6 @ @ @ @ @ @ , , + O O O O O O O + $ , + @ O . O . .   .           . . . . . % % . O . . . . . . . o o .     . .   . . . o   .   . . . O . . . . . % O $ % % % . O $ 8 d p $ . . . . O . O O . . . o . . . . % . . o o . . o X o . . . . O O @ 6 7 y M N Z H H K ! K $.$...&.*.>.-.>.>.>.>.0.4.<.=.&.J Z z 3 : ; + 4 q A _ r.9.9.r.-.=.;.;.$.K D x c j j 3 3 3 : : : : 1 2 2 < < < > ; ; + + + + O O O + O + + O O O O O . . . . .   .   .   . .                                                                                                                       .   .   . .   .     .         . .   o     . . o   o   .   ",
"` f.[ ` s u e e e w - - - = = * = = w * t t t t T [ '.gX_.1.1.W G o.o.o.2.N.S.p.o.o.G G E W E W W ` j.gXPXSXkXj.f.` ` ` ` g.^ ^ Y e e e e i u u u p s g I I ^ T U s u s I ( U * & & w * * r w o o           o o o                                                                                                                         . . . O O + @ @ > > > 2 1 7 7 7 7 7 z z M M z M C N H F D G ..$.*.>.4.w.w.w.w.2.o.o.1.1.o.&.&.) R E 5 : 3 A _ [ _ A B v k v A _ r.9.9.=.! A ! _ 9.9._ E S V v V S S A E J F v v z z q v v v B v q 0 9 v V V S V V M y q 9 6 > + ; @ + + O @ , @ @ % % @ @ @ 6 , @ O O O O + O O O , , @ @ O O . . . .   . o o .   . o o o . . . . . . . . . . . o o o .           . . . . . . . .   . . . . . . O O % % % % % O . $ q A f 8 o O % O % O . . . . . . . . . . . . . . . o . . o X o o o . O @ , 7 y M M Z H J J K ! $.$.;.%.-.>.4.>.4.5.0.5.e.0.4.<...E n q 5 ; ; ; 5 v A _ =.9.r.r.-.;.%.$.K L P c j j 3 3 3 : : : : : : < 3 4 < < ; + + + + O + O O + O + + O O O O . . O . . . .   .   . .       .     .                                                                                                             .     .                   .       .   .   .   . .   .   . ",
"` f.g.` Y u e h u u = - = = = = e * * * r t t 4 t T j.gXgX].z.o.W n G ..o.6.p.3.+.o.o.o. .n n E W W j.SXNXgX].j.f.g.` W g.g.^ U Y Y e e e e w w u p g U U I T ^ f s w s ( ( U * & & 4 w * w * & o o o         o o                                                                                                                           . . O O O + @ + > > 1 6 6 7 7 7 y z M z M M M M C V D F J R $.%.>.>.5.w.w.w.1.o.R o.o.1.&.R E E n 3 : 7 A ) _ A k 9 q 0 v S ! ' 9.r._ ~ A ! _ _ _ _ S V t v V v S A E T S v t 5 5 3 5 q t V t q 5 4 q q V V V y q 9 9 9 < > + + + O O O @ @ # @ % @ @ @ $ , , @ O O O O O O O + $ 8 % % O % . . .   .             . . . . . o O O . . . O . % o . . .     . .     .   . . . . . . . . . .   . . . O % % % % O . , p ( f 8 o   . . . O . O . . . . . . . . o % o o % o X . o . o X % % $ 6 6 9 M V Z H H K @.$.;.;.-.%.*.-.>.5.0.8.w.5.e.w.w.5.<.&.E n v : : ; ; 4 v A _ =.9.r.r.=.;.$.R L D c j 3 3 3 3 : : : : : , : < 4 5 < < : ; + + + + O + O O O O O + O O O O O O . . . . . . .   .   .                                                                                       o                                           .       .       .   o   .   o   .     .   o   ",
"^ g.f.g.d Y e e h u h - p g a h h # h 8 = p r r 4 r W ]. X<X].z.o.n n  .G o.+.3.O.:.*.*.o.n n R W z.:XfX'.].].j.f.f.W ` ` ^ W Y Y Y e e e e e w Y s s U I I ^ ( T u e U T ( s * & = r w 8 w * * o               o     o                                                                                                                     o   . . % % + + + ; > 1 7 7 7 7 y 7 N M z M z M M N H H L K ..&.*.:.0.w.w.4.*...R R o...E F A n t < ; t A _ ~ y 6 < 2 9 q v S _ _ _ _ A V S T _ S S q a t v t B S A A A S V 9 4 < 4 4 9 9 q q 4 1 4 7 q y y y y y 6 9 6 6 ; + O O O O O . O O O O O % $ $ 8 $ + O O O O O O % $ 6 - % O O . . .   . . .           . . . . . . . . . O   o # # # #   o             o . . o   . . . . . . . . . O . O % % O O O O $ 8 ~ f p . . . . . % . . . o % % . . . . o . o . o . o . % X % # @ 6 6 6 7 M B Z H J J $.$.*.*.>.>.,.>.>.5.4.5.5.5.5.w.5.e.0.4.X.G b z 3 : : : 5 n F ) =.=.1.r.;.$.) L L N c j 3 2 1 1 > ; ; ; ; ; 1 1 6 6 2 1 > > > + + + O O O O O + + O O . O . O . . . . . . .   .           .                                                                                                       o     o                                             .       o   .   ",
"I ] f.` I s e e u u u - ( ` ( g = - h r = r w r * * W ' j.'.B.j.W n n n n m  . .o.O.+.1.o.W W W f.B.gXgXj.f.f.E.f.g.` ` ` ` U U e e e & e e e w s s d U T W ( I I w w U ^ ( s * & = w 4 = = r & o .           o     o   o   o                                                                                                                 o o . . O % O + + > 6 7 6 7 7 z y M M y M M M M N Z N F K ..$.*.-.4.4.4.:.o.R G F F W F n n v 9 ; ; k A _ V 9 + ; 1 < 9 q V S A A V a y y V V a q 9 9 9 q q t V S T A S a 5 < : , < 4 9 q 9 < , , 6 6 q y y y 6 6 6 6 6 @ + O O O . . O O . . O O % @ $ $ $ + O . O . . . . $ 8 6 # % O . . . .   o o   o .   . . . . . . . . . . . . % $ $ $ # X             .     . . . . . . . . . O . . . O . % O % @ O % $ * a a 8 . . . . . . .     . . o . o . . o o . . . . o . % @ % - 6 6 8 y M B Z J K K $.%.-.4.0.>.0.>.>.>.>.5.5.>.5.5.w.t.6.6.2.X.F n z j 5 j 3 5 Z E ) =.=.=.=.=.$.! H N c 3 : 1 1 > > > > ; + ; ; 1 6 6 7 7 6 1 > + + + + O O O O O O O O O O . O . . . . . . .         .   .                                                                                                           o o   o                                                 .   . .   . ",
"U ` f.g.` Y e e i u i p [ ].R._ p h r u p u r w w & r d W j.j.j.E n n n n P m m G o.1.2.1.' _ j.z.gXgXz.f.W ' f.f.` ` ` ` W Y Y e e e & e e e w s U U I I ( ( I I u s I ` ^ s e & w r w = r = * o o           o     o       o o                                                                                                               o . . % % O O + + > 6 6 7 7 7 M z M M M z M M M N N N D G ..&.%.*.>.4.2.*.R R F F n n v z q 5 : + , y S T a ; + + : , < 9 q V V a q 9 6 9 q q 4 4 9 8 t q 9 t a S A A S a 4 ; ; , < , < 4 < > ; ; , 6 6 6 6 7 6 6 6 6 6 + O O O O O . . . O . O O % @ $ , $ O O O O . . O % $ 8 = % % O o .   .   o           .   . . . . . . . . . . # $ = 8 = X             o . .   . .   . o . . . . . . O . O % % % % @ % O O = 8 # . . . . . . . . . . . . o . . . . . .   X . . . % # # 6 6 y y y M V J K $.$.&.-.5.e.e.e.8.5.>.5.>.,.,.5.5.5.6.w.5.7.2.o.m m x c c 5 c v n J ) _ =.=.=.=.$.K D z j 3 : : : ; > @ ; + + + ; > 6 7 6 6 6 1 > ; + + + O O O O O O O O O O O . . O . . . . . . .                                                                                                                   o     o o                               o                   .     .   ",
"U ( f.f.` Y e i g g i g R.IXIXP.^ = h g s p u w r * * 4 n W ' ' W W n n n c c P m ..1.7.1.z.z.z.j.gX].f.W W W f.g.` ^ ` ` U Y Y & e & & e e w s s s U I ( ` ( ( I w s I ` W w * * r r r = r r = o                       o                                                                                                                         . . O O O @ + > > 1 6 6 7 7 M M M M M M M M M M Z D K R $.%.*.2.<.*...R G m n b z c 5 3 < ; + , t S S q ; + ; ; > 1 4 q q t 8 8 , , 6 < 4 4 4 8 9 9 8 4 9 t V S S V q < ; ; ; , , 1 , , @ ; + $ > 6 6 6 6 6 6 6 6 6 + O + O O O . . . . O . O @ @ , $ $ + O O O . O . # $ 8 = $ % O . . .   . o     o   .   . . . . . . . . . . . % # 8 p 8 #                 o . o . . o .   . . . . . . . O O % % # % O O O $ - . . . X . . . . . o . . . . o . .   . . . . % . % % $ 6 6 8 7 y M H H ! ) &.%.%.>.0.8.t.w.w.5.4.,.,.5.5.5.3.5.5.6.t.7.+.o.G n b n n n c v F J ) &.=.=.=.=.! H N j 3 3 : ; ; ; + + + + + + + > 1 1 7 6 1 1 > ; + + O O O O O O + O O . O . O O O . . . .   .       . .                                                                                                         o   o o   o                                     o           .   o     o ",
"Y ^ [ g.g.U i u g ^ i Q ].DXPXUX{ r u Q p g p u s t w w r d W W W ' o.W G n c n m  .<.z.l.l.z.j.B.].j.W W U W g.] W ` ` ` I s e e & & & & & w s s U I I I ( ( I I s u I ` ( w * w r r r w r = * o o     o   o         o     o                                                                                                             o   o   . . . O O + + > > 1 > 6 7 7 M M M z z M y M M l x D G R $.%.*.-.*.&...E m n n c 4 : : ; ; + O + 8 V a 9 + + + + + ; > < , , + , + ; , $ + + , 4 8 8 4 4 4 t V S S a 8 ; + + ; > , ; , $ + + + @ @ @ , 6 6 6 6 6 6 6 $ + O O . . . . . . . . . % @ $ $ % % O O O . . O % $ 8 8 $ % O . .         o       . . . . . . .   . . . . . . * 8 p p X             . .     o o . . . . . . . . . . . . . O # % O O O . X % o   . % . o . . o . . . % . . . . . . . . . % . O @ 6 h y y M M A H ~ @.;.;.;.>.>.w.p.w.p.e.5.5.5.5.5.5.3.3.3.3.5.6.2.2.o.G G m m n n b n F K ) &.=.-.=.&.! L x j 3 : : ; + + + + O O + + + > > 6 6 6 1 > > + + + O O O O O O O O O O . O . . O . . . . . . .         .                                                                                                           o     o                         o                     .   .         ",
"s I ] [ g.I i i ^ ^ ^ ^ `.PXLXIX] u u Q i g s u s s t w * 4 t d W 1.z.z.1.o.G R E 2.z.l.k._.z.j.j.z.f.U Y W W ` ` I I ` ^ U e e e & & & & e e s s U U I I ` ( I I r s T [ T e e e r s r = w r * o o                 o   o o                                                                                                                     . . . O O O O + @ > > 1 6 7 M q M y M y z M M M l x Z G K $.$.*.-.*.$.R F n x c 5 : : ; ; + + O O 8 a t , O O O + + + + + + + O % + + $ $ + % $ 8 8 9 8 , , 9 a S V q 4 + O + + , , 4 + ; ; ; + @ @ @ > 6 $ $ 6 9 6 6 @ O O . . . . . . . . . O % $ $ $ $ O O . O . . O % $ p 8 $ % O . . . .   o         . .     . .   . . . . . . . . 6 f f 6 .         .   o . o o . o . . .   . . . . . . . . O # . . . O X . . . . X . . . . . % . X X X . . . . . X O . % % O O @ 6 y y V V H H H ! ;.-.-.-.>.4.5.w.i.p.p.5.5.5.5.t.3.,.:.3.3.3.3.2.O.o...G G E E F m D F E $.&.=.=.=.$.K N l 3 3 : ; + + + + O O O O O + > 1 6 6 6 > > ; ; + + + + O O O O + O O O O O . O . . . . .   . .   .       .                                                                                                       o   o o o                                       .       .       o . . ",
"u I ` R.f./ Y i Q ^ { / ).DXPXDXP.g h Q g g i s s s r r w * 4 d W ' j.l.B.z.9.1.7.l.k._.B._.z.z.f.1.W t U W g.W W Y U ` W Y e & & & & & & e e s t U I U I ( ( I U p s ( ` I * * * r s w r r = * o         o o             o   o                                                                                                             o o   . . . O O O + @ @ > > 6 7 y M z M y M y y M M x x Z F K ) $.*.-.*.&.K m n c 5 3 : : ; + + O O O , 8 8 + O O O + O O + @ O O O + O + $ $ + % , 8 9 8 4 % $ q a d a 9 + + + @ , + , ; $ , $ + O + O + @ $ 6 6 6 8 8 6 @ O . . . . .   .   . . . # $ = $ % O O O O . . O % 8 y p $ % . . .   . . o   o       . o .   . . . . . . . . . . - a f p   o o .       . . . .   . . . . . .   .   .   . . O O o . O O O . . .   # . . . . . % # - $ % % % . % . O O % % % O $ - y y V V V H H ! ! r.r.;.>.>.5.8.5.w.e.i.y.5.3.t.t.3.3.+.3.3.3.3.2.O.o.o.R ..R R G G F F R ) $.=.=.;.) H Z z j 3 : ; + + O O O O O O O + > > 1 6 < 6 > ; ; + + O O O O O + O O O . O . O . O . . . . .                                                                                                                     o o o o                                                         . .     ",
"i I ` f.g.] ^ Y ^ / { / ).zXPXDXR.Q i ^ Q g g i s s s r t * & t t ' j.l.]._.l.l.k.B. Xk.k.j.j.' W W W s W ` W g.I U U ( ^ U e & & & & & e e w w s U I I I ` ( I U s U ( ` I & w * u r r r w = * o o                 o o       o                                                                                                                     . . . O O O % @ > 6 6 7 q y y z z y z z M M v C Z J K $.$.=.-.=.$.G n c j 5 : : ; ; + O O O . % $ $ O O O O . O O O O O O O O O O % % + + $ 4 8 4 , O . , a V a , + O O ; $ $ $ , $ $ , + O O O + @ 6 $ $ 8 y 8 8 @ O O . .   .   . . . . . # $ $ $ # O . . O O . . % = r 8 $ % . . . .     . o     .       . . .     . . .   . o   # y f f X o o . .   .   . . o . .   . . . o   . . . . . . . . . % % .   . . . . . . . . . % X 8 8 8 $ % % % % . % % % % % @ $ 6 y y V M H H ! ! ;.r.8.>.>.4.5.w.i.p.p.p.6.t.5.6.t.t.t.3.t.3.3.3.+.:.O.o.o.o.o.o...G E G R $.$.$.=.=.) J x l 3 : : + + + O O O . . . O O > > 6 6 6 1 > > + + + O O O O O O O O O O O O . O . . . . . . .   .   . .                                                                                                             o   o o                                                 . .       . ",
"w ^ ` g.R.] ^ ^ Q / P.T.`.DXDXkXW.Y ^ ^ Q Q Y i s s w r w w * e t t W j.j.l._.k._.k.k.j.j.9.E W W W d d T ( ` ` U s I ( T U & & & & & & e w w w s U T ^ ( ` I I I s I T ( U & e w r r w r w w & o             o                                                                                                                 o               .   . . O O O O + O @ 6 , 1 7 M M y 0 k 0 k q M M x Z H K $.$.;.-.-.$.J b j : : : ; + + + O O . . . % . O . O . O . O O O . O % O O O O O O % @ = $ $ # O O , 8 a q 4 % O O + $ 4 $ , $ % % + O O O O $ , $ 6 8 6 y 8 # X . .   .   .   .     . % # * $ % . . . . . . . . 8 p 8 % O . . O .   .     .   .     .     . .   . .       .   . 8 f a = X   .     . X o . o o . . . . .   . . . . . .   . . . O . . O . . . . . . . . % @ $ 8 p 8 h $ % % . % % % + > @ > 1 7 y M H H ! H K $.-.0.0.>.>.5.8.6.t.w.t.p.t.6.t.y.t.t.d.+.3.3.+.3.O.O.O.O.o.1.2.o.o...R R ....$.&.=.$.K H v z 3 : ; ; + O O . O . . . O O $ > , , 1 6 > > ; + + O + O O O + % O + O O . . O O . . .   .   .                                                                                                                   o   o o                                           .   .           . . ",
"i I ^ ] R.] / ^ / ] R.W.:XzXkXjXW./ / / ^ / ^ Y Y s s u r s t w w w d W W j.j.9.j.9.9.1.&._ W n U d d W W ( ` W d s U T I s & & & & & e e w s r s U I ^ T ( ( ( I s I T ( U * w w r u r r r w & o         o             o   o                                                                                                     o       o       .   . . . . O + O + > 6 > 7 q 7 0 0 q k k q M M v Z J ! ) =.&.=.=.) F v 3 : : ; ; ; + O O . . . . O o o . . . . . . . . O . O . . . . . . O % $ $ $ O . O $ 8 a p , O O O $ , , , , % + % O + O O O + 6 $ @ 8 8 6 6 @ % o .     .   .   . .   # # # # % . . O O . O . . 8 p 8 % . O . .   .             o .     .     .     . . . . .   = a f 8 # .   o . o X . . . . o     . . .   . .     . . O O . O . . . . . . . . O O O X # 6 8 y 8 6 @ % . % @ % % @ @ + > 7 7 M N ~ H H K @.$.>.5.8.5.>.,.5.5.i.p.i.t.t.y.t.y.y.u.t.t.t.3.3.+.2.+.2.:.2.2.4.4.*...........$.$.$.$.K Z l c 3 : ; + O O O . . . . . O O + > < 6 6 > > > + + + + + O @ O O O O O O . O O . . . . . . . .     .     .                                                                                                   o   o   o o   o                                                 .   .       ",
"s ^ ^ ] ).R.] ^ / ] E.UXkXxXjX^.W.T.T./ Q / ^ Q i s s u w s s r e * * 4 V W W E E W W E W T d W d I W W W ` W T s d U ( I r & & & & & & w w s s d I T T ( ( I I U s U ( ( s & w w w s w w r w * o o                     o o o o                                                                                                   o               . . . . . O O O O + @ > > 6 9 7 7 9 q 0 0 0 M B x Z F ! ) $.=.-.=.) F z 3 : ; ; ; + + O . . .   . . .   . . . . . . . . . . O . . O . O . O . O # # O . . # 8 r 8 $ % O % $ $ * , % % O O O % O . % % $ $ $ = h 6 h # . . .   .   .       . . % % # % . . . . . . . . . 8 8 8 % O . . .     .   .       .   . .   . .   . . . o   . o   # p p p - X .   . . o . o . . . . .     . . . . . . . . . . . . . . . . . O . . O . O - 6 6 8 8 y 6 @ % % % % % % @ , > 6 7 k N H H ! ! ! @.;.8.e.e.8.5.,.t.p.t.p.p.y.t.y.u.a.y.u.y.t.u.+.3.O.O.+.+.3.3.4.7.7.2.*.X.$.$...R $.$.$.F b l 5 : : ; + + O O . O . . . . O @ $ , 6 6 6 > + > + + + O O O O % O % O O O O . O . . . .   .   .     . .                                                                                                           o     o o                                                 .   .   . . ",
"g ^ U ` P.E.T./ / P.W.jXxXjX!.W.W.Q.W.T.^ / ^ Y i Y g i Y s s s r * & & * 4 q t 9 5 t V n v n d W I T W ( T ( I s s U ( U e o o & o & & w w u r s I I ( ( ( ( I U U I T I s e e w w r u w p w &             o           o o o o                                                                                                     o   o             . . . O . O O O @ @ > 6 6 7 6 7 7 9 7 0 k k M C H ! ) =.=.=._ K B 5 : ; ; ; + + O O . . .     o . . .   .   . . . . . . . . . . . O . . . . . % . . . % $ 8 6 # % O % % $ % % % O O . O O O . . % # # @ 6 6 6 6 # % . .           .       o . % o . . . . . . . . % = p 8 % O . . . .   o     o   .   .     .   . .   .   .     . . o - 8 p 8 # X . o . . . o o o . o . . . .   . . . . . . . . . . O . O O O O O O O O O - 6 8 y 8 8 - @ @ % % @ % @ @ $ 6 7 M N H H ! ! L @.$.*.8.e.p.5.5.5.t.t.p.t.p.p.y.p.u.u.u.u.u.t.t.d.3.+.+.3.t.3.5.6.6.5.4.:.%.%.X.....R $.R H b l 3 : : ; ; O O . . . . . . . O @ $ , 6 6 , > > + + + O + + + O + % O + O O . O . . . . . . . .       .       .   o                                                                                               o   o o   o                                                             ",
"s ^ g ^ P.`.`.P./ T.W.xXxXUXW.W.W.jXxXW.] / / Q i g g g U U Y u r w * & o o o 4 * $ 4 5 t t t n W T W ( W T I d t d I ( s * o o o & & & w w w s U I I ^ ` ^ I I U U T ( I w e e w u r s u s r * o         o           o o X X o                                                                                                 o     o   o           . . . . O . O O @ @ @ > , 6 6 6 7 2 6 7 0 k M N H ! ) ;.=.&.) K V 2 : ; ; + + O O O .     o   o     .     .   .   .   . . . . . . . . . . . . . % . . o $ = = # % % . % % O O . O O . O . . . % % % % # @ - 6 # X o .                   . . o o . o . . . . . . . . = 8 8 O . . . O .   .           .   .     o   . o   . .     o .   X 8 h 8 6 = - % X X o . . . o . . . . . . . . . . . . . O . % % % @ @ # # X @ @ @ % 6 6 6 6 6 6 6 > @ @ @ @ @ $ 6 6 7 M N H H ! ! ! ! @.;.-.e.p.e.8.5.t.t.t.p.a.t.p.t.u.u.u.u.u.u.d.t.t.+.O.O.+.t.t.6.p.w.t.5.4.:.%.%...} R ..K F l j 5 : : ; + O O O . . . . . . O % @ , 6 6 , > > > + + + + @ O O O O O O O O . O . O . . . . .   . .                                                                                                                   o   o o                                           .   .   .     .   ",
"u i i ^ { E.UX`.T.T.W.jXjXW.W.!.^.xXzXjXT.P./ ^ Q i ^ ^ I U s r e w e * * o . * $ * 4 4 4 4 t t U W ' ` T I d r r s f ( s & o   & o & & e w s s U I ( W ^ W I I U I I ( U w * e w r r w p s w * o                     o o - X o                                                                                                   o       o           . . . . . O . O O + + > > > > 1 1 < 1 2 9 k M Z A ! ) ;._ $.) J M 2 ; ; ; + + O O . . .                 .       . . .   . . . . . . . .   . . o . . . % # 6 $ % . . % . O . . O O O . . . O . O % % % X X @ @ # % . . o                   o . o       . . .   . . % = 8 = O O . . .     o .   o       .   . .     .   .     . .   o   o - 6 6 h 8 $ @ % . o . .   . o o o . . . . . . . O % % % % % X @ @ @ $ @ 6 @ , , , 6 6 6 6 6 , > > @ @ @ @ , , 7 7 y M M H H ! ! @.@.@.;.>.e.a.a.t.5.5.5.p.t.p.y.t.t.u.u.a.u.s.d.i.d.+.,.+.+.t.u.u.y.p.p.p.6.5.,.%.X...} R K J m z j 3 : ; ; + O O O . . . . O . O @ + , , , , @ + + + O + O + O + + % % + O O O . O . . . .   . .       .   .                                                                                                         o o o   o                                   .                     .   ",
"u i u Q { E.kXUXW.Q.!.xXjX!.W.W.jXlXzXxXW.W.R./ Q Y i Y I s i u w w w w = * * r 4 * r 4 4 * 4 t d W W T T U t r r s T T r o   & & & & & * w s s U I ^ ( ^ T I I U U T ( s * w w w s u r r s r e         o o     o     o X X X o                                                                                                   o o   o             . . . . . . O O O O + > ; ; ; > 1 : 1 1 7 z M N Z J ) _ ;._ ) ! M 2 : ; + + O O . .     o                           . o .   . . . . . . .   . . .   . . . - # % o . . . . . . . O O O O . . % . % % X % % # @ @ % o   .                   . o o .   .   o o . . . . = 8 = O . . . .   .           .     .   o . o o     o   X o   o   o X # = h 8 8 - X % o . . o . o % . % O . O . O O O % $ $ $ , 6 6 h 8 6 6 6 6 , 6 6 6 6 6 6 , > > > $ @ $ @ 6 6 7 7 M V H H ! ! @.! @.;.;.5.e.a.a.w.5.t.t.t.p.u.p.t.u.t.u.u.u.u.u.u.d.+.+.+.3.t.y.u.y.p.y.6.5.5.>.:.%.} K } K D b c 3 3 ; ; ; + O O . . . . . . % O % @ @ , > > ; + + + + O + % O + % O O O O O O O . . . . . . . . .                                                                                                           o     o o     o                                                   . .   .   . ",
"u u h i { W.kXxX`.Q.W.xX^.W.^.!.jXzXDXxXjXjX:XT./ Q ^ Y ^ Y s i w r = = w * & 4 w 4 r * * * r t r I T U s p r r r p f I r o   & & & & e w r u s U T ( ( ( ( I U U I ( ( s & w w w w u r s s w = o     o             o o - - X o o                                                                                               o     o                 . . . O % O O O O + + + + + ; > ; 1 1 7 0 M C Z J ) $._ ;.) ~ M 2 ; + ; O O O . .         o           .           .   .     .     . . . . . . . .   . % @ X % o % . % . . . . . . . . . . % . . . o % X @ - X . o . .                     . . o .   . . . . . . % $ 8 $ O O . . . .   .   .   .   o .   .     .   .   .   X .   o o X # - 6 8 8 8 8 = $ % % % . . % . # % O O . O O O O @ = 8 8 8 y 8 y y y 8 6 6 6 6 > 6 6 6 > 6 > 1 > > $ > 6 6 6 y M N H H ! ! @.! ;.$.%.;.>.e.p.p.i.5.t.p.u.a.p.p.y.t.t.u.u.u.s.u.d.i.i.+.,.t.y.u.u.p.p.w.t.5.5.5.*.X...G G G D c c j : : ; ; + O O O % . . . . . % @ @ @ $ > @ @ + + + + O O + @ % O + % O O . O . O . . . .   .         . .                                                                                                               o   o                                                             ",
"u p i u ~ P.kXzX/.(.Q.^.!.!.!.!.xXzXzXzXzXzXxXUXR.{ ^ Q ^ Q i u u e = w = * * * 4 r * 4 * * * r s d d d p s d p p p s d =     & * & * = w r s g U ^ ( ( ^ I I s U ( [ ( s e w w w s s w s s u e o               o   X X - - X o                                                                                                                     .   .   o . o . . % % O O O O + + ; ; ; 1 < 7 y M Z ! _ =.) =._ J M < : ; + O . . . .                   .           .         .   .   .       . .     .   . . % . . . . . . . . .   .   . .   . . . . . . % % X % o .   . o                   . .   .   . . . . . . # # - @ O . . . . . .   . .   .   . .           .   . . . . . . o   . O # $ 8 a a a y 8 - @ % % % @ $ 4 $ + + O O O O @ , 8 8 y y a V V M y q 6 6 7 6 6 7 6 6 1 1 > 1 1 6 6 6 7 y M N N N H L ! ! @.@.;.$.%.>.>.8.p.p.p.6.t.y.p.p.p.y.p.t.u.6.t.u.t.t.t.+.+.,.3.+.t.u.p.p.p.p.t.5.5.>.:.X...G G F m c c 3 : : ; ; + O O . . O . O . % % % O @ % @ @ % @ % O O O % @ % % + O O @ O O O O . O . . .   . . . .       .                                                                                                                                                                               ",
"h p Q g Q P.UXDX/.Q.^./.!.(.^.(./.lXzXzXzXDXDXxX`.E.] / ^ i i u = w = w * & & * * * w w $ * * r r r r r r r p p p p p p &   o * = * * = w p d s I T I I I ( I s U ( ` T w w r w w s s s U U r e   o                 o X h - X o o                                                                                                                     .   . .   . . % % % % O O O O O + ; + > < 7 M V Z ! ! ) ) =.) ! V < ; ; + O . . .   . .                                                         . .   . . . X . . . . . .   .   . .   . . . .   . . . . . % % X X o o                 .   .   . . . . . . . . o . % $ # # . . . o . . . . .   .   .   . . . . . o . . . . . . O O . O O % $ 8 p a S S S a y 6 , @ , 6 8 6 , + + + + O , 8 q q y a V V V V y y 7 7 7 6 2 6 1 1 1 1 > > > > > 6 7 y M M N H H ! ! ! ! @.@.@.%.%.>.5.e.p.w.t.6.p.y.p.p.u.p.u.u.6.t.u.t.u.t.t.t.+.,.+.t.t.u.p.p.p.t.6.5.3.>.:.%...G G m n x j 3 : : : ; O O + O . . . O . . O O % @ % % % % % O % % . % O % % O @ + O + O O O O O . . . . .       .         .   . .   .   .                                                                                                                                                             ",
"p g g i g { `.zX/.^.(.^.(.!.^.^.xXzXzXzXDXDXDXzXzXkXW.P.^ i u h h & e = e & # & * 4 4 r = * * = * w w w r r s p p r p p -   o = = = w w r p s g I ^ I ( ^ ( U Y I ` ` T e w s w r s U U U I Y w o       o           o - 6 - X o o                                                                                                                     . o   o . . . . . . % . O O O O + + + ; 1 7 7 M Z H ! ) =.=.) J B < 1 ; + O . . .                     .   .   .           .       .   .     .           . o . . X . . .     . .     .   .   . . . . . o . % X % % . .   .             .           .   . . . . . o # - # # O . . .   . .   .   .     .   . . . . o . . . . . O O % O O O % , 8 y a S ~ _ ~ S V 9 9 7 8 8 9 6 < ; + > > 6 y a a V V V V a M y 9 9 7 6 7 6 6 > > > 1 > > > > > 7 y M M N H H ! L ! ! @.$.;.%.*.;.>.>.w.t.w.p.p.p.t.p.p.p.y.y.t.t.u.3.u.u.3.3.i.+.3.+.3.t.u.p.n.p.y.5.5.5.>.:.%.| G m F b x 5 3 : : : + + O + . O . . . . O O O O % % % O O % % O % O % % % % @ @ % + O O O . O . . . .   .   .         .                                                                                                                                                                               ",
"u g Q i h / E.zXlX^.^.!.!.(.!.^.xXzXzXzXzXzXzXDXDXDXkXR./ Q i u e - e e * & & # * * r r w * * = & * * * w r p p p = w = o   & = e = 8 w p p s f I T ^ I ( I I U ( ` ( I e e s r r s U I T I s w         o           X - 8 - o o                                                                                                                       .   .   o % o . . . . . O O O O + + O ; > 6 7 y V A ! ) ;.=.$.J v < ; ; + O . . . . .     o   o       .             . .       .               .     . . . o . % . . . .       .   .   .   . . . . . . . . X % X . .   .                   . .   .     . . o . . o # # # # . . . . . . . . . . . . . . . . . . . . X % O % % % $ % O O $ , 8 8 a S ~ _ _ _ ~ A M y y M M y y 7 9 6 6 9 q y a V V S V V y q 7 7 6 6 6 6 6 > 1 6 1 > > 1 > 6 7 7 y M N H H ! ! ! @.! @.@.%.;.>.*.>.5.6.w.t.t.t.6.p.y.p.p.y.t.u.t.3.u.t.t.t.d.+.t.+.,.t.t.u.a.p.y.t.t.5.>.:.:.X...D m m m c j 3 : : : ; + O O O . O O O . . O O O % O O O O % O % . % O % % % + + + + + O O O O O . . . . .       .       . . .   .   . .                                                                                                                                                               ",
"u p g i h Q T.xXlXjX^.^.(.(.!.!.xXlXzXzXzXzXzXDXDXDXzX`.] ^ i i i e e - = & & & w w r 8 = * * * % & & % * w p p p = = * o   & = = = w w u p d g ^ T ^ I ( ^ I I I ` W s w w r s s s U ^ ` ` U w o o         o       X h h 6 X o                                                                                                                     .     o   o . . . . . . . . . O O O O O + > 1 7 0 M A ! ! _ =._ ! M 2 : + + O . . . .         o           .   .       .   .         .   .             o   o . o . . . o . . .       .   .   .   . . . . O . . % % o .   .               .         .   . .   . . . . % % % X . . . . . . . . . . . . . . . . . . O % $ $ @ $ $ , , , , , , 4 9 V S A _ _ ;.[ =._ ! A A H A A Z M M y M y y a V a V V V M q 6 6 < < < 1 1 1 > 1 1 > 1 1 6 7 7 y M M H H H H H ! ! ! @.@.;.$.;.;.:.>.5.5.w.t.6.y.6.y.p.u.y.y.y.u.t.d.t.t.t.t.+.+.,.,.+.i.d.u.u.p.p.t.5.5.>.,.*.%...L m D b x 3 3 : : ; ; + O O O . O . . O . O O O O % % O O % % O % O % O % % @ + @ O + O O O O . . . . .   . .   .     .               .                                                                                                                                                       o       ",
"- h u h i i / W.jXxXjX(.Q.(.!.^././.lXlXlXlXzXzXDXDXDXkXT./ Y i i u u u e & & = * 4 r r w = * # & . o o = r w r = & X &     o & - = r p p s d U T ^ I ( I I ^ I ^ ` ` s w w w s s s U W ` ` I w                     - 8 p - o o   o                                                                                                                   . .   . . . .   . .   . . . . . . O O O @ > 6 9 M Z H ! ) =.! ! M < : + + O O . . .   .                         .           .   .             .   .   .   o . . X o . .   .   .     .     . . . . . X . . . % % X . .     .                 . .   .     . . .   . X % . o . . . . . . . . . . . . . . . O O O + @ 8 8 8 9 8 9 9 6 4 < 9 9 V V A ) _ r.r.r.r.=.) ! ! ! ! ! H A Z V C M M M V M y M y 7 < < 1 > > > , > > ; 1 > 1 6 7 0 y M M N M H H H ! H L @.! @.%.%.;.;.-.,.4.8.5.6.5.6.6.y.b.y.p.y.y.t.t.t.t.t.t.d.,.t.,.+.+.,.+.t.t.u.y.y.t.5.5.2.:.:.%...F m m D x j 3 : : : + + O O . O . . O . . O O O % % O % O % O O O % O @ % @ @ @ @ @ O + O . . O . . . . .   .             . . .   .                                                                                                                                                                   ",
"& = h i i Q ^ T.jXxXjX^.(.Q.Q.^.^.lXlXlXlXxXxXlXzXDXDXxXW.] / Q Y g i u w e = w w w r w * * X o o o & o * = = w * o o o     o o * w r p p g f I ^ T I ( ( I ^ T W ` U s w w w U s s I ` ] ] ^ s o                   - r 8 - o o                                                                                                                       .   o o   .   .   . .   . . . . . . O O @ > > 7 q V A ! ) ;._ ! M 2 : ; + O O . . . .   .     o         .   .     .   .           . .   .           . .   . . o . .     .             . . . . . . % . . O . O O . . .   .       . .     .     .     . .   . .   . o % % . . O . . . . . O . . . O % # $ @ + + > < q M V y y V V V y B B B A H ! ) =.r.r.0.r.r.r.=.=.;.=.! ! ! A H H N M M q 0 0 0 0 1 1 1 ; + ; > > > 1 ; 1 > 6 7 q M M M M H H H H H ! H ! @.@.@.;.;.;.>.>.>.0.w.p.w.5.5.6.p.p.p.y.y.y.5.t.t.t.t.t.+.d.,.t.+.,.+.,.+.u.u.t.p.t.5.>.,.:.*.X.} G m m b x 5 3 : : ; + + + O O . O . . . O . . O O % O % O % O @ @ O % @ % % @ @ @ + + O O O O O . . .     .   .                       . .                                                                                                                                                             ",
"X h p Q i i Q ] `.jXjX^.Q.Q.(.(.^./.lXlX/.jX^.jXzXzXDXxX:XT.] / ^ Y g g s w w r w r r * * # o   o     o - = = * &   o       o o * = r p d f f I I I ( ^ I I I ^ ` ` W s s w w U U U I ` [ [ I u       o o           X p u - o o o                                                                                                                         .   .   .   o           .   . . . % @ @ > 7 0 M Z ! _ =._ ! M 3 : ; + O . O . .         o   .           .   .         .   .           .         .   . X o o . . o .   . . . . . . . .   . . O . . O . . O % . . . . .   .       . .   .     . .   . . . . . . O O O O . O . O . O O O . O O O $ , 8 8 9 < 9 q V S A A Z A A J A A A J ) ) =.=.r.r.0.e.e.Y.e.8.r.r.r.;.$.! ! Z Z V M M 0 7 1 2 1 : ; ; ; ; + ; ; : > > 1 7 7 z M V Z A H N H H H ! L ! ! ! @.@.;.>.>.0.4.5.5.6.e.t.6.6.5.t.t.p.6.t.y.5.t.u.t.u.t.,.,.3.O.O.O.O.+.i.t.t.p.p.5.5.3.>.,.:...} G m b m c j 3 3 : ; ; + O + O O . . O . . . . O % % O O O O % O O % O % @ O @ @ @ % O O O . O O . . . . .         . .   .   .   .                                                                                                                                                                     ",
"- h g f Q i Q / E.jXxXjXW.T.Q.^.^.^.lXlX/.^.(.(.^.jXkXxX`.T.{ / ^ ^ ^ Q g s p u p w = - - o             X * = = X o o       o o & w p d d d f T ^ I I ^ ( I ^ ( ( ( U i s e w U s Y W ` f.f.( u o         o       o - p p h                                                                                                                         .       . o   o                     o . X . @ ; > 9 k C J ) _ ) J C 7 : ; ; + O O . .   .               o           .   .     .   . .   .           . .   .   . . . . . . . . . . . . . . . . O . O O O O O O % O % . % . .   . . .   . . .   . .     . . % O O O O O % % % O O O O O O O O O O @ + 6 9 y y q q M V A _ ) _ ) _ ) ) _ =.=.) -.-.-.-.0.e.e.e.a.Y.e.8.0.0.-.=.$.! H D Z M z j 3 < : ; ; ; : ; ; ; + ; ; : 1 : 6 y y M V ~ H ~ H H H H ! H H @.! $.$.;.;.,.>.>.0.5.0.5.6.5.6.5.6.y.y.6.y.5.t.6.5.t.t.t.3.3.3.O.O.O.O.,.O.:.3.t.y.6.5.3.,.:.:.%.X.} F D D m x j 3 : : : + + + O O O . . O . . O O O O O O O O O O O + O + @ @ @ > @ @ @ % O O O O O . . .     . .   .                                                                                                                                                                                     ",
"o h f ^ f Q Q ^ T.UXkXjXQ.Q.Q.(.(.^./.lX^.^.(.W.W.`.jXjXE.P./ ^ ^ Q g g g u u w = = = X o .           o X - = = & o o   o   o o & = s a g f I ^ T I f ( I I ( ` ( ` U w s e s Y s s U ` f.f.( w o   o   o         o = p p # o                                                                                                                       .   .       .   o               .   . . o % @ @ > 7 z M H _ ) ) ! V 7 : ; + + + O . . . .                   .   .   .           .     .   .   .         .   . o . o O . . . . . . . . . % . O O O O % + @ % @ @ O O % . O . . . . . . . O . . % % % O % % X O % O + % + + + + O + O + + + % O + , < y a S S C B N J ! =.=.r.=.=.=.r.r.r.r.0.0.q.0.e.0.e.k.e.a.k.a.e.8.8.-.;.! H Z x l z 2 3 1 1 : : : : : ; : ; ; ; : : 1 1 7 y M V H H H ~ H H H H H @.@.H K @.%.%.-.>.5.0.5.5.6.6.5.6.5.6.6.6.p.y.6.6.t.5.3.t.3.t.t.3.3.O.O.O.O.O.+.3.3.3.t.5.5.3.>.:.:.:.%.} L D D m c 3 3 : : ; ; + + O O . O . . O O . . O O O O O O O + O O + + @ @ @ > > @ O O + O O . O . . . . . .         . .   . .   .   .   .                                                                                                                                                             ",
"o h ^ ^ ^ i i ^ ] W.xXkX(.T.(.(.^.!.^.^.^.^.^.(.W.W.W.E.T./ ^ ^ Q g i i u u e = - X X X       o     o o - = = = * X o o o . o o - u p d f I ( I ^ T I I I ^ ^ ` ` ^ U s w s w Y Y U U g.f.f.^ e   o     o         X = p p - o o                                                                                                                         .     .   o                     . o X . O + @ 6 0 M A ! ) ) ! Z 0 2 : ; + O O O O . .   .                 .   .     . . .   .     .     .   . . .   . . . . . . . o O . . . O . . O % % % @ @ @ @ @ + @ > @ + O O O O . O . . O O O O % O % $ % % @ @ @ O + + + ; < 4 , , , 1 > , > > ; ; 1 6 q V ~ _ ~ J J J ) r.9.e.9.r.0.0.e.e.e.e.k.e.M.e.a.a.a.a.a.Y.a.e.e.0.-.;.$.K Z c j j 3 3 : : : : : : : : ; ; ; ; > : 1 3 2 y M H H H ! ! ! H H H H @.H H @.} @.%.%.>.>.5.8.0.5.4.w.7.5.5.3.5.6.t.6.y.5.3.5.3.3.t.3.+.,.O.O.O.O.O.O.:.:.3.3.5.5.,.>.:.:.:.%.%.} L D D D c j 3 : : ; ; + O + O O . . . . . O O . O . O O O O + O + + + @ @ @ $ @ @ @ + O O O . O . . . . .   .   .                                                                                                                                                                                     ",
"X u f ^ Q i i i ] E.kXzX^.Q.Q.(.!.(.(.^.^.jX^.jX!.Q.T.Q.g./ Q Q Q i h h - - - - o o X o X o o o o   o X - = = = * X o o & o o & * = p d f f ( ( T f ^ I I I ` ` ` W U w Y s s s s Y W f.R.f.I e o               X # h y 6 - o o                                                                                                                     .     o               o               . o o O + + 1 9 M A ! ! _ J V k 2 : ; + O O O . . .         .       .   .       .     . .   . .     .   . .   . . . . O . . . O . . . . O . O . O % $ @ $ + , @ > > , > @ @ @ @ O O O O O O O O O @ $ % $ @ % $ 6 6 > + + + ; 4 q t 0 9 9 < 6 2 1 : : : 5 q H _ =.r.=.) $.$.r.q.e.e.e.e.e.e._.k.{.e.{.I.N.{.N.a.{.{.e.a.e.8.0.>.;.} L D x j 3 3 : : : : : : ; : ; : ; ; : : 2 3 2 7 j z N H ! ! ! ! ! ! ! ! ! H L ! L @.} ;.:.>.>.0.5.0.6.6.5.5.7.7.6.5.y.y.y.y.6.5.3.3.3.3.3.3.O.O.O.O.O.O.O.O.3.:.3.3.>.:.3.,.:.,.%.X.} G F D b c 3 : : : : + + + O . . O . O . O . . O O O O O O + O + + @ @ @ > @ > @ @ @ O O O O O O . . .     . .       .     .   .   . .   .                                                                                                                                                             ",
"X h p g p u u g ^ T.jXxX^.(.Q.Q.(.Q.(.(.(.^./.lX^.Q.T.T./ / i h h h - - - X o o   o o o o o o o X X X h = = 8 h * o o o % o o o * r p f T ( ( I ^ I S I ^ ^ ( ` ^ I Y w s s Y w s W g.f.f.f.U & o   o o   o       - p h - X   o                                                                                                                     .     . .           o               o o o X O O + > < q H ! ) J A Z l 5 2 ; + + O O O . . .               . .   . . . . .   . .   .   . . . . . . . . . . O O O . O . O . O O O O . % % @ $ 6 8 6 6 6 < 1 6 1 > > > > + + O + O O O O O + @ , $ @ + 6 y q 6 < 1 1 2 z v Z S M M M k 0 2 1 : 5 l F ) r.9.q.0.0.9.0.e.k.{.{.I.k.a.a.{.{.{.a.{.a.}.[.N.}.a.{.a.a.e.8.>.%.} F m x j 3 3 3 : : : : : ; ; ; ; ; : 1 1 3 7 z M M M N N H @.;.@.;.! @.! ! ! @.@.H @.} @.%.-.>.4.8.5.5.4.6.4.7.7.5.3.5.y.6.y.6.5.3.3.3.3.3.3.O.O.O.O.O.O.O.O.3.:.3.3.:.3.3.:.:.:.:.%.X.} L L D b c 3 3 : : ; ; + O O O . O . O . . O O O . O O O O O @ + @ ; @ , > , > @ @ @ @ O O O . O . .   . .                     .   .                                                                                                                                                                   ",
"X - u h h - h i ^ g.`.jXjX(.(.Q.(.~.(.~.Q.Q.^.xX`.Q.T.] / ^ Q i h - - X o o o o       o o o o o o X X $ = = = 8 X o   . o o # & - p g f T ^ ^ S ^ T ^ I I ( ` ( ` U s s s s s s Y U f.f.f.` Y & o o             X = p p - o     o                                                                                                                           o     .           o         o o o X . O + ; < z C A ! K J Z v k 5 : + + O O . .     . .               . .       . .   . .   . .   . . . . O . O . O O O O . O O O O O . O O # @ 6 6 8 6 7 6 6 6 6 < 6 6 6 > > > @ + + O + + + @ @ > , > > > y y y q 9 6 2 0 B S A J A S V C v k z z l Z ) =.0.Y._.{._.a.k.e.{.{.{.{.{.{.{.{.{.I.{.{.N.}.}.}.}.}.{.M.e.0.-.%...G m x j 3 3 : : : : : : ; : ; ; : : : 2 7 z z M N N N N H H @.;.;.;.;.@.@.@.@.@.H @.@.@.%.%.*.>.4.5.5.4.5.4.4.3.3.7.5.6.5.6.y.y.5.5.3.:.3.O.:.O.O.O.O.#.O.O.O.O.:.O.3.:.:.:.,.,.*.%.%...} G D D m c 3 3 : : ; ; + + O . O . . . O O . . O O O O O O + O @ + @ @ > > > > @ @ O O + O O O O . . . . . .   .   . .   .             . .                                                                                                                                                             ",
"X X X - X & u i Y ^ T.:XjXjX(.(.(.(.^.(.Q.T.Q.^.W.Q.L./ / Q h h h - - X X o o o   o     o o o o o o X - h 8 - = o     o o o # * = p d T I f ( ^ I I f I I ^ ` ` U U s s Y Y s Y U W f.f.f.W e & o o o   o       X = a h - o   o o                                                                                                                   . .   .                             o o o   O O @ + 1 q V J J J J S C k 2 : + + O O O . .     .               . .   . . .     . . . . . . . . % % % % O % O O + O O O O O O O O % + @ 8 y y y y y q y 7 7 7 6 7 6 > > > > @ @ + + + @ @ $ 6 > 6 9 9 V S V M k q M V J _ ) ) _ ) ) J J H D H J ) =.9.e.{.{.{.{.{.{.{.[.}.}.[.{.{.{.a.}.a.a.}.}.N.S.}.}.A.N.a.>.:.%.}  .m x j j 3 : 3 : : : ; ; ; : : 1 2 2 2 7 z N N N H H H H H @.@.;.;.;.;.;.@.@.! @.L @.L @.%.%.>.>.8.5.>.5.4.2.2.2.7.3.3.6.3.3.6.6.3.3.2.3.3.:.:.O.O.O. .#.O.O.O.O.3.:.O.:.3.:.:.:.:.X.| } } G L D b c 3 3 : : ; + + O O O . . . O . O O O O O O O O + O @ @ @ @ , > > , > @ @ + + O O O O . . . . . .   .     . .     . .   .     .                                                                                                                                                               ",
"  . o   o & h h i Y h.`.jXjX^.Q.Q.Q.^.~.T.h.T.Q.W.T.L./ / Q h h h - X X o o o o o         o o o   o # - 6 - - # o o     o o - = r p f I ( ( ( I ( I ^ I ( ( ( ` I Y s s s w s e U g.f.`.g.U e & o   o o         % h p p X       o                                                                                                                       .     .   .             o           o o O O % @ 1 0 S H J J H Z C v 5 : + + O O . . . .         .     . .   . . .   . . . . . . o O # O % O + % % % + O @ + O O O O O O O + % $ @ 8 y y y M y y q q 7 9 7 7 6 1 1 6 > > > > + + @ @ 6 6 7 y M a V A A S Z C A ) =.r.0.9.9.r.=.=.&.) ) ) $.=.0.e.e.{.{.{.}.[.[.}. X}. X}.}.}.}.[.[.{.N.N.S.}.}.}.}.N.a.8.>.X.G L m x c j 3 3 : : : : : : : : 1 2 0 0 0 z M N N H H H H H L H ! ;.;.;.8.;.;.;.@.@.@.@.@.@.%.%.*.,.4.2.4.4.4.4.2.2.2.3.7.6.3.6.6.3.5.5.3.2.O.3.O.O.O.O.O. .O.O.O.+.3.3.3.:.3.,.,.,.:.%.%.%.} G G D D D c 3 : : : ; + + O O . . . O . O O . O O O O O O O + + + > ; > , , , , @ @ @ % % O O O O . . .     .                                                                                                                                                                                           ",
"          o - h e i / T.`.kXjXE.Q.(.(.(.T.h.h.Q.E.T.h./ Q Q h h h - o X X X o X X o           o X - - @ h 6 # X o .       . * = r d T I I I ( I ( I I ^ ( ^ W ` W w Y s s Y s Y U f.`.].] Y e & &   o o o o     X p a 6 - X o o                                                                                                                     o                 .   .                   . . O O + > M V H ! A A H S M y 6 ; + + O O O . . .     .   . . . . . . . .   . O O O % % % % % $ + ; + + + + + + + + + + + + + + + + O , , 9 y V V V V y M M z 7 7 7 7 7 6 6 7 6 6 1 > > > 1 6 7 y y M H ~ ! ~ ~ H ! ! r.0.Y.e.e.e.Y.e.0.r.r.r.-.r.q.e.a.{.M.{.}.[.[.[.}.|.}.@X}.}.}.[.}.V.N.{.a.}.}.S.U.a.a.w.,.@.| m P c c j j 3 : 3 3 : : : : : : 3 z M N N N N H H ! @.! ! ! ! ! @.;.8.;.;.;.;.;.@.#.@.@.@.@.@.#.>.>.>.4.5.>.2.:.2.:.2.2.3.6.4.3.6.3.3.5.3.3.O.O.O.O.O.o.X.O.O.O.O.:.3.,.:.:.>.5.5.>.:.X.X... .} G F D b z : : : ; ; + O O O . . . . . . . O . O O O + % ; + ; , , : , < : , 6 @ @ + O O O O O . . . . .   .                                                                                                                                                                                           ",
"          o - - h i Y ] E.jXkXW.g.E.T.E.T.h.h.g.T.h.h./ Q Q h h h o X X X X X X o o             X 6 8 h = 8 - X           X = r t I I I T ( ( I I I I ( ( ` ^ ^ Y e s s w s Y Y ` E.`.].] i &   o     o       o h p Q - X o o o o                                                                                                             o         .                                         . O + > y S H A H H H Z M 7 1 ; + O O O O . .   . . . . o % . # . . . . . O % $ # % + % + % , , : 1 ; ; ; ; + + + + + + + + + @ % @ $ 6 8 y y V V M M z y y 7 7 y 7 7 7 7 7 7 7 6 1 1 2 1 7 0 M ~ ~ ! { ! ;._ ! ;.r.r.e.Y.Y.Y.Y.e.Y.e.e.e.e.e.e.e.e.{.M.{.{.[.[.{.N.}.}.[.}.}.A.}.}.}.}.N.N.M.a.a.a.a.t.8.%.} L D P P c j j 3 3 : : 3 3 : : : 3 3 j N N H H N H H H @.@.@.@.@.@.@.@.;.@.8.8.;.;.@.;.@.@.@.@.@.@.@.*.,.>.4.5.4.2.:.:.2.2.3.3.5.3.6.6.3.2.3.>.:.:.O.O.O.O.O. .O.o.O.3.5.5.3.3.3.>.5.5.>.:.X.....K G G F Z b c : : ; ; + + O O . . . . . . . O . O O O O % + $ + ; ; ; , < < 4 < , , @ + O + O . O . . . .   .             o                                                                                                                                                                               ",
"    o     o - - h i i Q ] W.:XW.g.g.g.h.T.h.h.h.h.h./ ^ Q h h h X X X X X X X - X o o o o o . o # 8 p p = $ - o       o o = p a I T ( ( ( ` ( I I I W ^ ` ^ I I s w s U Y Y Y ^ f.`.kX].` w & & o   o o       X h a y h o o o o o                                                                                                                                               .                 . . O 6 y V Z H A H S Z N z 7 ; + + O O O . . . .   .   X % X % % % % % O % @ $ $ $ % + $ , 4 < < 1 > ; + ; ; ; + ; + ; ; ; + $ % @ @ @ 6 6 y M y q k q q M M M M M M M M 7 7 7 7 7 7 7 7 7 M V H ~ ! ! _ ;.;._ ;.r.Y.e.Y.Y.Y.e.Y.Y.Y.Y.k.Y.a.e.a.a.M.a.{.I.{.N.N.{.{.[.}.[.}.}.}.}.}.N.}.a.a.a.a.t.8.#.}  .P P P c j j j 3 3 3 : : 3 : 3 3 3 7 j M N H H H L H @.! ! @.@.@.@.@.@.;.;.8.8.@.#.#.;.#.;.#.@.#.@.#.%.%.:.5.>.4.5.2.:.O.2.:.:.3.3.4.3.5.3.3.2.3.:.O.O.O.o.O.o.o.O.O.O.3.5.5.5.3.3.5.5.5.5.:.%.| G G G F D Z b j : : ; ; + + O O . . . . . O . O O O . O + + ; , ; , , 1 < < < < , , $ + O + O O O O . . . .   . .                                                                                                                                                                                           ",
"    o       o X e e i i ^ R.`.E.g.h.h.h.h.T.T.h.h./ / ^ Q h h - - X X X o o o o o X o o   o X - h p y y - # X o . . o X = = s f I ( ( ( ( T ( I I ( ^ ^ W ` I U s Y U s Y U U ` ].:XkXE.I & & o   o o         - p g p # o o   o                                                                                                         .                         o                   .     .     . . + 6 M V S Z Z V H S V 0 < + + + O O . . . . .   . . % @ # $ % % % + % @ $ , , , $ + + , < < < < 1 : ; ; + ; ; ; ; ; ; ; ; @ + + @ @ @ > 6 9 9 q q 7 q z M M M M M M M M M M M M z M 7 k M M V H ~ ! ;._ ! ) ;.r.Y.Y.0.8.8.e.e.e.a.a.e.{.e.{.e.e.e.k.M.M.N.N.I.N.N.a.[.N.N.a.}.N.S.a.a.a.p.i.t.3.%. . .P P c c j j 3 j j 3 3 3 3 3 3 3 3 j j z N D H @.H H @.H @.@.;.#.@.@.#.;.#.;.#.;.#.;.;.#.@.@.@.@.@.@.%.%.:.,.>.>.3.>.2.:.2.:.2.+.2.3.3.5.3.3.:.3.:.:.:.O.o.o. .o.X.X.O.O.6.t.t.5.3.>.4.5.8.4.:.....| G G F m m z 3 : ; ; + + + O O . . . . . . . . O O O O + % $ ; > < : < < < 4 4 < > @ + + O O O . . . . .   .                           o   o                                                                                                                                                               ",
"  . o   o o o o & g / Q ^ { E.R.g.h.^ h.h.h.h.h./ ^ / Y i h h - X X o o o     o o % X X . . $ p p a p h X .       o o * = p f I S I ( ( I ( I I ^ I ( ` W ^ U Y s s Y s Y U ` g.`.gX:Xf.i & & &     o       X = p p h # o o o                                                                                                                                 .                                     . O 4 a V V V A V H A M M 6 ; + O O O . . . .   . . . O # @ @ % + @ + O + , 4 , , ; , < < 2 2 7 7 6 2 1 1 1 ; ; ; ; ; ; ; ; + @ @ + + + @ > , 6 9 9 9 9 9 0 7 M k M M M M z N M M M z z M N V H ~ ! ! ! ! ! ;.;.r.8.Y.8.8.r.8.0.0.e.e.e.e.e.a.e.e.a.a.a.M.a.M.M.M.a.a.N.a.a.a.a.a.a.a.t.i.,.>.,.| | m P c P j j j j j 3 j 3 j j z l z z z N l N P H @.H L H @.@.@.;.;.#.;.8.#.#.#.#.#.#.#.#.#.@.@.@.#.@.#.@.%.%.:.>.>.5.,.2.2.:.:.2.O.2.2.3.3.5.3.2.>.:.3.O.O.O.O. .o.X.o.X.:.2.5.p.y.5.5.5.4.5.5.>.O.o...G G G D m b z 3 : : ; + + + O . . . . . . O . O . . O O O + $ ; > 4 < < < 2 < 4 , , + O + O O O . . . . .   . o                                                                                                                                                                                             ",
".     . o   o o h ( [ ^ i Q ] T.h.` ^ / ` ` h./ / ^ Y Y i h - - o o o o o     o . X X % . X 8 p f a p 6 .   .     o - = p d f f ^ ( ( T ( I ( I W ` ` ^ ` I U Y s s Y s U U g.f.`.:X`.` e & & & o           - = p g h # o o   o                                                                                                         .       .                           .                     . o . $ 8 y M M M Z S H V k 7 ; O + O O O . . . . . . O @ 6 $ , + + ; @ + > , 6 6 < < : 4 9 0 0 7 7 7 7 7 6 2 : : : ; ; ; ; ; , , > + + + ; + ; > < 6 < < 9 2 7 7 0 z M 0 z M M z M M M M M N M H H H ! ! ! ! ! ! ;.r.r.r.;.;.-.r.>.0.0.0.e.8.e.0.5.e.w.e.e.a.a.a.a.p.a.a.a.p.t.t.t.8.t.,.,.#.%...|  .P c P c j j j j j j j j z M N N N N N N N P H ! L @.L @.@.@.@.;.8.8.8.#.8.#.#.8.#.#.@.#.#.@.#.@.@.@.@.@.#.%.%.:.:.>.3.>.2.:.:.O.2.2.2.3.3.6.3.3.:.3.:.:.O.O.o. . .o.O.O.,.3.y.a.p.t.6.5.5.8.4.>.%...| G G G D b v c 5 3 ; ; + + O . . .   . . . . . . O O O O + $ ; > > < < < 4 < < 1 < + + + O O O O . . . .   .                 o                                                                                                                                                                               ",
"  .   .   o . o i [ ).] u h ^ ] ` / ^ / Y h./ / Y Y Y Y i h & - o     o o     o   X X X # = p a a a = X .     o   X = p s f I ( T ( ^ T I ( ^ W I ( ^ ` W Y s Y s s s s U ^ g.f.:X:Xj.^ e & e &           X = p a p - o o o           o                                                                                                           .                           o     .                 . O , 8 q M M V S S Z k 9 ; + + O O O O . . . . . % @ @ , < , > > > ; 1 2 7 7 7 7 5 0 q k z 0 0 0 7 7 7 7 1 1 : : : : : ; + ; ; + + ; + + ; > ; > < 1 1 ; 6 6 7 2 7 7 7 7 7 7 7 M M M M M M N V H A H H H ! ! ! @.! @.@.@.$.$.;.%.;.-.>.>.>.>.>.>.4.>.>.w.e.t.i.p.t.5.8.,.,.,.,.,.,.%. .| | L m P c P j c j j j j j c x x P H H L H H H P H H L L @.@.@.@.@.@.#.#.#.8.8.#.8.#.#.#.#.@.| #.@.@.@.@.@.@.#.@.%.%.%.,.,.>.>.:.:.:.:.2.:.2.2.5.3.6.3.2.2.3.:.:.o.O.o.o.O. .O.O.2.5.t.p.t.w.5.5.w.5.4.:.X... .G m m n b z j : : ; ; + + O O . . . .   . O . O . . O + @ $ > , < < 4 < 2 4 < : , $ @ O O O O . O . . . .                                                                                                                                                                                                   ",
"              o w ] ).] h e g ^ ^ / Y Y ^ Y / Y ^ Y Y Y h & & o o   o   o   . . . X # @ - y a f g 8 # .         & * r d f f ^ T ^ I ( I I I I I ( I ` I U Y s s s w Y s U I g.].].:Xf.U & & -           o X r p f p - o o X o                                                                                                                               .         .                 .             . . % 8 8 y y M S A V M 9 ; + O O O . . .   . O O % $ $ 6 6 < 1 1 1 1 < 7 9 0 0 0 0 z k l M M M M z 0 7 7 3 2 3 : : : : ; + + ; + + + ; + ; ; + + ; > ; ; @ > > > > 6 6 2 7 7 7 z 7 7 7 z y M N M N V N N N H H ! H L ! ! K } } } } } @.@.%...%.%.%.%.*.,.>.8.5.8.,.,.,.,.,.X.#.#.| |  . .P P c c c c j c j j j j c x P D L ! ! ! ! @.H H L L L @.@.@.@.@.#.@.#.8.8.8.8.8.8.#.#.#.#.#.@.#.@.#.@.#.#.@.@.#.#.,.:.,.>.3.,.>.2.:.O.O.:.3.3.3.6.3.5.3.3.:.>.:.:.o.X.X.o.X.O.O.3.2.5.w.a.p.p.5.5.5.4.:.o.} G G L m b x c 5 : : ; + + O O O . .   . . . . . . O O O + O + ; , 1 < < < < < < 4 : + + O O O O . . . .     .                                                                                                                                                                                                 ",
"          . o   - ( ].' - - e ^ ^ ^ ^ ^ Q Y ^ ^ ^ Y i e h - & & o .   o o o   .   % $ # 8 p a a 8 - o     . o o = r s s U I I I T I ^ I I T ^ I I ` W ^ Y Y s s Y e U Y U ` g.].`.].] w & & & o   o     X = a g f p 6 X o   o                                                                                                             .                                         .                 .   . # , 6 6 y V A S M 9 + O O O O . . . . . . % # 6 6 6 7 7 7 7 2 2 7 7 z z z k M z N M N M M M M M z 7 7 7 3 2 1 : : 1 ; ; ; ; ; ; + ; + ; + ; + ; + + + + + ; ; ; ; ; 6 6 1 3 2 1 7 7 7 7 j z z z M N N N N P N P P P L P L L  .L L  .| | | G  .} } X.%.*.,.%.| #.| @.| | | |  .P P P c P P c j j j c j c c c x P ! ! ! @.;.;.! @.@.! | L @.| @.#.#.#.;.8.8.8.#.i.8.8.i.i.#.#.#.@.| #.@.#.@.#.@.#.@.#.#.X.%.,.,.,.>.:.>.:.:.:.2.3.2.5.5.5.5.2.>.3.3.:.O.X.o.X.X.X.:.:.,.5.p.p.w.p.8.5.e.5.>.*.X.G G m m c n z c 3 : : ; + + O O O . . .   . . . . . O O O + % , , < < < 9 2 < 2 < < , + + O O O O . .   .         o                                                                                                                                                                                             ",
".           X   X ~ P.( h - - g ^ U U ^ ^ ^ ^ ` ^ ^ i e & o o         . . . . X . # $ = p y p p $ X .       o o = p p f I T ^ ^ T ^ T I I I I ( ^ ^ ^ U s w Y e s w Y Y W g.g.].:Xj.` & o & & o   o     - u g a a h - X   o o                                                                                                                       .                     .                             o . % $ 8 8 y a V V y q + + O O . O . . . . O % - 6 y 6 7 7 7 7 7 7 z z z z x M l N N N N N N N N M z z 7 j 7 3 3 3 3 1 : ; ; ; ; ; ; + ; + + + ; + + + + + + + + ; + + > > ; ; 1 1 1 1 1 1 7 7 z 7 j j z x N N N x N P P P P N P P P P D m L P  .m G | | | | |  . . . . . .P P  .P P P c j j j j c c c c P N P P @.! @.;.;.;.8.;.;.;.;.@.@.@.#.#.#.#.8.8.8.i.#.i.#.i.#.#.#.#.#.#.| #.| @.@.#.@.| #.%.#.X.,.>.,.:.>.3.>.:.>.2.:.:.2.3.3.3.5.3.3.3.:.:.:.O.O.o.X.o.O.:.:.5.4.5.5.t.5.5.w.5.5.>.*...| G m m n c z c 3 : : ; + + O O . . . . . . . . . O . O O + + , , , 1 < 9 6 2 6 < < 1 % + O . . O . . .                                                                                                                                                                                                         ",
"          o o     h ( p & X   = i g g ^ ^ ^ ^ ^ { ^ s e & &   o o     o o . * * # = = r p a y h . . .   . . & * w p d I T ^ W I I I ^ I I I ^ ^ W ` W s e e Y s s e Y Y ` f.].`.`.g.s & o o & o .     . 8 a f a a h X o o o o                                                                                                                         .     o                             o         . o .     % @ 6 6 y a V y 6 + O O O O O . . . O . @ 6 6 y y 0 M 7 z z j z M M l N N N N N H N H N N N N M z j j j 7 3 7 3 3 : : ; ; ; ; ; ; ; + ; + + + + O + O O + + + + + @ + ; ; ; ; > > : : : : 7 3 3 3 j j j z j c j c c P c P P c c P c P x P P P P P P P P P P  .P P P P P P P c j P j j j j j P c x P P P L @.@.@.;.;.8.8.;.8.8.r.;.@.@.@.@.#.;.#.i.8.i.i.i.i.i.i.#.8.#.#.#.| #.| #.| #.#.#.,.%.%.,.,.%.,.,.,.5.5.,.2.3.>.2.3.3.2.3.5.3.5.:.:.:.,.:.X.O.O.X.O.:.:.3.5.4.5.5.8.5.5.8.4.4.>.X.| G m m m c c c 5 : : ; + + + O . . . . . o . . O . O O O O % $ , , < < < 2 2 < 2 < < , + O O O O . . . .   .         o                                                                                                                                                                                           ",
"o         . o     o - X       & e u g U U U ^ ` ` ^ ^ i u & o o o o o o * * = 8 = 8 8 8 p y 8 # . .   .   X * = p g I ^ T I ^ I I I I I U U I ` ` ^ Y s w w s e e e s W g.].].`.].^ & & &     o o .   o 8 f f g p - o o   o o           o                                                                                                                         .       o           .         o     X .     . X X X 6 8 8 9 6 + O O . O . . . O . % @ 6 y y y M z M N z z z z N N N N D N D H H H H H H N M z z z z 7 j j 7 7 3 : : : : : ; ; ; ; ; ; + ; + + O + + + O + + + + + + + + + + ; ; ; : ; > 1 1 3 3 7 7 j j j j j j j c c P c c j c j j j j j j j c P c j c P P P P P j j j P c c P c j P j j N N P P | @.@.;.;.8.8.;.8.8.8.8.8.8.#.#.@.@.#.8.8.i.i.i.i.i.8.i.i.i.#.i.#.#.#.| #.@.@.#.;.#.,.,.%.,.,.:.,.>.>.>.5.>.>.5.2.:.:.3.3.4.7.3.3.:.3.:.:.%.:.X.X.X.:.:.>.3.2.5.5.5.6.5.5.6.>.:.*...} G m m x n c c 5 3 : ; ; + O O O . . .   .   . . . O O + % + , , < 6 < 9 9 6 9 < 2 < 1 % O O . . . . .                                                                                                                                                                                                           ",
"          o o   o             o & e u s g g I ^ ^ ` ` ^ g 8 - o & & * # * * 8 r 8 = 8 8 8 = # X .     o o X = w s f I ^ ^ I ( I I I ^ I I I ^ ` ` U U Y Y e e Y e s Y W f.].:Xj.f.s o o &   o   o . . o r S f a 8 - .     o o   o                                                                                                       .               o                                 o           o           . . % @ $ , $ O O O O . O . . . O O + 6 y y M z M N z M N N N N N N D N N L H H H P H H N N N z z z z z z j j 3 3 3 : : : : : ; ; ; ; ; ; + ; + + + + + + + + ; + + + + ; + ; ; ; ; ; : : : : 1 3 3 3 3 j j j j j j j j j j j j j j j j j j j j j c P j c P j c P j c c c c c j P j P N P P P L @.;.8.8.8.8.8.8.8.8.8.8.8.I.8.8.#.#.#.#.#.i.s.I.I.i.i.i.i.i.#.i.#.#.#.#.#.@.#.#.%.,.8.,.,.>.,.>.,.>.,.5.5.>.5.>.5.5.2.5.4.3.5.4.4.3.2.:.:.O.:.X.X.O.*.:.>.3.5.4.,.5.5.4.>.>.>.*.*.%.} | G m n P c c c 5 3 : : + + O O . . .     . o . . . O O O @ + $ , < 6 6 < 9 2 2 2 < : ; + O . . O . .   .                                                                                                                                                                                                         ",
"          o o   o     o o o     o & - w u p s ^ ( ` [ ` ( f u = r * r = r r r p w r = = - # % % o . . X * = p p f ( ( T ^ W I I U I I I U I I I I U Y w e s e e i Y U f.`.:X:Xf.^ e o & o o     # .   # p I f p - X                                                                                                                                                         .                   o o     .   . o   . . . @ % @ % O O O O O O . . . O % , 6 y y M M N N N M N N N N Z P N H H D H H H H H H H N N z z z x z z z z j 7 3 3 : 3 1 1 : : ; 1 > ; ; @ ; ; ; + + ; ; ; + ; + + + + + + + ; ; ; ; : : : 3 : 3 3 3 j 3 j j j j j j j j j j j j j j j j j j j c j c j j P c j P c c c j x P c P P P H L @.@.;.;.8.8.8.8.8.8.8.8.8.I.I.8.8.8.8.#.#.#.,.s.I.s.I.I.i.i.8.i.#.#.#.#.#.#.#.#.#.#.8.,.8.8.,.,.;.,.,.5.5.>.5.>.5.2.5.>.3.3.2.3.4.3.3.3.:.:.:.%.O.O.*.*.O.:.3.>.4.>.5.4.>.5.>.:.:.*.X...} G m m P n j c 5 3 : : ; + + O O O . . . . o . . . O . . O O @ > , < 9 4 9 2 9 < < < < , + % O . . . .   .             o                                                                                                                                                                                           ",
"o   o       o               o   o   & & e = u s I ( ` { { ( f p r s r r p s p r 8 = * - # % X % . o o $ = p d f T ^ ( I ^ I I I I ^ U I I I I W W Y s Y w w e e s U ` f.`.`.].g.i & o &     o   o . . * f T g 8 % o       o       o                                                                                             .       .                             .                         o o o o       o .   . . . O O . O O O O O . . . . O O , y y y V V N N N N N N N N Z H N Z D H L H H L H H P N N N x x z z x x z c c j 7 3 7 3 2 : 1 1 1 > , , > 1 1 ; 1 1 1 ; ; ; ; ; ; ; ; ; + + + + ; ; : : : : 3 : 3 3 3 j 3 j j j j j j j j j j j j 3 3 j j j j j j c c P c c j j j P j P x P P P L @.@.@.;.8.8.8.8.8.8.Y.i.8.8.8.8.8.8.i.i.i.8.#.8.#.8.i.a.I.s.s.i.8.i.#.#.#.#.#.#.#.#.#.#.,.,.,.8.8.>.,.,.,.>.:.>.5.>.5.5.5.>.4.2.>.3.2.3.3.:.:.:.%.X.X.O.X.O.O.:.>.2.5.>.3.5.>.5.>.:.:.%.%.....| G G m m n c c 5 3 : : ; ; O O O . . .   .   . . O . O O O + @ $ , < 6 9 9 9 2 2 2 < : 4 O O O O . . . .             o                                                                                                                                                                                             ",
"            &     X         o o & o o & & - w u g f ( ( ( ( f d r r t s p p r r = * . . o X o   % . & = p s d I I ( ( I I I ( I W U ^ U I U ^ ^ s Y w w e Y w e U ` g.].].].g.W e & o &     o   .   . r f S p - .   . o o                                                                                                                       .               .                 .             o     o o o           . . O O O O O O O O . O . O O O , 6 y M M N N N Z H N N N H P P H P D D H H H H H H H N P z z N x z x N z M z M z z j 3 3 7 2 7 2 2 2 2 2 1 1 1 1 1 1 1 1 : : > 1 : ; ; ; ; + ; > ; : : : : : 3 3 3 3 3 3 j j j j j j j j j j j j j j j 3 j j j j j j j j c P P c j P P P L L @.@.;.;.;.;.8.8.8.I.I.I.I.I.i.I.i.i.8.i.8.i.i.i.i.8.i.8.i.s.i.I.i.i.#.8.#.#.#.#.#.#.#.#.#.@.#.;.8.,.,.8.;.:.>.>.>.,.>.5.>.8.5.>.5.5.5.2.3.3.4.:.:.O.O.X.X.X.:.%.*.:.:.5.>.>.5.5.5.>.:.:.%.:.....| G  .m m n c c j 5 3 : : ; + + O O . . . . .   . . . O . O O + @ , < < 6 2 5 5 4 3 4 < : , % O . . . .                     o                       o                                                                                                                                       o                         ",
"      o   o   o                 o & = w = - w w w s g I T f f p s r r r r r = * & o o & % & & o & # e r d U T I ` I I I I I W U U I I U U W Y U s w Y e w e Y s ^ g.f.].].f.( s & &   o       o     # p S f r o                                                                                                                                       o                             .                   o           . . . o O O O O O % % O O O O O @ , 8 y V V V N N N H H H N H P H P H H H L H H H L ! L P N N P N N x x P N x x x N z z M z z z z z z z 7 z j 7 j 7 7 7 7 7 2 1 6 7 1 1 1 > 1 > > 1 1 1 3 3 3 3 3 7 7 j 3 3 j j j j j j j j j 3 j 7 3 j 7 z j 7 j j z z M N P N H H H ! ! ! @.;.8.8.8.8.8.Y.8.i.I.I.I.I.U.I.s.I.i.i.i.8.8.i.I.i.s.s.s.s.s.s.s.s.i.i.i.#.#.#.#.| #.#.X.#.#.%.;.>.,.>.>.,.;.>.,.>.,.,.>.>.5.2.5.>.2.4.5.4.5.>.>.:.:.:.X.X.o.O.X.:.:.:.>.5.3.>.5.,.>.,.:.*.O.X.X.} | G G m m b c 5 5 3 3 : ; + + O O O . . . . . . . . . . . O % + , ; 4 3 2 5 5 5 2 2 4 : : , O O O . . . .         o                                                                                                                                                                                                   ",
"                              o   e p d p w = = = * = r p g s s r w = = = w w * * * * * w 4 w * * w r d U T T T W ^ ( I I I I I U U W U Y W U s s w e s s e s Y ( ] f.j.f.g.U e & o &           . % = a f f = o     o                                                                                                                                               o                         .                   . . . o o . O O O + % % $ O O O O + > 9 y V M V V V N M N N H P H P H P H L L L L L L L H H P N P N P N P N N N x N N N N M M z z z M z z M N c z z j z M 7 7 7 7 7 7 7 7 7 7 6 6 1 1 2 3 7 7 3 7 j 3 7 j j j j j j j j c j j j j 3 j j j j M j z j z x N N H N P H ! @.@.@.@.@.8.8.8.Y.I.8.8.8.i.i.I.I.U.U.U.U.I.I.i.i.i.i.I.I.I.U.U.a.s.i.s.s.s.i.,.#.#.#. .#.#.#.%.%.X.#.%.,.;.;.>.;.,.:.;.;.:.>.:.>.,.,.5.5.4.5.>.,.2.3.2.5.:.:.o.X.X.| o.%.*.:.>.4.>.,.5.5.>.>.:.%.O.%.X.X.} | G L m m x c c 5 5 3 : : ; + O O O O . . . . . . . . O . O % + ; 4 4 < 5 3 5 2 5 2 < 4 : , O O . . . .                                                                                                                                                                                                               ",
"      o     o     o     o       o r T ( f w - & & & & & w p p p r = w r r * r w w r r t s t t t r d d U I ( ( I ^ W U W W I I U d U U U s s s s w w s w Y w s U ` ] [ g.` I e o & &               # p f f p =     o                                                                                                                                                         .               .                 o     . . . % . O O O @ % + $ % + % % @ 6 7 y M V N M H N N N H H P H H L L L H H H L H ! L H H P Z P N P N N H P P N N H P N N N N z N N N N N N x x N z N N N N z z z z 7 7 7 7 7 7 7 7 2 7 z z z j j j j j z z j j j c c P M z j j j j c c N N c x M N P N H H L @.! @.@.#.8.8.8.8.I.I.I.I.I.i.8.8.I.I.U.&XU.&XU.I.I.i.i.I.8.i.U.U.U.U.s.s.i.i.i.i.i.i.,.#.#.#. .#.#.X.#.#.%.%.@.%.;.;.%.%.%.%.,.:.:.;.:.>.>.>.,.5.>.3.>.>.>.>.2.>.O.X.X.o.X.X.O.:.:.>.5.4.5.5.5.>.,.:.%.%.X.%.%.| } G G m x c c 5 5 3 : : ; + + O O . . . . .   . . . . . O O + ; > 4 < 2 4 5 5 5 5 < : : , + O O . . .                                                                                                                                                                                                                 ",
"          o                       s ` ( f = & & & o   & = = w r = r r r r r r t s d U d U T U U U d U W W I ^ W U W U U U U U U s U U U U s s w s e Y w w s U U ( ` ` ( U w & &   o   o o o     . = a f g 8 X                                                                                                                                                       .                                           .     . . . % . O + @ % $ $ $ % % @ > 6 y y V M M N M N H H H N H H L L L L L L @.H L L L L H H P Z P D P P P N N P P P H N P N N N N N N P H H N N N N N N N H N N N M M z z z z z 7 7 z l N N N N x z z x N N j j c c c P P N c c z x P N N N N N P H L H H ! @.@.8.8.8.8.8.8.8.I.I.Y.I.I.I.I.I.I.I.I.U.&XU.U.U.U.I.s.i.8.i.I.s.U.U.U.s.s.i.i.,.i.i.i.i.#.#.#.#.#.#.X.#.X.| } %.;.%.%.%.%.@.%.%.%.%.,.:.,.>.3.4.>.2.:.:.>.3.2.2.:.%.X...| o.X.%.*.:.2.>.8.5.5.,.:.:.%.X.X.X.X.} } | L m m c n c j 3 5 : : ; ; + O O O O . . . . . . . . . O O % ; 4 2 2 5 5 5 5 5 5 4 4 : ; ; O O . . . . .                                                                                                                                                                                                             ",
"            o   o               o d ' ( f & o & & &   o - = w w r w w r r t s d d U T T T U d W U W s W U U W U W U U U U U U s U d s U s s s s s s w s s Y s U I I U i e & o & o     o o o   . o p f d r * o                                                                                                                                   o       o                       .                                 . .   . . . O O O O $ , * $ + # @ 6 y V M V M N N N H N P H H L L ! ! @.L L L L L K H @.H L H D N P P N D D P P P N H H H H P P N H H H H H H P N N N H H H H H H H H N N N N N N M N N N H H H H P N P N P P x c P P P P P P P P H N H H H H L H H @.! @.@.;.8.8.I.8.i.i.I.8.8.I.I.I.I.;X;XI.I.I.I.U.&X&XU.&X}.U.I.s.a.8.8.I.U.U.U.U.s.s.i.,.i.,.i.i.i.#.#.#.#.#.| X.X.| X.%.$.%.%.%.%.| %.%.%.*.>.:.:.>.3.>.4.5.2.>.3.:.2.4.:.:.X.X.| o.| o.X.:.:.>.5.5.5.8.>.,.:.X.X.%.X.X...| m m m n c c c 5 4 : : ; ; ; O O O . O . . O o . . O O . % O $ , < 5 9 9 5 5 j 5 3 4 : : ; % + . O . . .                     o                                                                                                                                                                                         ",
"                                X s ( ( r     & o & o o & = = = r r s t s U d I I T T U d d U U d d U d U U U U s W U W W s W U W U s s s t w s w s w s s s U U s u e e & o o o o o   & o     o = a f a = X .                                                                                                                                                           .                                           . . . o % . % + % $ $ 4 $ > 6 6 y y V S M M N N N N H H H P H L @.L K K K K @.K @.L H @.! L L D D N P P N Z P H P H H L H H P H H L ! ! H ! H P P N P H H ! H L H H H H L H H H H H H H @.! @.L L H L L H H L L L P L L H L P H L ! ! ! ! @.@.@.@.;.;.;.8.8.I.Y.I.I.I.I.I.I.I.Y.I.I.;X;X&XU.I.I.U.&X&X&X&XU.U.U.I.I.I.i.i.i.U.}.U.U.a.s.i.i.,.i.i.,.,.#.#.#.#.O.| #.} } } } @.$.$.$.$.$.%.%.%.%.*.:.:.>.>.>.>.3.>.2.:.:.:.>.:.*.X...|  .o.o.X.%.:.3.5.5.5.5.,.:.%.%.%.X.} X.} | m m P x c c j 5 3 : : ; + + + O O O O . . . . . % . . O % % + , 4 4 9 5 5 5 5 5 5 3 : ; ; + O O . . .                           o                                                                                                                                                                                     ",
"                                o = g p =   o & o o   o o & = w w r s U I I T I U I T U d U U d U d s s d d d W U U W U s s s s s s s s w w s w s s w w s s s w e & o & &     & o o   o     o * p f f p * .                                                                                                                                               o       .                   o                   o     . . . . . . . O O O @ $ $ $ , @ 6 y y M V V Z V N N N H P H H L ! | ! } @.K K @.! @.K @.@.! @.L J G D N N m D P N P H P H H L H H H ! @.! ! ! ! L P L P @.L @.@.@.@.@.H H ! @.@.@.@.! @.@.@.@.@.@.@.@.@.@.@.@.@.@.@.@.| @.@.@.! ! @.@.@.! @.;.;.;.8.8.r.8.;.8.I.I.I.U.;XU.;XU.;X;XI.I.;X;X&X&X;XI.I.U.&X&X&XU.&XU.I.U.I.s.i.i.I.U.U.U.a.i.8.,.#.#.i.,.#.,.#.#.#.%.#.X.X.} } K K ..$.$.;...%.$.%.%.*.*.:.>.:.>.5.5.3.>.:.:.:.:.:.:.O.o. . .......X.X.*.>.5.5.5.,.,.:.:.%.X.} ..} } G m P n c x c j 5 : : ; + + + O O O . O . . . O . O . O O O + $ , 2 4 9 5 5 5 z 5 5 4 , ; ; + O O . . . . o           .                                                                                                                                                                                                 ",
"o                                 - w * o     o o           X = w w t U T U W I W I d U W d W d U d W d U U d s s W Y s W U W s w s w s w w e s Y w e w w w w e & o     & o o o o     o     X w p f a 8 o                                                                                                                                                                     o           .                           o . . . % O O % $ , , , , 6 6 y M N V M M N N N N P H H L L L } } @.@.} $.@.! K @.! @.! @.@.L L D D P P D H P L H L ! L ! L @.H @.@.@.@.@.@.L @.@.@.@.@.;.;.@.@.@.@.@.@.@.;.#.@.@.@.#.8.;.8.;.#.;.#.#.;.#.#.@.#.@.@.#.@.@.8.8.r.;.@.@.8.8.Y.8.I.Y.8.8.8.I.&X&X&X&X&X&X&X&X;XI.;X;X&X&XhX&X;XI.U.&X&X&XU.U.I.U.U.U.I.i.s.s.U.U.a.s.i.i.8.,.#.,.#.i.#.,.%.,.| %.| @.} } L G K $.$.%.$.$.$.%.*.%.*.:.:.>.5.>.>.>.:.:.:.:.*.:.O.o.....G  . ...X.X.:.>.8.5.5.>.%.,.%.%.%.| } | G L m P c c n c 5 5 < ; ; ; + + O O O O . . O . . % O . O O + % ; < 4 9 9 5 5 5 5 5 4 : , ; + + O . . . .             o                                                                                                                                                                                                   ",
"          o   o                         o           o & .   - = * w r d I d I I T T U I U U d d d W s s s U U s d U U W W s s s r s w w w w w s s s r w w w e & o &     o o o o o     o     X p a d p #     .                                                                                                                                                   .                                             .   .   . . o . . % O O $ , $ , 6 6 y M M M M N N N N N N H P H H ! @.! @.@.$.$.} } $.K $.} } ! @...K K D P P b b P H H L L ! ! L ! @.! @.;.@.@.@.@.@.@.@.@.#.#.8.8.@.@.@.#.;.;.8.#.8.#.#.8.;.8.8.8.#.8.#.8.8.#.8.#.;.#.#.#.#.8.8.8.I.I.8.;.8.8.Y.I.I.I.I.Y.8.i.I.&X;X&XU.&X&X&X&X&X&X&X&X&XhXhX&XhXI.&X;X&X&X}.}.U.U.}.}.U.s.s.I.U.U.a.s.i.i.,.#.#.i.#.,.#.O.#.#.%.X.| } G L G G K $.$.$...$...$.$.X.%.*.:.2.4.5.2.>.:.>.:.:.:.*.X.X.|  . . ...| X.%.:.>.5.5.,.>.:.:.%.%.%.} } G L D x c c c z c 5 5 4 , + + + + O O O O . O . . O . O O O O O + ; 4 < 5 9 0 5 5 5 5 5 < ; ; ; + O . . . . .                                                                                                                                                                                                               ",
"                                            o       o * - - - = * e w r s U d T I I T U S I U d d d d s s W W s W s s s s s s s w w w w w w r s d s u e e & & o   & o & & o   & o   o o   . = a g p 8 .     o                                                                                                                                                                     o               .   .             o     . . . % . % @ $ , 6 6 7 0 M M M M M N N N P N P H L L L | ! | } $.@.} @.K } @.) @.$.$.) } K L D D D P P P P H @.@.@.@.@.@.@.@.;.@.@.@.@.@.@.@.8.8.8.#.8.#.#.@.8.#.8.8.8.8.8.#.8.8.8.i.i.8.8.8.8.i.8.I.I.i.8.8.I.8.I.Y.I.;X;XY.Y.8.8.I.I.I.;XI.Y.8.I.I.&X&X&X&X&X&X&X&XhX&X&X&XhXhXhXhX&XhX;X;X&X&X&XU.I.U.}.U.U.I.s.a.U.U.a.a.t.i.,.#.#.#.i.#.#.#.O.#.@.X.$.} G G G G $.$.$.$.$.$.....} ..X.%.-.:.>.4.>.3.2.:.:.:.*.:.:.X...|  ...o.o.:.O.:.3.5.8.>.,.:.:.%.%.X...G L D m x c c c c 5 5 4 : + + O O O O O O . O . O . O % O O O % % + , : 5 4 5 5 5 5 5 5 < : ; ; + % O . .                 .   .   .                                                                                                                                                                                           ",
"                  o                                 = f I p - * & * e * w r s d T U U d f U d U U d s s s d d U s s s s s s s s s w r r s s s f s s w * & & o   o o o o   o & o o o .   . * p f a = #                                                                                                                                                                             o           .                     .   . . . . . O % @ @ 6 6 7 0 0 M M M x M M N N N N N P L L L K | @.@.$...@...@...$.$.} } ..$...} K L F D P P P L L ! ;.@.;.;.;.;.;.@.@.@.;.@.@.@.8.8.8.8.8.#.8.#.8.8.8.8.i.8.i.i.#.8.i.8.i.i.i.8.i.i.I.I.I.I.I.i.I.I.I.I.I.&XhXhX;XY.8.I.I.hX&X;XI.I.8.8.;X&X&X&X&X&X&X&X&X&XhX&XhXhXhXhX&XhX&X;X&X&X&X}.;XI.U.U.&XU.U.s.U.a.U.s.s.i.,.#.#.#.#.#.O.%.#. .#.....} G D F G G R R $.$.........} } ..%.:.:.>.>.5.:.>.2.2.:.:.%.X.o... .| ..X.X.O.:.>.3.5.5.,.:.:.;.,.%.$.| L L m x c c j j c 5 5 : , + + O O O O O O O . O . % . . % O O O + + , 4 5 4 5 5 0 0 5 5 < , , + + + O . . . .                                                                                                                                                                                                                 ",
"  o         o                               o       p ` ' f * X & & & & * * r r t d d T U d d d d d s t s d s d s W U s s s s s s s s s U d d d s r & &   o o o o o o         o o o .   & 8 p a 8 = o   .                                                                                                                                                                 .         o   .       . .   .   .         .   . o . . % . @ % @ @ 9 y q 0 M z M z N N N N N P P N P H L L } ! } $.$.$...K } $.$.} $.) } $.} K G G D x N H H @.@.! ;.;.;.;.;.;.8.;.;.#.@.#.#.8.8.#.i.#.#.#.#.#.#.8.i.i.i.i.i.i.8.i.i.s.I.i.8.I.i.I.U.U.I.I.I.U.I.I.I.U.hXhXhX;XI.Y.;X;X;XhXhXI.I.8.I.I.&X&X&X&X&X&X&XhX&XhXhXhXhXhX-XhX&X&X;X&X&X&X&XU.U.U.&X}.&XU.I.s.U.a.s.s.i.,.O.#.#.+.#.#.#.| |  .} G G D D m D K ) $.$.$.$.$.} R } ..X.%.*.:.>.:.>.>.3.>.>.:.:.O.O.o.....| X.o.*.:.>.,.5.5.5.>.:.:.,.:.%.X.| L D P x c c 5 5 5 5 < 4 ; % O O % O O O O . O . . O % O O O O + % , , < < 5 5 5 5 5 5 5 5 : ; + + % . . . .   .               . .                                                                                                                                                                                             ",
"            o                   o           o o     p { [ S X o & o o o & * * w r r d f I d d d U d s t s s d U U U d s s s s s d d U U I I d s w & &     o o   X o         . o o o o # = a d r * o                                                                                                                                                                               o     .             .             .   . . . . . % % % , < 9 M M M z N z N N N N P x P x N P L L K } @...$.$...! } } $.$.} } } ) } } K K K D D D N L K @.;.;.r.;.8.r.r.8.;.;.#.#.8.8.8.8.8.#.8.#.#.#.#.i.i.i.s.s.i.i.#.i.I.U.U.I.I.i.I.U.U.&XU.U.U.&XU.I.U.&X&X&XhXhX&X;XI.;X;X&XhXhX;X;X8.I.;X&X&X&X&X;X&XhX&XhX&XhXhXhXhXhX&X-X&X&X;X&X&X}.}.I.U.}.}.}.U.a.a.s.s.a.i.i.#.#.#.| #.#.| | | | L G G L m m D F K ..$.$.$.R $...} ....$.%.>.:.3.,.:.2.>.2.>.3.:.*.X.X. .| o.o.X.%.:.>.5.5.5.,.>.,.>.%.>.*.@.} L m b x c 3 3 3 5 3 : , + O O O O . O O . O O . O % O % + O + + + + 4 : 4 4 5 5 5 5 5 3 3 , ; + + O O . . . .           . . .     .                                                                                                                                                                                           ",
"          o                                   o   o = ( [ f X X o o o & & & * w w r p f f T T f d d s s d U d d d U s s s s s s U s s W I I s r e & o o     o o X o         o o   . % r a d p = o . . . .     o                                                                                                                                         o             . .       .                 .   . .                 . . . . . % % > 4 q q M M l l z N N N N N x x x P N P L L K @.......@.} K } ! } $.$.} ) } ) } ..} G D P D L ! ! ;.;.r.r.8.8.8.8.8.8.8.8.8.i.i.i.8.8.#.i.#.i.i.i.i.s.I.U.i.i.i.i.U.U.U.I.U.U.U.U.&XU.&X&X&X&X&XU.I.;X&XhXhXhXhX;XI.I.;X&X&XhXhX;XY.I.I.&X&X&X&X&X&X&XhXhXhXhXhXhX&X-XhXhX-X&X&X}.&X;XU.;XU.U.U.U.s.I.s.s.s.i.,.#.#.#.#.#.#.| | | | | L L L m b b D G K $.) $.$.$.....} | ..%.:.:.5.>.>.>.>.2.:.>.:.:.:.X.X.o...| X.O.:.3.>.>.3.3.>.>.,.>.,.,.;.$.| L P x l j j j 3 : : , ; + O O . O . O O . O . O O . % % O O O + % ; : 4 5 5 5 5 5 5 5 5 < ; ; + + O . . .     .               .                                                                                                                                                                                               ",
"                      o                             * f ( p o X o o   o o & # * w r r s d f S I W d d s d s U U W U s U s s s s U d s s U s r e o o o     o o o o o o o   o   o . X = d d a 8 *   .   . .                                                                                                                                               o           o                         .   .       .             .   . . . O % @ , 9 y M M M M M N N M x x z c x x P x P P H L K } ..$.....} K ..$.$.} ..} } K R $.K K L H P L K ) $.;.;.8.r.8.8.8.8.8.;.8.8.i.i.i.i.8.#.#.i.i.#.i.s.s.U.U.i.i.i.s.U.U.U.U.U.U.U.U.U.U.&X&X&XU.U.I.U.&X&XhXhXhX&X;XY.I.;XhXhXhX&X;XI.I.;X&XhX&XhX&XhX&XhXhXhXhXhXhXhXhX-X-X&X&X&X&X;X;X}.}.U.I.U.I.s.i.i.i.#.,.,.#.#.| #.| | | | |  .L D m m m x x D L K K ) $...} ..} K ....%.:.>.>.5.5.2.:.:.>.:.:.:.X.X.X.X.| X.X.O.:.>.5.>.>.,.5.,.>.>.>.>.:.@.G L x x c j 3 3 3 : : ; + + O O . O O O O O O . O . % O O % O + + + , ; < 5 5 5 5 5 5 5 < < : ; + + O O . .   .                 . .                                                                                                                                                                                             ",
"    o       o                         o               = f =   - o o o o o # & * * = = r p f I f U U U W W U U d s s U t d U W s d d s w r w & o         o   & o   o o X o . .   o * a d f p * .           o                                                                                                                                                                     .   o           .   .               .     . . . . % % % 6 q y M M N N N N N N N x x x x x x x P P P L K ) $...} } K } ..$...$.$.K ....} R ..K G H D H K ! @.$.;.r.;.8.;.8.8.8.#.8.i.I.I.i.i.#.#.i.#.#.i.i.i.U.s.s.s.i.i.I.U.U.U.U.U.U.U.&XU.hXU.&X&XhXU.;XI.U.hX&XhXhX;X;XY.I.;X&XhXhXhX;XI.I.I.&X&X&X&X&X;XhX&XhXhXhXhX-XhX&XhX&X&X&X&XU.;XU.U.U.a.I.I.a.s.i.,.#.#.#.#.#.|  .| | | } | L G L m x m x x x b J K $.$.$.K $...$.} ..%.:.:.5.5.>.,.5.>.3.>.:.:.*.:.O.X...X.o.X.:.:.3.,.3.,.5.,.>.,.,.>.>.;.@.L D P x c 7 3 : : : : + + O O O . . . . O . . . O % . O % + O O % + ; ; 4 4 q 5 5 5 5 5 5 : , ; + + + . . . .   .       .   .                                                                                                                                                                                                   ",
"o             o                                       o X X X     o o   o o X & # = h 8 y p f a f I f T T I T I f U U d d d g d U s s w = = X o       o X X o X %   o   X     . X p S f a = .                                                                                                                                                                     .         .       .     . .     .             .     .   o . .   % @ @ , 7 q M M M M N N N x N x x x x P c P c x m m G K ..R ..K ..} R $.%.&.$.$.R ..K ..} ..K L D D L K K } ;.;.%.>.>.>.8.;.8.8.s.U.U.s.i.#.,.i.i.i.#.i.i.i.s.s.s.s.s.U.U.&XU.U.U.U.;X;X;X;X;X;X;XU.;X;X;X&X&XhXhXhXhX;X8.I.;X;XhXhXhXhX;XI.I.;X&X&X;X;X&XhX&XhXhXhX&X&X;XhX&X&X&X&X;XU.U.U.I.U.I.s.I.i.i.8.#.#.#.| |  . .P |  .| L | L G D m b b x v N Z J K @.) ! $.K } } ..%.%.:.>.5.8.5.>.>.>.:.>.,.:.%.:.%.X.X.X.X.:.:.2.5.5.,.5.2.,.,.3.,.8.8.;.@.@.P N N c 3 3 : : : + + O O . O . . O . . . . . O O . O O O + O + + , ; 4 < 4 5 5 9 5 5 < > ; + + O O . . . . o   . .         .                                                                                                                                                                                                 ",
"                                                          o           o . o o % X # # = = p p p d f I I f I f f I f f d s d s p t w r * - X X o .     o   o . X . o . o . . X X 8 f ( f r - o                                                                                                                                                                                   .   o   o   o                 .         .     . . % % @ , 7 0 q M M N N N N N x z x x x c x c P x x m L G R ....$.$.R } ..&.;.*.$.$.....K ) ..K K D D L L L K $.$.%.%.;.#.;.,.8.i.U.}.a.s.i.i.#.i.i.i.i.i.i.i.s.s.s.s.s.U.U.&XU.;XU.U.;X;X;X;X;X&X&X;X;X;X&X&XhXhXhXhXhX;XI.Y.;XhXhXhXhX;X;XY.I.;XhX&XhX&X;XhXhXhXhXhX&X&XhX;XhX&X&XU.U.;XU.I.I.s.i.i.i.i.i.#.#.| |  . .P P P | L  .} L K H D Z b l v x Z Z J ! R ) } ! K } $...%.*.:.2.>.5.3.>.>.,.>.:.:.:.:.%.%.X.X.X.X.:.:.,.>.,.5.,.3.5.,.,.>.8.#.@.L H H N z z 3 1 : : + + O O . O . O . . . . . . . O O O O + O + + % + + + , 4 < 4 5 9 2 8 < , + + + + O . . . o . .   . .   .       .                                                                                                                                                                                             ",
"          o                                                           o o o o o   . X % = 8 r p p p f f f d f s p p p p p p s p r = * * X - o   X o     .   o o X X . o   % X = f f f g * .   .                                                                                                                                                                           .           .   . o . .                 .       .   o . O % % $ 6 7 7 z M N N N x N x x x x x c P c c x x m m G R ....} ....$.$.&.*.&.%.$...K ..$.K ..G D P D D L G @.@.@.@.@.@.%.#.8.i.a.U.U.a.i.8.i.i.i.i.i.i.i.s.s.s.s.s.U.U.U.&XU.U.U.U.;X;X;X;X;X;X&X&X;X&X&X&XhXhXhXhXhX;XI.Y.;X;XhXhXhXhX;XI.I.;X&XhX&X&XhX&XhX&XhXhXhX;XhX&X&X&X&X&XU.U.U.I.I.i.i.8.i.i.#.#.| |  .P P P P P P L L G L L F D b v v x B C Z J K ! K K K K } } ..%.*.:.>.5.>.5.>.2.>.:.>.,.>.:.%.O.X.O.%.X.:.>.4.5.8.5.,.,.5.,.,.,.>.#.@.! H P N z z 3 : ; ; + + O O O . O . O . . . . O O . O O O O O O + + + , ; 4 : , 2 4 5 9 4 < ; + + + O O . o .         .   .   . .   .                                                                                                                                                                                             ",
"              o                 o               o   o o               .     . . o . o X X X $ - = r = r u = = = w * = = = = = = = - X - X X o o o o o     o   . X %     X - 8 p ~ ^ ~ y *     o                                                                                                                                                                               . .   .     .                   .       .     .   . O % @ @ > 6 7 z z N N N x x x z x x x x c P c x x x m D G G R K R ..} $.&.-.;.&.$...K K K ....K D P D D H L K @.} } } @.@.@.,.i.U.}.U.s.i.8.i.i.s.i.i.i.i.s.s.s.s.U.U.&X&X&XU.U.U.U.U.;X;XU.;X;X;X;X&X&X&X&X&X&XhXhXhX;XY.I.;XhXhXhXhXhX;X;XI.;X&XhXhX;XhX&XhXhXhX&X&X;X&X;X&X;X;XU.;XU.U.s.i.8.8.#.#.#.#.| |  .P P P P P c P P P L L L D Z Z b b v C Z A J J R ! K K K K ..$.*.:.>.>.5.5.5.5.5.>.>.>.>.:.:.%.%.%.%.X.X.:.>.5.5.5.3.8.t.,.5.,.,.%.@.@.@.H N N z z 1 : ; ; + + O . . O . O O . . . . . . O . O O + + + + + + + ; ; 4 4 4 2 5 4 < 4 > + + O + O O . . . o .   .   .                                                                                                                                                                                                       ",
"            o                                                             .     . . . o o . # % o & # X X X X X o o . & X X - # X o X o o o . o o o o . o .     X o   . - h a f ~ I f 8 X     o                                                                                                                                                                       .             .   .   . o                 .         .   .   . . O + > > 7 7 z M N N N x N x z x N c x c c c c P P m m G K G K K ....$.*.*.%.$...G K K } K L L D m D P L G ! } L @.} @.#.#.8.a.U.U.s.i.i.i.i.i.i.i.#.i.i.s.s.U.U.U.&X&XU.U.I.U.U.;X&X&X&X;XU.;X;X&X&X&X&X&X;XhXhXhX;X;X;X;XhXhXhXhXhXhX;XI.;X&XhXhX&X&XhXhX&XhXhX;X;X;X&X;XI.U.I.U.I.I.i.i.#.#.#.#.#.#.| P  .P P P j P c P x m m D D D Z C C C Z Z S Z H J K K K K K ..$.%.>.>.5.8.8.5.5.6.>.>.>.>.:.:.*.%.O.%.:.%.:.:.>.5.t.8.t.5.5.,.,.,.,.;.%.@.! H P N z 7 2 > ; ; + O O . O . . O . . . . . . O . . O O O + + $ + + + + ; 4 : < 4 4 9 < 1 ; + + O + O o . o   . .   . .                                                                                                                                                                                                         ",
"    o                                                                         .         . . o o .   o   o     o . o .   o           o       o     . . o o     .     . # 6 a f f ~ f p = . .                                                                                                                                                                                 .   .     o   .   . .       .   .     .   .   . .   . . . O O + > < 7 z M N N x z x x x x x x c c c x x x c b m m F G G K K ..$.$.&.&...K K G K K K H L P D D L D G L L } @.| } @.#.8.a.}.U.s.i.#.#.i.s.i.i.i.i.i.s.U.s.U.U.U.&X&X;XI.U.;X;X&X&XU.U.;XU.;X&X&X&X;X&X;XhXhXhX;X;X;X;XhXhXhXhXhXhX;X;X;XhXhXhX&XhX&XhXhXhX&X&XU.;X;XU.I.I.U.;XI.I.i.i.#.#.| #.| |  .P c P j c j c j j c b x b b b b b b Z n S Z S A J ! K K K } ..%.-.4.>.4.5.5.5.t.8.5.>.3.>.,.:.:.:.%.:.:.:.:.:.5.5.5.5.t.8.3.8.,.5.%.%.%.} H P N M z 7 1 1 ; ; + + O O . O O . O . . . . O . O O O O + % + + + + + ; , : , 4 2 9 2 < , + + O O O . o o . .     .       .                                                                                                                                                                                                     ",
"                                                          o                         . o o o o o   . o . o   . o o . o   o                         o . o . o o o o X @ h p f ^ ~ ^ a = o                                                                                                                                                                                       .         o   o o .   .     .     .     .     .     . . . % % > 6 7 7 z N N N N x x x x x c x P c x c c x x P P D D G G K K $.$.$.$.$.K K K G G G F D m D D L L L L L } L L | @.%.8.s.s.I.s.s.i.i.s.s.s.i.#.i.i.i.s.U.U.U.&X&XU.U.U.I.U.&X&X&X;XU.U.U.;X&X&X&X;X&X;XhXhXhXhX;X;X;XhXhXhX;XhXhX;X;X;X;XhXhXhXhX;X&X&X&X&XU.I.U.I.I.I.I.I.U.U.i.i.#.#.#.| @.|  .P P P j j j c c c c c c x z v v v v Z S C Z Z Z A J K K K ..$.$.-.-.4.0.5.w.5.w.w.5.5.5.,.>.,.:.,.%.%.%.:.:.>.5.8.6.t.e.5.5.5.,.,.:.%.%.@.H H H N z 7 3 1 ; ; + O O O . O . . O . O . . . . O O O O O + % + + + + + + ; , ; < 2 4 < < > + + + O O O . . .     .     .                                                                                                                                                                                                         ",
"            o   o                                                               . o . X X X X .     X o o . .               o o             . o o .         o X X # 8 p a ~ ~ f S h X .     o                                                                                                                                                           o           .             . .   .   .         .     o .   .             .   . . % % @ 6 7 z z z N N x x x N x z P c c x c x x x c x x x D L G K K } $.$.....K G G G F D D D D P L D F L L L L L L L } ;.8.s.a.s.s.i.,.i.i.s.s.i.i.i.i.i.s.U.U.U.&X&X;XU.I.U.;XU.;X;XU.I.I.I.U.&X&X&X&X;X;XhXhXhXhX;X;X;XhXhXhXhXhXhX;X{.I.;X&XhXhX;X;X&X;X;X&X;XI.I.I.I.I.s.I.s.I.i.#.#.#.@.| | | P P P c j j j c x x c j 5 j z z l k v B v v Z Z F J F K K K K ..%.-.>.5.5.5.8.5.t.8.5.5.>.3.>.:.,.:.:.:.:.:.%.>.5.p.p.p.t.5.i.5.>.,.,.%.$.@.L P N z z 3 1 ; + + + O . O O . . O . O . O . . . . O O O O O + % ; + + + + ; ; : < 4 < < , , + + O O O O .     .     .       .                                                                                                                                                                                                     ",
"                      o                                                         . o   o X o . . o o o . o   o       . .     .                 o   o o o . . X X - 8 a f ~ f f ~ p *     o                                                                                                                                                                                 o   .       . .   o     o     o   .     .     .     .   .   . % O @ , 6 7 j M N N N N x x z N x x c x x P c x c x x P D D K K K } $.$.$.) G G G G L L D D P D D D L L L L L D L L @.@.8.8.i.i.t.8.i.,.s.s.s.i.i.i.i.s.U.U.U.U.&XU.&XU.I.I.U.&X&X&XU.I.I.I.I.&X&X&X}.&X;XhX&XhXhX&X;XhXhXhXhXhXhXhX&X;XI.;X&XhXhX&X;X;XU.I.I.I.I.s.I.i.i.I.i.I.i.i.#.#.@.| | P P P P c j j 3 j z C B k 5 5 3 3 z z k k C C C v v Z A H K R R ....*.-.>.8.4.5.6.5.w.i.5.8.>.>.:.:.:.:.:.:.:.,.:.>.5.i.w.8.p.5.5.8.8.,.:.%.@.K L D N l 7 2 1 > + + O O O . . O O O . % . . . . . O O O % + + + + + + + + + ; ; ; < 4 < < < + + + O . . O o .                                                                                                                                                                                                                       ",
"        o     o                                                 .                 o o o o o o . . o   o   o o . .     .   o   o         .   o     . . o   X # = p a f ~ f a a f = #     . .                                                                                                                                                                       .           .   .   .     . .       o       o .   o     . o   .   . o % O @ > 6 7 7 M N N z x x N x x x x x c c x c c c c c x D D G K K ..} ) $.} K K L H m D x P b m L L F D P D L L L | @.%.,.8.8.i.i.8.,.i.s.s.s.i.i.i.i.s.s.U.U.&X&X&XU.U.I.I.U.U.U.&X&XU.I.I.U.&X&XU.&X&X;XhXhXhXhX&X;X;X&XhXhXhXhXhX;X;X;X;X&XhXhX&X;XI.I.I.I.I.I.I.i.i.i.i.i.8.i.#.#.#.| | P  .P P j j j j 3 3 k C C q 3 < < : 5 0 l v S S v v C C F J K K R ..%.*.>.4.4.5.5.8.5.5.5.5.5.2.3.>.>.,.:.,.:.:.:.>.8.5.5.w.i.5.5.5.5.,.,.*.%.$.K H D M z 7 1 > ; + + O O . . . . . . % O . . . O O . O O O + O @ + + + + ; + + ; : < : 4 < , + + O O O . . .     . .   .         .                                                                                                                                                                                                   ",
"o                                                                           .     o o X X o o o .   o o o       o       .       .     o   .   .     X   o X 8 p f f f S g y h 8 #     .       .                                                                                                                                                                             .   .   .   o .   o . o       o .     o .   o .   . o   . o . % O > 6 7 7 z M N N N z x x x x x x z c x c c c c P x m D L L K K $.$.$.R } H K G D D P x P D F F D D D D L L L } @.%.,.8.8.8.,.8.i.i.s.s.i.i.i.i.i.s.U.U.U.;X&X&X;XI.I.I.U.U.&X&XU.U.I.s.U.U.&X&X&X&X&XhXhXhXhXhX&XhXhXhXhXhXhXhX&X;XY.I.&XhX&X;XI.I.I.I.i.i.i.i.i.i.i.8.i.8.#.#.@.@.| P P P P c j j j 3 3 2 k V S q 1 : ; ; 4 q v B S Z V b b Z F J R R ..$.%.-.>.4.4.5.5.5.8.t.8.,.,.,.>.>.:.,.:.:.>.,.:.,.4.8.t.p.w.t.8.8.,.>.>.%.@.@.L D N M j 7 1 > > + O O . . . . . . . O O O O . . . O O O + O O + @ + + + ; + ; ; ; , < , < , ; O O O O . . .   .   .   .                                                                                                                                                                                                             ",
"            o                                                             .   o o   o o o o o o   .         o     .   o o   o           o   o   . o . . X 8 h a a a p p 8 - # # .       .                                                                                                                                                                                               .   . o             .     .   o .   .   . . . o . . + @ > 6 7 M N N N N N x x x x x x c x c c c j c j x P D F G K K @.K $.@.K K L H D D P P x P D D D b P D L H L L } ;.;.,.,.8.8.,.,.8.s.s.i.i.i.i.i.s.U.U.U.U.&X&XU.I.s.I.U.U.U.U.&XU.I.I.U.U.U.U.&X&X&XhX&XhX&XhX;X;X&XhXhXhXhXhX;XI.;XI.U.hX&XU.I.I.8.8.i.i.i.8.8.#.8.8.8.#.@.| | | P P c P c j 3 3 3 3 : : k S S a 1 ; ; : 3 q v S A Z Z C C Z J K R R $.%.*.>.>.0.4.8.>.5.5.5.5.5.5.5.5.,.>.>.>.,.:.>.>.3.5.5.i.w.p.5.p.5.8.,.%.%.%.} H D N M 7 7 1 > @ O O O O . . . . % % . . % . O O . . O O O + + , + ; + ; + : ; , , : < < , > @ O O O . . .   . .                                                                                                                                                                                                                     ",
"                                                                  o   o     o o   o o o o o o .                                     o     o . . . o X X $ p p y p t 8 = # . . %       o                                                                                                                                                                             .       .       . .   . o                 . .         .   . . o o o . . O @ > > 9 z M N N N x x x N x z x x c c j j j j c c x P D L K K K } ! } K G L D D D b P x b P D b m P D L L D L L @.%.%.,.,.,.8.#.8.s.s.U.s.i.i.i.s.s.U.U.U.U.&XU.U.I.s.s.U.U.U.U.U.I.U.U.U.&XU.&XU.&X&X&X&XhX&X;X&X-XhXhXhX-XhX;XI.Y.I.I.;XU.U.I.8.8.8.8.8.8.#.#.#.#.@.@.@.@.P P P P c c j j 3 3 3 : ; ; 1 q V S y 6 + + ; 9 k V A J A Z b Z Z K E R ..%.*.-.>.4.4.0.5.5.5.3.5.8.5.5.3.,.5.3.3.>.>.>.>.,.8.5.8.e.i.p.e.5.8.>.>.%.%.@.J H D N k 7 < ; ; + O O . . . . . . . % . . % O . . O O O O + O + + > ; + ; , ; ; , : < > > , > + O O . . . . .                                                                                                                                                                                                                       e ",
"  o       o o                                                             o o   o     o o . .                           o       .     . .     o o . % X 8 p p p = 4 * # .     o   . . .   o   .                                                                                                                                                                                 .         . .   . o   o   o .     . .   .   . o o   . % % . . @ @ > 7 y M V N N x N N N N P x x x c c j j j j c x x P D L K K K @.} K K D D D D m x P x b D D D m D F L L L K } } @.%.,.#.#.8.8.i.s.s.s.s.i.i.s.s.U.U.U.U.&XU.U.i.I.U.U.&XU.U.U.s.U.U.U.U.U.U.U.}.&X&X&X&X&X&X&X&X-X&X&XhXhX;XI.I.I.I.;XI.I.I.8.i.#.#.#.#.#.@.@.@.@.@.L P P x x j j j 7 3 : : : ; ; + ; 4 a V y , @ + > 9 y Z A A J F Z Z F K ) $.$.*.-.4.4.5.0.5.5.8.4.t.8.3.,.5.>.5.3.,.>.:.,.,.5.5.5.w.5.5.5.i.t.t.5.,.,.%.%.@.K H Z l z 2 1 > + O O O O . . . . . X . . % O . O . O O O + O @ @ , @ ; ; ; + ; ; : , 1 1 1 , @ + O O O . . . .   .                                                                                                                                                                                                                   & ",
"                                                                  o               o   o   o .                                   .     . .   .   o X X @ h 8 6 h * # X %       . . o           o                                                                                                                                                                             .   .   .     o . o           .   o     .     o .   o . o . . . . O $ 6 6 M M N M N N N P N N N x N x c c j c j j j c x D D F H K K K K K G L D m P P x x x b P Z D D D D P L L L @.} @.@.%.#.,.#.#.8.i.s.s.i.i.s.i.s.s.U.U.U.&XU.I.I.s.I.U.U.U.U.U.U.U.U.U.U.}.U.U.U.&X&X&X&X&X;X;X&X&X&X-X&X&X&XI.I.I.I.I.I.I.I.8.8.#.@.@.@.@.P P H P P P P c z j j 3 3 3 : : ; ; ; ; + O , 8 a y 6 @ > 6 9 M V A J H A Z H J R $.&.&.-.<.4.4.0.w.t.8.5.8.8.5.3.5.,.5.5.>.5.>.:.,.>.3.5.5.8.t.e.t.p.5.5.5.,.,.%.@.| L D N z 0 2 1 + + + O O . . . . o . . % % O . . O O O O O O % + @ > , 1 + , , ; , : ; > < > 1 ; O O O . . . .     o                                                                                                                                                                                                                   & ",
"          o                                                     o     o       o     o o   o   .                                     o     o   . . X X % X @ # X o . o . o .   . o   o                                                                                                                                                                   o             .             .   .         o     o       . .     .       o . o . . . O O # 6 6 y M V M M N P N P N N P N x x c c c j c j c c x P D L L K K K J G L D D D Z Z m P x x P P D D D D D L K K } @.%.#.@.@.#.#.#.i.s.s.i.i.i.i.s.s.s.U.U.U.U.U.U.s.s.U.U.U.U.U.U.U.U.U.U.U.U.U.U.U.U.}.}.;X;XI.&X&X&X&X&X&XI.I.Y.I.I.I.i.I.8.#.@.@.L P P P P N N N N N z z j 3 3 : : : : ; ; + + + O O @ 6 y q 9 , > 6 y y V A J A F H F J ) $.*.*.>.4.4.8.e.5.e.5.5.5.5.5.8.5.5.5.,.5.5.,.3.:.,.8.5.8.5.5.t.8.t.5.8.>.:.%.%.} K H Z x k 7 : ; + @ O O . . . . . o . . o o % O O . O . O O + + + + $ , ; , ; : : , : < < ; > > + O O O O .     .     .   .       o                                                                                                                                                                                                     o ",
"      o     o                                                                                           o                                 .   o . . . X X o X o   .     o o o                                                                                                                                                                           o                     .       .     o . . .   o   .   o   o o   o     o o o o o o   o . O O 6 q V H V H Z N H H P H H N P N z x z c c j c c P P P H L H L K G H F F D D P Z P x x x x D D D D D D G K ......$.} %.%.} #.#.8.i.i.i.i.i.i.i.i.s.a.U.U.S.s.U.s.s.}.U.U.U.U.s.U.U.U.U.U.U.U.U.s.U.U.}.U.U.;X}.&X}.}.I.}.I.a.8.i.8.8.8.8.#.@.L L P P P c c c j j 3 3 3 3 : : ; ; ; + + O O O O % % O + , 8 y 8 6 6 7 y V V A A H J J K K R &.*.*.4.4.4.5.0.w.w.5.5.5.5.5.t.8.t.5.,.,.t.,.,.,.3.5.t.8.,.5.t.t.5.5.>.>.>.%.$.! K D N M 7 6 1 ; + O O . . . .   . . . . . O o . . . O . O O % + + , ; 1 1 , < < : 3 < 3 : 1 , 1 + + O . . . .     .                                                                                                                                                                                                                       ",
"                                                                                o                           o                               .       o X % . o o o   o o o     o                                                                                                                                                                             o                                     o .   o . o                   o o o o o o o o % @ , q M M A N H Z Z H H H P N N P P N x c z c j c c x P N Z L H H G H F D D D b D N D x x x x C m D D J K ) $.$...} ..} } | } | ,.,.i.i.t.i.i.i.t.s.s.s.S.s.s.s.s.s.U.s.U.s.s.s.U.U.s.s.}.s.}.U.U.I.}.U.}.U.}.;X}.U.I.I.8.8.;.;.;.;.@.#.#.L L P P c j j 3 j 3 1 3 1 : : : ; ; + + % O O . O . . O O . O $ 6 q y 8 y y M y V H A J J J K E ) o.*.*.4.2.4.5.w.t.t.5.5.5.t.5.t.5.,.5.t.5.,.3.3.,.,.t.5.t.t.8.t.5.t.8.>.:.%.%.@.K H Z N z 2 1 ; ; + O O O O . . . . . . . O . . . . . O . O O + $ ; , , > : 1 2 : : < : 3 : : ; + + O O . .     o                                                                                                                                                                                                                           ",
"          o                                                     o                                                                                 . o . o X . o     o                                                                                                                                                                                                                           o . o   o                       o o o o o o . . % % @ y V ~ V A H N H H P H H P H P N N P x c c j c c x N N P Z D D H D D D D D D P Z N l c c x x b D F G R ) $.$.$.$.} } X.%.} #.,.#.8.,.i.,.i.,.t.s.s.s.s.s.s.s.s.s.a.s.U.U.U.U.s.s.U.U.s.U.U.s.U.a.U.U.U.U.U.U.I.I.8.>.#.@.@.| ! | L L P P P c c j 3 3 : : : ; 1 ; ; + + + + O O O O . . . . . . O O O @ 8 y y y 8 y M y V S A H J K K R $.&.*.2.2.4.4.7.5.w.w.5.5.5.5.t.3.t.3.5.t.,.t.3.,.3.,.5.t.5.t.3.t.5.5.3.,.:.%.%.@.K H Z l 0 2 : ; ; + O . O . . . . O o . . . . . . . . O O O % + $ + , 1 > , < 2 < 2 : < : : ; ; ; + O O . .   . .         .                                                                                                                                                                                                                 ",
"              o   o                                                           o               o                       o               .   o   .     . o . o o .   o                     o                                                                                                                                                                                                     . .   o .   . o o .   o         o o o o o   o o . % % @ 9 M V H A Z H D Z H H H H P H P N N N x c x c c x x x N P Z P N D m D b D Z x N x x c j c c l x n F J K R ..} } ..$.} %.| | #.#.#.O.#.#.,.,.,.u.s.s.s.s.s.s.s.s.s.s.s.s.s.s.s.U.s.U.a.U.s.U.s.U.U.U.U.I.I.a.8.8.#.@.} L D P P P P P P c j j 7 : : : : ; ; + + + + + + + O O O O . . . .   . . . . O @ 8 y y 7 y y y y M H J A K K ) $.$.*.*.-.2.4.5.8.5.5.t.5.t.8.5.,.3.5.t.t.5.t.3.5.t.,.,.5.t.3.t.,.5.t.5.,.:.%.%.%.K K H C z 3 1 ; ; + O O O O . . . . . . . . . . . O . O O . O O + + ; > , > 1 < 2 < 2 3 3 < : : ; + + O O . .                                                                                                                                                                                                                                 ",
"      o                                                                                               o                                     o     .   o . o o                         o                                                                                                                                                               o                                 o         . .   o .   . o     o       o o o o o o   . o . % @ y V S A N Z H H N H H H L L H H P P P N N x z c c j x x x x x D x D D Z D D C v b z j 3 j j j j c b Z F E K R K R } } } } @.@.| #.#.#.#.#.,.,.i.i.i.,.i.i.s.s.s.s.s.s.s.s.s.s.s.s.s.s.s.}.U.s.I.a.a.a.i.i.8.#.@.L  .P P c x c c x c j j j 3 : ; + + + O O O O O O O O . O . . . .   .   . .   . . . $ 6 y y y y M M V A H J ! ) $.$.$.*.*.*.4.4.5.3.5.6.w.w.t.5.5.,.t.5.,.w.t.5.5.,.t.,.t.t.t.5.t.5.t.5.5.,.,.,.X.| X.K L Z N j 1 : ; ; + + O . . . . . . o . . . . . O . . O O O O % + , @ , 1 1 1 < 2 1 2 2 3 < 3 ; ; + + O . . . .                       .                                                                                                                                                                                                       ",
"  o                                                                                                                             o                 . .   .   . .   o                                                                                                                                                                                                                   o     o     o   o o   o   . o   . . o     o o o o   o . o . % , y V S N S Z N Z H H P H ! H L H H H N N x c j c c c c x x x x x b b P m D Z Z x x l j 3 3 3 3 3 3 5 l n F F F K K ) ..} } L | | | #.#.#.#.#.i.,.,.i.i.i.t.s.u.i.s.s.i.s.i.s.s.s.s.s.S.}.s.s.I.s.s.i.8.8.8.#.@.P P P P j j c j j j j j 3 3 1 > + + O O O . . . . . o o .   . .             o   . O O % 8 a V V V M M V H ~ K ! ) ) &.&.*.-.2.2.4.4.4.5.5.5.t.5.t.t.t.t.t.a.i.t.t.5.t.3.t.,.3.5.t.,.,.5.t.,.3.:.X.X...} K H Z l 7 1 ; ; + + O . O . . . . . o . . . . O . O . . . O + O + $ > , < , 1 7 2 < 2 5 2 3 1 1 ; ; O O O .     . .     .         .                                                                                                                                                                                                           ",
"              o                                                       o                                                                     .         .     .             o                                                                                                                                                                                                         .         . .   . . . o . .   o o         o o o o o o o . o . O $ 8 a V S S Z N H Z H H D L @.H L ! H H P N P x P c x c x x x x x P b b D D b N x l c 3 3 3 3 : 3 3 3 5 c v Z Z F ) R $.K } L | | |  .| #.#.#.#.,.,.,.,.,.i.i.i.i.i.i.i.i.i.s.i.i.s.s.S.s.}.U.s.i.8.8.#.%.@.@.P P x c j j 3 j 3 3 3 3 : 3 : ; + O O . O . . . .             .                 o . . . O 8 y V V M V V N H ! ! ! $.$.%.%.*.*.>.2.4.3.4.5.5.6.p.t.y.t.t.t.t.t.t.t.t.,.,.t.t.t.t.,.t.t.t.t.5.3.,.:.X.X.} } G H x z 3 : ; + + O O O O . . . .   . . . . . . O O O . O % O O + $ > , 1 1 < 2 7 2 2 2 3 < 1 : ; + O O o . .                                                                                                                                                                                                                                 ",
"          o                                                                                                                                   o                                                                                                                                                                                                                                                 o . o   .     o .     .           o o   o   . o # % % 6 y V V Z Z Z Z H H N H K ! @.! ! @.H H P N P x P c x c x x x x x x P b Z D C b v c j 3 : 3 : : : : 3 5 j z b F K K ) K K | P P P  .|  . .#. .#.#.#.#.#.O.#.,.,.t.,.i.#.#.i.,.+.i.s.s.s.s.i.t.,.#.| | | L P P P P c j j 3 2 1 : : : : ; ; O O O . . . .         . o   o                 o     . . . @ , a M S S V H H ~ ! ) $.&.*.-.*.>.4.4.5.6.5.5.6.p.t.p.a.a.a.t.p.t.t.t.t.t.5.3.3.3.t.t.5.t.3.t.t.t.,.,.O.| | } | G D N z 1 : ; ; + O O . . . . . . . . . % . O . . . . O O % O + @ ; > 1 6 < < 2 2 < 3 2 3 < 1 ; + + O O . . .                     .                                                                                                                                                                                                           ",
"                                                                                                                                                                                                                                                                                                                                                                                              .   . . . . o . .   . o   .   .   .         .   . o . % , y y M V Z N H Z D H H L ! ! ! @.! ! ! H H P H P N x c x P c c x x x x m b C v x v 5 3 : 3 : 3 : : : 3 3 5 z n Z K J F F D m P P P P P  . . . . . . .| #.@.#.#.#.#.#.#.#.#.#.#.#.#.#.8.#.,.;.| | P P P P x x c j 3 3 : : ; ; ; + ; + + + O O . . . .       o o o o   o o                 o     . . O 8 q V M V H H J ! ) ;.;.=.*.-.*.>.>.5.5.6.t.5.6.y.p.b.a.a.a.u.u.t.t.t.t.3.t.,.3.3.t.,.t.t.,.t.t.t.3.:.:.o. ...} G m x 0 1 ; ; + O O O . . . . . . . . . . . O . O . O O O O O + @ + < 1 < < 6 7 7 7 0 2 2 < : : + + O O . . .                     .                                                                                                                                                                                                           ",
"          o                                                                                                                                             .   .                                                                                                                                                                                                                             .       .   o . o . .   o   .     .       .         o . . % @ 8 y y M Z Z Z P N D ! ! ! @.@.! ! ! H ! H L L H P N P x c x x x c c x b x b v b c c 3 : : : : : : : < 4 3 5 z v Z b b D P x P x P P P P P P P P P P  .P  .| @.@.| | | |  . . .#.#.@.#.@.| | L P c P x P c j j 3 3 : : ; ; ; + + O O + O O . % . .   .   o   o   o o   o             o       . O O @ 8 M S H H A A ! ) $.=.;.-.-.>.>.4.5.6.5.p.t.t.t.p.u.N.S.n.a.u.p.u.a.t.t.3.,.3.,.,.3.t.3.3.t.3.t.,.3.O.X.X.| ..} G D x 0 : ; ; + + O . O . . . . . . O . . O . . O O O . O % O O + , , , < 6 2 2 7 7 0 3 3 : ; ; + O O O . . .     .     .                                                                                                                                                                                                                     ",
"      o       o   o                                                                                                                                                                                                                                                                                                                                                                             . . o . o o o . . . o   .         . .         . . . . @ 6 y y M C Z Z Z N H H ! ! ! @.;.! ! ! ! L ! ! K H D P N x x c c c x c x b v x l z z 5 : : : : : 3 : < : : 3 5 z v v x x x x c c j c j j j j j P j P c P P P  .P P P P P P P P P  .| | L P P x j j j j j 3 3 : : ; ; ; + + O O O O O . . . O . o o     . o o   o o   o o                 . o . O + , 9 V S Z H ~ ! ! $.$.;.-.>.>.>.5.8.5.p.p.t.p.p.p.a.S.N.N.a.n.a.t.t.t.t.t.3.3.3.,.,.3.,.3.3.t.t.t.t.,.,.O.X.| } G D D l 7 : ; + + O O O . . . . .   . . . . . . O O O . O O O O + @ > > 6 < 2 2 7 7 7 5 3 : : ; ; + + O O . .   .                                                                                                                                                                                                                               ",
"                                                                                                                                                            .                                                                                                                                                                                                                                     . . . o o . o o     .     . o .           .   o . o % @ 6 y y M N H N Z H L ! ! @.@.! ;.@.! @.K ! @.! K H D N m x x c c c c n x x b v v c j 3 3 3 : 3 : 4 : < : 4 5 5 z z c l c x c c j j j j j j j j j j j j j c P c P x P P P j c P P P P P P N c j 3 3 1 1 : ; + ; + + O O O . . . . . . . . . o . . . .   o   o o   o o   o               o . O % > 6 y V H Z ! ! ! ) $.$.-.>.>.>.5.5.w.p.p.t.p.p.p.p.a.S.S.S.S.a.u.u.t.a.t.t.,.,.,.+.+.,.3.3.3.,.t.t.3.3.O.X.X.X.| G D x c 2 ; ; + O O O . . . . . . . . . . . . . O O + O O O O O + @ , > 1 1 < 2 7 2 7 2 2 : : ; + + O . . .   .   . . .                                                                                                                                                                                                                         ",
"o                                                                                                                                                   o                                                                                                                                                                                                                                   .     . . . o . . o o . o . o   o o   . .             . . . . O @ , 9 q M N N H H Z L ! @.! ;.! ! ;.! $.! @.) ! K K H P x x x c c c x x b x b v z z 5 3 : 3 4 3 : : < : 4 : 3 3 5 5 j 3 j 3 j j 3 3 3 j j 3 3 j j j j j j j j j j j c j j j j c z c N N x z 3 : : : ; ; ; @ O O O O O . . . . . . . . . . . o   o   o     o   .   o   .       o       . . O % + < 9 M S Z ! J ) ! $.;.=.r.>.8.5.e.5.p.p.a.p.p.p.u.a.S.a.S.A.S.J.a.u.t.t.t.t.,.,.+.,.,.3.,.3.3.t.t.3.,.3.O.X.X.X...G F b c 1 ; + + O O . . . . . .   . . . . . . O . O O O O O O O + @ , > 1 6 2 2 7 7 2 2 2 : : ; + + O O . . .   .   .   .                                                                                                                                                                                                                       ",
"          o   o                                                                                                                                                                                                                                                                                                                                                                 .                 . o . . % o o   o . . .   o     . .             . . . % @ , 6 q M N N N H H ! ! ! ! ;.$.! @.) ! @.$.@.! K H D m x x c c c c x x C x l b z j 3 3 : 3 : 3 : : < 3 : : 3 5 3 3 3 3 3 3 3 3 : : 3 : 3 3 3 j 3 3 3 3 3 3 j j 7 j j j j j c j j N P z j : ; ; + + + + O O . . .   .       .     . . o o   o   o   o o       .   .     o   o .       . % $ , < 9 M S H H J ) ) $.;.-.4.8.8.5.i.p.a.p.a.N.a.n.a.J.S.S.S.S.a.a.u.t.t.t.t.,.3.+.t.3.3.3.t.3.,.t.t.3.3.,.O.| X.| | K G l 7 3 ; ; + O O O O . . . . . . . . . . O . O O O O O O O O O + , > > 1 2 < 7 2 2 3 1 : : ; ; O O . . .   .   .           .                                                                                                                                                                                                                 ",
"  o           o                                                                                                                             o                                                                                                                                                                                                                                                     . . . . . . o X o   o o . .   o                 . . O % @ > < 0 z N N Z H H H ! ! @.) @.! _ @.! $.@.) @.K K K D D P x c x x c l x b b l z c 5 3 : 3 < < < : < 5 < 2 5 j 2 3 3 3 3 : 3 3 : : : : : : : : : : : 3 3 3 3 3 3 3 j 3 j j 3 3 j z H M 7 : ; + + O O O . . . . .     .     .   . .       o     o                   . o   .         . O % , > < q B S A J K K ) $.;.-.0.8.e.w.w.p.a.n.a.S.n.a.S.a.a.S.S.}.S.a.u.t.t.t.t.+.,.d.,.,.3.,.,.t.3.3.t.3.3.O.O.o. .o.} %.$.C j < ; ; + O O . . . . . . . . . . . . . O O O O . O O O + O ; > ; > < < 2 7 2 2 3 1 : : + ; O O . . . .   .   .           .                                                                                                                                                                                                               ",
"                                                                                                                                                                                                                                                                                                                                                                                              . . . o . o . . . o . o . .   . o   .                 . % % @ @ > 0 z l M N H L K ! ! ! ) ) ) ) ;.$.$.$.@.$.) K L D D D b P c x c x l l x x l z 5 3 3 3 : : 3 2 2 : 3 4 5 5 3 : : 3 : : : : : : : ; : ; ; : ; : : ; : : : 1 1 : : 1 1 1 1 1 6 z V q 7 + + O . . . . .   .                 o     o   o   o       o   o               . .     . . . O $ , , 6 k Z Z ! J ! @.$.;.-.>.0.5.w.p.p.p.M.a.n.c.a.S.a.a.S.S.S.S.S.u.s.u.t.t.t.t.t.,.3.3.3.,.3.3.3.,.3.3.,.O.O.X. .| X.0.4.) 3 3 ; ; @ + O . . . . . .   . .   . . O . O O O O O O O O + + > > > < 2 7 2 7 < 3 1 : ; + + + O O . .   .   .                                                                                                                                                                                                                             ",
"          o           o                                                                                                                                                                                                                                                                                                                                                                           . . . % . % X o o . o o . .     .     .   .   . . o % % @ @ @ 1 7 z x N N H L ! ! ! @.@.$.$.$.@.$...$.@.$.K } L L L D x x x x x c x x x x z j 3 3 3 3 3 3 3 2 5 3 5 0 j 3 3 : 3 : : : : : : : ; ; + + + + + O % % + + ; ; + ; ; + ; ; + ; 9 S V 8 % O . .   . .           o   o o     o                   o   o     o       o   o o .   . . . % $ 6 7 7 M Z J K ..$.$.&.-.>.5.5.5.w.p.p.b.a.N.S.n.S.a.S.a.J.S.S.S.S.S.u.s.t.t.t.t.3.,.d.,.3.,.t.3.,.O.3.3.O.O.X.X. . .%.{. Xr.Z : + > O O O . . .   . . .   . .   . . . O O O O . O O O O + + $ ; < 2 < 5 2 2 : : ; ; + + O O . . . .   o   o .                                                                                                                                                                                                                         ",
"                                                                                                                                                                                                                                                                                                                                                                                                .   o o % X % . % % . % o . . . o     .       . . . . % . % @ @ 1 7 z l N N H ! ! @.! ! ! $.$.$.@.$.$.@.%.@.@.} } L L L D P x x x z x x x x c c j j 3 3 7 5 0 5 z z 0 j 0 5 3 3 : 3 : : : : : : ; + + + O O O O O O % O O O + + + + + + O + 8 a a 8 % . . .   .       o o             o   o o                 o     o     o o o o o     . o % O % , 7 y N Z ~ ! $.$.;.>.>.>.4.w.e.w.p.p.p.p.n.n.S.S.S.a.S.a.a.S.S.S.a.u.u.u.t.t.,.t.3.3.,.3.,.3.,.3.3.O.,.O.O.X.X. .L m $.M.;X9.H < ; > O . O     . . . . . . . . . . . . . . O . . O O O O O + ; 4 : 4 5 < 2 3 : : ; + + O O . .   . . o . o                                                                                                                                                                                                                             ",
"          o o                                                                                                                                                                                                                                                                                                                                                                                       . o % . % % % . . . . . o o     .     .         o . % X @ @ > 1 7 z N N H H K $.$.) $.$.$.;.$.$.} $.$.%.$.@.} @.} G L L D P x x x b N x c c j 3 3 3 3 j 5 0 z z k z k z 0 5 3 3 : : : : : ; ; + + + O O O O O O . O O O O O + O O O O O $ 8 p - % . . . .     o   o     o o   o o       o       o   o     o   o o     o     o o . . . o % % @ 6 M S H ! ! ) ;.-.4.4.0.5.w.e.p.p.p.p.p.p.a.n.S.S.}.S.S.J.S.S.S.S.S.S.u.t.t.t.t.,.3.,.3.,.,.+.3.3.,.,.O.:.O.X. . .P P | e.{.0.Z < + + + O O   . . . . o . . . . . . . . . O . . O O . O O + + , , : < < 4 3 : : ; ; + + O O . . . .   o     o o                                                                                                                                                                                                                         ",
"      o                                                                                                                                                                                                                                                                                                                                                                                           . . % X X % o % . % o . . . o X . . . o   . . o . o . . % @ X > 1 3 z x N H ! ! ! $.! ! $.;.%.$.$.%.$.$.;.%.%.%.;.$...} L D D P m P N D P x x c j j j 7 0 0 5 z 0 z l k z z 7 5 3 : : : : ; : ; + + O O O O . . . . . O O O O O O O O O . % $ = % . .   .         o     o         o   o     o       o     o   o       o     o o     o . . O @ 8 M A ! _ _ =.;.-.-.0.0.8.e.e.p.p.p.p.y.y.p.n.n.S.S.S.A.S.S.S.S.S.S.a.u.s.u.t.3.t.t.3.3.3.,.3.3.t.3.3.O.:.X.O.|  . .P P D $.;.) z : + + O O O . . .   . . . . . . . O . . . . O . O O O O + + + ; ; 4 : 5 : 4 : : ; + + + + O O . . . . o o o o                                                                                                                                                                                                                           ",
"            o                                                                                                                                                                                                                                                                                                                                                                                     . . X o X . % % . % o . . o . o     o .   o   .   o . % % % % @ > 1 7 z N H H ! ! ) $.) $.;.$.%.$.$.$.%.;.*.>.%.;.%.%.} } G L F m D D D m P x x c c j c c j c 5 z z k M l 0 3 9 2 2 : 1 : : ; + + + O O O . . . . . . O . . O O O O O . . . . X .               o     o       o       o       o     o   o     o     o o   .   o   X o % o % @ V S ) _ =.r.r.r.>.4.0.w.e.e.p.w.p.p.5.5.t.t.p.S.S.S.}.A.S.S.S.S.S.S.a.u.t.t.t.t.3.,.t.,.3.,.3.,.3.5.3.:.O.X.X.|  .L m P x b N c 3 ; + ; O O O . . . . . . . . . . . . . O . O . O O O O O + + + , ; , : < < : 4 , ; + + O O O . . . . . o   o                                                                                                                                                                                                                             ",
"                                                                                                                                                                                                                                                                                                                                                                                                      . . % % % % . % X % . . o . . . o o     .   .   . o . % % + ; 1 3 z N N H J K ! ) $.$.$.$.$.%.} $.%.%.:.;.>.-.>.;.%.%...K G G G G G L D m N x c c j j 5 j j z z l l k z 7 7 3 : 2 : : ; : ; + + O O . . . . . . . . O . o . . . . O . . . X o . o .       o     o     o o o   o   o   o     o     o     o   o o               o % % % > 9 S _ r.r.r.0.r.8.0.8.e.a.a.e.a.p.p.w.5.t.3.t.y.a.S.S.A.S.S.S.S.S.S.J.u.a.u.t.t.s.t.t.,.+.,.3.,.3.3.>.:.O.X.X.X. . .m P c c j j 3 ; ; ; ; + . . . .   . . . . . . . . O . . . O O O O O O O + + + ; , : 4 : 4 : : ; + + O O O . . .   .   o .   o                                                                                                                                                                                                                           ",
"              o                                                                                                                                                                                                                                                                                                                                                                                 .     X % . X o % X % . . % % o % o . o . o     .   . . . % o % O + > 1 7 z M N H K ) ) ) $.$.$.$.$.$.%.%.*.>.>.>.>.>.>.-.*.%.%.....} ..} K G G D b P c c j j j j 0 z z k z z j 7 2 2 2 2 1 : ; + + + O . . . .   .   . . . . . . . . . . . o   . o o o o o . o     o   o   o       o o     o o o o o   o     o     .         . .   . % % @ q Z _ =.r.9.0.e.e.0.5.w.p.a.M.a.a.p.a.t.5.t.t.t.u.a.S.}.A.}.S.S.S.S.J.a.a.a.a.t.t.t.t.t.,.3.3.t.,.3.,.5.:.X.X.X.|  .m m P c c j 3 3 : : 1 + @ O . . . . . . . O . . . O . O O O O O O O O + O + + + , ; , : , : ; ; + + O O O . . . .     . o     .                                                                                                                                                                                                                           ",
"  o o                                                                                                                                                                                                                                                                                                                                                                                               . . X X % . X % % % . X . o X o . . .   .   o     . . . . . O + > > 7 z N N H J ) ) @.) $.$.%.} @.%.:.;.>.>.>.8.>.>.>.>.-.*.%.$.X...%.X.} | L L P P x c c c z j z c z j 0 7 7 2 2 2 1 1 : 1 ; + + O O . .   .   . .     . . . . . .     o o   o o o     o o o o     o       o       o       o   o o     o   o         .     . . % % % > y ~ _ r.e.0.0.8.e.5.e.8.e.a.a.a.e.a.p.t.3.t.t.t.u.S.S.S.H.}.A.S.S.a.a.S.c.u.a.u.t.u.t.3.3.,.+.,.,.3.3.,.:.O.X.X...}  .P c j c j 3 : : ; + O O O O O . . . . . . . . O . O . O . O @ O O O + O + ; ; ; ; ; < : 4 : ; + + O O O . .   . .   . .   . . o                                                                                                                                                                                                                         ",
"        o     o                                                                                                                                                                                                                                                                                                                                                                                     . o o o % X . % % X % % X % . . o   .   .         .   o o . % O @ > 1 7 z z C H K ) $.) $.$...} %.%.%.-.>.>.5.5.0.>.4.4.>.>.*.*.:.*.%.%.X...} | L P b x c c c j j j j j 5 c 7 j 7 7 2 2 1 : ; > + O O . .   . .       X .   .   . o   o o o o o o o o o o o o     o       o       o     o   o o   o o o     o     o . o . . . . % @ , y S ) r.9.e.e.e.e.e.8.8.5.a.a.M.a.a.p.a.t.t.t.t.t.u.S.}.A.}.A.S.S.a.u.s.a.S.u.u.a.u.a.t.t.3.3.5.,.3.,.5.,.:.O.X.X.| G G m c c c j 3 3 : : ; + O O O . . O . . . O . . O O O O % O O O O + O + + + ; ; ; : 1 > > : ; + + O O . . . .   .   . .                                                                                                                                                                                         o                                 o       ",
"                                                                                                                                                                                                                                                                                                                                                                                                    .   . o o % % % % . . o . . . . o . . .           . o o % . % % + > 1 3 7 z Z A J ) ) $.$.$.%.$.%.$.%.:.>.>.>.8.8.5.8.5.5.>.2.2.:.>.:.:.:.%.X...| G m m P c c c j j 5 j 3 3 7 3 3 2 3 1 1 1 > + + O O .   .           o . o o o     o     o   o o o o   o o o   o     o o   o o     o o     o o o o   o   o   o         . . % @ 6 9 y S ) =.0.e.Y.a.e.e.e.5.8.p.a.a.a.N.a.N.a.u.t.t.p.p.S.S.XX}.XXA.A.u.S.u.J.u.a.u.a.u.a.u.t.t.,.3.3.3.5.,.5.>.%.%.X.| | G m x c c j 3 3 3 ; ; + + O O O O . . . . . O O O O O % O O O @ O + O + + + ; ; ; ; > > 1 ; , + + O O O . . .               . .                                                                                                                                                                                                                 o           ",
"            o                                                                                                                                                                                                                                                                                                                                                                                         o . . . o % . % % % % % % % o . . .   .     .     .   . o % . % > 1 2 7 z B Z J ) $.$.@.$...$.X.%.%.*.>.>.5.8.5.5.0.5.8.5.4.>.>.>.5.:.:.:.:.X.X.| | G m P c c c c j j j 3 5 j 7 3 3 3 3 2 ; > + + O O . .   .       . .       .           o o o o o o   o o   o     o       o   o   o   o o o o o o o o o   . .     . . . @ , 9 a ~ ! r.9.e.Y.e.a.a.p.8.8.5.t.a.a.a.}.N.a.S.p.u.p.a.a.S.}.}.H.}.A.S.S.u.S.u.u.J.a.S.a.u.s.t.t.t.,.3.8.3.5.5.:.%.X.X.| G L m n c j 3 3 : : : ; + + + O O . . O O O O . . O O O O O O O @ % + + + + ; ; ; ; > : 1 > , ; + O O . . . . . .   .     . . .                                                                                                                                                                                               o                               ",
"    o             o                                                                                                                                                                                                                                                                                                                                                                                     . o % % % X % % % . o % % . X . . . o               o . X % % @ 6 7 7 z B Z J ) $.) $.$.$.X.$.%.%.:.,.5.8.5.w.5.5.5.6.5.5.3.3.5.2.>.,.:.%.X.X.| | | m m x x c c c c j j z j j 3 7 3 2 1 : ; ; + O . . .       . .     . .         o .   o   o   o   o o o     o o     o       o       o o o o o o o           . . . % % $ 6 V S ! =.9.e.q.I.e.e.e.8.e.5.p.p.a.{.[.S.N.N.a.n.a.a.n.n.A.A.A.}.}.A.S.S.a.u.S.a.S.u.a.u.a.t.t.t.,.3.,.3.3.,.3.:.%.X.....| m n c j 3 3 3 : : ; ; + + + O O O O O . . O . O O O O O O @ O % @ + + + + ; ; ; ; 1 ; 1 > ; + + O O . . .     .       o         .                                                                                                                                                                                                                       o   ",
"                                                                                                                                                                                                                                                                                                                                                                                                      .   X . . % % % X . % % . . % o o o .         o     o   o o X % @ 1 6 2 0 M Z J ) ) $.$.$.%.X.%...%.:.>.>.5.5.e.8.5.5.5.5.5.3.5.5.5.5.3.,.:.X.#.X.X.|  .G m m P x c c c j j j 5 5 j 3 3 3 1 : ; + + O . . . . .                           o     o   o o   o       o     o o o   o   o   o o o o o o o o o .     . . . % $ 6 M ~ _ [ 0.e.Y.Y.e.a.a.a.e.e.p.p.a.a.N.S.}.a.S.S.a.n.n.S.a.S.A.A.}.A.A.S.a.u.u.s.J.J.a.S.u.u.t.,.3.,.O.,.,.3.,.,.:.X.X...} G m c c 5 j 3 3 : : ; + ; + + O O O O O O O . O O + O O + % + @ @ @ $ + + + ; ; ; : ; 1 ; ; ; + + O . . . . .   .           .     .                                                                                                                                                                                                   o   o   o               ",
"          o o                                                                                                                                                                                                                                                                                                                                                                                           . . . . . X % % % . . X % . . . .   o                   . X % % > 1 2 7 M Z A R ) ) $.....$.%...X.%.:.>.5.5.t.5.5.t.5.5.6.5.t.5.t.5.3.5.,.O.O.| | X...| | G m m m c c c j c c c z 3 3 3 1 ; ; ; O O . . .         .   .       .   .   .     o       o o   o o     o               o   o o o o o o o o o   . . .   % # , y A ! r.r.Y.Y.e.a.e.e.e.e.5.i.t.5.a.a.N.}.S.S.}.S.a.S.a.a.S.S.A.}.A.}.}.S.a.a.J.a.J.s.J.a.a.t.t.3.,.,.O.O.,.:.:.:.%.X.} | | L m n c 5 3 : : : : ; ; + + + O O O O O . O . O O O O + O % % @ $ @ ; + 1 ; ; ; : : 1 1 > ; + + O O . .                 .       .                                                                                                                                                                                       o               o           o       o ",
"    o       o                                                                                                                                                                                                                                                                                                                                                                                     o   .   o . o % % % % % % % % % . . % o . .                 o o o X @ > > < 7 q C A K ) K ! ..$...X.%.X.%.,.>.5.5.5.5.5.5.t.5.5.t.5.6.5.t.t.,.3.:.O.X.X.X.| X.| ..G G m m m m x l l c z 3 3 2 3 1 : ; + O O . . . . . .   .         .     .             o         o     o o     o o   o     o o o o o o o o o X . . . . % 8 p S ! ' r.9.Y.e.e.a.e.e.e.t.w.w.5.p.t.a.N.S.S.N.S.S.N.n.n.S.S.S.}.A.}.S.S.S.u.u.s.J.u.S.S.u.s.u.t.,.+.O.O.:.,.O.,.:.X.X.} | | m m c j 3 3 3 : : ; ; + + + + O O O O O O O O O O O O O + + @ $ $ $ , + ; ; ; ; : > ; ; ; ; + + O O .   .                                                                                                                                                                                                                                               o     ",
"                    o                                                                                                                                                                                                                                                                                                                                                                                     o . . % % X . . % . % % % . o o X   o                 o   % @ > > 6 2 z k A F R K } R ......} } %.*.,.8.5.5.5.5.p.5.5.t.6.t.t.t.t.t.5.,.,.O.O.O.O.X.X.X...X.| ..G G m m P x x l c j j 3 1 1 : ; + O O . . o .   o   .   .                           o o     o       o     o       o   o o o o X o o o % . . . O $ a V _ _ 9.e.Y.e.e.I.e.e.a.p.p.i.8.t.w.t.a.N.a.N.S.}.S.S.a.S.a.S.S.S.A.A.A.S.S.S.S.u.a.S.a.a.a.u.u.t.,.,.O.#.O.,.%.:.%.%...} G L m m c j 3 3 : : : ; ; ; + + + O O O . O . O O O O O O O O + @ @ > , , ; ; : 1 : : : : : ; + + O O . . .               .       . .                                                                                                                                                                                                     o o o X o o   o     o o ",
"o             o                                                                                                                                                                                                                                                                                                                             o   o       o     o                           o             . o o o . X % X @ X % % % . % . % .   .           .     o . . % @ + > , 7 M C H K ) K R @...$.X...X.%.>.,.5.5.5.5.t.5.6.5.5.t.y.t.u.t.t.+.3.,.+.O.O.O.O.X.X.O.%.X.X...G L m m b x x l c 5 5 5 : ; % O O O O O . .   .   . .       .                       . . o   o   o o o           o o o o o o @ # # $ O . + $ 7 S ~ _ r.Y.Y.e.Y.e.e.a.k.a.M.p.p.p.5.5.t.a.a.S.N.S.S.S.S.a.S.a.J.S.S.S.A.A.S.Z.a.s.J.u.S.u.a.u.t.t.,.+.O.O.,.O.%.%.X.X.X...} G D m x j 5 3 3 : : ; + + + O O O O @ % O . O O O O O O O O @ @ > > > > > : 1 1 3 1 3 3 : : ; ; + O O . .         .     .   .   .     .                                                                                                                                                                                             . o # X X % * - X o o o o o e ",
"                                                                                                                                                                                                                                                                                                                                                o   o     o     o     o o   o   o     o           o   o .   . o % % % % X @ % % % o . % . . . .   . .         o   . o O % @ > > 7 q V J J ! ) R ........X.%.:.:.>.3.5.5.6.5.t.y.6.t.6.t.t.t.t.t.3.3.d.,.,.+.,.O.O.:.:.:.:.:.*.%...} G D P b x b c c j 4 : + + + + O O % % X . . . . .                           .     o o                         o     X X @ @ @ O O @ 6 M ~ _ r.r.r.Y.e.k.M.p.M.a.a.M.a.e.i.5.t.t.p.a.a.n.a.N.S.a.a.n.S.a.S.S.}.S.}.A.S.S.J.s.a.a.S.J.s.u.t.,.,.O.O.O.:.O.,.X.%.} | K G D b x j 3 : : : ; ; + + + + O % % % % % % O O O O + % + @ @ @ > > 6 6 < 1 1 3 1 3 : : : : ; ; O O . .     .         .     .                                                                                                                                                                                 o         o o . . . o o # $ * 4 = 8 = * & # & o & & ",
"          o                                                                                                                                                                                                                                                                                                                               o         o o   o o               o           o   o     o       .   X o % % X % @ @ % . O % . . . . . . .               . . . . % @ > 7 q C H J R K ) ....%.} } %.:.,.>.3.8.t.t.6.t.t.5.t.t.t.t.u.u.t.t.d.t.+.+.3.,.+.,.:.:.:.>.>.>.>.*.%...G m D D m x z c 5 5 4 , , , + > @ $ # X % . . . .   .                 o     o   o                         o   . o % % - 6 @ O . @ 9 V ~ =.9.e.Y.Y.k.I.{.a.{.a.[.a.p.a.w.5.t.p.a.a.S.a.S.}.S.a.S.n.S.S.S.S.S.A.S.S.S.a.a.J.S.S.a.a.u.t.t.+.3.:.,.O.:.,.:.X.X.| } } D m x c 3 3 : : : ; ; + + + O O % O % O % O O O O O + O @ + @ > > , 1 6 1 1 2 2 3 1 3 : : : : + O O . .   .   .     .   .       .                                                                                                                                                                                       . o o o o o . & - = p p r w w * * * * * e ",
"              o                                                                                                                                                                                                                                                                                                                             o   o             o   o   o             o                 o   o o . X o % X X @ X % % % . O % . . . .   .       o     . . . O % @ > 6 0 B A J K ) K K $.....%.%.%.:.,.5.5.5.p.t.p.t.p.p.p.t.t.t.t.t.t.t.,.t.t.t.,.3.3.3.3.3.2.5.3.4.2.*.$.G G F F F D b b v v t q 4 2 4 6 8 6 8 $ X . . . . o o .                                                     o o % % @ 8 y 8 + % @ 7 S _ r.Y.k.Y.e.e.e.k.M.{.N.}.N.N.p.p.t.t.y.n.a.S.S.N.S.S.S.S.a.a.S.a.S.S.S.A.S.S.S.J.s.S.a.u.s.u.u.t.t.3.,.O.,.:.,.X.%.} } } L L m x c 3 3 : ; ; ; ; + + O + O O % % % O O O O O O O O + @ $ $ > 6 6 6 6 7 2 2 3 3 : 3 : : ; + O O . .   .     .           .       .                                                                                                                                                                             . . . # # # % % . & O * r d f d p r s u w * w w ",
"            o                                                                                                                                                                                                                                                                                                                     o   o     o   o     o o     o   o             o   o                 o o   o o o % % % % @ X % % % % . O . . . .     . .     .   . . % . % % > 6 0 V H A J R ) $.$.....} %.:.:.>.,.5.t.p.t.p.p.p.p.a.t.u.t.t.t.t.d.i.+.t.t.+.,.3.5.t.6.6.5.4.5.4.4.*.$.....G G G H Z F S S V k q q 9 q y y 8 @ % . . O . o .           .   .           o   .                       . % @ 6 y V a 9 @ + 9 V _ 9.Y.{.Y.e.e.a.{.a.S.}.}.S.N.a.w.t.p.p.a.S.S.}.S.}.S.S.S.N.a.S.S.S.S.S.A.S.S.S.a.S.u.Z.u.s.u.t.t.,.:.:.,.O.:.%.:.| | }  .L D b c j 3 : : : ; ; + + O O O O O O % % O O O O O + O + @ + > , 6 6 6 6 7 7 1 7 2 1 : : : : + + O O . . .       .             .                                                                                                                                                                                   . % X * = $ # # X X & = s I T I U U U U s r w e ",
"    o                                                                                                                                                                                                                                                                                                                                               o     o                 o           o   o     o       o . o o . X % X @ @ % % % O % . % . . . . .           .   o . O O @ @ 6 6 M V H J R ) ..} $.} %.%.%.,.,.3.5.p.t.p.a.p.a.p.u.a.t.u.u.t.t.i.d.d.t.t.u.i.t.5.5.t.t.5.5.5.4.4.2.*.%.$...R K G J J E E F V B k y V V a 8 @ O % O . . .   . .           .       o .     o   .         . .   X . % @ > 6 y ~ A a + + 9 Z =.0._.k.{.k.k.I.a.N.[.[.}.}.N.a.p.p.u.p.n.S.S.S.S.S.S.S.S.S.S.S.a.S.S.}.}.S.S.a.S.u.S.s.u.S.t.u.t.O.,.O.,.O.,.O.%.| } } L D m x c j : : : : ; ; + + + O O O O O O O % . O % O + + @ @ @ > , 1 6 6 7 6 7 7 2 2 3 3 : : ; + + O . .       .       .     .   . .   .                                                                                                                                                                           . % X # $ # - # X - - & p f ( ` ( W ( ( ( I U s Y ",
"                                                                                                                                                                                                                                                                                                                                        o         o o     o o   o     o o     o             o     o   o o   . o o o X % @ X % % % O % . % . . . . . .         .   . . . . X O @ > 6 0 M S F ! ) @...} $.%.%.%.:.:.,.,.t.p.p.t.p.u.p.u.u.p.u.u.t.i.+.d.i.t.t.t.t.t.5.t.6.5.5.5.>.>.>.2.-.*.*.......K R R ) ) J Z V C C Z S V q , % O O . . .           . .       .     . o . . o .   .     . . . % % % 6 6 y ~ _ _ V < + 2 V _ q.I._.I.e.e.M.M.}.}.}.}.A.N.a.p.p.a.p.N.S.S.}.S.S.}.N.S.S.a.a.S.S.S.S.S.S.S.J.a.S.u.S.S.u.s.t.t.+.3.,.O.O.#.O.| X.} | L D b c j 3 : : ; ; ; ; + O O + O O O O O O O O O + + O + @ @ > > 1 6 6 9 6 7 7 2 2 3 3 1 : ; ; + + O . .   .                                                                                                                                                                                                       o % # # # # # # * - - = s I ` [ f.g.' f.f.' ( U Y ",
"            o   o                                                                                                                                                                                                                                                                                                                 o   o     o   o     o       o                 o   o                   .   . o . X X % % X @ % % % % % % O O . . . . . . .     .     . . . % @ @ 6 9 M Z A J ) ) } $.} $.%.,.;.:.,.5.5.i.t.p.a.a.a.a.p.u.s.t.t.i.d.i.d.t.t.u.t.t.u.t.t.t.5.5.5.5.2.4.:.*.*.o...} K ..$.&.) ) J H Z Z A J S y 6 + O O O . . . . . .   .     . .     . . o o o O X o . . . . . O # $ 6 6 q a _ r.' E 9 : 7 A =.q.Y.a.e.M.e.a.{.N.}..XXX}.N.n.a.a.N.a.S.S.}.S.}.S.S.N.S.a.S.S.N.S.S.S.S.S.a.S.u.u.a.u.a.a.u.t.,.,.O.O.#.O.X.X.#.| } G L D x c j 3 : ; ; ; + + O O O O O O O O % O O + O O O @ + @ > > > 6 6 6 6 9 1 7 7 2 1 1 1 : ; ; + O . . .                                   o                                                                                                                                                                   o % % X % X $ = - = = = w w s ^ ` f.f.f.f.E.f.f.] ^ W ",
"                      o                                                                                                                                                                                                                                                                                                         o     o               o   o     o     o     o                           o   o   o . % % X X @ X % O % O % % % . O . . . .     . .   o . . . o O + @ 4 q V Z J ) R } @.$.%.%.%.%.:.,.,.,.t.t.p.t.a.a.S.u.s.u.u.t.d.i.i.d.i.d.i.d.t.t.u.t.3.t.5.3.5.2.3.>.2.*.o...} } ..$.&.$.R R J J K ! ! A V < + + + O O . . .   .   . .   .     . . . o O # # # % . . O . . $ @ 8 y y M Z ! 9.9._ V 1 5 F =.q.I._.e.M.{.a.N.N.}.A.}.A.S.n.a.n.a.S.A.A.}.S.S.S.S.S.N.U.S.a.a.n.a.S.S.u.a.s.u.u.a.a.J.a.u.u.d.,.#.O.X.O.| O.X.| G G D x x j 3 1 ; ; + + + + O O O O O . O + O O + O + O + + + + > > 1 , 6 2 6 7 5 2 2 2 2 : : : ; + + O . .                                                                                                                                                                                                       . o % # # # $ X 8 = = u w s s ^ ` f.f.E.].E.].].E.f.W Y ",
"        o     o                                                                                                                                                                                                                                                                                                                             o                                       o     o       o   o   o . o o X % X % @ X % % @ % @ O % . O O . . .   . .     .   . o . . O O @ 6 9 B V A J ! $.$.$.%.%.;.*.%.:.,.5.5.p.p.p.n.u.a.a.u.u.i.u.i.d.d.i.d.i.d.s.t.t.t.t.3.t.t.3.5.5.5.>.:.X.X.| | } X.*.-.$.$.) R ) ! ) ) ! B 9 + + + O O O . . . . . . . . . . .     . . . # - $ @ O O O % $ 6 6 y M N V V ! 9.q.' A 0 z J &.q.e.a.{.e.a.M.N.}.}.XX}.A.}.n.n.N.S.S.}.XX}.A.}.S.S.}.S.S.S.S.S.a.S.S.S.a.J.u.u.a.u.S.a.u.a.a.i.+.O.O.O.#.%.%.| } } L D P x c 3 3 : ; + + + O O O O . O O O O O O + O O + + + ; + > > 1 < 6 2 9 7 2 5 2 2 4 : , ; + + O O .                                                                                                                                                                                               o         . # # % % % = - = r u s U U U ^ ` g.f.`.`.].E.`.E.f.` Y ",
"o                                                                                                                                                                                                                                                                                                                                       o   o             o o   o     o o       o   o     o   o   o       o o   o o o X X @ X @ % @ % O % O O . . . . .   .   .       . . . . o . + @ < 9 B H ) R } $.&.;.%.%.%.%.,.>.,.8.5.p.p.u.a.S.a.u.s.u.u.d.d.i.d.s.d.i.d.t.3.t.t.t.3.t.t.5.2.2.5.:.*.X.X.G } %.-.-.*.&.$.$.;.$.$.) ) S 7 + + + + O O . . . . . . . . .   . . . . . O , 8 8 8 O O + > 6 9 9 S A ~ ~ H _ r.9.9.A z v S &.0.e.{.a.I.{.a.N.[.XXXX}.}.}.N.N.S.}.H.}.XXXX}.S.S.}.S.S.S.S.S.S.n.a.S.u.J.u.a.u.u.u.S.S.S.S.a.u.3.O.O.O.| | | ....L D D Z l j : : ; % + + O O O O O . . O O O O O O O + O + + + , , > < < 7 9 7 9 9 5 2 2 3 : ; ; + + O . .                                                   o                                                                                                                                           o       . o X % X % # 8 8 h = p U I I ^ ` g.E.`.:X:X:XE.`.E.g.` ^ ",
"            o                                                                                                                                                                                                                                                                                                                   o   o           o     o                     o                                 o . % . X % X @ % @ % @ O @ % % . O . . . . . .   .     o   o . . . O @ > 4 B A J ) ) $.$.&.%.%.%.%.%.:.3.5.t.p.i.p.p.u.a.u.u.i.u.i.d.d.i.d.d.i.i.t.t.t.t.3.t.t.,.5.3.5.5.>.:.X...| o.*.-.-.&.;.$.$.;.;.$.=.) H 7 ; ; ; + + O O O O . .   . . . . . . O . O * q a a a , + > , 6 9 y A _ =.) ~ _ r.q.1.E v c F &.q.a.{.{.{.M.M.N.}.}.%XA.A.A.A.A.[.}.XXA.A.A.S.A.}.A.}.S.}.N.N.a.n.a.u.u.a.u.u.u.a.s.a.S.S.S.S.u.,.O.O.X.| | X.X.%.K L N x l 7 : : ; + % O O O O O O . O . O O O O O + O + % + ; ; , 1 2 6 9 7 7 7 9 2 5 2 : ; ; ; + O O . . .                     o                                                                                                                                                             o     o             o * # # # = $ = 8 r s I ^ ^ g.g.E.`.`.:X:X:X:X:XE.E.h.Y ",
"                                                                                                                                                                                                                                                                                                                                    o           o     o             o     o     o     o o     o         o     o o . o % X @ X % % @ O % @ O % O . O . . . . .   .             . O O O + 1 q S J ! ) $.&.&.%.$.%.%.%.%.,.8.5.w.p.p.p.u.p.u.u.u.u.d.i.d.+.i.d.i.d.t.t.,.t.t.t.t.5.t.8.5.5.5.:.X.| | %.*.4.2.-.*.%.;.%.&.&.=.) F 5 ; ; : ; + + O O O . . % . % . . . O O % % 6 y S A a 9 @ > 1 2 y M ~ =.r.r.) ) r.q.9._ C x Z $.e.{.}.@X{.N.N.N..X%X%X}.A.[.A.A..XXXA.}.}.A.S.V.}.S.A.S.N.N.a.S.p.u.u.t.u.u.u.u.t.u.u.s.S.J.s.t.,.,.O. .| | %.:.;.K D C x z 7 < ; + % + O O O O O O . O O O O O O O + + % ; + , , < < 9 9 9 9 0 0 0 5 2 2 ; : + + + O . .                                                       o                                                                                                                                 o o         o X o X # = = 8 $ # - r p Q ^ ^ g.g.E.`.:X:X:XkXkX:X:XE.f.` ^ ",
"  o       o o                                                                                                                                                                                                                                                                                                                           o   o             o o                 o                 o   o     o o   . o . % % X @ % @ @ @ @ @ O O O O O . . . . . .         .   .   . . O + , 0 B A J K ) $.$.$.%.} %.%.%.,.,.5.5.i.p.y.t.p.u.s.s.u.s.d.i.i.d.i.d.i.t.t.t.,.t.,.3.5.t.5.5.5.5.,.O.| ..X.>.>.>.<.-.;.%.;.;.;.-.&.J 3 : ; > ; + + O @ O . % X % # % % . % $ % % 8 V ~ _ S 9 > ; 1 2 M M _ 9.0.9.;.=.9.k.9.) Z v m K 0.{.-X@X}.[.}.}.%X%X%X.X[.A.}.A.}.XX}.A.A.}.N.S.A.}.S.S.}.S.S.a.a.y.t.t.t.u.a.t.t.t.i.u.u.u.t.O.O.#.| o. .} *.>.>.$.D b B 0 2 1 ; + O O O O O . O O . O . O O O + + + + + ; , 4 : < 6 9 7 0 9 0 9 7 2 2 1 : ; + + O O . . .                                                                                                                                                                                         o       & X X # = = 8 8 8 - # 6 p g f ^ ^ g.g.(.jXkXkXkXkXlXkX:X(.E.g.Y ",
"                                                                                                                                                                                                                                                                                                                                o     o                           o o     o                       o   o   o     .   o o % X % % % @ @ % O % O % O . . . . . .     o           . . . O O ; 6 q Z A J ) ) $.$.$...%.%.%.:.:.4.5.w.w.p.p.t.u.u.d.s.u.d.i.d.i.d.i.d.,.t.t.3.,.t.t.t.w.p.t.5.8.4.:.X.X.:.>.5.5.4.2.-.;.>.-.;.-.=.J 5 : : , ; + + + $ @ O # # $ = $ X % , 8 $ $ 8 A _ _ ~ M > ; 1 7 M S ) 9.Y.q.<.;.9.q.9.&.E m b R q.&X-X-X@X}.|.%X%X%X%XXXA.A..X.X.X%XXXF.A.S.N.S.S.}.S.N.N.S.N.p.y.6.3.3.t.u.y.t.t.3.+.,.t.t.,.O.O.X. .L  .X.>.4.>.$.D x B 2 < < + + % % O . O O . . . O . O + + + + + + , , , < 4 6 9 7 0 0 q 0 0 9 5 3 < : ; + + O . .                                               o                                                                                                                                             o   o X X - - = = h p p 8 = - r p g f U ` g.E.:X:XkXzXkXzXkXkX:X(.E.g./ ",
"          o                                                                                                                                                                                                                                                                                                                               o     o     o   o                     o     o o       o     o           . o X X % . % @ @ % @ @ % % % O % O . . . . .                   . . O + 6 q B Z F K ) $.$.$.%.X.%.X.%.:.>.5.5.5.t.t.p.u.s.u.u.u.s.d.i.d.i.d.i.t.t.,.t.t.,.8.t.t.i.t.a.t.5.,.5.>.5.5.e.e.w.0.>.-.>.>.;.r.=.F 5 : : : ; ; + $ $ @ @ @ $ 8 8 6 @ $ 8 9 8 , y ~ _ _ _ B 2 : > 7 M A =.9._.Y.r.-.r.q.q.1.R G G %.p.@X-X%X@X.X}.%X%X%X%X}.A.[.%XXXXXXX}.XX}.A.N.N.S.N.S.S.a.n.S.a.y.t.t.3.t.t.u.t.3.t.,.+.+.,.O.O.O. . .m m | -.>.0.$.Z l B 2 : , + % O O O O . O . % % % O O O O % + + + $ ; , < < 6 7 9 0 y z 0 0 0 5 2 : ; ; + + O . .   .                                       o                                                                                                                                                     o X # * * = = 8 8 p p p p p f g ^ ` g.f.:X:XkXkXkXDXDXzXkXkX`.(.T.g.",
"      o     o               o o                                                                                                                                                                                                                                                                                                                                                                           o       o . o o % X % O O @ + O % % % % . % o o o o     .             .   . . + $ 8 V B Z A R ) $.;.$...%.%.%.:.:.,.4.5.5.3.t.t.t.t.t.i.t.t.t.u.i.+.i.+.i.i.+.i.t.,.t.u.a.a.u.a.t.5.p.t.e.w.p.a.e.e.4.>.0.>.-.r.-.H c : 3 3 2 1 > > , @ + 6 8 6 6 q q q q q 4 < 9 A 1.9._ V j 1 : 2 Z ) _ q._._.0.<.<.e.q.4.1.o.&.<.l.@X-X%X%X}..X%X%X$X%X.X[.A.XX%X%XXX%XXX}.S.S.N.N.n.n.a.n.N.a.y.y.5.3.t.y.u.t.3.,.+.t.+.#.O.O.#.O. .G m m L X.r.-.;.N 0 0 : ; , O O O O O . O . % X . % . % % % @ + + , , , < 4 9 9 9 q 0 0 0 0 0 7 7 3 1 1 ; + O . . .       o           o                                                                                                                           .                                         o     . X * = = = = = p = 8 p g g f g ^ ^ ] g.E.`.:X:X:XkXkXlXjX:XjX(.:XE.g.",
"                                                                                                                                                                                                                                                                                                                                                                                                          o o     . . o o X X X O O O % % + @ O % % % . X % . .   . o               . . O $ 8 a V B S J ! $.$...} } } %.%.*.>.,.>.5.5.5.5.t.t.t.u.t.t.t.i.+.i.d.i.+.+.t.+.i.d.i.a.a.a.a.a.a.a.a.a.a.M.a.{.a.a.e.0.>.r.>.r.;.K c 3 7 0 7 2 < , > , > 6 q y 9 y V S S S q 2 9 J [ 9.=.~ M 0 1 z Z ) =.q._.{.Y.0.9.e.q.q.<.<.4.w.M..X@X%X@X[..X%X%X%X%X.X}.}.%XXXXX%X%X%X}.XXS.N.N.b.n.a.n.n.y.t.t.t.3.t.y.t.3.3.3.+.,.O.O.O.O.O.#.| L P x L %.=.;.! z 7 7 ; + $ O O O O . O . % . X % % % % % + @ + @ , , , 6 9 9 9 q 0 0 q z z z z 7 7 1 ; + + O . . .     o     o                     o                                                                                                                                         .     o               X = 8 8 8 r r u 8 p p f f ^ ^ ^ ` ] T.E.`.(.(.:XjXlXkXjXjX:X:X(.(.g.",
"          o                                                                                                                                                                                                                                                                                                                                                                                     o     o           o     o o o . O O % O @ O @ % O % . . o . o . o     o           .   . O % 9 a B C Z J K ) $.) @.@...} %.*.*.>.5.,.,.3.5.t.t.t.u.t.t.t.t.t.,.t.t.t.+.t.+.i.i.u.a.u.a.a.a.a.n.a.{.N.a.{.a.{.a.e.0.0.0.r.r.r.K N c k M q 0 < > ; @ , q q 9 y M A _ ) A V q v ) 9.Y.[ ) S z 3 z A _ =.q._.{.{.e.q.0.0.0.7.w.l.C.B.[.@X.X[.[..X%X@XXX%XXX}.XX%X%XXX%X%X%XXX.XA.S.V.n.a.p.n.p.p.t.3.t.5.5.u.t.t.3.3.,.+.#.#.O.O.O.O.| m P P L $.! ! N j 6 6 + + + O . O . O % o X X % X % . % % @ + + ; , , 6 9 9 9 q q k M 0 z 7 z 7 7 1 1 > + + O . . .                     o           o       o                                                                                                                                     o     . .   . . @ - = = p p 8 w = 8 p g ^ ( ( ( { [ R.R.E.`.(.E.(.(.:XjX:X:X(.jX:X(.h.",
"              o       o o                                                                                                                                                                                                                                                                                                                                                                           o   o   o o o   . o o . % % O O O % O @ O @ % % % % X % . o X . o . o           . . . % 4 q a B S F J K K @...} %.%.%.*.:.>.>.>.,.5.,.t.t.t.i.t.,.t.t.t.t.t.t.t.i.,.i.d.t.s.a.a.S.S.a.a.a.S.a.a.M.a.M.N.e.e.8.0.8.4.8.>.$.H C N M M k 9 ; ; > 9 q y 9 7 V A ' _ _ S q V _ 9.q.9.) H l 7 l J ! =.e.{.*X Xk.0.<.4.4.q.w.w.M.{.@X}.[.V.[.}..X%X%X%X.XF.XX%X%XXX%XXXXXXX}.A.S.N.n.n.n.y.u.y.t.3.3.t.3.5.t.t.3.+.+.,.O.O.O.,.O.#.| L m D G K K N k 1 1 1 + O @ O O . O . . X % . % % . % % % + O $ $ , < 6 6 9 q q 0 z 0 z M 7 z z 7 1 1 ; + O O . . .                                                                                                                                                       .                               . o X # = = 8 r r r p p 8 u p g ( ( ` ] T.R.E.E.`.E.E.E.(.(.jXjX(.(.:X(.:XE.h.",
"      o                     o                                 o                                                                                                                                                                                                                                                                                                                                 o   o   o   o   o   .   . X X o % O % O % % % @ % % . % . . . o . . .                 . . % $ 8 v V C C Z F G K K @.} %.%.*.>.>.>.3.3.3.,.t.t.t.+.t.t.t.t.t.t.t.i.t.t.t.t.t.t.t.a.a.a.a.S.a.a.S.N.N.N.a.{.a.a.e.4.0.0.0.e.0.;.! H Z C C M 7 1 + > y V y y 0 V _ 9.9.' J V S =.k.Y.9._ ~ C 0 k H ! =.e.;X*X*X{.4.<.4.4.0.q.e.B.[.|.@X}.[.[.A..X%X@X.X[..X%X%X%X%X+X%X%X}.A.A.V.A.m.n.a.p.y.y.t.t.y.6.5.t.3.t.t.,.O.O.O.X.O.,.X.X.K G L L J L Z z 3 1 : ; + O O O O . . . . o % X % X . % O + + + ; , < 6 4 9 9 0 q 0 q z z z z 0 0 7 1 1 ; + O O . . .                                                                                                                                                                       .       .   X o o . X - 8 8 8 p p 8 p p p p g ~ ( { ] f.E.E.`.`.W.W.E.E.E.(.:X(.(.(.(.:X(.E.h.",
"  o                 o                     o                                                                                                                                                                                                                                                                                                                                                     o       o         o   o   o o o . % O % @ @ % % % % % % % % . . . . .         o       . . . % , q v V v C Z J L } } } } %.*.*.>.>.>.>.>.5.t.,.t.,.t.i.+.+.i.t.t.t.t.,.3.t.t.u.i.a.u.J.a.a.a.a.a.a.}.S.N.N.{.p.0.>.0.8.e.e.0.-.;.) J Z S V 0 < 1 7 S A M y 0 M ) 9.q.0._ E J ' Y._.q.=.! Z z l F J ;.9. XuX-X_.4.<.<.4.4.6.w.M.}.[..X.X}.[.[.}.%X%X}.A.}.XX%X%X%X%X%X%X.XA.V.N.}.}.S.N.n.p.y.y.y.t.t.t.t.t.3.3.3.O.O.X.X.%.,.,.| | L G G ! L N 7 1 1 ; + O O O O . . . o . % . o o % % % O O + + ; + < 6 9 9 9 0 z z k q z q z 0 7 2 2 > ; + O . . .   .             o                                                                                                                                 .                         o . o o o X . # X 6 = p p 8 p p f p p f ^ ^ { ] g.f.`.(.`.`.`.W.E.E.(.(.(.(.jX:XjXjXE.g.h.",
"              o                                                                                                                                                                                                                                                                                                                                                                                     o o     o o   o       o o . o . % % % % % @ % % O O % % . o . .   . .             . . . % @ , y V S V Z F F K K } $.%.*.-.>.>.5.,.5.5.5.t.5.+.i.t.t.t.u.t.t.t.t.t.t.t.t.t.s.S.a.a.a.S.u.a.S.N.S.}.}.}.N.e.8.8.0.0.8.e.8.0.0.=.K Z Z Z q 7 9 M ! ~ Z M 7 M ) 9.Y._.9.=._ r._.k.9.=.) F l v H ! &.q.{.-XuX{.0.-.4.4.0.0.6.b.{.V.}..X}.}.[.[.[.[.A.[..X}.%X%X%X%X$X%X.X[.S.V.A.A.A.[.S.S.n.n.p.p.p.5.5.3.t.3.O.O.#.O.#.O.X.X.| } K K K L H z 3 : ; + O O O . . . . . . . . % X % % O O O + + + ; , < 4 7 9 0 0 y k z M M 0 z 0 7 7 1 ; + + O O . .                                                                                                                                                           .             .   . . o . % X # # - - u 8 = r p p g p p f ~ { [ R.R.E.`.:X:X(.`.(.E.E.(.(.^.^.jXjXjX:XE.h.` ",
"          o                 o &                                                                                                                                                                                                                                                                                                                                                                   o       o         .   . o   o % . . % % @ @ @ @ O O % % . . % . . . . .           . . . . O % O 9 V B C C C x K K K K @.%.*.-.>.>.>.3.8.3.,.t.i.+.t.t.t.s.u.i.t.t.t.u.s.t.t.u.u.s.S.S.a.a.a.S.N.}.}.}.}.a.a.5.5.4.0.8.e.0.e.e.r.) Z Z C k z M ~ =._ A M j M ! 9._.{.Y.r.=.9.e.Y.q.=.) J Z D K J =.q.;X-X-X{.0.>.<.6.0.w.q.e.p.}.[.}.@X%X%X}.[.A.[.N.}.%X%X%X%X%X%XXX.XA.V.N.S.}.A.A.A.S.N.n.y.t.y.5.3.3.5.,.O.O.O.%.| | } X.X.$.$.@.K H N j : 1 > + + + O . . . . . . % . o o . O O O O + + + , > 4 2 9 0 q k k M k M z M z k 0 2 < ; + + O . .                             o   o                                                                                                                   .                       . % . o % % X # # 8 = 8 = = = u p g a p Q ^ { R.R.`.`.`.:X(.:X(.(.(.(.(.:XjXjXjXjXjX(.E.h.h.",
"                o       o X - # o                               o     o                                                                                                                                                                                                                                                                                                                                   o o   o     o   o   o . . % % % % @ % @ % % @ % O O O . . . .   .           . . . . . + , q V V N N Z H D L K } $.%.*.>.>.>.2.5.>.5.3.3.5.5.i.t.a.p.a.t.t.t.t.p.t.a.a.a.a.S.a.J.a.u.a.a.}.}.XX}.N.5.>.>.>.0.5.e.a.e.e.r.&.H C B k V A ' 9.r.~ N z C ! r.Y._._.q.r.r.e._.9.r.! K J J H J -.q.{.-X@Xk.0.<.0.e.M.w.0.5.w.{.[.}.@X%X}.A.N.N.N.}.@X%X%X@X.X%XXX%XA.N.N.V.[.A.A.N.N.N.N.p.p.p.t.,.,.3.3.,.O.#.O.X.| | | } X.$.$...K H l 3 ; ; ; + O O . . . . .   . o X o . @ . % % + O + 1 , 6 7 q 0 z k z M z l z M z z z 7 6 1 > + O O O o   .     o o       o                 o                                                                                                                                       %   . X # # % # = = = = - - = p p g p p ^ ` [ f.E.`.W.`.(.:X^.(.(.(.(.jXkXlXjXjXlXlX(.g.h./ ",
"            o           & = r w X o       o       o       o                                                                                                                                                                                                                                                                                                                                       o           o   o o     o o   o o . % . % % % % @ @ O @ O O O O . . . .   o   o           . % O % 6 q M V Z Z D D H K @.$.$.-.*.:.:.>.>.5.,.3.3.5.5.t.t.u.p.a.s.u.t.t.t.t.t.u.u.a.a.S.s.S.a.S.S.XX}.}.N.a.8.>.>.8.8.0.e.e.Y.e.0.&.H C C B V A r.Y.9.! N M C K ) e.{.{.e.-.r.q.e.9.;.) R ) ! J F ;.9.{. X{.e.r.4.0.e.k.e.5.4.w.p.a.N..X@X}.{.N.a.N.[.%X%X%X@X}.%X%X%X}.N.N.N.N.A.N.a.p.a.n.p.p.p.t.+.:.O.:.3.O.#.O.,.| | | } $.;.$.) J Z j 1 ; ; + O O . . . . . . . . o . o . X % O @ + + ; ; 1 6 7 9 0 z M M M l z M M l z 7 7 2 1 > + O O . . .                       o                                                                                                                                             o   . o # % # % % # - = = 8 = = = u p p g i g ^ ] f.E.`.`.E.W.`.(.(.^.:X^.jXjXlXlXlXjXkXjXE.h./ h.",
"  o                     - h g p - X             o   o                               o                                                                                                                                                                                                                                                                                                             o   o o         o           o o X % % % % % @ @ @ @ @ + O O O O . . . .               . . % . . O @ 8 y S H N D D H L K K $.;.&.%.%.:.:.3.3.3.t.5.t.t.a.p.p.a.a.t.t.t.u.t.a.t.a.J.S.a.a.a.s.S.}.}.XX}.N.t.>.:.>.0.e.e.e.e.a.I.r.$.F C Z C Z ! 0._.9.) Z Z D H ) 8._.{.Y.0.r.e.e.r.&.) =.;.$.H D &.r.e.I.e.0.>.4.0.a.a.e.5.>.>.5.w.p.{.}.}.M.p.M.N.}.%X%X%X%X.X}.%X%XA.N.b.N.M.N.p.p.6.p.t.p.p.p.t.+.O.O.,.O.:.O.O.X.| } | X.%.;.R ! J M 2 1 ; @ O O . . . . o . o   . o X X % % % % + + + ; 1 < 9 7 0 q M M N N l l l M z z 7 7 6 1 @ + O O . .         o   o                                                                                                                                                 .     o o   . o X % # # # - - = - = = - = = u p g Q ^ { P.R.E.`.E.E.W.W.(.(.jXjXjXjXlXzXzXkXjXlX:XE.h.` / ",
"                o     o 8 y g f r - o o       o   o     o                                                                                                                                                                                                                                                                                                                                                 o o   o     o o o o     . . . % % % @ @ @ @ @ @ + + O O O O . .   . o o o         . . O . O > y M V N N D D H K K R ....%.%.%.:.>.>.5.,.5.5.t.t.p.p.p.p.p.i.t.i.u.t.t.u.a.a.u.u.a.J.a.S.A.}.}.a.5.,.:.5.5.i.p.a.a.e.e.-.@.D Z Z Z H ) Y._.e.) H ! H H K r.Y.{._.0.r.0.e.0.;.$.-.-.$.J b ;.r.q.e.0.4.-.>.e.M.{.a.>.*.:.5.>.5.5.b.N.a.w.p.M.}.%X-X%X@X}.%X%X@XV.M.p.p.p.a.6.5.5.5.5.p.p.p.p.,.X.X.X.:.,.:.:.%.%.%.%.@.$.! K H N z < ; > @ O O . . . .       .   o   . . . O O @ ; ; ; 1 < 7 z 7 z M z N N l x z l z z 7 2 6 > > + O O . . . .       o                                                                                                                                                                 o % % # # # = $ * - = = - h = h p Q f ^ ] R.R.E.E.W.W.W.W.(.(.jXjXjXkXlXzXzXlXjXjX(.T./ / / ",
"                      o - p p g p - - - o     o     o                     o o                                                                                                                                                                                                                                                                                                                               o o   o       o   o o o X X . % % @ @ @ @ @ @ + + + O O . . . . .   o         o . . . O O $ 6 y M Z Z D D H G K ! $...$.X.%.:.3.5.5.t.8.t.t.p.p.p.p.a.u.t.t.t.t.a.t.u.s.a.u.a.u.a.S.a.S.}.S.t.,.,.:.5.8.a.a.{.a.e.0.$.K D D H Z A ) r.{.Y.! ) $.! H K -.k.{.{.k.q.e._.r.$.$.-.r.$.L x $.<.0.e.4.-.-.>.0.a.{.e.:.%.%.,.:.:.3.w.a.p.w.w.p.{.%X-X%X}.@X%X%X}.N.a.p.p.p.6.4.,.:.5.5.p.a.N.p.5.X.X.O.,.>.,.,.,.;.%.;.%.$.K H x z 3 : ; + + O . . . .   .     o o   o . . % % @ @ > > 1 < 7 9 0 k z N M M N l l l z z 0 7 < 1 > @ + + O . .   .     o o     o o                                                                                                                                           o       o   X # X # = = * X # - = = - e = u s g ^ { ] R.f.E.(.(.E.(.(.(.(.(.jXjXjXlXlXzXzXlXjX^.E.g./ / / ",
"                      o # = h p p p 8 = -     o o   o           o                                                                                                                                                                                                                                                                                                                                 o   o o           o o   o o     o o % % % % @ @ @ + > ; @ @ + O O O O .     . o             o . . % @ 6 q M Z Z N D H H K K @.} ....%.%.>.>.5.5.t.5.6.w.i.i.p.a.t.a.t.t.t.t.t.a.u.u.a.u.a.a.S.S.}.S.a.t.,.:.,.5.e.a.a.I.M.e.-.} L Z D K H Z ! Y.Y.Y.! ) ;.$.K K -.e.;X;X{.k.e.e.0.$.$.;.0.=.L x X.-.0.0.0.>.%.*.0.{.a.e.%...X.:.%.%.%.>.w.p.i.p.5.a.}.%X}.}.[.@X%X@XN.p.w.p.p.t.>.:.3.5.e.p.a.a.p.5.:.X.O.:.,.>.>.>.>.>.>.;.@.H N z 3 2 : + + O O . .   . .     .   o   o o o . % % > > > 1 9 5 0 q k M z x N N N l c z z 7 3 1 1 > @ @ O . . .     .     o                     o                                                                                                                               o   o X X - - $ = 8 = * - - * h w - h u g I ^ { ] R.R.E.E.(.`.(.(.(.(.jXjXjXjXjXjXzXzXlXxX(.(.T.h./ / / ",
"        o               X - 8 p 8 = u p r -     o   o     .     o o     o o                                                                                                                                                                                                                                                                                                                               o   o o             o   . % . % % % @ @ @ > > > @ ; @ O O O . .   .               . . . . O O > 9 M M Z Z D H K K R ) ......X.%.:.>.5.5.5.t.i.t.p.a.p.p.t.p.t.a.t.a.t.u.u.a.u.a.J.S.S.A.a.s.u.3.O.,.5.e.p.{.{.{.a.8.;.K D P K ! J J ) 0.Y.0.$.$.;.! G K -.{.@X&X{.{.I.e.0.$.R $.-.*.K D $.;.4.e.4.-...%.e.{.{.0.%.| ..X.X.X.X.:.5.p.w.5.4.0.M.[.[.{.[.}.@X@X[.M.w.p.5.5.>.>.5.5.5.a.p.a.p.t.3.:.,.>.,.:.:.>.>.>.8.;...D N c 1 1 ; + O O . .         o   .     o o   o . % % @ , 1 1 2 7 0 z k M l x M x l l z c z 3 3 1 > + + O O . . . .   .   o                   o                                                                                                                         .       . o X - = = h 8 8 r 8 = * = = u p u w u g ^ ^ { [ P.E.`.(.E.(.:X:X(.(.jXjXjXjXjXlXlXlXlXlXjX(.Q.T.] ^ / ^ ",
"      o           o o o X # p p h = p f f = & o   o o o o o o o   o o o       o o                                                                                                                                                                                                                                                                                                                   o     o     o   o   o o   o   . o o o % @ @ @ > @ > > > @ + + O O O . .                     . . . O @ 6 q M H Z Z D H K ! K } } } ..%.:.>.5.5.5.5.w.w.p.a.p.a.p.a.u.p.t.t.p.u.s.u.a.a.S.S.}.S.a.t.t.,.:.>.5.8.a.a.}.{.a.0.%.K H Z J ) J ! ) r.Y.r.! ) $.@.G @.<.{.&X-X{.e.e.I.0.$.K $.;.&.K L &.-.<.e.0.>.} %.e.}.}.5...| | X.%.X.X.X.>.5.w.>.%.:.w.N.a.M.{.[.}.}.[.a.e.w.e.e.5.>.5.w.5.8.w.p.a.t.5.5.3.:.:.O.%.*.-.>.-.$.K N l z 3 : + + @ O O .   .             o o o o o % % @ > 1 1 6 7 9 0 z k z z M x N x k z z z 3 1 ; @ ; + O O o   .     o   .                                                                                                                                                     . o # - = = 8 = p = = = = p s p f g p g ^ { ] f.].`.`.UX:X(.:X(.jX:X^.^.jXjXjXlXjXlXlXlXjX(.(.W.h./ / ^ / ",
"              o o o     o - p p u p ~ ~ { f 8 X   o o o o % o * . o . o .   . o . o       .                                                   o                                                                     o       o     o o               o                                                                                                                                                         o o                 o o . . % % + @ > > > > > ; @ + + + O O . .       o   o o   o   . . O + , 9 B S Z Z Z H ! ! ! } } @.....%.>.5.4.5.5.t.t.a.a.a.p.p.a.u.a.u.p.u.u.p.a.u.a.S.A.}.s.u.,.+.,.O.,.t.w.a.M.{.}.a.>.-.@.D D H K ! ! $.9.0.=.$.K ! G D K e.;X@X&X{.e.e.k.e.;.} @.$.$.K K ..-.4.e.w.<.....e.}.;X0.X.L | X.X.%...%.:.5.8.>.X...:.p.a.e.a.a.M.{.}.a.p.p.0.4.5.5.5.e.t.5.8.w.a.w.w.5.5.:.%.| ..X.%.&...K H Z l 0 : ; + + + . . . .           o o o o o o . % O + > > 1 7 7 0 z M M M N x x N z z z z 7 3 1 ; @ O O O . .   . .                                                                                                                                       o o               . o . # = = 8 p 8 u u 8 = = = p s f f ^ ^ ^ ` g.f.f.W.`.UXjX(.(.:XjXjXjXjXjXlX^.lXjX^.lXlXlX^.(.Q.T.h./ / Y / ",
"              o   o   X o o r h - f [ P.{ f p h * X X o # # O % % X # # # * = = = * & o                                           o o           o o     o o                                             o     o o o o o o o o   o   o   o         o                                                                                                                                                                                   . . % @ @ @ ; > > > > > > ; + + O O . .   o   o   o   o     . . . O @ 8 y V Z Z Z J ! ) @.K } K ....X.*.4.5.p.e.p.p.p.w.p.a.a.u.a.u.p.u.u.a.u.u.a.S.S.S.N.t.t.,.+.t.,.,.,.8.a.a.{.{.e.0.-.) H x H J J ! $.r.0.;.) K G G m %.e.@X=X@X{.e.e.I.a.0.$.R $.} K ..$.*.0.e.e.>...$.e. X}.w.} G L } %.%.%.%.;.>.>.%.} | X.w.a.a.e.0.q.a.M._.e.w.0.5.0.e.e.e.e.5.e.p.M.a.w.5.5.%.| G  .L | K J D D C N 0 : ; + + O . . .   .     o o o o o     . . O + @ ; > 6 2 7 0 M N M N N N l x x z z 7 7 3 1 ; @ + O O . . .                                                                                                                         o     o o   o     o o o           o o o - = r p p p p p r = p r p p g g ^ ` ^ ^ g.f.E.E.`.`.`.:X:X(.jXlXjXlXjXlXjXjXjXlXlXlXlX^.(.(.(.T.h.h./ / ^ ",
"            o o   X   o o o - - = { ].'.).( p h = - & * & % * * # * * = 8 r p p p r = .                                         o o o X X o o o o o         o                                                           o o o o o   o                                                                                                                                                             o                       o     o       . O % @ @ > @ > > > > > ; + + O O O . . .     o           . . . O @ , q V M B V J ) ) ) L K G } } ..*.2.w.p.p.t.w.t.w.i.u.p.t.p.p.t.u.a.u.y.u.n.S.}.S.a.t.,.,.,.,.3.,.5.5.e.p.e.a.e.0.>.$.D x N N Z ! ) r.-.$.G F D L D <.{.@X&X{.a.e.e.k.{.e.-...K } $.%.&.-.4.e.e.4.$.%.p.}.}.5.| L L | ..%.*.%.*.>.>.%.} L } 8.M.a.p.%.-.0.e.e.p.e.5.0.e.e.e.p.e.t.p.a.M.a.a.6.>.%.| m m m m D Z x N C B z 3 ; ; + O O . .     .   . o o   o o o . . O % @ > 1 < 7 9 z M M N N N N N l z z j z 7 1 : ; + O O . . . . .                             .                                                                                                             o o o o   o   o o X = = r p p p r = = = w r p p f f ( ( ` ] g.E.E.`.`.^.jX`.jXjXjXlXlXkXlXjXjXlXjX^.lX^./.^.(.(.T.Q.h./ / / / ",
"              o o X o . o o - = ~ ].IXPX].{ p 8 = - # X * * $ = * * 8 p a d V f d a 8 o                                     o   o         o         o o       o                                         o     o             o     o   o       o         o                                                                                                                                                                             o . O O + @ @ > ; > > ; 1 > @ + + O . . . . o o o o   o         . . O $ 9 9 q z Z ! ) ) @.K G K K } ..%.:.8.e.a.p.i.w.p.t.t.t.p.p.u.a.p.p.u.p.p.a.}.S.a.t.,.t.3.t.t.5.,.5.5.5.8.8.0.8.>.8.@.Z c c l M ! ;.r.r.) F D D G ..w.{.=X@X{.e.4.q.e.{.{.0.$.K K ..$.&.*.0.e.p.e.>.*.e.{.{.>.| m m L ..%.%.%.%.*.>.*.| L G >.{.{.e.%.$.;.>.e.e.e.4.e.a.M.p.w.i.e.p.e.p.a.w.t.5.*...L m x x x x x x M B k < ; + O O . . . .         o o   . o . . . O @ @ > > 2 7 0 j l M N N N D N x l x z 0 3 : ; + + O O O . .       .             .   .                                                                                                 o     o   o     o o o o o o o   . o X - = 8 p p r r 8 = = = = = p s g U ^ ` ] g.R.E.E.`.`.`.`.jX:XjXjXkXlXlXlXlXlX^.jX^.^.lX^.^.^.(.(.T./ / / Y / ",
"            o & X o o - X o o p P.IXLXLX'.P.V = = - # * % * * = % * r t a d f f f p 8 #   . . o                               o o o     o o o .     . o   X                                           o     o               .       .         .                                                                                                                                                                                       .   O % O @ @ > > > > 1 > > ; + + + O . . .   .   o     o .   . . . O + < , 7 7 M J ) ) ! K G K K K ..%.:.w.p.a.p.e.p.5.5.5.t.i.p.a.p.p.u.p.u.N.S.}.S.a.t.t.,.3.8.8.3.,.5.4.5.>.>.>.>.8.0.$.D j j j N J =.r.-.$.F m D R -.p.@X@X X{.q.>.-.M.{. Xe.-.K G K *.*.*.4.a._.e.4.4.e.{.M.;.L P m G ..%.%...$.*.*.%.} L G >.[.}.e.*.} } -.4.4.0.0.k.a.{.e.e.p.e.w.e.p.p.p.w.>.>.%.G m c j c c l l S V V 9 + + + . . . .     o o     o o o . o % O % @ + , 1 < 7 j z M N N N N N N x x l z j 2 1 ; + O O O . . .                                                                                                                               o         o   o o o   o     o o - * 8 w p p r r r * = = = w r p U f ^ ] ] R.E.`.E.(.jX:XjX:XjXjXlXlXlXlXlXjX^.jX^.^.^./.^.^.(.(.(.Q.h./ / / / ",
"            o o X   X - -   X ^ *XPXLXLXIX].( p w = * X # * * 4 $ 4 8 r t p a a y p 8 # .     .                           o     o - u f ^ ~ ( { ( f =     o o                                   o o       o     .     .   .     . .                                                                                                                                                                 o     o         o                   . . O O @ @ @ > > > > 1 > > @ + % + O . . . o     o o     .   . . O O $ > 1 7 M J _ _ $.K K K } ....$.*.0.p.M.p.p.e.w.5.5.t.t.p.n.a.p.u.t.a.S.%XXX}.p.t.5.5.t.t.t.5.t.8.8.>.>.>.-.>.0.>.@.Z j 3 j N ! =.r.=.) K F F $.0.{.@X@X;XM.0.-.*.k.}.}.{.<...K } -.-.-.0.a.M.e.e.e.e.a.8.$.m c P m ..%.....%.%.*.%.} L G %.{.&X{.-.K G %.*.-.0.q.{.{.{.M.a.e.e.8.w.8.5.e.5.>.:.*...m c j c c l C A ! A y 1 O O O . . .   o       o o o o . X . % O @ ; 1 1 2 7 7 z M N N N N P N N x z j 0 2 : ; + O O . . . . .                                                                                                                                       . o o o . o   o o o o * = r p p r r w 4 w = w = * w s U ^ ^ ] R.E.`.(.`.:X^.jXjXjXjXjXlXkXlXlXlXlX^.^.^.^.^.^.^.^.(.(.Q.Q./ / / / / ",
"            o o X   X - -   h Y.FXLXLXLXPXIXP.V p r * & o * * * * 8 8 8 8 w = 8 8 8 = # . . o o   .                             o p { ).].'.'.'.].).{ h       o                                       .       .   .     .   .     .       .                                                                                                                                                                                           . . . O O @ @ > > > 1 1 > 1 > ; + + O O . . . o . o     o .     . . . O @ + + 6 M ! _ =.! J K K K K ....*.4.w.a.i.8.w.5.8.8.5.5.p.p.p.p.p.t.p.}.%X%XS.a.t.t.t.p.5.t.5.5.8.5.>.>.;.;.>.8.-.! C j 3 j N ! $.=.=.) K G F &.q.[.@X@X{.l.4.&.*.e.{. X{.<...G ..-.-.-.0.k.a.{.e.p.{.M.0. .P c P L } ....} ..$.%.$.K G G } a. X{.4.K J ..&.-.0.e.a.{.{.a.e.w.>.*.*.>.>.4.4.:.>.<.%.G l c c l C Z ! _ _ A 4 + O . . . . .       o o o o o . X o O @ @ > , 1 7 7 z z N N N P H N N N x M 7 7 3 : ; + O . . .                                                                                                                                             . . . o o o   o   o # = r p p p r r w r * * w w * w Y ^ ^ { ] E.`.:X(.:X:XjXkXjXkXlXjXlXlXlXlXlXlX^.^.^.lX^./.^.^.^.(.Q.Q.h./ / / / ",
"            o o #   # - X   f '.LXLXLXLXLXIX).( p r w * # # * = 8 8 r 8 8 , = $ # = 4 = $ X % #     o     o       o     o   o   - ( _.IXSXSXSXSXSXIX'._ p                                       .     .   .       . . . . .   . .   . .                                                                                                                                                                               o                   . . O % @ $ > > > > 1 1 > ; ; + + + O . . X   o   o       .   . . . % O + 6 y H ) _ ! K H G K R G ..%.:.0.w.w.5.5.5.>.4.>.5.5.p.p.p.p.t.a.N.%X-X}.p.e.t.8.t.5.8.5.,.>.8.:.%.%.%.>.>.&.K x 3 3 7 M ! ) ) ) ) K K G &.w.{.[.[.M.e.4.*.*.q.{.}.M.2.K G R *.-.<.6._.{.M.{.M.{.M.2.G c c P m K ..} K $.$.....G D D G 0.{.k.r.K F R $.$.<.e._.k.M.e.e.>.>...} %.:.-.>.-.>.0.&.G x j c z M V A _ _ A q + O O o .     .   o       o o . % O O @ + , : 1 3 7 0 N N N N N H P N N x z j 3 1 : ; + O . . . . .                     .                                                                                                                       . o % . o   . o * = p p p d r r w w * = * w e u U ^ ^ ] R.W.:X:X(.jXlXzXlXlXlXlXlXlXlXlXlX/.lXlX^.^.jX^.^./.^.^.^.(.(.h./ / / / ",
"            o o   -   X # X ).SXLXLXLXLXLXPX'.{ p u = w * * = 4 8 8 4 r $ $ % * $ * $ r t 8 - 6     . o   o X   X   .   o     # a j.IXSXSXSXIXSXPXSXSX'.' p                                         .   .   .   . . . . .   . . . . . . .                                                                     o                                                                                                               o           . . O O @ ; > > > > > 1 > ; ; > + O O O . . .           o o     . . O O O ; q S _ ! J D H G K K K ....%.>.e.5.4.5.4.5.5.5.4.5.w.b.a.6.5.M.}.-X%X}.p.5.5.5.5.8.:.,.%.:.,.%.%.%.%.-.*.$.H l 3 : 7 Z J ) ! ! ) K J K &.q.{.[.{.k.q.*.o.1.q.{.{.M.<.K m K %.&.-.0.e._.M.{.{.{.M.-.L c P c m G R K G K R ..G D m D D $.0.q.-.K F K ..&.<.q.e.k.q.0.0.>.%...} ..%.%.%.*.>.0.-.K x z z z k V A _ ' ~ 8 @ O . O . .   .   o   . o o . X . O % + , , 1 2 7 0 z N N N P P N N N N x z 3 2 1 1 > O O . . .                   o                                                                                                                             o o o o o   o * = r p p p s t r * w w e * e * w U ` ` g.E.:XjX:X:XjXkXkXzXlXlXlXlXlXzXzXlX/.lX/.^.^.lX^.^.lX^.^.^.^.^.Q./ / / / ",
"            . X o X o o X f '.LXLXLXSXLXLXLXIX[ S p r p r * = * 8 r 8 8 4 * * % $ * 8 p f S y p .   X o     o               - p { ).'.'.'.'.'.'.IXIXSX'.).` p .   o o       o                     .   .   . . . O . . . . . % * % . . . . . . . .                                     o                   o                   o                                                                                                         . . . O % @ @ @ > > 1 1 1 1 1 1 > > + O O . .   .     o       o o . . o . O + 9 V J A S Z H H J K R R ..$.-.4.0.0.0.8.4.>.>.4.5.e.a.p.w.6.M..X%X@XN.w.4.>.>.>.*.%.X.| %.@.} } } $.*.;.@.D z 3 3 c Z J K J J K E K G ..4.M.M.M.e.4.*.&.-.e.M.M.e.-.G m F ..$.*.4.e.a.{.{.}.{.M.-.D x c P m F G G F F K G F b b D l H =.&.) J F J R &.=.0.0.0.<.-.-.%...} } ........$.*.-.-.R b k z k k v V ~ _ A 8 O . . . . o .   . . . o o . % o % % @ , > 1 2 0 0 c l N N Z Z D D D D N M c 7 2 1 > + O . . . .                                   .                                                                                                         . . o . o o     * r p p d s d p r r w * w * w e e s ^ ] ] f.`.:XjXjXjXkXkXzXzXkXlXzXlXlXzXzXzXlXlX/.lX^.^.lX^.^.^.^.lXjX/.Q./ L.] P.",
"              o o . # o X [ SXLXLXSXkXSXLXLXSX].` p 8 p r * w * r 8 r 4 4 * , * * $ 8 d ( _ ( ~ =     o .   .         o   X a ( ).).).[ P.[ { [ ).).'.'.'.).( -     X     o                       . .   o . . X O % . O % $ 8 r r 8 % . .   .       .                                                                                                                                                                                 .   . . . O @ @ > > > 1 1 1 1 1 1 1 ; + + O O .   .       o o           o . . + 6 y A A N N N H J ! K R R ..&.4.4.4.0.8.4.4.4.>.4.e.V.N.w.w.p.N.[.[.w.>.%.:.*.:...| } L  .} | } } $.;.=.R b j : 3 l Z F J A F J ) E F ..1.e.e.w.q.<.&...<.k.k.e.q.&.G b D K ..%.4.e.p.M.{.{.[.{.>.G x x P P m m m m F F D Z b Z b j l F F J F F J E $.1.9.<.-.-.$.&.%.@.} } } ....} $.&.-.-.R C z z k q 9 y y S y $ O . % . o .   .   o   . . % . O % @ @ , , < 7 0 z k l N N N D D Z D N N N j 2 < > ; O . . . .   .             o     o                                                                                                                       . o o o .   o & = p f d d s r r w * w w w e * e w U ^ ] T.E.E.:XkXjXkXxXzXlXzXlXlXlXzXlXzXzXzXlX/.^.lXlXlXlX^././.lXlXlXlX(.h./ T.L.",
"            o o X X $ o 6 '.LXLXFXIX).'.PXLXLXIX[ d e p = * r 4 4 r 4 r 8 4 = 4 4 = 8 p ( ' ' ( r o   . o         X   .   y _ P.].[ ( f a y f ~ { 9.).).'.'.[ a X                                   . o . . % % O % % * 4 t a d S a 8 * . . . . . .           o                             o o   o o o                                                                                                                                 .   . . O % @ @ > > 6 1 1 1 1 1 1 ; ; + O O O .   o .     o o o o o o .   O O 6 M S A M l N D ! K $.$.$.&.*.4.0.8.5.0.4.4.-.<.4.B.[.{.M.w.w.w.l.8.*.....%.%.%.| G  .L  .| } } } $.;.*.K x j : j C H A A F Z J J J m E o.0.q.q.4.*.$.&.4.e.k.e.4.$.D m m G G $.-.q.e.a.{.[.;XM.0. .m x m n m F m m n D b b x v n c c b n Z b b F J ) =.<.<.-.$.$.$.....K K K ..K ..&.&.-.&.R Z 5 0 q q 6 6 y y 6 @ O . % . . . o o   . o o o % X % % @ @ , < 9 0 z k M N N N N D N D D Z N l 7 1 1 ; > + O .   .           o o   o     o     .                                                                                                               .   . . o o o O * r d T f d r w r w r w w w * e e s ^ g.f.R.E.E.jXxXkXlXzXzXzXzXzXzXzXlXlXlXzXlXlXlXlX^.jXlXlXlXlXlXlXlXlXzX^.T.L.] h.",
"          o   X X # X . f IXLXLXSX'.T [ IXLXLXPX'.T * w * * r = 4 r r 4 = 8 * 4 4 * * 8 A _ [ [ f -   o .     o   X   o X ~ [ '.).( #   o = a ( { [ 9.).].'.).' p #     o     o                   o . . % % # $ * $ 8 8 8 a S S f S d 8 = % . . .   .                                       o o o X - - .     o     o                                                                                                                 o .   . . . O @ @ > > 1 1 1 : : : > ; > + + O . . .   o   o o o   o o         % 6 y S V V z M Z J R ) $.&.&.>.4.0.0.4.0.4.<.-.*.w.[.=X@XM.6.4.<.1.o.R G R &.&...R L m m m L L } K $.-.&.G c 3 : c Z Z Z Z Z Z F F b b F R 4.4.4.*.&.&.&.4.q.e.w.0.$.F b Z F G ..*.0.w.e.{.{.[.{.0...F m x x n b n n x x n c v c v 5 c z v n v v n D R =.=.<.=.%.R K } K K K K K K $.$.-.-.=.) Z 5 2 q q 6 # - @ @ % . . . . . . . . .   o o . . % O % @ @ , < 9 z k l M N N N N D N D N P l z 2 : 1 > + + . . .             o       o           .       .                               o               o               o               o                       o . X o o % & * t I T I t r r 4 w w w e w e w w U ] f.E.E.E.`.:XkXzXzXDXzXDXzXzXzXzXzXzXzXzXzXlXlXlX/.lXlXlXlXlXlXlXzXzXlX^.T./ h.P.",
"  o         o o X # % . ~ IXLXLX;XP.- p '.LXLXLXIX` = & * * r w r 8 t r 8 * * * $ * # * p ( [ 9.( y     o   . o   X     p [ ].'.[ d     X p f ( [ [ 9.P._.'.'.).{ s     o                         . . X # # $ = 4 8 t 8 t a d S V d V d t $ . . . . o                                         o o - u 8 - o                                                                                                                     o       .   .   . O O + ; > 1 1 1 1 : 1 1 1 > ; + O O .   .   o o o o o   o   o . . X 6 a A V M z l N J ! ) $.*.&.-.0.0.e.e.8.0.2.&.-.q.@X-X@XM.7.1.&...K F G ..*.*.o.} | m P P L L K ..$.;.&.F j : 3 l Z Z l B Z Z b b l n F R &.1.=.$...$.%.<.0.e.q.0.$.m x m F G ..;.>.w.k.{.{.{.{.e.o.G m n n n x x c n c n z c z c c 5 5 5 z c z z Z R 1.1.9.=.$.$.} G G L } G G G $.&.=.=.=.E Z 0 9 q q 6 @ @ % % % . . .   .   o .   . . . . % % % % $ > < < 0 q k M N N N H D N D Z N Z l z 2 : > ; + O . .   .                 o     o                                                                                                                   o . o X . % o . * = d T ( T s r w w r w w e e * e U ` f.R.).E.E.`.jXkXzXDXzXzXzXDXzXDXzXzXzXzXzXlXlXlXlXlXlXlXzXlXlXlXlXlXzXzX^.T.L.h.h.",
"            o o X X % . ~ _.IXhXP.~ . X [ IXLXLXSX[ = o e = r 4 t r t r 4 * * * * * & . * f ' ).[ g X   o o X     o     ~ _.'.).( 8   & = p ( ( { ' [ [ [ P.].].9.( -     X o     o       o     o . . . % $ 8 8 r r a a y d S S S f S f d 8 * . .   .   .     o                         o X = r p S ( ( ~ Q p = - o                                                                                                                       . . . . O O + + > > : 3 1 1 1 1 1 > ; + O . . o .     o o o o o o     .   X 6 y A S M k l Z J ) $.&.;.-.4.0.p.e.e.e.e.0.-.*.q. X-X@Xk.<.o.E G m m F R -.-.&...G D P m m L } K R &.) Z 3 3 3 v H C l B Z Z b v j n b F R $...) $.&.=.<.0.0.0.-.&.F P m D G R *.0.0.e.M.[.{.{.w.&.G m m n c c c c c v c c z z z z 5 3 5 5 z z 5 B E =.9.-.=.*.&.$.K G L L D D G K &.-.-.&.J v 0 q q q , @ % . . . . . . o   . .   . . X . % . % % @ $ , < 6 0 k l N N C N D N D Z x N x l 5 1 : ; + O O . .               o o   o   o             .                                                                                                       . o . o o # # # 4 r T ( _ T d w w r w e * e w w s W g.f.).E.E.E.E.:XzXDXDXDXDXDXzXDXzXDXzXzXlXzXlXlXlXlXlXlXzXzXzXlXlXzXzXzXzXxXT.L.h.h.",
"            o o X X X   8 { ).{ V 8 =   f '.PXLXPX9.e o = r r r 8 r r 4 r 4 * * # % . . o 8 ( _.P.S #     . o   . o o X { '.'.).s     = = r p f ~ f f ( f ~ [ [ ).{ p     - -               o   o . . . X $ 8 p a S S d S S T T T S d S S a = . .   .       o       o     o     o       - p f ~ { ' P.j.j.[ ( f r - &     o o                                                                                                                 . . . O + + ; ; > 1 1 1 1 1 1 1 1 + + O . . .       o o     o o .     X 6 V ~ ~ V M M C ! ) =.=.=.<.0.e._.M.e.k.e.q.&.&.<.{.@X{.q.*.R F D b n n R &.*.&.R G m P x D L G G K $.R C j : 3 b A C z b S F F z j z m D F K K R $.*.-.<.r.4.-.-.&.K D G D D K *.4.q.e.e.M.I.k.4.$.G m x n c c 5 c z 5 c 5 c v 5 z : : 3 : j c 5 k J =.r.&.=.=.=.$.K D D b x x m G &.=.-._ H 0 4 q V q @ % % % % . . .   o . o   o o . o . % % % @ $ > < < 9 0 l M C N N Z N N N N x l l 3 3 : ; + + O . .   .                 o     o                                                                                                                     o   o . o . o & r U T ( ( I s w * w w * e w t U I ] f.E.E.).E.`.`.:XkXzXDXzXDXDXDXDXDXzXzXlXzXzXlXlXlXzXzXzXzXzXzXzXzXzXlXzXzXlXQ.h.L.L.",
"  o   o         X . o # = p f S 8 * * # 8 [ IXKXSX[ *   * r r r r r r r * * * * # . o . o = ( 9.[ ( 8     . X   o o   X f.*X'.] o o & & = w w w r = = - w = ( [ ).[ g     X X o             o     . . . # $ 8 r a S A T T E ( _ W A T S S t 4 * . . .       o o   o o   o o X o   .   . p ( ( ( [ [ ).'.].).' [ ( p - X   o o   o o     o     o                                                           o o   o     o                       . . . O O O + @ > ; : 1 1 1 1 2 1 > @ + O . .         o   o           . $ a ~ A S M z M ! =.r.r.r.0.e._.k.q.<.0.q.q.1.&.1.k.{._.4.&.&.E F b v Z J &.) R K F n x x b D G F G J F b 5 3 j v C v z b F A b z 3 j n b D F K R &.-.-.&.*.-.-.<.&.K G H G m R *.4.q.e.e.M.M.e.>.K D Z x x z 5 j j 5 3 3 5 5 5 5 5 2 : : : 5 5 5 5 Z =.' ) ) ) =.$.) F Z v z c n Z ) =.r.) B 4 q V S 9 O % . . o . o   .   . . . . % X % % % O @ @ > 1 < 2 7 l l x x C x N C Z x C N l 7 : : ; + + O % . o                             o                                     o                       .   .                     o                             o   o . X X * p T T ` W d t r w w * & e r U I ` f.f.).j.E.`.:X:XkXzXDXDXDXDXDXDXDXDXzXzXzXzXzXxXxXxXzXzXzXzXzXzXzXzXzXzXzXlXzX(.h.L.h.",
"            o o . X . . % $ = r = * * * & ' '.SXgX[ e o e s w r r r r 4 * * * % * * & O . * f [ R.` 8       o         p ).'.].( & o = & * w & - - & o o - & p ` ).[ ( X             o     .     o . . . % = 8 y V T ( _ _ ' E E S T t v V V t 4 O . . . o   o o o o o     X o     - * r T ( ( ( ( ' ].*X'.j.{ [ ' ~ p h X . o o   o   o   o                                                     o   o         o   o     o o   o                 . . O O O + + > ; ; 1 1 2 1 2 6 1 > + O . . .               o o   . . $ a ~ ~ S M q M ) r.9.9.9.0.e.q.0.1.&.<.0.=.&.R &.9.e.q.=.=.&.) E n v Z F E J F b x c 5 j x Z J F J J F b z 0 k v v z z v F F Z c 3 j z b b D J ..-.-.-.$...$.*.*.&...K G E m R *.4.4.w.w.e.e.0.*.G D x x l c 3 3 : 3 3 : 5 3 2 5 5 : : : : < 5 5 5 V =.=.) ) ) &._ ) J C c c 5 5 n J _ =.A B 7 q V V q O % . . . . .   o .     o o . . . . O + @ > , 1 2 7 7 z l l l x b x b D x N M c 3 1 ; + + O . . .                                       o                                                                                 .                       o o   o   . X # r f ( ' W d s r * w e e & w s I ` ` f.R.`.E.].`.jXkXzXDXDXDXDXDXDXDXDXDXDXzXzXxXxXzXzXxXDXDXzXDXDXzXzXzXzXzXzXzXzX/.h.h.h.",
"            o   o & X o . . o % 4 * * * # d f.'.].` & o * w w r r r r r * & & * o & * #     p ' [ ' u       o     o   f ].'.).g o & w * = = o &   &   & o   = ^ ).).{ r             o     .   . . . . . % $ 8 a S T _ _ ' ' E T S v t t t t t t % . . . o     o o o o   . o o o   = a T ( ( T S T ' '.IX'.9.( ( [ ' ( f p o   o o   o o o                                                           o     o   o   o o     o o                     . . O O + + + ; > 1 1 1 1 1 1 1 > + O O . .       o         o o o o % 8 S ~ A M z C =.9.Y.q.9.e.e.9.&.E F ) 1.=.) R E _ 1.&.) _ ) R E Z v b n Z Z n z 5 3 j j l Z J J F H Z x z z k v k 5 z v A F C j 3 3 j z x n J &.<.4.&.G D G $.&.&.R G J F G R *.<.q.w.e.e.0.0.$.L b x l v z j 3 3 : 3 : : 3 : 5 < : ; ; : 4 < 5 4 v _ =._ J E ) ) ) E Z v 5 5 c k v J _ S k 9 9 a a 9 % . o . o   .           . o . % . % O % @ > , < 2 7 z l l x N v x x b x x l c 3 3 : ; + O O . . .                             o                 o                         .           .                         o                                 o o       o # - s T ` ( I U w w w e w e e r U T ` ` f.E.j.`.`.:XkXIXDXDXDXPXDXDXDXDXDXDXDXzXzXlXkXxXDXDXDXzXDXDXzXDXzXzXzXzXzXzXzX/.Q.L.L.",
"  o             . # * # % . . % * * = 4 * = T ' ' d & & * r r r r r r * * # # o o * * o o o p ( [ ` r         o o     ( ).'.[ p   w w r w w & - & & o & o o X f P._.[ p   o o       .   o   . o . o . o # 8 8 p d S ( _ ' _ T V t 4 4 4 t n t t 4 % . . . o . . o o   o . o     X p ( ` ' T p s T [ '.VXIX[ g p ( ' [ ( f -       o o     o o                                                   o             o       o                       .   . O O O O + @ @ ; > 1 1 1 1 7 1 1 + O O . .                   o o . % 8 a S V y y Z _ 9.Y.Y.q.q.9.) J n Z R =.&.E E F E R E E ) R E A C v z v v l z j 3 3 3 5 z Z J F A Z C l z q k l z 5 z C F J b j : 3 3 j z C K &.0.r.$.D b D G $.....E G F D G &.<.4.0.w.0.4.-.R F b x x b b v 5 3 3 : : : : : 2 : ; ; + ; : 4 2 ; 5 E ' E A Z A J ) ) A n c 5 5 z k Z E Z q 9 9 y y , O . . o . o   .     . . o o % . % O O + @ , < 2 0 0 z l x v x x v l l x x z z 3 : ; ; + O O .   .                                                                               .   .                       .                                     o o o     o - - f ( ' ( I w e w w * e e w w U W f.f.f.j.`.].`.kXIXDXDXDXDXDXDXDXDXDXDXDXzXzXxXxXzXzXzXDXDXDXDXzXDXDXzXzXzXzXzXlXzXlXQ.h.h.",
"                . X % & X % % # * & * 4 * & * t d * o o & * w r r = r * * # & % O & % o . X p ( [ ` u       .   o     ( ].].[ i & s s s g r e = - & & & o & o s [ ).P.f o o o o     . . .   o . . . . . % = 8 y a A ( ' _ ( S 4 4 4 , 4 t d n d t * .     . o   o o   o o       r T ' [ _ S p p T ' gXKXSX[ 4 & a ( { ' ( p       o   o     o                                                     o     o       o     o o   o o                 . . O O + O + + + > > > 1 1 1 6 1 1 @ @ O O . . .               . o   % - 8 y y y q S =.9.Y.q.0.9.r.E b b n _ 1.) F n v Z Z Z S E A S n z 5 5 z 5 5 3 3 3 : 3 5 c Z E J Z Z B z 5 q l k 0 5 z B A F C 5 : 3 3 j l b R =.0.<.R b c b F R ..E F G D n K &.2.0.q.0.4.-.$.K D x x b C C v z : : : : : : ; : : ; ; ; : , < 4 : 9 A _ J S v S A E E J S v 5 z 0 5 5 v V q 9 < 6 , $ O . . . o .   . . .   . . o . % % % O + @ > < 7 0 z z k M x b x l l l l z c 3 : ; ; + O O . .                                                                                               o                     .                                   o o   X = p I ( ' ( d w w w w * e w e U W f.f.f.f.f.].:XgXkXDXDXDXDXDXPXDXDXDXDXDXzXzXzXzXkXzXzXDXDXDXDXDXDXzXDXzXzXzXlXzXzXzXzX^.h.L.",
"    o         o o . % . % * * = % % * 4 * # % * * * # & # & * r r r * w * & # & & & o o o # r ( ' ( p o     o     o   ( ).].[ s & I ( ^ ( g w e e & - & & -   s [ ).).g o   o     . .     . o . o . . % % = y p a S ( _ _ T v 4 ; , + $ 5 t S d t 4 O . . . . o o   o o .   . o f ( [ ' ( I t r U ' gXPXgX[ * & = f ( ' { T =     o o o                                                         o   o         o   o                 o             . . O O O @ @ + ; ; > > 1 1 1 6 1 > @ @ O . . .   .             o . . @ 6 $ 8 7 9 S _ 9.r.r.' _ _ S v S R 1.9.&.W 5 n v v v n V n v 5 5 5 5 5 : 3 3 : : : : 3 v Z E F Z C v k 3 5 z q z 5 z v Z S C j 3 3 3 3 z F ) 1.9.<.K b c x D K R K F F b D G ..-.4.q.0.>.&.) K D b x Z S F Z z 3 : : ; : : ; ; , + ; + ; 4 , : , , V E A S v V Z J ) _ E S v v z < : 4 9 4 , > @ + @ O . . . .   .       . . . o % % % @ + @ > 1 9 7 0 z l M x l z l x l c z c 5 < ; ; + O O . .                                                     o                 .                                     .   .                   .                     o   o X w p ( ' ` ^ s w w w e e e w Y W g.f.f.f.].].`.:XkXSXPXDXPXPXPXDXDXDXDXzXDXzXzXzXkXzXzXDXDXDXDXDXDXDXDXDXzXzXzXzXzXlXzXzX/.h./ ",
"                X . o % = $ 8 = * * & * w * * * # * & o & * * = * = * * & # & # * % o . o # r I ( ( 8 o     o     o   ( ).].[ s e ( ` ] ` T s w e & e - h - & g [ ).).f &     o     .   . .   .   . . . % $ 8 a a d S A T S y 9 4 4 , $ 4 t d V a 8 * O . . .   o o o .     # = ( ' ' _ T d s r t T j.gX'.' 4 r p r d ( ' ( p           o                                                         o               o o     o o                 .   . . O O O + + @ > > > > 1 1 6 < 6 > @ @ O . . . o                 o . O O % % 6 q A _ ' ~ J E ) J B Z E =.9.9._ T 5 z v z 5 q t v z 4 4 , : 4 : : : < : : : 2 0 S A A Z Z M 0 2 2 3 2 0 0 k B S Z B 2 : 3 : 3 z Z &.<.0.<.K b x x b K G E F F n b G R -.0.q.4.-.$.K G F C N D F J A M 5 : : : : , ; ; ; + + ; , 4 ; , > ; t S A V v V B A E _ _ A S S q : ; ; , 1 > + O + + O . . .           . . . % . % % % % @ @ > , 7 0 0 k l N x b l l l l z c 5 3 : ; ; + O O . .                         o                   o                           .                   o                                     .                     o o   o - p f ( ' ( S w s r w e e w s W g.f.f.j.`.j.:XkXkXIXPXPXPXPXDXDXDXDXDXDXDXzXzXzXzXzXzXDXDXDXPXDXDXDXDXzXzXzXzXzXzXlXzXzXzXlXQ.h.",
"                o   o o $ = = $ 4 * & * 4 * * * & o o   & * r r * = * * * # o & o & o o o # r T ( ( 8 o           X   ( ).).] s w ` [ [ f.` s u u & u & e & o i ] ).f.^ o     o       .   . . X . . . . % = 8 p V f S S S S a M S v 4 , 4 4 V S t r 4 # O . . . X o o .     # r _ ' ' ( ( T t * * r ' j.f.d r d ~ r = T ' ' f o             o                           .                       o   o   o     o       o   o   o                     . . O O O + + + @ > > > 1 1 1 < > , > O O . . . . .           o   . . . O % > 8 V ! ~ S V V A A B S _ 9.l.9.E n t 5 5 t 5 q v v 5 4 ; ; : ; , ; : , ; : : 2 0 V E J S Z l 7 < ; : 1 2 q v V Z Z C 5 3 : 3 3 5 D ) 9.r.=.K b c x D F E F F D Z n F $.=.4.0.<.$.R G J D x x Z F J J V 3 3 : : ; ; ; ; + + ; + ; 4 + , ; + 9 V V y q v y V J _ E E T v 2 ; + ; ; ; @ O O O O . . . o . .   .   .   o X o % % % @ + @ > 1 9 0 0 k l N v x l x x l c z 5 3 ; ; : + O O .   .                   o         o                                                 .                   .                   .             o                 o o     - f ( ` ` ( U s s t w w e w W ' f.f.j.E.].:X:XgXIXSXPXPXPXPXPXPXDXDXzXzXzXzXDXzXzXDXDXDXDXDXPXDXDXDXzXzXzXzXzXzXzXzXzXzXzXzX(.h.",
"                .   o o # * = p * * & * * * * * % o o o o * * = w 8 * * * # & % & o o o o * r T ( f r o   o .     -   ( ).).] s e ( f.R.f.` U i e e e e h - h g R.).).f o   o           . . .   . . . . % $ 8 r a V d a V a a ( ' _ V * + 4 t v t t 8 * O . . .   .   . o . - ~ [ ' ' ( T f r 4 & * d W T * * t T t * r ( ' ( *             o                                               o     o o     o         o     o                     .   . . O O O O @ @ + @ > > > > 1 1 6 > + @ + O . . . . o         o .   o . O O O 4 V A S t 9 M S A S J _ 9.9._ A t 5 t v t 5 t v V t 4 + ; ; ; + ; ; ; + ; ; 2 7 Z ~ H S M z 7 : ; : : 2 q C S S V k 0 2 3 : : 5 Z _ <.r.&.K Z c n b F F E F Z n Z F R &.<.0.<.&.K D D D D Z Z Z A J V 7 : : : ; ; + + + + + O + @ + + + + , q V a q 9 9 q S A S a q 4 ; + + + + + O O O O . . . o . .     o . . . o . % % % % @ @ > 6 7 7 y z M N N N x x l c z c z 3 < ; ; + + O . .                                                                                     o                     o                                 .           o     o   = f { ` ` ( s r w r s s s W W f.f.j.E.].:XgXkXIXPXPXPXLXLXPXDXPXDXIXIXzXDXzXzXzXzXzXDXDXDXDXDXDXDXDXDXzXzXzXzXzXzXzXlXzXzXzX^.T.",
"  o       o o     o . . . $ 8 8 r r 8 w 8 r 8 * & % o o & # * = * * * * & # % & * o . o . & r f f d = o   o       o   ^ ).).[ s e W f.].).[ I s e & - h - - g I P.].).f     o   o     .   . . . .   . . % * 8 y a f a y y t S _ j.9.E t 4 t d V t t 4 & O . . . . . . . . o 8 ' [ { _ T T S t * * * t W d % & r U d r * d ( ' p o   o o     o   o   o     o o                                         o           o                         o     . . . . O O O + @ @ + + > > 1 > 1 > > > @ + O O . . . .   o           . o . . O + 8 S S y q y S A S T _ 9.' _ S t 9 v v 4 4 4 V V 5 , + + + + + ; ; , ; ; : 4 y V ~ ! V M 7 7 : : ; : 2 y B S B B k z 2 : : : 5 C ) =.=.=.E Z c c v Z J J F n Z b K R -.<.0.<.$.F C D H Z N C C A ! H z 3 ; ; ; ; + + + O + O + O O O + O % 9 q 8 9 4 9 t a V t q , + + O O O @ + O O O . . . . . . o o . o   . o . . % % @ % @ @ 1 < 7 7 7 M M M z N N l z z z z 5 5 : : ; + O O . .                 o                                                                         .                   .             .                           X     o o = S { ` ' ( s s w w s Y Y U g.f.f.E.].].:XkXfXPXPXHXPXPXPXPXPXDXDXzXzXzXzXzXDXzXDXzXDXDXDXDXDXDXDXzXDXzXzXzXzXzXzXlXzXzXzXzXlXQ.",
"  o               . .   o # 8 r r r r r r r * * # o . . . * * * * * * & * # # # * o o o o * r d a p =     .       X o f R.).[ s & U f.].).f.` s u e e e e u ( ' ).'.).I o   X     . .   . . . o . .   . % $ = a a S a 8 8 8 S ' _.j.' a 5 t S n V t 4 $ O O . . . .   . . # T [ 9.' ( T W V 4 * 4 r T W S * & * d T s = r T ' T X     o     o       o     o o       .   o       .     . .   .   o         o o                 o                 .   .   O O O O + @ + @ > @ > > > 6 6 > > ; ; O O . . .       . o     o . . . . . O 8 a S d a S A ( S A _ _ ) A v t t t t 4 4 4 t V t 4 + + + + ; ; , ; ; ; ; 4 7 M ~ A M 0 7 1 ; ; ; ; 9 V S C V B B k 0 : : : 3 v J ) =.&.E Z z v c n F F J Z Z F E ) &.1.-.&.R D b Z Z Z C C M A _ S M < ; ; + + + + O + O O O O O O O O + , q 8 6 6 8 t q q 4 $ @ + O O O + O O O O . . . .   . .   .   . . . . . . % % @ @ > > 6 < 7 y 7 z M z N N x x z c z c 5 3 : : + + O O . .         o                                                                                       .                   .         .   o     .   .           o   o     = ( [ ' [ ( U s w w s U W W f.E.E.].].:XkXSXSXPXPXLXPXPXPXPXDXDXIXzXIXzXzXzXzXzXzXDXzXDXDXDXDXDXDXDXzXzXzXlXzXlXlXzXzXzXzXzXzXjX",
"          o         .   . . * r 4 8 = 8 8 * * o o o     . & # # = # # * % & # # * o % . O $ r d p r * .           o o u f.].).^ w s ` ].].f.g.U u h - e h i { P.`.'.R.f o   o o o   .       . . . . . O % = 8 8 a a q $ , , a _ j._.9.V t t S I a t 4 $ O . O . . O . . . 8 ( 9.9.[ ( T T t r & * a W ' ' I 4 & w S S r r f _ ( - o         o o         o   o   .         . .             .       o o               o     o           o               . . . . O O O + O + + > > > 1 1 > > ; ; + O O . . .         o         . . O O * a S S ~ ~ ~ J V S A ( ( d t q t t 4 , , 4 q t q 4 + + + + + + ; , + ; > 2 y y H V M k 7 6 ; + + ; 7 V V S B B V B z < : : 5 v S _ ) _ J C c 5 z n S F S Z n Z E R &.=.&.) K Z x C Z Z N M M A J A M < ; ; ; + + + O O O O @ % O O O O O $ 8 $ , 8 8 8 8 8 # % O O O O O O O O O . . . . . o . o . . . . . o o % o % % @ @ @ > 6 7 7 7 M z N N x z l l c z c 5 5 3 : , + + O O                                     o                                           .   .                                                                           o   o u ( ] ] ' ( U s e s U U W g.f.j.].].:XgXkXSXPXPXLXPXLXLXPXPXDXDXDXDXzXzXzXzXzXzXzXzXDXDXDXDXDXzXzXDXzXzXzXzXzXzXzXzXlXzXzXzXzXlX",
"o           o       . .   . X = = = = = = # # o X   . .   o X # # # # % # # * % % O % o % * r t p 8 #   .   .         - ' ).].` s w W f.).].f.( u = e h h f ] R.'.'.P.~ o   o o         .     . . . . % % $ 8 p a a , O + O 8 S 1.j.' S d T T S V t 4 * O . O . % . . . . 8 ' ).j.[ ( _ T t 4 & * t ' ].'.9.d   o d T t 4 d ` ( = X         o     o o o o o o o   .   .         . .       .   . o     o                   o                   o   .   . . . O O % O % % + @ > > > > 6 1 1 > ; ; O O O . .           o       . . . . @ 8 f ~ ~ ( _ ~ M V V T A S t t t 4 4 4 $ , q t q 4 + + + ; + + + + + ; ; 1 7 V A H M z 1 1 ; > ; ; 6 B S V M M V V M 2 1 1 3 v S J ) E J v c 5 5 v n C Z n Z Z F E R ) ) E D b c l N N M M M A H A M 6 ; ; + + + + O O O O O % . % . O . O $ % $ $ $ 4 $ # O . . O O . . O O % . . . . . .   o . .     o . . . % % @ @ @ @ > 6 7 7 y 7 z M z N z N c z j j j j 3 3 : ; + + O . . . o .             o       o                                                                           .   .           .             o           . .           o o - p ( ` W g.W s s s s U Y ` g.f.f.E.:X:XkXfXDXPXPXAXLXPXLXPXPXDXDXDXDXzXzXzXzXzXzXzXzXzXDXDXzXDXzXzXzXzXzXzXlXlXzXlXlXzXzXzXzXzXzX",
"                  . . . . . . X @ X X X o . o . X         . % . . O % o # % % % % % % % % * * 4 r = %         o       & I R.].j.I w U g.R.).R.( s e e e u Q [ ).'.'.).f     o o     .     o .   .   . . % * 8 p a y @ O @ O + 9 T _ E T n S d V a t r $ O O . O . . . O o 8 ` 9.9.[ _ W d 4 4 # % T j.SXmX'.T   o t S s = d ( ( = X           o o     o o   o     .     .   . .     .     .         o   o     o o     o                             . . . . . . O % % O + + + @ > 1 1 > 1 1 > > + O O . .   .   o         .     . . O 8 y S A ( ( A y a a S S a V y 8 4 4 % + + q a a 6 + O + + + + + + + + ; 1 y M A V M 7 2 : + ; ; + < y V M q M B V M 0 2 1 < 5 v S J E A l c 3 5 z v v v B C Z F F J K R F v l j c z l M M N S ~ A M < ; ; ; + O O O O O O . O O . O . O O . % O @ % O O O . . . . O O . O . O . . . .     . . . o o . . . . . % % X $ $ @ > 6 7 7 7 M M z N z z x z j j 3 2 5 3 1 : ; + + O .     o   o o   o                                                                 .               o                                           . .                 o - = f ` ' g.` W U s Y s U W ` g.f.j.].gXkXIXIXSXPXPXPXPXPXPXPXPXDXDXzXzXDXzXzXzXzXzXzXzXzXzXzXzXzXzXzXzXzXlXzXzXlXlXzXzXzXzXzXzXzXzX",
"    o       o         .   . . . . . o   o     . o . .   o . % X O % % % % % % * % % * * % * $ 4 * & o . o     o o     & s [ ].).` s w ( ] f.[ I u e h w u f ] ).UX'.f.f .   X   o         .   . o . . . @ = 8 y a 8 % O @ O O $ q S T V S V n U n s 4 $ O O . . . . O .   y ` j.[ j._ ( W * * & * W ].SXKXgX' o . s I p = p _ ( = o                 o   o o o o o                                 o o                               o                 . . . O O O O O O O + + ; > > 1 1 1 1 1 > + + O . . .   o o       .   .   X . % $ 8 a S ~ ( S 8 a a a a t t t 8 , % % + + 4 q a 8 + O + + + + + > + + > , y y A V M 7 2 > + > ; + > q q q M y B V k 7 7 7 5 0 v V S S n z 5 3 5 j z 5 v v v v b Z Z F F b c j 3 5 7 c z l M H ! A M < + ; + + + O O O . O O % O . . O O . . . O . O O . . . . . . O . . O . . . o .   . o o . .   .   . o o . % % @ @ @ > 6 6 7 q y M M M M N c c j j j j j 3 3 : : ; + + O .   . o   o                     o                                                                 .                                               .                 - u ( ` ' ` W U Y U U U W W g.f.j.E.:XgXkXzXIXDXSXPXLXPXPXPXPXDXDXzXzXxXzXzXzXzXlXzXzXzXzXxXzXzXxXlXlXlXlXlXlXlXzXzXlXzXzXzXzXzXzXDX",
"                .       .   . .     . o     . . o .       . . . . . O % % $ % % * % $ $ $ $ * % % o . o . . o o         - ` ).`.f.I e s W ` ( g w - - u p f P.).'.'.).a o   X       .       .   . . . % X $ 8 p p q $ @ , O O O + r V t T T n V V t 8 4 % O O O O . . . . r ' j.9.j.' ` S 4 4 * r _ '.JXKXIX' *   r S d 8 r T ( r o     o         o o     o   o         .       .   .       o   o     o     o     o                                   . . . . . . % O % O + + @ > > 6 1 1 6 6 1 ; + O O . o . o                 . . # % - 8 a a ~ S 8 8 8 a q r r 9 8 $ % + % % 8 t t 6 + + + + + + + + ; + > 6 7 V M M y 7 1 ; + > @ + + 6 8 9 y V S S q 2 6 7 4 5 k k C V v z 5 < 5 5 5 2 5 v v v n S C n v c j 3 3 3 2 3 0 k V S A H V < ; ; + O O O O . O . . .     . . O . . . . . . . . . . . . . . . . . . . o o   o   o   . o .   .   . . . % X @ $ > > 6 6 7 0 z z z M M z z z z j 7 j 3 3 3 : ; + + % O . . .   o o                                                                               .                           o       .             .   .     . .     o     X u ( ` ` g.^ W s Y Y Y W W f.f.E.`.gXkXkXIXIXSXSXKXLXLXLXPXPXDXzXkXzXzXxXlXlXlXzXlXzXzXxXxXxXlXxXxXxXxXxXlXlXlXlXlXzXzXzXzXzXzXzXzX",
"        .     .   o   . . . .   .                   .       .   . . o % % % $ % % $ 4 * $ % % % O . o O . . o o     o   o T R.).j.` s w w U U s & e r r w g { ).'.].[ s o   &     .   . .     . . O . O % * $ , 8 8 4 $ % O O O + , q V S d V V V t 4 , % O . . . % . O   * ' j.j.9.' ' W t t 4 t ' ].vXSX*X' -   8 T p . t T ( =                         o   o                               o     o   o         o     o   o                             . . . . . . % O % % + @ @ > > 1 6 1 1 ; ; + + O O . . .           .   . . % % . # 8 p S a 8 8 8 8 8 8 4 4 , $ % % + $ 8 y a 6 O O + O O + O + + ; 1 6 7 q y y 7 7 6 6 @ + @ @ + > 6 6 M S ~ y 7 7 7 6 3 q q z k k q 0 4 : : 4 2 4 2 5 9 t v v B v 0 2 3 3 : 3 : 3 5 k M S A Z y > + ; O O O O O . . . . . . .   . .   . . . .   o   . . .   . .   . .   . . .   o .   .   .   . . . . . . % % + @ , , 6 7 7 y z M M z N x k j j 3 3 3 3 3 : ; + + O . .   .   o o .                                                                             .               .           .                             . . o           o = I ` ' ` h.W Y Y W h.W g.g.f.E.].:XIXIXIXDXIXSXPXPXLXLXPXPXDXIXxXxXlXlXlXlXlXlXlX/.lXlXlXlXlXlXxXlXxX/.lXlXlXlXlXlXzXzXzXzXzXDXzXDX",
"      o   o .   .   .     . .     .                       .     . . . % % % $ + $ + , $ $ $ % * O O O . . . o .   . .     g [ ).j.f.U w w r r & w w s w - u ` j.].].` w     o   o       . . .   . . . . O # $ * $ $ $ $ O O . O + , 4 V V v a V d t 4 , % O . . . X   . . * ' ).f.' ` [ ' ( T d S W j.j.].j.( p # t d t & p W ( 8 o             o           .                                                 o               o   o o   o             . . . .   . . . . . O O @ @ @ > > > > 1 > ; + + + O . . . . . .   .   .       o   . . % # = 8 $ = * 4 4 , = 4 $ % + % $ $ , 8 p $ O O % O O + O + + > 6 , 7 0 y y 7 6 6 @ @ % O @ @ + , 6 V A A V y 7 7 7 5 5 z 0 5 0 9 5 : ; 4 < 4 < < 4 < 2 t q v 9 5 : 3 : : : : : 5 k M M S M 9 @ + + + O O O . . . . . . .   .     .   . o   o . o o   . .   .     .       . .   o . o o . o . . . O O O O + + > > < 7 7 z z z z x N x l c j j 3 j 3 3 : : ; + + . . .         . . o                                                                   o                                                 .               .     o o o     X r ( ` ] ' W Y Y W h.W W g.g.f.E.K.kXkXIXIXIXSXSXPXPXPXPXDXIXIXxXxXxXlXlXlX/.lXlXlX/././././././././././././.lXlXlXzXzXzXzXzXDXDXDXDX",
"            .     .   . . o .             .       .             . . % % % $ % % $ , , $ $ * % % o % . . . . o o   o       = ( 9.].f.T r w * * e e w w &   p { ).].).( *     &         .   . . . . . . . . O % # % * $ = % % O O % , 9 q t v t B t 9 4 % + . . . . % . . . X ' 9.9.' ' j._.j.[ W d T ( ' _ ( S d a a T r % t W ( w             .                                                 o     o         o     o   o   o                       . .   .   . . . O % O O % @ @ @ > > > > > > ; + + + O . .     . .   .     .     . . . . . # % # $ $ $ * $ $ $ % O O O O % = 8 t $ O O O O O O + + + ; 1 , 6 9 q 7 6 6 $ @ @ O O + + + > 6 V A A y 7 7 q 7 3 0 2 2 2 2 2 < ; ; ; , > ; + + + , 4 5 5 3 < : : : : : : : 2 q V M V y 1 + O + O O O . . . . . . o . .   . .   .     o   o   . .     .   . .   .   .     o     . . o . . o O O O O O + > > 6 < 7 7 z z N N N x N c c j 3 3 3 3 : : ; ; + O . .       .   o   .             o                                                     .               .     o                     .                       o   o o o     - g ` [ ' ` W h.W W ` g.g.W f.j.:X:XIXIXIXDXSXPXPXPXLXPXIXIXkXkXxXkXxXlXlXlX/.lXlX/./././././.^././.^./././.lXlXlXlXlXzXzXzXzXzXzXDXDX",
"    .   .       .   o   .   . . .                                 . . O % % % $ $ % $ $ $ % % % O O o . . . o     X         p [ f.j.] I s e & & & & e & X f R.'.'.[ f & o               .   . . . . O O . O % % % $ 8 8 4 $ % + $ 4 9 t a q t a t 4 4 % % . O . . . .     . _ R.[ ( ' ].gXgX].' t r S T f S a T ( ' ' p # w T T = .                                                                     o     o   o                 o                       . . . . . . . . O % % @ @ > > > > > + @ + + O O O . . . .   o     .     . . . o . . O % # % % % + $ % % O O . O O % 6 8 8 $ O O O O O + O O + > > , 6 7 6 6 6 , , @ % % O + O + @ 6 V S S y 7 7 M 7 2 2 2 2 < : : ; ; ; ; ; ; + + O + ; : 4 4 < : ; : : ; : : ; 2 0 M y y 9 1 + + + O O O . . . . .     .   .   .       . o o     o   .     .     .   .   o .   . o . . . O o O O o O O + $ > 1 6 6 7 7 z z N z x N N z j j j 3 3 3 : : ; + O O . .         o     o                                                                               o                     .                     .     o             o o   - f ' [ [ ` Y W g.g.g.g.g.f.f.E.:XgXIXIXIXSXDXPXPXLXPXDXIXIXkXUXkXkXxXlXlX/.lX/.lXlX/././.~.!.^.!.!.!.^./././.lXlXlXzXzXzXzXDXDXzXDXDX",
"      .   .   .   . .       .                                 . . . . . O # % % % % $ % # % O O O o . . .     o   o     o   * I [ j.f.[ ( p o o o     & g [ ].'.].( = X o               .   . . % . O % % % % O @ = 8 8 4 4 $ 4 4 4 q y t t 5 4 t 4 , % % O O o . o .   . . T [ ' S ' *XAXAX Xj.t 4 4 t r t t W [ '. XW * w T W 8                           .                                             o     o             o                         .     . . . . . . O O % % + @ @ @ > > > ; + + + % O . .   . o . .   .           . . . . . . . . . O . % % O % . . O O % $ 8 8 $ O O % O O + O + + + > 6 6 6 6 > , > @ @ % O O O O O @ 6 V V V y y y y 7 5 9 2 2 < ; ; + ; + > , ; + O + + + + , > ; ; ; : ; ; ; ; ; < 9 q y q 9 + + O + O . . . .   . . . . .             .         o     .     .         .   . o o .   . . . . % . O . O O + + , 1 6 7 q 7 M M z N N N x c j j 3 3 3 : : ; + + O . .                         o                                                                               .                     .                             o o o     = I ` [ [ ] W W g.g.f.f.f.f.E.E.:X:XfXkXDXIXPXPXPXPXPXDXkXkXkXkXxXxXzXlX/././././././././.~.~.~.~.~.~.!././.xX/.lXlXzXzXzXDXDXDXDXDXDX",
"            .   o     . . . . .                                   . . . . O O O O % % % O O . . . . . .   . o . o     o     o p ( ] j.).).] I u e & - f R.'.IX'.[ p   o o             .   . .   . . . % % o % O % $ = 8 r 8 8 t t q t a t 4 t t 4 4 $ $ O O . . . . . . . . p ' ` T j.IXHXAX'.f.t * w w t r r d [ gXIXj.d 4 T T =         o           .                                         o   o             o       o o   o     o         .   .     . .     . .   . . . O % @ @ @ > > > > > @ + @ + O O O . . . . .   .   . . .       . . . . . . . . O O O . O O . . . O # = = % . O . O O O + O + + > > 6 > > > , @ @ @ % O O O O O @ , y V y y 7 7 M y 9 4 2 2 < : ; ; ; + , , + O O O O O + + ; ; ; ; ; ; + ; + ; 1 4 9 9 9 , + + O O O O . . . . .         .   .   .     o   o o         .     . .   o   . o .   o . . . . . . . . O O O @ + , < 7 7 z z z M N z N N x z j 7 3 3 3 : ; + + O O .         o                                                                                                                           .     o                       o     = ( [ f.[ f.g.W g.g.g.f.g.f.f.].:X:XkXkXSXPXPXPXPXPXPXDXIXUXUXkXkXzXlXlX/.^././././././.~.~.~.~.~.~.~.~.~.!././.lXlXzXzXzXzXDXzXzXDXzX",
"    . .     .   .     o   .   o                       .     .     .   . . . . % . O % % . . . . . . . . . .   .     o o     o o s S ' ).'.'.).9.` ( ' ).'.IX'.).I X   .   o       .   . .     . . . . o O O # # # $ 8 8 t 8 p a t a t t q 5 4 4 5 4 $ % O O . O % X . %   . $ ( ' [ ].MXJXSXj.' & * t t t r % * ( gXVXgX' d d d X                   .                                               o         o   o   o o                                   . .     .   . . . O O @ @ @ @ @ > @ @ + @ + O O O O . . .   .     . . o . . . . . . . . . . . O O O . . . . . . . . % $ $ % . . o % O O O O + + > > > > , 6 > + @ @ + O O O O + @ > y y y 6 6 y y y 9 2 1 > ; + + + + + $ , $ O . O O . O O + + + + ; ; + ; + + 1 < 6 9 , @ + + O O O . . . .         .       .   . o     o   o   o           .   .   . .     .   o . . O . . O O O % % ; , < 6 9 0 z z z N N N P N N j 7 3 3 : : : ; + O O . .     o   o                                                                                                         .   .       .                 .             o   o     8 ( [ f.f.f.W g.W f.f.g.g.f.E.].].7XIXIXDXDXDXPXPXPXPXIXIXkXkXxXzXxX/././.~.!.~./././.!.~.~.~.Q.~.~.L.~.~./.~././.lXlXzXzXzXzXzXDXzXzX",
"        .     .   . .   . . .                                           . . . . . O . O . . . . .         . o o . . X o     o   = w I f.'.IXIXkX].'.'.'.IX'.).( =   o o   o o   o           .   . % . % % # # $ $ $ = 8 y p y t t q t t t 4 4 4 4 4 * % % . . o . #   * . . . S 9.j.'.gXIX'.' d 4 * t t t 4 % % T '.JXAXj.W T T X   .     o                                                               o     o             o   o   o             .   .       . .   . . . . . O O O O O @ @ @ + @ + + O O O O O O . .   . .     .     .     . . . . . . . .   . . . . . . . o % # # % . . . . O O O O O @ @ > > > > , > @ O @ O O O O O O @ , y y y 6 7 y M 7 9 < 1 ; ; + + + O + + + O O O O . O O O O O + + ; ; + ; + + $ , 6 8 , + O O O O . . . . . . . .     .           .                 .   .         .     . o o   o . . O . O % % % + + , , < 9 9 0 z z M z z N N N z z j 3 3 : : ; + O O . .                                                                                           .   .                                                             . o   o     o r ` f.f.f.f.g.g.g.g.f.f.f.g.f.E.E.:XkXIXSXDXPXPXPXDXPXDXzXkXkXkXzXxX/./.!.~.!./.!././.~.Q.Q.~.L.L.L.~.~.~.~./././.xXlXlXzXzXzXzXzXlXxX",
"      .     .   .   .   .   .                                         . .   . . . . . . . . .         .     o o   o o       o     o w ( ).IXIXIXIXIXIXIX'.).( =                         .     . o . . O O o % % # $ 8 8 8 r r 8 r 8 4 4 4 4 4 4 4 , * % O O . . . @   . %   . a [ ].*X].j.[ T 4 * r t t t t r & W j.mXSX'.j.T r             o     .       o                                   o   o o     o o       o     o     o     o   o               .           . .   . . . % O % % % @ % @ @ O @ O O O O . . . .       .   .   . . . . . . . . o o   . . . . o . . . . . % % o . . X . % % % % % @ @ $ $ > > > > @ @ + O O . . O O O @ , 9 y q 6 6 9 0 9 9 , ; @ + + + + O O + % % O . . . . . . . O O + + + + + O + @ , , 8 @ % O O O % . .   . .       .     .   o       o     o     o   .       . .     . . . o o o . O . O . O O O O @ > > 6 7 7 7 y z z M z N N N N z j 7 3 1 : ; + O O . . .       o     o                                                                                           .               .                       .             .   o   o   p ` [ R.f.f.W g.f.f.g.g.f.g.f.].`.:XkXDXDXSXDXDXPXDXDXIXkXkXkXxXzXxXxX/././././.~.~.~.~.L.L.L.L.L.L.L.L.~.~.~./././.lXlXlXlXlXxXjXjXxX",
"        . o       .   o . . . o .                                         . . . . . . . .   .     .     o   o     o   o     o   X     = ( j.'.*X].].).).{ I - X                         .       . . . . o % . % * $ = 8 8 8 4 8 8 4 4 r 4 * , , 4 , % % O O . . . X .   # . . r [ _.j.' W T r 4 t t t t t d t r d j.'.gX*Xj.( * .                                                                     o       o                                       o       o   . .     . . . . % O % % O % % % % @ % + O O O O O . . . .     .   .     .   . .   . o o . .   . . o o . o % . . X X . . . . o o . . o % @ $ $ > $ @ @ @ @ O O % O O O . O # , 8 8 q 6 6 6 9 6 6 , $ + + O O O O O O % % . . . . . . . . O O O O + O O O O % @ $ $ @ % O % O . . . .         o   . o   o     o o     o     o                 o o   o . . . . . . O O O O % O + @ $ > 6 6 7 7 y z M M M N N N z z j 7 1 : ; ; + O . . .           o   o                                                                           o                   o     .                       .                       o . . X f { f.).R.f.g.g.g.f.f.f.g.f.E.E.`.:X:XkXkXzXDXDXDXDXDXzXkXzXxXkXxXxXxXjXlX/././.~.~.~.L.L.L.L.L.L.L.L.L.L.~.~.~././.lX/./.^.jX^.^.^.jX",
"              . o   .     . .                                         .   .   . . .   . . .                 o o o o   o                 X f ( { { ~ ( f 8 X           .     o                 . . . o . O o % o # * 8 8 8 8 8 = 4 = 4 4 4 4 % * * % % . . O . .   X .   # .   % ( ' ' T d t * 4 t t r r 4 t d d T W j.].'.j.T #                 o             .                                 o       o                 o o         o o o                           .   .   . . . . O O % % % % @ @ O % O O O O O .   .   .   . . . . . .   . .   .   o o . o o . o o o o . o X o o     o o X . . % % X @ @ $ @ # @ @ O O O O O . . O O O @ , 8 9 9 6 1 6 < > , , ; @ + O O O O % % . % . .   .     . . . % . O O O . O O % % $ $ % % . . % . . .   .   o     o o o o o   o o o     o   o               o .   . . . o o X % o % O % O % O @ O @ @ , 6 7 7 7 M z z M z M N N z j 7 3 : ; ; + + O . . .     o   o o                                                                                       .                                 .                             . .     = f ] f.).).f.f.g.f.g.E.f.E.f.E.E.`.:XkXkXjXkXkXkXkXkXkXkXkXxXjXxXxXjX/.xXlX/././.~.~.L.L.L.L.L.L.L.L.L.L.L.~.~./.xXxX/./.!.W.W.W.Q.W.W.",
"  . .     . o     .   . . . .   .                                             .   . . .     .             o o   o   o   o           o     X - - h 6 - X                   o     .                 . . . . O . O $ $ = 8 r a p t t r r r 4 * $ 4 $ $ % O O . . . o % .   . o . . 8 I ( S t t r r t 4 * * 4 t d n S T W [ ).[ d o . .         .                   o                                 o o     o o   o   o           o                   .                         . . . . O % . % O % O % O @ % O O . O . . . .   . .   . . . . . . . o . . . . o   . .   o   o   o o o o o . o   o o % % % X @ # @ @ @ % % O O O O O . O . . O % , 6 8 , > 1 > > ; + + $ O O . O O . . . % . . . .   .       . . o . . O . . o . % % % % . % . . o   .     o o   o o o o   o o         o   o                         o   . . % . . O % O + O @ + @ @ > 6 6 7 7 7 z z M z z z N z z 7 3 1 ; ; ; + O . . .           o   o       o                           o                                                   .                                                           .   . o   h f [ f.`.).R.f.E.g.f.f.E.g.E.E.`.(.`.:X:X:X:X`.jXkXjXjXUX:XjXjXjXxXxXxXlXlXlX/./.~.L.L.L.L.L.L.L.L.L.L.L.L.L.~./.xXlXlX/.~.Q.T.T.Q.Q.Q.",
"      .     . .   .   . . . .                     .                       .   . .                         o o o o   o         .               o o         o o                 .                 . . . . . o . . % # = t a a a a a p t 8 4 $ $ $ $ $ % % O . . . . X .   o . .   . t T ( T d r r r * * * 4 t U T d d T ' ' ( r .                                                                   o         o   o     o             o                                         .   . . . . % % . % % % % % % + O O . . .   .     .   .     . o   . . . . o o   o o o o o o o o     o   o o   o o o X X . % X @ @ % @ O O O O O O % . . . O . % 6 8 6 $ @ + ; ; ; + @ @ @ O . O O . . . X . . .           o   . . . . % o . . X . % % % % % X . . . . o   o   o o o   o o o o o o o o o     o o             .   . . . . o o . % % O O O O O O @ + @ > > < 7 7 7 7 z z z z z M z z 3 3 1 ; + + O O . . .           o o                                                                               .             o         .                         .             o     .   .   X = ^ f.f.`.].].E.g.E.f.E.E.E.E.E.E.E.`.(.(.`.:X`.jX:X:X`.`.jXjXkXxXlXlXlXzX/././.~.Q.L.L.L.Q Q / L./ L.L.L.L.L.Q.UXlXxX/.!.Q.h.h.h.T.Q.T.",
"        .       .   o     o   . .                                           .     . .   .               o     o o o   o         o   o   o o o o   o           o   .                               .   . . . . . . # $ 8 r a a p a p 8 8 % % * % % % % % . . . . o o o   o . % . . * S T _ T S t t 4 * * t t S S S T ( ' ( a # o .           .                                                   o     o o     o           o   o                                               . . . . . . . . % % % % % O @ % % O O O . .     . . . . . . . . .   o   o o o o o   o       o   o o   o   o o     . % X % % @ @ # % % + + O O O O . . . O . O % $ 6 6 > @ ; ; + + + O O O O O . % . . . . o . o             .   . . . . . % . o % X % % . X . . o o     o   o   o o o o o o o o     o   o             o       o   . o . . . . o X O O O O + O + + + > 1 1 7 7 y z z z z z z z z 7 1 : > ; + O O . .   .     o   o o o   .   o                                                                                                         .                                       o o o = f [ R.'.`.E.E.g.E.E.E.E.E.E.f.E.E.E.E.E.E.(.W.:XW.W.`.jXkXjXlXzXzXDXzXzXlX/.!.~.Q.L.L.L.L.L.L./ L./ Q L.L.L.~.UXxXxX^.Q.h.h.h.h.L.h.T.",
"      .   o   .   .   . o   .                                         o       . .     .                   o o   o     o .       o o o o o o     o o o         o   .               .               . . . . . . . . O * * 8 8 r 8 8 r 4 * O . % O % % % % . .   o o . o o o . . . % . = d T ( W E d t 4 r t d T T T ` ' ( a * . .   .           .                                                 o     o   o   o                   o     o       .                                 . o . . . . . % % % % % O O + O O . . .   .     . .     o   o . o o o o o o o o o o o o o o o   o o o o o o o o o X o % X % @ O O O O O O O . O . . . O O $ $ 6 @ @ , > > + + @ O O O O . % . . . . .     o       o o . . .     . . . . o X X % % X % o o . . o o   o o o o o o o o o o o o o o o                           .   . o . % . . % O @ + O @ O @ + @ > 6 7 7 7 z 7 y z 7 z z z 7 2 : ; : + + O . . . .           o   o                                                                                                                         .                             o o . X - I [ ].:X].E.z.E.E.E.E.E.(.E.E.E.E.E.E.T.E.E.W.`.(.`.:XjXkXxXzXDXzXzXzXzX/./.~.Q.L.L.L.L./ L.Q L./ L.L.Q L.L.T.~.!.!.Q.T.L./ / / L.h.L.",
"          .     o   .   . . . . .                                 o             o   .                   o   o o o o o                       o   o       o o               .   .                   . .   . . . .   . . . . # # # # # # o . . . . O . O . . . o o . . . X o   . . *   . 8 I T ( ( W d r t T W W ( ' ' _ d $     o           .         .   .                                           o     o     o     o     o           .                                     . .   . . . . o X % % % % O @ % O O . . . . .   . . . . . . . .   o o o   o o   o o o   o o o o o o o o o o o . o o o o % X @ X % O % O O O O . . . . . % % . % $ % @ > 6 6 , ; + % O O . O % % . . . .   o . .           o     .   . o   o   . o X o o o .       o   o   o o o   o o o o o o   o o   o                     o     . o o . o . o % % % + O @ @ @ @ @ > 1 1 7 7 7 z 7 z z z z z 3 1 : : + + % O . . .   .           o                                                                               .       .               .               .                       o o         . X - = ( f.].'.:X`.E.E.E.E.E.E.E.E.E.E.E.E.T.T.T.W.`.W.(.`.jXkXzXDXzXDXDXzXzXlX~.~.L.L.L.L./ L./ Q L.Q / / L.L.Q L.P.P.Q.Q.h.L./ / / / / / / ",
"        . .   .   o . . o . o .                   o   o             o o                         o   o   o o   o   o     o   o   o     o o o   o o o o o o   o             o                 o     .     .       . .   . .   o .   o .   o .   o . o     . o   o o o o   o   . . o .   . # p f T T T T W T _ ( ( _ ( d 8                                                                                                                                                       o o . . . . . o . % % O % % % @ % . . % . . . . . . o   .   .   .     .       o   o o o   o   o     o     o   o   X . o X X % X X o . . . % o . . . . . O . O $ , $ $ , 8 8 , @ O O O O . % $ $ . . . . . . . . . o o o   o   o o o o o o o o o o X X o . . o   o   o o o o o o o o o   o o     o   o   o o o   o       .     . . . . % . O O % % % O @ @ O @ @ @ + > > 1 7 7 0 7 7 z z z 7 7 1 1 : > + O . . . .   .   .   .                                                                                     o                   o                                               o   o   . o X u ( R.:X'.:X].E.E.E.E.E.E.E.E.(.E.E.h.g.E.E.E.W.W.(.jXkXzXDXDXzXDXzXDXlXUXW.Q.L.L.L.L.L./ / Q / / / / / / / / L./ L.L./ / / Q / Q L.L.L.",
"              o . o . . . . . .     o   o   o             o   o   o o   o o o   o     o   o     o o   o o     o o o o o o o o   o o o     o o   o o   o o o o o o     o       o   o   o o   o     o o   o   o     o   o   o   o o o o o o o   o o o o o o   o   o o o o   o     o .   . X * r a d S ( ( ( T T T f d r &     . o                           o       o               o                                                                                                 . . o o % . % % O % % % % % % O . O . . . . .   . o o   .   o .   . .     . o     o   o o     o   o   o   o . . . . . X o % . o . o o . o . . . . o o O % * # % $ 8 y 6 @ O O . O . # $ $ % . .   .   .     o o o o o o o o   o o o o o o   .     .       o o   o       o     o   o   o         o o     o o .         .   . . . O . O % O % @ % @ @ @ @ @ + @ + > 1 2 7 7 z z 7 7 j 7 7 1 1 > + + O . .           .                                                                                                                   o     o                                   o     o o o * p ` ).kXkX:X`.].E.E.E.E.E.E.(.(.(.E.E.h.h.h.T.W.W.^.jXkXzXDXDXDXDXzXzXxXUXQ.Q.Q.T.L.L./ / / / Q / Q / / Q Q L.Q / / / / Q / Q Q / Q L.Q ",
"      . .   .   .     . . . . o         o     o o     o o     o o   o o o o   o o     o o       o o o o   o o o o   o o o o o o o o   o   o o o o o o o o o o o   o o     o o   o o                         o o                     o o o o o   o   o   o   o o o o   o o     o o         . o % 8 d d S S S t r = * # .               o                                                                                                                         o                 . . o o . o . . O % % % % % % . % . . . . . . o . o   .   . . .   o     . .   o o       o   o o     o   o o   . o . o . o X o . o .     . . . . o . . . . % % O O , 8 8 6 + O . . O O # = $ # O . . . . . .   o o o o o o o o o o o o o o o o       o   .       o o o o o o o     o   o     o   o       o o   o .     . o . . . O . O O O O O % + % @ + @ @ @ + > > < 7 7 7 7 j 0 j 7 7 2 2 ; > + O O . .   . .                                                                                                         o                                                           o . X X X - p ` ].gXkX:X:XE.E.E.E.E.g.E.E.E.E.E.g.h.h.h.(.W.W.jXkXzXDXzXzXDXDXDXzXjX!.Q.Q.T.L.L.L./ / Q / / Q Q / Q / Q Q Q / Q / Q Q Q Q Q Q Q / L.",
"  . o . o o   o o   . .   o     o o   o   o       o o       o                     o         o o   o   o o o   o o o       o   o   o o o o o o   o   o o o o o         o   o           o o o   o o   o o   o         o   o     o   o           o o   o o   o   o o o o o   o .   .   .           . 4 t r r w = # .         o     o         o o   o                                               o           o             o       o     o   o   o     o o     o     o o o       .     . . o . . O O O O . % % % O . . . . . . . .   . .   . .     o . . . o     o   o o o o         o   o     o .   . . . . . . .   . . . .   .   o . . . O . O . . @ 8 8 , O O . O . % $ $ = $ # # . .   . .   o o o o o o o o o o o o o o o o o o   . o     o o   o o   o   o   o     o     o o   o   o o   o   o o o o . . O . O O O O O O + @ + @ @ > @ @ @ > > 1 < 7 7 7 7 7 3 7 7 7 2 1 > + + O O . . .     . .     .                                                                                                                                                   o o o o o   X X # - r ` ].kXkX:X'.].E.E.E.E.E.h.(.(.(.(.E.h.h.h.E.W.jXjXzXDXDXDXDXzXDXzXxXjX^.!.~.Q.L.Q.L.L./ / / / Q / Q Q Q Q Q Q Q Q Q Q Q Q Q Q Q / L.Q ",
"      o   o   o .     .   . . .   o   o   o o   o   o         o   o               o o     o     o o o o o   o o o   o o o o   o o o   o o   o o o   o o o   o o o     o       o           o       o         o   o   o     o       o o       o   o   o o o   o o o   o     o   .       .   . o o   * * % % # X . . .       o         o       o                         o                                 o       o   o     o       o   o     o         o     o       o           .   . . o . . . . O . % % . % . O . . O . . . . .   o o .     . o o   o .     . o o o     o   o   o       o o     o o .   . .   . o . o o o . . .   .   . . . . . O % , , $ O O O . . O % # # $ * # . . . . . . o o o o o o   o o o o o o o o o o .   o .   o   o   o o o o o o o o       o     o o   o o o o o   . o . . . % . % % @ @ + @ @ @ @ > > @ > > > > > > 6 6 7 7 7 7 3 3 2 2 2 1 ; ; + + O . . . .     . .   .                                             o       o               o                                   o o                                       o   o o o o o X # - * s ` E.:XgX:X:X`.E.E.E.E.E.E.E.(.(.(.E.h.h.h.T.jXxXzXzXDXzXDXDXzXzXzXkXUXUXUX!.~.L.L.L./ L.Q Q / Q Q Q Q Q Q Q Q Q Q Q Q Q Q Q Q Q / Q Q ",
"    o . .     .   . .   .     . o     o o     o   o     o o o       o o o o o   o     o   o o o o   o o o o o o o o o o o o o o o o o o o o o o o o o o o o o o   o o   o o o   o o o o o   o o   o o   o o     o o   o   o o   o       o     o   o       o     o o   o o o . . .         . . X   . o     .               o o o           o           o o               o             o       o                                                                                         . .   . . . O O O % . % O . . . . . . . . o .   o . o   o . . o . o . o o   o o o       o     o     o o   .   . .     .     .   .       .     . . . . . . . # $ $ % O O . . . O O % # # $ % . . .     . o o o o o o o o o o o o o o o       .         o   o o o   o   o       o   o o       o     o   o . . .   . . . % O O O O O + + @ > + > > > > @ > > 1 1 6 7 7 7 6 1 3 2 1 1 1 ; ; + O O O . .   .               .                                                                                     o                                                           o o o   X # h 8 * s ` j.:XkX:XgX:XE.E.E.E.E.E.E.E.(.T.T.h.h.h.(.xXzXzXzXzXDXzXDXkXxXxXxXjXxXUX~.L.L.L.L./ Q Q L.Q / / Q Q Q Q Q Q h Q Q Q Q Q Q Q Q Q / / ",
"  .   o .     o .                 o o       o   o   o o o     o o o o o o     o o   o   o   o     o   o   o   o   o   o   o   o       o   o     o o o   o     o o o   o   o   o   o o     o   o               o     o   o o   o   o   o o   o         o o     o   o   o     .   o . .     o   o .     .               o o   o o                                                         o   o                                                                                               o . . . O . . % . . . . . . . . . . o   .     .   . . o .   . .       o o   o o o   o     o o   o   .   o     o   o   .   .   . .     .   . . . . . . . % $ $ @ % % . . . . % X # $ # % . .   . .   o o o o   o   o o   o o o   o             .       o o     o   o o   o             o         .   . . . . . % % O O O O + + + O + + + ; > @ > > > 1 6 6 7 6 7 7 1 1 1 1 1 1 > ; + O O . . . .   . .     .   .                                         o                                                                         o                                   o . . X # = 8 e s W j.:X:XkX:X:X(.E.E.E.E.E.E.T.T.T.T.h.T.(.^.zXzXDXzXzXDXzXxXUXxXzXxXlXxX/.!.~.L.L./ L.Q / Q / Q Q Q Q Q Q Q h Q Q Q h Q Q Q Q Q / Q Q ",
"      .       .     .   .       o     o o o   o   o   o   o   o           o o     o   o   o   o o   o   o   o   o   o   o   o     o o   o o   o   o   o   o o   o   o   o   o     o   o o   o   o   o o   o   o   o   o     o   o   o o   o   o o         o o   .   .   .     .       . o   . .       . o o . o o   . . o   o o                     o   o     o o     o o     o     o           o     o   o   o       o       o                       o                             . .   o .   . . . . . . . % % . . . . . .   o   o o .   .   o   . o   o o .   o   o     o       o     o   o   .   . o . .   .     .     .   o   .   .   . . . . % $ = % o . . . . . X % # # * # O o . . . . o o o   o   o o o o o o   o o o     .       o o o   o o o o o o     o   o   o o     o o o o o o . o % . % % % % @ @ + @ @ @ > > > > > > > > 1 1 6 1 7 6 7 7 7 1 1 > : : > ; + + O O . . .   .     o .                   o       o                                               o                     o                                       o                   o     X X = = e Y ` f.:X:X:XkX:XE.E.:X(.E.E.E.E.T.h.T.Q.(.^.lXzXzXzXDXzXzXlXUX!.jXzXzXlXzXxX!.~.~.L.L./ L.Q L./ Q / Q h Q Q Q Q h h Q h Q h h Q h Q Q Q ",
". .         o o   o           o       o       o o   o   o   o     o             o         o o     o               o             o o       o       o               o   o   o   o   o o         o o       o   o     o o     o o               o   o o   o o o   o   .     o   .               .               o     o o o o       o                   o                   o           o                                                                                                           . . . . . . . . . . . . . . . . o .     . o   o   . . . . o o   o   o     o     o o       o       .   . . o .                           .     .   . % X # . . . . . . . . o . % % . % .   . . .   o o o o o   o     o     o       .     . .   .   o o o   o o   o   o       o     o . o o o o o . . % % % % % % @ @ + @ > + > > > > > > > > > 1 1 6 7 7 7 7 6 > ; ; ; ; + + + O O O . . o .   . .   .     .         .                               o                                   o                     o     o                     o                 o         . X # 8 = h p ^ ] E.:X:X:X:X(.(.`.(.E.Q.E.T.h.h.Q.^.^./.lXlXzXzXzXzXzXxX!.UXxXzXzXzXlXxX!.~.Q.L.L.L./ / Q / / Q Q Q Q Q h Q h Q h h h h Q h Q h Q Q ",
"    .   .     .                   o       o                           o   o   o     o o       o       o               o             o               o                                     o           o                           o   o   o                   o o   .     . o         .   .               o o     o o   o o o o                                                                                                                                                               o   .   .   . . . . . . . . . . . .   . o .   . o o   o o     . . o o   o o   o   o     o   o o o       o         .   .     .       . .     . .   . . o X # . . o .   . . . . o . . o .     . . o   o   o   o o o o . o o o o o o       .         o     o o o o o o o     o     o o     o     o . . % o % % % O % + % + + + + @ ; > > 1 > 1 > 1 > 1 7 6 7 6 6 > > ; ; ; + + + O O . O . . . . o   . . .     .                                                                                                                           o                         o   .   X - h 8 = p I ] f.`.:X:XkX:X:X(.(.(.E.Q.(.T.h.Q.^./.lXlXlXlXlXlXxXxXjX!.UXxXzXzXlXxXjX!.~.L.L.L./ / / / Q Q Q Q Q Q h Q h h h h h h h h h h h Q Q ",
".     . .                       o       o                 o o     o o   o o             o                                                                         o o     o o         o o     o   o o                 o       o o     o         o     o   o   o       . .     . .         .                         .                                                                                                                                                                     o     .   . . . . .   .   . . . . . . . o .   . . o   .   .   . o   o o o o     o   o   o   o o     o .         .   .             .           .           . X # % .       .   .   . . X o . . . . .     o   o . o       .   .   .         .     . . o o   o     o         o o o   o           o . o . o % . % % % % % + @ + + + > @ > > > > 1 1 1 1 6 6 1 6 6 6 6 > > ; + ; + + + O O . . o . .     . .       .                                                                                 o                                                                     o     o X $ p p p g ^ ` f.E.:XjXlXkXkXjX(.(.(.E.Q.T.Q.(.^.lX/.lX^./././.^.^.jXjXxXlXzXzXxXxX^.!.~.Q.L.L.L./ / { { Q Q Q Q h Q Q h h h h h - h h h h h h h ",
"          .                           o       o o   o           o             o   o o         o                                                                                   o                     o     o   o       o         o   o   o o             o     .         .       o o .     o           o           .     o                       o     o         o       o       o       o                                                                                                 o   .   .     . . . . . . . . . . .   o o o     . . o   o .   . . o   o o o o     o   o       o     o . o   o   .   .   .   .           .   .   .   . . X X . .   .     . . . o o % X X % . . % X .   .         . .             . .                   o o o o o o   o o   o o   o o . X . o X X X . . % % % % % % @ @ @ @ @ > > > > > 1 > 1 1 1 1 1 6 6 6 > > > @ + + + + O O O O . . o   . . . .   .   o                                                         o                                                                                                     o - 8 p f d I ( ] f.E.:XkXkXlXlXjX(.(.Q.W.Q.(.(.(././.lX/.^.^.^.!.~.!.xXlXlXzXxX/.xX/.!.!.Q.Q.Q.L./ L.L./ / Q Q Q Q Q h h h h h h h - - h h h h h h ",
"  .           o           o     o   o                         o   o   o o     o                                                                                       o         o                         o o             o       o     o               o           .     .         o   o   o               o                                                                                                                                                                             o         .   .   .   . . . .   . . . .   o .   . . o     o . .   o o   o   o   o   o   o o     o   o . o o   o o . o     .   .   .               .       . o o     .   . . .   . o o . % o . . o o X .   .     o   .   .   o   o   .             o     o o o o o o o o     o     o o o X o X X X % X % X % % X @ % @ @ @ @ @ > > > > > > 1 > > 1 1 1 > > > > 6 @ @ @ + + + + O O . . . . .   .   .   .   .                                                                                                                                     o o                         . * r a I f ^ ( ] T.E.:XkXzXzXkXlX^.(.W.W.Q.(.!.W.^.jX/.xX^.~.Q.Q.Q.~.xXlXzXxX/.UX!.xX!.!.Q.Q.T.h.L.T.P./ / Q Q h Q h h h h h - h - - h - h h h - - ",
".         o   o   o         o       o   o   o   o o   o o   o     o o       o   o     o   o o                                                                   o       o   o       o     o   o o   o           o     o       o   o o o   o o     o o     o o   . .     .     . .     o o   o o o o   o o   o               .                                                                                                                                                                 o   . .     .   .   .   . . . .   o . .   o o     o . o   o   .     o o o o     o   o     o   o o   . o           . o   .               .               . . o . . .         .   . o o o . . . .     o     .         . .   .   .   .   .   .   o     o o     o         o   o o o o o X o X X X o % % % % X % X % % @ @ + @ @ @ > > > ; > ; : > > 1 > > > > @ @ % @ O + O O O O . . . .   . .     o .         .                                                                                                                     o                                 o . o # = f f I ( ` { f.R.:XxXkXzXzXxXjX^.W.Q.Q.(.!.^.^.lXlXlX!.(.(.Q.Q.~./.lXxX/.!././.jX!.~.~.Q.Q.Q.T.Q.T.{ Q h Q h Q h h h h - - - - X X X - - X - - ",
"    .   .   . .     o       o o o   o   o   o o   o o   o     o o     o o o   o o   o o o     o   o           o   o           o     o     o         o     o   o   o o o   o   o o     o   o o o   o   o o o o     o o o   o   o o   o   o   o o o o     o o o         . .     . .     o o o o o   o     o             .   .             o       o   o o o   o   o   o   o   o   o   o o o   o o                                                                               o             o                   .   . . . . . . .   o . .   o . o . .   o . o . o   o     o     o     o     o   o     o   o     .                   o     o                                   . . .   . o . . . .     .     .                         .       o     o o o o o o o     o o o o o o   . . o o X o X . % % % X % % % @ % @ + + @ @ ; ; ; ; > : > > > > ; @ @ @ % % + O O O O . . . .   .   . o   .   .   .                                                                                                                                                           . o . # = f I ( ( ^ ( ] R.:XkXlXzXzXkX^.^.(.Q.(.!.^.^.^./././.!.~.~.~.Q.Q.^.jXUX/.!./.jX/.!.!.~.!.!.~.Q.Q.P./ Q Q h Q h h h h X - X X X X o o X X X X X ",
"  o o o o o .                     o   o   o     o     o   o o   o   o   o   o   o o o     o o o           o               o                                     o   o   o   o   o o o   o   o   o   o   o   o   o   o   o   o o   o   o   o   o   o o o o   o     .   .     .       o o     o o   o o         o .   o   .   .     o o         o                 o           o                                   o                       o                                             o o                 .   .   .   .     . . o .     . o   .     o .   .   o o o   o o   o     o o     o   o     . o . o o   o     .     .                                       .       .     . o . o . o   .     .   .     o   . o   . . o   .   .   .     o       o   o   o   o   o   o o o o o X % . X X o o . % % % % % % % O + + @ @ + + + + ; + > ; + > + @ O O O % O O O O O . . .   .   . . o   . .                                                                                                                                                                       o X r f ~ ( ^ I ^ ^ g.`.:XkXkXlXlXxX^.!.(.(.!.^.^.^.xXlX^.(.Q.(.(.Q.Q.~.!.!.!.!.!.!./.^.!.!.^.^.^.~.Q.P./ Q Q h h h h h h X X X X o o X o o o o o o ",
"                  .             o     o     o   o       o   o         o         o     o     o       o   o     .     o       o   o     o o     o   o   o o     o   o         o   o       o   o     o     o       o   o       o     o             .   .       .   . .   .   .       .         .     .     o     .       .     .         o         o   o       o       o     o     o     o     o                                                                     o   o     o o       o o                             .     .                               .                                           .     .                                                                                 o   .     .                 .                                             . . .   o . . % . . X X X % X . % . % . % O O O O + O O O O + @ % O % % + % O . O . O % o . o o . o o .   .           o o o o o o o o o o o o o o o     o o o   o o o   o o o   o o o         o   o o   o o o   o o   o   o o   o o o   o o   o o o o                                         X - p f ( f ^ g ^ ] E.:XjXxXxXlXjXjX!.W.W.!.(.^.^.^.^.W.Q.Q.Q.~.Q.T.Q.Q.~.!.^.^././.UX/./.UXxXUX~.P.L.Q Q h h - - - - X                   o o o X ",
"X X o X X X # . X . X X X o o o   o   o o     o   o o     o   o .   o   o o o o   o   o o     o o o         o   o o     o o     o   o       o   o   o       o   o   o o o o o     o o     o   o o   o     o o o   o   o o   o   o   o o o o o o o       . o   . o     o . . o . X o X % X . o X o   . .   o o   o .   o . . o   o o o   o   o     o .   o     o o o   o   o o     o o   o     o & & o X X X X X X X X X X X X X X X X X X X X X o X X X X X X X - X X o - X X X X - X X X X X X X X X X X % X X X X X X X X X X X X - X X X o % X - X X X X X X X X X X X X X X X X X X o X X X % - X X - # # X X % X X X X X X o X o X X X o X o o X o o o o o X X X X X X X X o - o % X X X X X X X X X X X X X o X X . X X X X o X X o o X X X X o X X X X X X X X X X X X X - X - # # # X # # # # # $ - # # # $ # # $ $ # # $ $ $ $ # $ $ $ # $ $ # # % # % # @ $ X # X X X X X X # X X - . X X X X X X X X X X X X o X X X X X X X X X X X X X X X X X X X X X X - X X X X X X X X X X X X X X X X X X X X X X X X X X X X - X X X X X X o o o o o o o X o - X X - - = p f f f g g ^ ] E.`.:X:XjX:XjXjXUXW.W.W.!.(.W.!.W.Q.T.T.Q.Q.T.T.Q.Q.~.!.^././.xXxXjXxXxXxXUX~.P.Q Q h h h h h h - - - - - - - - - - X X X X - ",
"  o     o . X o o . o o o   o   X o X o X X o X X X o X o X X o o o o o o o o X o X X o X X o X o o o . X o   o o o o o X o o o o o o o X o X X o o o o X o X o o X o o X o o X X X o X o X X o X o o X X o o X o X X o X X o X o o X o o X X o X o X X X X X X . X X X X o X X o . % . o o o o % X X X X . % % X X X X X X X % o o o o X o o X X o o o X o X o X o o X X X o X o X o o o X o X   o   o   o   o o     o   o   o   o   o   o   o o o   o   o   o o o o o o o o o X o o o o o o o   o   o   o o   . o .   o . . o X . o o o o . o o o o o X o o X o o . . . o .   . o . .   o X X X % . % o % o o . X . o   o . .     o   o o o   o o o o o   . o   o o o o   o o o o o X o o o o o . o o . . . . o . . .   o . . o o o o X . o o o X . . . X o o o   X . o . . X X % . % X X % X X X X # % % # % % O % % O . O O O O O % % O O % O % . . . O . . X X X X % X X % X % o o X . o . X o X X o o X X o o X o o X X o X o X X X o X X X o X X X o X X X X X o X X o X o X X X X X X o X X X o o X X X X X X o X o X X o o o   o o o .       .   o o o . o o o o X - = - = h e i ^ h.R.R.E.W.W.jXUX!.W.W.Q.W.Q.Q.Q.Q.T.T.L.P.P.T.L.Q.Q.Q.!.!.^.UXlXlXlXzXzXzXUXP.{ Q h h h - h - - - X X o X o o o X o - X X X X ",
"X - - # - # # X $ - # - - - - X X - X X X - X X X X X - X - X X - X - - X - X X X - X X X - X X X - - - X - - - X - X - X - X - X X - X - X X - X X - X - X - X X X X - X X - X X X X - X - X X - X X X X - X X X - X X X - X X - X X - X X X - X X $ X X - X - # - # # - # # * - - - - - = $ - # - X - - - - # X - # X X # X X - X X - X - X X - X - X X X X - X X - X X X X - X X - X - X X - X X X X X X - X - X X - X X - X X X - X - X X X X X - X X X - X X - - X - X - X - - - X - - X - # X X # - # X - - X - - - # X - - X X # # - - X X X - # # # X X X - - - X X - X X X - # X - # X X X - X - # # - X X - X - X - X - X X X X X X - # X - - - - - X X X X X X X X X X X X X X X X X $ - X - # - - # - # # X # - - # # - - X # - # - - X X - X X X - # # X # # - - $ # # - - # # - $ @ @ @ # - # # # $ # $ $ * $ $ $ $ $ # $ $ $ $ # $ $ $ # # # # $ - @ # # # X X X X X # X X X X X - X # - X X X - X - - X X - - - X - - X X - - X X - - X X - - X X - X X # - X - - X X - X - X - X # X X - X X - X - X - - X - X - - X X X X X X - - - X X - X - X - - - - X X = X X & & u Q ` h.T.T.T.E.W.W.!.W.~.W.Q.Q.W.Q.Q.h.L.L.P.P.L.Q.Q.Q.~.!.^./.xXlXzXzXzXDXDXUXP./ h h h h h h h - - - - X X X X - - X X X - X - "
};
