/* XPM */
static char *ryan_south[] = {
/* columns rows colors chars-per-pixel */
"564 779 256 2 ",
"   c #020201",
".  c #0D0E0B",
"X  c #0A0904",
"o  c #150C07",
"O  c #0F100B",
"+  c #12130E",
"@  c #1B130C",
"#  c #151611",
"$  c #171812",
"%  c #1A1B15",
"&  c #1D1E19",
"*  c #1B1613",
"=  c #0C1314",
"-  c #26160B",
";  c #261B15",
":  c #31190D",
">  c #1F201A",
",  c #1C2117",
"<  c #0E211F",
"1  c #22231D",
"2  c #2A241B",
"3  c #372519",
"4  c #39230F",
"5  c #1A2625",
"6  c #252621",
"7  c #272922",
"8  c #2A2C25",
"9  c #2D2E29",
"0  c #2A2624",
"q  c #362B25",
"w  c #2E312A",
"e  c #2D3126",
"r  c #32342C",
"t  c #36392E",
"y  c #393B2F",
"u  c #373329",
"i  c #343631",
"p  c #363931",
"a  c #3A3D33",
"s  c #3C3B37",
"d  c #2A3434",
"f  c #1F1E21",
"g  c #462A1A",
"h  c #512F1B",
"j  c #483528",
"k  c #563929",
"l  c #463B36",
"z  c #4D342A",
"x  c #663B2A",
"c  c #522412",
"v  c #3E4135",
"b  c #3E4139",
"n  c #35423C",
"m  c #2D413C",
"M  c #414436",
"N  c #42453A",
"B  c #46493C",
"V  c #494C3E",
"C  c #4B433A",
"Z  c #594537",
"A  c #554834",
"S  c #674838",
"D  c #764B38",
"F  c #724E38",
"G  c #7E603E",
"H  c #3B494B",
"J  c #4B4D42",
"K  c #474845",
"L  c #564B46",
"P  c #4E5143",
"I  c #4E524A",
"U  c #515446",
"Y  c #535549",
"T  c #55594A",
"R  c #59594B",
"E  c #575958",
"W  c #4B5155",
"Q  c #695547",
"!  c #785746",
"~  c #6D564E",
"^  c #7A6458",
"/  c #6B6357",
"(  c #585D63",
")  c #495D61",
"_  c #5C6268",
"`  c #506D71",
"'  c #64686A",
"]  c #676C73",
"[  c #6D7378",
"{  c #74787B",
"}  c #796E68",
"|  c #5E6058",
" . c #3E3D44",
".. c #86523C",
"X. c #98613F",
"o. c #875A46",
"O. c #925C4A",
"+. c #89624C",
"@. c #97654B",
"#. c #886756",
"$. c #986A55",
"%. c #98735A",
"&. c #A56C55",
"*. c #A97559",
"=. c #B57A5B",
"-. c #A76A4F",
";. c #846C65",
":. c #87736B",
">. c #897974",
",. c #987767",
"<. c #A97965",
"1. c #B67C64",
"2. c #B07269",
"3. c #AA5952",
"4. c #C6786E",
"5. c #8D3A34",
"6. c #BA825E",
"7. c #918479",
"8. c #BA8567",
"9. c #BA8A74",
"0. c #B08972",
"q. c #9E815F",
"w. c #C48C6B",
"e. c #C58A67",
"r. c #C9926D",
"t. c #C58C74",
"y. c #CC9473",
"u. c #C89679",
"i. c #D49C7B",
"p. c #D39976",
"a. c #D19070",
"s. c #D7A17E",
"d. c #CEA17E",
"f. c #C2845E",
"g. c #777C82",
"h. c #6B7A81",
"j. c #597A85",
"k. c #7B8388",
"l. c #729396",
"z. c #729DA3",
"x. c #7CAAAD",
"c. c #78A4A9",
"v. c #7EABB1",
"b. c #77A8AC",
"n. c #678D8E",
"m. c #84888A",
"M. c #878C93",
"N. c #8B9498",
"B. c #94989A",
"V. c #969088",
"C. c #AB978D",
"Z. c #B2A59A",
"A. c #979CA3",
"S. c #889DA2",
"D. c #82ABAD",
"F. c #86A6A8",
"G. c #9BA4A8",
"H. c #84ADB2",
"J. c #89AEB3",
"K. c #85B1B5",
"L. c #8AB3B5",
"P. c #8CB5BA",
"I. c #8DB9BD",
"U. c #86B3B9",
"Y. c #92BBBD",
"T. c #94B6BA",
"R. c #92AEB1",
"E. c #A5A8AA",
"W. c #ABB3B8",
"Q. c #B5B8BA",
"!. c #AEADAE",
"~. c #99A09B",
"^. c #CA9B84",
"/. c #D59D83",
"(. c #D08D88",
"). c #DBA484",
"_. c #D8A689",
"`. c #DAAB94",
"'. c #DDB19A",
"]. c #CCA38C",
"[. c #E2AB8C",
"{. c #E3AD93",
"}. c #E5B398",
"|. c #E5B28F",
" X c #CBBAB4",
".X c #D3BDB4",
"XX c #D3BEB8",
"oX c #CBB5A9",
"OX c #E7B9A3",
"+X c #E09D8F",
"@X c #D5C2BB",
"#X c #DAC5BC",
"$X c #D8C3B8",
"%X c #CAC2BC",
"&X c #EBC6B1",
"*X c #8DBCC2",
"=X c #8CB8C2",
"-X c #94BDC3",
";X c #99BEC5",
":X c #95BDC9",
">X c #90B0C5",
",X c #B5BCC3",
"<X c #94C0C6",
"1X c #99C1C6",
"2X c #95C3CB",
"3X c #9BC4CB",
"4X c #9BC9CE",
"5X c #9BC9D1",
"6X c #99C6D1",
"7X c #8FC2C7",
"8X c #A3C6CC",
"9X c #BBC3C7",
"0X c #A4C9D2",
"qX c #B0D2D6",
"wX c #B1D9E2",
"eX c #C6C8CA",
"rX c #DDCAC2",
"tX c #D8C9C3",
"yX c #C8CCD3",
"uX c #DBDCDC",
"iX c #D5D7D7",
"pX c #D1D2D3",
"aX c #E1CEC5",
"sX c #E4D3CB",
"dX c #E6D4CA",
"fX c #EBDBD4",
"gX c #E7DBD6",
"hX c #F1DED7",
"jX c #FCD8CE",
"kX c #E9E2DD",
"lX c #F3E3DC",
"zX c #F6E7DE",
"xX c #D9DDE2",
"cX c #C8DBE2",
"vX c #DDE2E6",
"bX c #CFE6EB",
"nX c #ECE5E2",
"mX c #ECECEB",
"MX c #E5E7E8",
"NX c #F3EAE5",
"BX c #F4EDEA",
"VX c #F7EAE5",
"CX c #F4F1ED",
"ZX c #FAF1ED",
"AX c #FAF3E8",
"SX c #EAEDF2",
"DX c #EDF2F4",
"FX c #F3F3F3",
"GX c #FCF5F2",
"HX c #FCFAF5",
"JX c #FCFDFD",
"KX c #F5F7FA",
"LX c #EFF0F0",
"PX c #DFDFE1",
"IX c #B1C1BF",
"UX c #7B807E",
/* pixels */
"E E W ( E ( E ( ( ( ( ( ( _ _ _ ( ( ( ( _ ( g.M.A.A.A.M.>.k.m.M.V.N.M.m.{ g.g.{ m.UXg.{ { m.g.k.k.k.k.n.n.n.z.z.z.z.z.z.z.z.z.b.z.z.z.b.b.z.z.b.b.b.b.b.b.b.b.b.v.v.v.v.v.c.v.v.v.v.v.v.v.v.v.U.v.v.v.v.v.v.U.U.U.U.U.U.U.U.U.7Xb.U.7XU.U.U.U.b.=XU.U.U.7XU.U.U.7X=XI.=Xv.7X7Xv.7Xv.7X=XI.=X7X7XI.I.7X*X=X7XI.I.*X*XU.*X*X*X*XU.7XU.7XU.*XU.7X*X7X*X=X*X*X*X*X*X*X7X*X7X<X2X<X2X2X2X2X6X2X7X<X*X<X<X<X<X<X3X2X3X4X7X<X2X3X2X<X2X4X4X2X2X7X6X2X6X2X2X7X5X6X7X6X6X5X7X5X6X7X5X6X6X5X5X7X5X5X7X5X5X7X7X7X7X6X7X5X6X7X6X7X6X6X7X=X6X7X=X6X6X=X6X6X6X6X6Xv.z.j.v.>X:X:X=XK.v.U.>X;X:X;XR.k.` n n B a w r w w 9 9 9 q i s s l s s l N C V C J K C C K l l u l Y } } ] ~ K  .s i i q d q d q d q d  .0  .q  .q  . . .q l s l l l  .C K  .J L R R Y L R E L R R L L ~ L R L R E R / :.7.V.C.V.V.7.>.>.7.C.C.Z.Z.Z.Z.Z.].Z.oXoXoXZ.Z.Z.oXZ.Z.oX].Z.oXoXoXoXoX.XoXXX.X.XOX$XoXoXoX$XoX$X'.%X$XoXoXOX.X.XOX X.XXXXXXXXXXXOXOXXXXXXXXXXX&X#XaX#X&X@X&X$X$X$XaXrXdX$XdX$X$X&X&XXXtXXX&XtX#X&XtXaXXXXXXXrXrXrX#X#X#X#XaXrX#X#XaXaXaXaXXXXXaXXXaXaXXXaXtXaXtXaXXXaXtXtXXXtXtXtXtXtXtXyXXXtXtXyXtXtXtXtXtXXXtXtXtXXXtXtXXXtX@X@XXXXXXXXXXXXX XXX X XXXXXXXXXXXoX X X X XoXoXoXoX X(.,X(.",
"( W ( E ( E ( ( ( ( ( ( _ _ _ _ ( ( ( ( ' ( ' >.B.B.M.M.g.g.>.m.M.N.M.m.UXUXg.{ { { UXUX{ { m.k.k.n.n.l.l.z.z.z.z.z.z.z.z.z.z.z.z.z.z.z.z.z.z.z.b.z.b.b.b.b.b.b.c.v.v.v.v.v.v.c.c.v.v.v.v.v.v.v.v.v.v.v.v.v.U.v.U.U.U.b.U.U.U.U.U.U.U.U.U.U.U.U.U.U.U.U.U.U.U.7Xv.7Xv.7X7Xv.v.7XI.7XI.7X=XI.v.7X7Xv.v.7XI.=Xv.7X*X*X*X*X*X7X*X*X*X*X*X7X*X*X*X*X7X7X7X*X*X*X*X*X<X*X<X<X<X7X2X2X7X<X2X2X<X<X7X7X<X<X2X<X2X2X2X3X<X3X4X<X<X4X4X<X2X2X2X2X2X2X6X7X6X2X6X7X2X5X5X2X5X6X7X6X7X6X5X7X7X5X5X6X5X7X6X7X7X6X5X7X6X5X6X6X7X6X7X6X7X6X6X=X6X6X6X7X6X6X=X6X6X>X>Xz.c.>X:X:X:X=XU.>X=X-X;X3X;XG.l._ H H b n 9 w w w 9 9 9 9 i s i l l i s l l C C L L L J C l a s K | } { } E  .s s i w d i d q q d d  . . .q  .q d  .q q  .i  . .s l K C K L L R R ~ L L L Y ~ L E E L L L L L L ~ / } >.7.V.V.C.V.V.>.>.7.C.C.Z.Z.Z.Z.Z.Z.oXoXoXZ.Z.].Z.].].oXZ.oXoXZ.oXoXXX'.oX.X.X.X.X.XoX$X$X$X$X$XoX$XoX'.oX$X.XoXoX.X.XoXOX.XOXXX#X#XXXXX.XOX$XOXXX#X#X$X$X$X$X$X$XrXrX$X$XdX$XdX$XrXXX#XXXaXtXXX#X#XtXXX#XXX#X#XrXrX#XrXrX#XtXrX#XtXXXaXXXtXXXaXtXXXtXtXXXtXtXtXtXtXaXaXtXXXXXXXtXXXtXtXtXtXXXtXtXtXXXXXXXtXtXXXtXXXtXtXtXtXXX@XtX@XXXXXtXXXXXXXXX X X XXXXXXXXXXX.XXXXXoXXXXX X X X,X(. X X",
"W E ( ( E ( ( ( ( ~ ( ( ( _ _ _ ( ( ( ( _ ( h.g.B.B.M.M.g.g.M.M.V.M.m.k.k.>.g.{ { g.g.g.{ m.{ k.k.l.l.n.z.z.z.z.z.z.b.j.z.z.z.z.z.z.z.b.b.b.z.b.z.b.b.b.b.b.b.b.c.v.c.v.c.v.v.v.v.c.v.v.v.v.v.v.v.v.v.b.v.v.v.v.U.U.U.v.b.U.U.U.U.U.U.U.7XU.b.7X7XU.7X7X7XU.U.U.I.v.7Xv.7XU.=Xv.7Xv.=XI.v.7X=XI.=X7XI.=Xv.I.7X7X*X*X*XU.*X*X*X7X=X*X*X*X*X*X7X*X*X7X*X*X7X7X7X7X<X7X7X7X7X7X2X7X7X2X7X<X7X*X7X7X2X2X2X<X<X2X2X2X<X2X4X<X4X<X4X4X2X2X2X2X6X7X5X7X2X7X5X5X5X7X2X5X6X7X5X7X5X5X5X5X5X5X5X7X6X6X7X6X6X6X7X5X7X6X6X6X6X7X7X6X7X7X7X7X6X6X6X7X6X=X6X=X6X:Xv.z.c.T.:X:X>X=XU.>X=X3X3X;XT.S.h.( H J b r w q w w 9 0 9 9 i s i s u l l s l C C L Q Y K C a l s L ' } / |  .l i s i i i q 0 0  .0  .q i  . . .q q d  . .l l l l  .l K L L L L R E E L L L L L L L L L L L K L R / } >.m.V.V.V.V.7.>.7.V.V.Z.C.Z.].Z.Z.oXZ.].Z.oXZ.oXZ.].Z.Z.].].oXoX`.'..X XXXOX X.XOX.X.XoXoX'.$X$XOX$X$XoX.X.XoX.X.X.X.XOX.XOX.X#XOXXXOXOXXXOX.XXX&XXX$X$X$X$X#X$X$X$X$X&X$X$X$XdX$X$X$X#X#XtXXX#XtXXX#XaXXXXXXXXXrXrXrXaXrX#XrXaXtXtX#XaXXXXXaXaXaXXXXXtXtXtXtXtXaXtXtXtXtXXXXXXXXXXXtXtXtXtXtXtXtXXXXXXXeXtXXXtXtXtXtXtXtXXXXXXXXX@X@XXXtXXXXXXXXX X X XXX XXXXXXXXXXXXXXX XXX XXX X X X XXXXX",
"W ( W ( ( ( ( ( _ ( ( _ _ ~ _ ( _ ( ( ( _ ( _ g.B.B.B.g.g.g.>.m.M.M.m.m.g.g.g.g.{ g.>.{ { { UXk.k.n.l.l.z.n.z.z.z.z.z.z.j.b.z.z.z.z.z.b.b.b.b.b.b.b.b.b.b.b.b.b.v.v.v.v.v.c.v.v.v.v.v.v.v.v.v.v.v.v.v.b.U.v.v.U.v.U.v.U.U.U.b.U.U.U.U.U.b.U.7Xb.U.=XU.U.U.U.7XU.7Xv.=XI.I.I.=X*X=X7X7XU.7X7Xv.7Xv.7Xv.7X7XI.7X=X*X*X*X*X*X*X*XU.*X*X*X*X*X*X*X*X*X7X*X7X*X7X7X7X*X7X:X<X7X<X:X*X*X7X7X<X<X7X<X2X2X2X<X2X2X<X3X<X4X2X2X4X2X4X4X2X5X2X2X4X7X6X5X2X5X5X5X6X5X5X5X5X5X7X6X5X5X6X5X5X5X5X5X5X5X5X5X6X5X7X6X7X5X5X5X7X7X6X6X7X7X7X6X7X7X7X6X6X6X=X6X6X6X>Xv.z.c.>X:X>X=X=X=X=X:X6X;X-XR.n.` ) ) I K t d d d q 9 d q i q s q i i i s l l C J Q | R P s i u l Y / / E B s i l i i u q d  . .q d q d  .i d q  . .q q  .q l l  .l K L L L K L Y Q R R I L L K L L K L L L L Q / } >.V.V.V.C.V.C.7.7.7.V.C.Z.Z.Z.Z.].oX!.].Z.Z.Z.].Z.oXZ.oXoX!.].oXoXoX XoXoXoXoXoX.X.X.X.X$X$X%XoX$X$X$X$X&X.XoX&X.XOX.X.XXX.XXXXXXXXXXX#X.XXXXXXX#XXXOXrX$X$X$X#X$XrX$X$X$X$X$X$X$XrX$X$XtX&XtX&XXX&XaXXXXXXXXX#X#X#X#XrXtX#XrXrXaXaX#XXXXXXXaX#XXXXXXXaXXXtXXXtXtXtXXXXXXXXXXXXX XXXXXXXXXtXtXtXXXtXtXtXtXXXtXtXXXtXtXeXtXtXtXXX XXXXXXXXXXXtXXXtX X X X X XXX XoX X XXXoXXXXX X X X X XXXXX XXX",
"W ( W ( ( ( ( ( _ ( ( ( _ _ ( ( ( ( ( ( ( ( ( >.B.B.B.m.g.g.m.M.M.M.V.k.UXUX{ { { { { { { { { k.n.n.n.z.n.z.z.n.z.z.z.z.z.z.z.b.z.z.z.z.b.b.b.z.b.b.b.b.b.b.b.b.v.v.v.v.v.v.v.v.v.v.v.>Xv.v.>Xv.v.b.v.v.v.b.U.b.U.v.v.v.v.v.=Xv.U.U.b.U.U.U.U.7X=XU.7XU.U.U.U.7Xv.7X=X7X=X7XI.=XI.=Xv.7X=Xv.v.7X*X=X=X*X7X*X*X*X*X*X*X*X*X*X7XU.U.7X*X*XU.7X*X*X7X7XI.7X*X7X7X7X<X7X7X*X<X*X7X:X<X7X2X7X<X7X2X2X<X4X4X<X<X2X2X2X4X3X4X2X3X4X4X2X5X2X6X2X5X5X5X5X6X5X5X5X5X5X2X5X6X7X5X7X7X6X5X7X5X5X5X5X5X5X5X5X6X6X7X5X5X6X6X6X6X6X7X7X7X6X7X6X7X6X6X7X6X6X6X6X:X>XJ.z.S.J.>X>X=X=X-X:X3X3X:XP.c.[ ) H T ) P n q d q d d d q i u i u u i s l N V C L | | Q L l a s L | ' / J a i  .q i  .i d d 0 q d  .q  .i  . .i i l  .s i l  .L C K C L L K K K L L R Y L L K L L L L K L L Y / } { 7.7.V.V.7.V.7.V.7.V.V.Z.Z.C.Z.oXZ.oXZ.Z.].Z.Z.Z.Z.oX].oXoXoXoX.X.X.XoX.XoXoXoXoXoXoX.X.X$X$XoX$X$X$X$X$X$X.X.XOX#XXXXXOXXXXXXXXXXXXXXXXX.X.X.X$X$X$X$X$X$X$X$X$X$X$X$X$X$XoX$X$X$X$X$X$XaX#X#X#XXX&X#X#XXXXXXXXXaX&X#XaXtXtXaXXX#X#X#XXXXXtX#XaXXXaX#X#XXXXXtXXXXXtXXXXX XXXXXXXXXXXtXXXtXtXtXtXXXtXXXXXtXtXtXtXtXXXtXXX@XtX%X@X@X XXX XXXXXXXXXXXXXXX X X X X X XXX X X X XoX XoXoXXX X X X X,X",
"E W E ( E ( ( ( _ ( ( ( ( _ ~ _ _ ( ( ( j.( h.g.B.B.M.g.>.g.>.m.M.M.m.k.{ { { [ { { { { { { { g.n.n.n.n.z.z.z.z.z.z.z.z.z.z.z.z.z.z.z.z.b.z.b.b.b.b.b.b.b.b.b.b.z.>X>Xc.v.v.v.v.v.v.v.v.v.>Xv.U.v.v.v.b.v.U.U.U.v.v.U.U.=X=Xv.=XU.U.7Xb.U.7XU.U.U.7XU.=X7XU.7XU.I.7Xv.7XI.7Xv.7Xv.I.7XI.I.7X7Xv.I.U.7X7X7X*X7X*X*X*XU.7X*X*X*X*X7XU.7XU.*X*X*X*X*X7Xv.*Xv.7XI.7X7X<X:X7X7X7X*X<X<X<X2X<X<X<X2X2X4X2X<X2X2X3X2X3X<X2X<X4X1X2X2X4X2X5X6X2X5X2X5X5X6X5X7X5X5X5X5X5X5X6X5X5X5X6X5X6X5X5X5X5X5X5X5X5X5X5X5X7X5X6X5X6X7X6X6X7X6X7X6X7X7X7X6X=X7X6X6X6X6X>XF.z.c.>XP.P.P.>X-X:X2X3X>XH.n.` ) ) ` | V m 0 9 9 9 q 9 i i p p s s s l N C J L R R E Y l a p l Y / ' | K a i q  .i q i q q 0 d d q q  .l  .i s l  . .l l  .K K L K L K L L C J L L L L L J C L K L K L L L R } } 7.>.7.V.C.V.7.V.0.V.C.C.Z.Z.Z.Z.Z.oXZ.Z.oXZ.Z.oXZ.].oXoXoXoXoXoXOXXXOXoXoXoXoXoXoXoX.X.X.X$XoX$X$X.X.X&X$X$X$X$XXX#X&X&XXX&X&XXXXXOX#XrXOX&X.XOX$X$XOX$X$X$X$X$X$X$X$X$X$X$X$X$XoX$X$X$X$X#X#XXX#XXX#X#X#X#X#XXX#XXXtX#XaXaXaXXXaX#XtX#XtX#XXXXXtXaXXXaXXXtXXXXXXXtXXXXXXXXXXXXXXXXXXXtXXX%XtXXXXX%XXX@XeXXXXXXXXXXXXXXXXX XXX@X@X@XXX X X X X XXXXXXX X X XoX XoX XoX X X X X X X X X XXX X X X+X",
"W ( ( ( E ( ( ( ~ _ ( ( _ _ ( ( _ ( ( ( ( _ h.g.M.B.B.m.g.g.m.M.m.M.m.k.{ { { [ [ { [ { { { { { n.k.n.n.z.n.z.z.z.z.z.z.z.z.b.z.z.z.z.z.z.b.b.b.z.b.b.b.b.b.b.b.v.v.v.v.v.v.v.v.v.v.>Xv.v.U.v.v.b.v.b.U.b.U.b.U.v.v.v.v.v.=XH.v.U.b.7XU.U.U.U.7X7XU.b.=Xb.7XU.U.I.v.7Xv.v.7X7Xv.7X7Xv.I.v.I.U.*Xv.7Xv.7X7X7X=XI.*X*XU.*X*X7X*X*X*XU.7X*XU.*X*X*X7X*XI.=X7XI.*X*X7X*X*X7X*X7X7X*X7X2X<X<X7X7X7X2X<X4X4X<X<X2X2X3X<X4X<X2X4X7X4X2X5X5X2X6X7X5X6X6X7X5X5X6X2X6X5X5X5X6X6X5X5X6X6X5X5X6X6X5X6X5X5X5X5X6X5X5X5X6X7X5X6X6X7X6X7X6X7X6X6X=X6X6X6X6X6X6X:X>XD.z.z.H.J.J.=X;X:X3X:X;XU.c.` ) ) UXn./ P m d 0 0 9 9 9 i i i p s s l N C K L J Y R L L N a l K E ' | I l i i  . .d d i q d d i  .i  . .s i  .s  .l K  . .L L L L K K L L l L L K J L K L C L J L L K L ~ E / } >.7.7.V.7.V.V.>.V.V.C.C.C.C.C.Z.Z.Z.oXZ.Z.Z.Z.].oXZ.oXoXoXoXoXoXoX.X.X.XoXoXoX].oXoXoXoX.XOX$X$X'.$X.X$X$X$X$X&X.X$XXX#XXXXX&X#XXX&XXXXXXXXX.X.X.X.X$X$X$X&X$X$X$X$X$X$X$X$X$X$X$X$X$X$X$X$X&XXXXX#XrX#X#XXX#X#XXX#XtXtX#X#X#X#XaXXX#X#XtXtXtXXXXXXXXXXXXXtXXXXXtXtXXXtXXXXXXXXXtXtXtXXXXXXX@X@X@XXXXX%XXXXXXXXXXXyXXXXXXXXX X XXX X XXXXX X X X X X X X XoX X XXXXXXXoX X XoX XoX X XoXoXXX,XXX X X",
"W E W ( E E E ( ( ( ( ( _ ( _ _ ( ( ( ( ( ( _ g.M.M.M.g.g.>.g.m.V.M.M.m.{ { { [ { { { [ { { { { k.n.n.n.n.z.z.z.z.b.j.z.z.z.j.z.z.z.z.z.z.b.z.z.b.b.b.b.b.b.b.b.c.v.v.v.v.v.v.v.v.v.c.>XU.v.v.v.v.b.U.b.U.b.U.b.v.v.7X=Xv.v.U.v.b.7Xb.7XU.U.7Xb.U.U.7XU.=XU.U.7X7Xv.=X=X7Xv.v.7Xv.7X7X=X7X=X7X=Xv.I.I.=XU.v.I.=X*X*X*X*X*X*X7XU.*X*X*X*X7X7X*X=X*X*X7X=XI.=X*X*X<X*X<X*X7X:X7X<X<X7X7X7X7X:X<X2X2X<X<X2X3X<X4X2X2X<X4X2X<X4X<X4X2X2X6X2X2X7X7X6X7X5X5X7X5X5X5X7X5X5X7X5X7X5X5X5X6X5X6X7X7X5X6X7X5X5X5X7X6X5X5X6X7X6X6X6X6X7X7X7X6X6X6X6X6X7X6X6X:X>XF.z.c.D.J.>X>X:X3X:X;X:X>Xz.` ) j.l.~.[ I m q d d q 9 9 i l i p s l C K I L J L L Y L K l s C L ' } | K s a q d q q 0  . .q  .q  .l  .l i  .l  .K  .L L K L K L W L K L J C K l C K K L K l Z L L L L L L ~ } >.>.>.7.C.C.V.0.V.V.V.V.C.C.C.C.Z.].Z.Z.Z.].Z.Z.Z.oXoXoXoXoXoX'.oXoXoXoXoX'.oXoXoXoXoX$X.X.X$XoX$XoXoX.X$X$X$X$X.X.X&X&X#X&XXXaXXXXX#XOXXX#XOX&X$X$X.X&X.X$X$X$X$X$X$X$X$X$X$X$X$X$X$XoX$X$X$XXXXX#X#X#X#XXXXXaX#X#X#XtX#X#XXXaXtXXX#XXX#XaX#XXXtXXXXXXXaXtXXXtXXXXXXXtXXXtXtXXXtXtXtXtXXXyXXX@X@XtXtXXXXXXXXXXXtXXXXXXXyXXXXX XXXXX XXXXXXXXX X XoX X XoX!. XoX XoX X XXX X X XoX XoXoX X XXXXX(. XXX",
"W W ( W ( ~ ( ( ( ( ( ( ( ( ( ( ( ( ( E ( _ ' { M.B.V.m.g.[ >.k.m.M.m.k.{ { { [ { [ [ [ [ [ { h.k.n.n.n.z.n.z.z.z.z.z.n.j.z.z.z.z.z.z.z.z.b.b.z.z.b.b.z.b.b.b.b.v.z.v.v.v.c.v.v.b.U.v.v.v.v.v.v.v.v.U.v.v.v.v.U.U.U.=XU.H.H.H.U.7Xb.U.U.b.U.U.U.7XU.U.U.U.U.7XU.v.7XI.=X7XI.I.v.v.7X7X7X7Xv.v.=XU.v.7XU.*X*XU.U.7X*X*X*X*X*X*X7X7X*X*X*X*X*X*X*X*X*X7X=X7X*X7X*X*X*X*X*X*X7X*X*X*X7X7X:X:X7X7X2X2X7X<X<X<X2X4X2X<X<X4X<X1X4X<X<X5X6X2X6X7X7X6X7X5X6X5X7X5X6X6X7X5X5X5X5X5X5X6X5X5X5X5X7X7X6X6X5X7X6X7X5X6X6X7X7X6X7X6X6X6X6X7X7X6X2X2X2X:X3X3X6X:X:XD.z.z.S.>X>X>X;X;X0X:X:Xb.j.) j.S.R.~.{ I t d 9 0 d q i  .i i i l  .N K L Y R I I L K l a b I | } ' E b i r 0 q d q d q d  .s s s  .s a s b  . .K C C K K L I W L L K L K K C L K K K K L L L L ~ L L L / ^ } 7.:.7.V.V.V.7.7.C.7.V.C.C.C.C.Z.C.Z.Z.Z.Z.Z.Z.].oXoXoXoXoX].Z.oXoX'.oXoXoXoXOXoXoXoX'.$XoX$XoXoX$XoX.X$X'.$XOX&X$XaXOX$X&X$X$XXX&XXX.XOX$X$X.X$X$X$X$X$X$X$X$X$X$X$X$X$X$X$X$X$X$X$X$X$X$X$XoXoXXXXX#X#X#X#X&X#XrX#X#X#X$X$X$XXXXX#XXX#X#XaXaXXXXXXXaXXXtX&XtXXXXXXXXXXXXXXXtXtXXXtXXXtXXXXXXXtXtXXXXXtXXXtXXXXXtXXXXXtXXXXXXXXXXXXX XXX XXXXXXX XoXoX+XQ. XoXoX!.oX XoXoXoXoX XoX X X X X XoX X X(. X",
"W ( W ( W ( ( W ( ( ( ( _ ( ( _ ( ( ( ( _ ( ' g.M.V.M.g.g.g.g.m.V.M.m.k.{ { { } [ } [ [ { { { k.k.n.k.n.n.z.z.b.z.z.z.z.z.z.z.z.z.z.z.z.z.z.z.b.b.z.b.z.z.z.b.b.c.b.v.v.v.v.v.v.v.b.U.v.=Xv.U.v.v.U.U.v.v.v.U.U.U.=X=XU.U.U.U.U.b.=Xb.b.7XU.U.U.U.U.U.U.7XU.U.7X=X7Xv.7X7Xv.=XI.7Xv.I.v.=X7X7XI.U.U.v.*XU.*X7X*X*X*X*X*X*X*X*X*X*X7X*X*X*X*X*X7XI.=XI.7X*X7X*X*X:X*X*X7X*X7X7X7X7X*X:X7X7X<X7X<X<X4X2X3X<X7X<X4X3X2X<X4X2X<X4X2X2X7X6X7X7X6X7X5X7X5X5X7X5X5X5X5X7X6X6X7X6X5X6X5X5X5X5X6X5X5X6X5X5X7X7X5X5X7X5X6X7X6X6X6X6X6X6X6X7X2X6X:X6X6X6X4X:X:X>Xc.z.J.J.>X:X;X;X;X:X;Xz.` ` n.~.R.F.[ H d i 9 9 q i s i i i l l l C J I L R L L K l i i l E | ' / U s r i  .0 q d q d q q s s s s s  .s  .l  .l K K K L L L I E L L L L L K K L L L L L R R R R L L E } } 7.7.7.7.V.V.V.7.V.7.Z.C.C.Z.Z.Z.C.Z.C.C.Z.(.Z.oXZ.oXoXoXoXoXoXoX].oXoXoXoXoXoXoXoXoX$XoXoX$X$X$X$X$X$X$X$X$XoX$XXXXXXXXX$X$X$X&XXXXXXXOX$XoX$X$X.XOX.X$X$X$X$X$X$X$X$X$XoX$X$X$X$X$X$XoXoXoX$X$XXXXXXX&X#X#X#XXX#X#XrX#X#X$X%X%X#X#XXXaXtX#XXXtXXXXXXXXXXXaXtXtXXXXXXXXXtXXXtXtXtXtXXXXXXXtXXXtXXXtXXXtXtXXXXXtXtXXXtXtXXXXXXXXXXXXXXXXXXXXXXXXXXXXX X X!. XoX XoX XoXQ.oX X X XXX X X X X X X X X X,XXX",
"W W ( W W ( ( W ( ( ( ( _ ( ( ( ( ( ( ( _ _ ' g.M.V.M.m.{ { >.M.m.M.m.k.{ { { [ [ [ [ { [ [ { UXk.n.n.n.z.z.z.z.z.z.z.z.j.b.z.z.z.z.z.b.z.b.b.z.z.z.b.z.z.b.b.b.v.v.v.v.v.v.v.v.v.v.v.U.v.v.b.U.b.U.v.U.v.v.v.U.U.=X=X=XU.U.U.=X=XU.7XU.U.U.7XU.U.U.U.7XU.U.7XU.7Xv.v.I.7X=Xv.7X=X=X=XI.I.I.U.I.*Xv.*X*X*X*X*X*X*X*XU.7X=X*X*X*X*X7X*X*X*X*X*X*X=XI.I.=X*X*X7X*X*X7X*X*X<X7X7X*X*X<X<X7X*X7X:X7X7X4X2X<X3X4X4X<X<X2X2X4X2X4X4X<X2X6X7X6X6X7X6X7X5X5X6X6X6X5X5X5X5X5X5X5X7X5X5X5X6X6X5X6X5X5X5X5X7X5X5X6X6X6X6X7X7X7X7X6X6X6X6X6X6X6X2X6X6X6X4X6X:X:X>Xc.v.J.>X>X;X;X;X;X;XR.n.` j.z.T.E.M.` n d d q d q i i i i s s  . .K L L I Y L K l p r p K E E ' E K i w w 0  .q d  .0  . .s s s  .s K K l b K l K l K J L L Y L I L I L R L W W L L L L E ~ ~ R E | / } 7.7.7.7.V.7.V.7.V.V.C.C.C.C.~.C.C.C.C.^.Z.Z.Z.].Z.`.Z.Z.`.oXoXoXZ.oXoXoXoXoXoXoX.X$X$X.X$X$X$X$XoX$X$X$X$X$X$X$X$XXX$X#X#X$X&X$X$X.X$XXX$X$X$X$X$XoX$X$X$X$X&X$X&X$X$X$X$X$X$X$X$X$X$X$X$XoXoXoX$XXXXXXXXX#X#X#X#X#X#X@X@X$X%X@X$XXX#XaXtXtX#XtXXXXXXX#X#XXXaXXXtXXXtXXXtXtXXXtXXXtXtXXXXXXXXXtXXXXXXXXXXXXXXXtXXXXXXXXXXXXXXX X XXXXXXXXXXXXXXXXXXXXX XoXoXoX!. XoXoX+X X X XXX X X X XXXoX XoX X X XXX(.",
"( ~ W ( ( W ( ( ~ ( ( ( _ ~ ( _ ( ( ( ( ( _ ' { M.M.M.m.g.{ g.m.M.m.m.k.{ { { [ { [ { [ } [ { UXk.k.n.l.n.z.z.z.z.n.z.z.z.z.z.z.z.z.z.z.z.z.z.z.z.b.z.b.z.z.b.b.b.v.b.v.v.v.v.v.b.b.v.v.b.=X=Xb.v.v.U.v.U.v.U.U.U.U.U.U.P.U.U.U.U.U.b.7XU.U.U.U.U.7XU.U.7XU.7X=XU.I.7X7XI.=X7Xv.v.I.7Xv.7X=X7Xv.*X7Xv.*X*X*X*X=X*X*XU.*X*X*X*X*X7X*X7X*X*X*X*X*X7X7X7XI.7X*X7X7X<X*X7X<X7X<X<X:X*X7X7X<X<X*X7X<X3X3X<X4X2X<X4X4X4X2X4X<X3X2X7X4X5X7X6X7X7X5X6X5X5X5X5X6X5X5X5X5X5X7X6X5X5X5X6X5X5X7X6X5X5X5X5X5X5X5X5X5X5X6X6X7X6X7X7X6X6X6X7X6X6X6X6X2X6X6X3X6X0X:XJ.c.D.P.;X3X:X0X;X:X:Xc.j.) n.F.T.F.k.T d e i i d i i s i  .s s l L L I I Y L K C l i u l K E ~ R K s i 9 i  .0  .0 d  .q  .l d s s l K C K l l  .l K C K K K K L L L L R L R L L W L E L ~ E R L ~ / >.7.V.V.V.V.V.7.7.7.7.7.C.Z.~.0.C.C.C.C.C.C.Z.Z.Z.oXoX!.oXoXZ.Z.oX`.oXoXoXoXoX'.oXoXoX$XoX$XoX'.$X$X$X#X&X$X$X$XoXoX$X&X.XOXXXXX$X&X$X&X$X$X$X$X$X$X$X$X.X.X$X$X$X$X$X$X$XoX$X$X$X$X$X$X$X$X$X$X$X$XoXXX#X&X#XXX#X#X#X#X#X@X$X$X$X@X$XaX#XtXXX#X#XXXXXXX#XXXtXXXaXaXaXXXtXtXtXtXtXtXtXXXXXXXXXXXXXXXtXXXXXXXXXXXXXXXXXXXXXXXXXXXXXXX X X.XXXXXXXXXXXXXXX X X X XoX X XoX X X X XXXXXXX X X X+XXX XXXXXXXXX,X X",
"W ( ( L ( ( ( ( ( ( ( ( ( ( _ ( ( _ ( ( _ _ ' g.m.M.M.k.{ { >.M.m.M.m.UXUX[ [ [ [ } [ [ [ ] { UXk.n.k.l.z.z.z.z.z.z.z.z.z.z.z.z.z.z.z.z.z.z.b.z.z.b.b.z.b.z.b.b.v.b.v.v.v.v.v.v.b.b.v.v.v.v.=X=XU.U.U.v.U.v.U.U.U.U.=XU.U.=X=XU.U.=XU.7XU.U.U.U.U.U.U.U.U.7X=XU.v.7X=X7X=X7XI.U.7Xv.7X7X=X7XI.7X*X*XU.*X7X*X7X*XU.7XU.*X*X*X*X7X*X*X*X*X*X*X*X7X*X*X*X*X*X7X7X7X7X*X*X*X7X<X<X<X7X7X7X<X7X:X7X7X4X<X4X<X4X2X4X2X3X4X4X<X4X2X2X1X6X6X7X2X7X5X5X5X5X7X5X5X5X5X5X5X7X5X5X7X7X5X6X5X5X5X5X5X5X5X5X5X5X5X5X7X5X5X7X6X7X6X6X7X6X6X6X7X6X6X7X6X6X6X6X4X:X>XH.D.H.>X8X8X:X8X:X;Xv.n.` ` c.R.IX~.h.H m m i i i q  .d q i s l C K L L J L K l l s i i l L E W K  .i 9 d i i  .d  .s s s l s s i s l K K K  .K l K K L K l C K J K Z L L E E ~ E L E L ~ E Q L R | } 7.V.C.V.C.7.7.7.7.7.7.C.Z.C.7.C.C.C.C.Z.Z.Z.].Z.oXZ.oXoX].+X!.oX`.oXoXoXoXoXoXoX'.$X.X$XoX$X$X$X$X$X$X&X$X$X$X$X$X.X.XXX$XOX#X$X$X&X$X$X.X.X$X$X$X$XoX$XOX$X$X$XoX$X$X$X$XoX$X$XoX$X$XoX$X$X$X$X$X$X$X#X#X#X#XXX#X$X#X$X@X$X X%X.X$X$XtXXXXXXXXXXXXX#XtXtXaXXXaXXXaX#XXXXXtXXXtXXXXXXXXXXXXXXXtXXX#XaXXX#XXXXXXXXXXXXXXXXXXXXXXXXXXX X X X.X.X.XXXXX XXX X XoXXXoX X+X X X X XXXXX XoXXXoX X X X XXXXXXXXXXXXX",
"W W E W ( W L ( ( ( ( ( ( ( _ ( ( _ ( ) ( _ ' { m.V.M.k.{ { g.m.m.m.m.UX[ { [ [ { [ [ { [ } { { g.n.n.n.z.n.z.z.z.z.z.z.z.z.b.z.z.z.z.z.b.z.z.z.b.z.b.b.b.b.z.b.b.b.b.v.b.v.v.v.v.v.v.v.b.=Xv.v.U.v.v.U.v.=XU.U.U.U.U.v.=Xv.U.U.U.U.U.U.7XU.=XU.U.U.7XU.7XU.U.7XI.7X*Xv.v.U.I.7Xv.I.7Xv.I.*X7X=X*X*X*X*X*X7X*X*X*X*X*X*X*X7X*X*X*X7X*X*X*X7X*X*X*X*X*X*X*X*X*X*X*X7X*X7X7X7X7X*X<X<X7X<X*X7X*X7X2X2X3X<X4X<X3X4X2X7X2X3X<X4X2X4X5X7X2X5X6X5X7X5X5X6X5X5X5X5X6X5X6X5X5X6X5X6X6X5X6X7X5X5X5X5X5X5X5X5X5X6X7X6X6X6X7X7X7X6X7X7X6X7X7X6X7X:X:X6X3X6X:X>XH.c.H.>X8X8X0X:X:X;Xz.` ` n.D.;XW.c.[ H m e d i d q i q l i b K K L V K K K s a s p i s K K L C  .s i i i i i i q  . .s  . .d s s s l K K K K K J K K K C  .l C K C K L Q E ~ ( ( E ( ~ E L Y U Q / } 7.V.V.C.7.7.7.UX7.7.V.7.7.7.C.C.Z.C.Z.].Z.Z.Z.oXZ.oXoXZ.oXZ.oXoXZ.`.oXoXoXoX`.oXoX.X.XoX$XoX$X$X$X$X$X$X$X$X$X$XXX&X$X$X$XXX#X$X&X$X$X$X$X&X$X$X$X$X$X$X$XoX$X$X$X$XoX$X$XoX$X$XoX$XoXoX$X$XoX$X$X$X$X&XXX#XXX#X#XXX$X@X$X X$X X$X$X@XaXaXXXXXXXtX#XtX#XXXXXaXtXXXXXXXXXXXXXXXXXXXXXXXXXXXXXXXaX#XaXXX#XtXtXXXtXXXXXXXXXXXXXXXXXXXXXXXoX.X.XXXXXXXXXoXoXXXXXoX XXXoXXX X XXXXXXX X X X X XXX X XXXXXXXXXXXXXXX",
"( ( W ( W ( ( ( ( ( ( ( ( _ _ _ ( ( ( ( _ _ ' [ m.M.M.k.{ [ >.k.m.m.UXUX{ [ [ } { { [ [ [ [ { { g.n.n.l.n.z.z.z.z.z.z.z.z.z.z.z.z.z.z.z.b.z.b.z.z.b.b.b.b.b.b.b.v.b.v.b.v.v.v.v.v.v.v.=X=Xb.=Xv.U.U.v.v.v.U.v.v.U.U.U.>XU.U.U.U.b.U.U.U.7XU.U.U.U.=XU.7XU.7X7XU.v.7X7Xv.7X=X7Xv.7Xv.=X=X=X7X7X7X*X=X=X*X*X7X*X*X*X*X*X*X*X7X7X7X*X7X7X*X*X*X*X*X*X*X*X*X*X*X*X*X7X*X*X:X:X7X*X<X:X7X2X:X7X*X7X7X2X1X4X2X7X3X2X2X<X2X4X2X4X2X4X3X5X5X5X6X6X7X7X5X6X5X7X5X6X6X5X7X5X5X5X5X5X5X5X5X5X7X6X6X6X7X6X5X5X5X6X5X5X5X7X7X6X6X7X7X7X7X6X6X:X6X6X7X6X6X3X6X:X>Xc.c.J.:X:X0X6X:X7Xv.n.) ` c.R.;XR.l.] H d e i i i i i i  .i K K K K N N N l l i i u p s K K L K  .i i i i 9 i  .i  .s s  .s i s s  .K K K K K K K C l K N C N C C C C L | / / ( / | ( ~ ~ R L R R / >.7.7.V.7.7.} q.q.UX0.7.7.7.C.C.C.Z.Z.oXZ.Z.].Z.oXZ.oXZ.oX].oXoXoXoXoXoXoXoXoXoXoX.X$X$X$X'.$X'.$X$X$X$X$X$X$X&X.X$X&XXXXX&XOX#X$X.X$X$X&X.X.X$X$XOX$X$XoX$XoX$XoX$X$X$X$XoX$X$X$X$X$X$X$XoX$X$X$X$X$X$XXXXXXX&XXXXX.X@X.X$X$X$X X$X$X@XXXXXXXXXXXXX#XtXXXXX#XXXXXXX#XXXXXXXXXXXXXXXXXXXXXXXXXtXXXaX#XtXXXtXXXXXXXXXXXXXtXXXXXXXXXXXXXXX.X XXX XoXoXXXXXXXXXXXXXoXXXXX X XXXXXXXXXXX X XoXXX XXX XXXXXXXXXXX XXX",
"W W ( W ( ( W ( ( ( ( ( ~ _ _ ( ( _ ( ( _ ( ' [ m.M.M.>.{ g.g.m.m.m.m.UX{ { [ ] [ } [ [ [ [ [ UXk.n.g.n.z.z.z.z.z.z.z.z.z.z.z.z.b.z.b.z.z.z.z.b.z.b.b.b.b.b.z.b.v.b.v.v.v.v.v.v.v.v.v.v.b.=Xv.=XU.v.U.v.U.v.U.v.=XU.U.U.U.U.U.U.7X=Xb.7XU.U.7X=XU.U.7XU.7XU.7XU.*X*X*X*X=XI.v.7Xv.7Xv.*XI.7XI.7X*X=X*X*X*X*X*XU.*X*X*X*X*X7X7X7X:X*X*X*X*X*X*X*X*X*X*X7X<X7X*X<X*X*X*X*X*X*X7X*X7X7X<X7X7X=X:X7X<X2X7X<X<X2X<X4X2X1X<X4X4X4X4X4X5X5X5X7X6X5X5X5X7X6X5X5X7X5X5X5X7X6X5X7X6X6X5X5X5X5X5X6X5X6X5X5X5X7X7X5X6X7X6X7X6X7X6X7X7X7X7X7X6X7X:X6X:X2X2X:X>X>XF.c.U.:X8X:X6X=X=Xz.` ) n.T.Y.IXR.l.` m e e i i i i i i s  .K N K l l l s l l s i w i l K I K s i i i i i 9 d i i i i  . .l s s l  .l K L K J K K C l l N K  .C K C L R ~ | ' / ' / / | E R L R | } >.7.7.7.7.UX} } } 7.7.7.Z.Z.7.Z.Z.Z.oXZ.Z.oXoXoXoXoXoXoXoXZ.Z.oXoX].Z.oXoXoX(.oXoX$X'.oX%X$X$XoX$XoX$X$X.X.X.X$X$X.XXX#X$X$XXXXX.X$XOX.XXX$X$X.X.X$X$XoX$X$X$X$X&X$XoX$X$X$X$X$XoX$X$XoX$X$XoX$X$X$X$X$XXXaXXXXXXXXX$X.X$X@X@X X$X@X@X@XXXXXXXXXXXXXXXXXaXXXXXtX#XXXtXXXXXtXXXXXXXXXXXXXXXXXXXXXXX#XXXXXXX XXXXX XXX XXXXXXXXXXXXX X XoXXX X.X.XXXXXXXXXXXXX XoXXXoXoXXXXXXX XXXXXoXXXXX XXXXXXXXXXXXXXX XXX X X",
"W ( W ( W ( ( ~ E E ( ( ( _ _ _ _ ` ( ( _ _ ] [ m.m.M.g.g.{ >.g.m.m.m.g.[ [ [ } [ [ [ [ { [ { { j.z.j.z.j.z.z.z.z.z.z.j.z.z.z.z.z.z.b.z.z.z.b.z.b.b.z.b.z.b.b.b.b.b.b.>Xb.b.b.b.b.=Xb.=Xb.=X=Xb.=Xb.U.b.v.b.U.b.U.U.U.=XU.U.U.U.U.U.U.U.U.U.U.U.*X*X*X*X*X7X*X*X=X7XI.7X=XI.v.7X=Xv.7X7X*X*X*X7X7X*X<X*X7X7X*X*X*XU.*X*X*X7X7X7X*X*X*X7X*X*X*X<X*X*X7X<X*X7X7X*X:X*X=X7X7X=X:X=X:X:X7X7X6X7X7X=X1X7X7X4X7X2X2X2X4X7X7X5X4X5X4X4X5X5X6X5X5X5X5X6X6X5X5X6X5X5X5X5X6X6X6X6X6X7X5X7X5X5X5X5X5X5X5X5X6X6X6X7X6X=X6X7X6X7X7X7X6X7X7X6X7X7X7X6X7X6X6X7XU.v.b.x.=X:X<X1X<XY.v.n.) ` z.=X1XY.R.n.T m e m i d i i i s l K l  .K N l N l K l p w r s K I Y K a d r r r d n i s s s  . .l s s i l  .K l s K Y K K K K s l K K l  .l L ~ ' / ^ ' } / / ~ E L T / / } :.7.7.7.;.} } } 7.7.7.7.C.C.Z.Z.oXZ.oXZ.Z.Z.Z.oXoXoXoXoXoXZ.oX].].oXoXoXoXoXoXoX'.$XoX$X'.$X$XoX$X$X'.$X$X$XoX&X$X$X&X$X.X.X$XoXOX$X$X$X$X$X$X'..X.XOX.X$X$X$XoX.X.X$X$X$X$X$X$X$X$X$X$X.X.XoX%X.X$X$XoX$X$X$X$X%X$X$X%XXX.X@X@X@X$X@XXXXXXXXXXXXXXXXX#XXXXXXX#X#XaX#XXXtXtXtXXXXXXXtXXXtXXXXX#XXXXXXXXXXXXXXXXXXXXXXXXXXXXXXXXX X XoXoX X X XXXXXXX XXXXXXXXXXXXX X X X X X X XXXXXXXXXXXXXXXXXXXXXXX XXX XXXXX",
"( L ( ( ( ( ( ( ( ( ( ( _ _ _ / _ ( ( ( ( _ ' { m.m.M.>.{ { g.k.m.m.m.{ { [ [ [ [ [ } [ [ [ { { n.j.z.j.z.z.z.z.z.z.z.z.z.z.b.z.z.z.z.b.b.z.z.b.b.b.b.b.b.b.b.b.b.b.b.b.v.>Xb.>Xv.b.=Xb.=Xb.b.=XU.U.U.b.U.U.b.U.b.b.U.U.U.U.U.U.U.U.U.U.U.=XU.U.U.*X*X*X*Xv.*XU.7X7Xv.7XU.I.7X7X*XI.I.U.=X=X*Xv.Y.-X*X*XI.*X7X*X*X*X*X*X7X*X7X7X*X*X*X*X*X*X*X7X7X*X*X*X*X*X*X*X:X7X:X7X:X7X7X7X6X7X7X6X7X6X:X:X7X7X7X7X4X2X4X2X4X4X5X4X5X5X7X5X5X7X7X5X6X7X5X6X5X7X5X6X7X5X5X5X5X6X5X5X5X5X5X7X5X5X5X5X5X7X7X5X6X6X6X6X6X6X7X6X6X6X6X7X6X6X6X=X6X6X7X7X6X7X6X6X=Xv.x.U.*X<X4X2X1XI.b.n.` j.v.=X4XIXR.UXU m m e s s i s i s s l C K l l l l K l s s i a K K J J b a p p p r r n s p d s s l  .s i s l l C l l I K K K  .s s s i l N C L E ( / / ' ^ / ( E E | / | / ^ 7.7.7.7.:.7.7.:.7.7.7.7.7.Z.Z.!.oXZ.oXZ.oXoXZ.oXoXoXoX$XoXoXoXoXoXoXoXoXoXoXoXoXoX$XoX$X%XoX%X$XoXoX$X$X$X$XoX$XoX$X$X$XoXoX$X$X$X.X$X$X$X$X$X$X$X.X.X.X$X$X$X$X$XOX$X$X$X$X$X$X$X$X$X$X%X.X$X$X$X$X.X%X$X$X$X$X$XrX$X$X$X.X.X.X@X$X@X$X@XXXXX#X#XXXXXXXXXXXXX#XXX#X#X#X#XtXtXtXtXtXXXXXtXXXtX#XXXXX#XXXXXXXXXtXXXXXXXXXtXXXXXXXXXXX X X X X XXXXX X X X X X X X X X X XXXXX XXXXXXXXXXXXX XXX XXX+XXXXXXX(. XXX,X",
"W ~ W ( ( E ( ( ( ( ( _ ( _ _ _ ( ( ( ( _ _ ' ] m.m.m.g.{ { >.k.m.m.m.g.{ [ [ [ [ [ [ { [ [ { { n.j.j.z.z.z.z.z.z.z.z.z.z.b.z.b.b.z.b.z.z.b.z.b.b.b.b.b.b.b.b.b.>Xb.>Xv.v.v.b.v.=Xb.=Xb.b.b.=Xb.U.U.=XU.U.b.b.U.U.U.U.b.U.b.U.U.U.U.U.U.U.U.U.U.U.*X*X*X*X*X*XU.I.v.7Xv.7X=X=Xv.7X=Xv.7XU.7X7X7XI.-X<X<X<X7X*X*X*X*X7X7X7X7X7X7X7X*X*X*X*X=X*X7X*X:X*X7X7X7X*X7X7X7X:X7X:X:X7X7X7X7X6X7X6X7X6X7X7X7X2X2X2X4X4X4X7X5X4X5X4X5X5X7X6X5X5X6X5X5X5X6X5X5X5X5X5X5X5X5X5X5X5X5X5X5X5X6X5X5X5X5X5X5X6X5X6X6X6X6X6X7X6X7X6X6X6X6X6X6X6X6X:X7X6X6X7X6X7X7XU.U.v.I.<X3X3X2XY.L.l.` j.j.>X6X4XY.x.UXP m m m s s i i s l l  .K l s s  .K K l l i s s K L K K i p s a i w r a s s s s s s s s w i  .K K K K K  .L K s i s K s l K L E / ' ' / ^ ( ~ L I ~ / ' } } / 7.7.7.7.>.:.7.UX7.7.7.~.Z.Z.oXoXoXoXZ.].Z.oXZ.].oXoX$XoXoXoXoXoXoXoXoXoX$X.XoX XoX$XoXoX$X$X'.%X$X$XoX$X$X$X$XoX$X$X$XoX$X$XoXoX&X.X$X.X$X$X$X$X$X$XoX.XoX$X$X$X$X$X$X$X$X$X$X$X$X$X$X$X$X$X%X$X$X$XoX.X.XoX$X$X$X$X$X$X$XXXXX@X$X#X#X#X#X#X#X#X#X#X#X#XXX#XXX#X#X#X#X#X#XtXtXXXtXtXXXXXtXaXtX#XtXtXXXXXXXXXXXXXXXXXXXXXXXXX X X X XXXXXXXXXXXeXXXXXXX X X X X XXX XXXXXXXXXXX+XXX,XXX XXXXX XXX+XyXXX X XyX X X(.",
"( W ( L ( ( ( ( E ( ( | ( _ _ _ _ ( ( ` ( ( ' h.g.m.M.m.g.{ g.m.m.m.m.{ [ } [ [ [ } [ [ { [ [ { j.n.z.j.j.z.z.z.z.z.z.z.z.b.b.z.z.b.z.b.b.z.z.b.b.b.b.z.b.b.b.b.z.b.z.b.v.v.b.>Xb.=Xb.=Xv.=Xb.=Xb.U.b.U.U.=XU.U.U.b.U.U.U.U.v.U.U.U.U.=XU.U.7XU.U.U.U.*XU.U.U.*X=X=XI.7Xv.7X7XI.I.*XU.7XI.I.7Xv.I.*X*X<X*X-X*X*X*X*X*X*X*X7X7X7X*X7X7X*X*X*X*X*X7X<X7X:X*X<X<X<X7X:X*X*X=X:X7X7X6X7X:X7X=X7X:X7X7X<X7X2X7X2X4X4X7X4X4X5X7X4X4X4X5X7X5X5X5X6X7X5X5X5X5X5X5X5X5X7X5X5X5X5X5X5X5X5X5X5X5X5X5X5X7X6X6X6X6X6X6X6X7X6X6X7X7X6X6X6X6X6X7X7X7X7X6X6X6X7XU.U.U.-X4X2X<X<XL.D.n.` ` z.>X6XIXY.F.n.H m e m i i i s s K K K K b p s N C K s s s i s  .L K C s b  .K b s b B K K  .K K s s i l N K l C K L Y  .N l q d s s l K K R _ } / | | E ~ E ~ L E / / } UX:.:.7.7.>.>.7.>.7.7.~.7.0.Z.Z.Z.Z.Z.Z.Z.Z.oXZ.oXoXoX$XoXoXoXoXoXZ.oXoXoXoXoXoX.X.X.XoX$XoXoXoX$X$XoXoX$XoX$X'.$X$X$X$X&X$XoX$X.X$X$X$X.X&X$X$X$X$X$X$X$X$XoX$XOX$X$X$X$X$X$X$X%XoX$X$X$X$X$X$X$X$X$X$X$X.XoX%X.X.X$XrX$X$X%X#X$X$XtXrX#XrX#X#X#XXXaX#X#X#XXX#X#X#X#X#X#X#XaXtXXXtXXXXXXXtXXXtXtXtXtXaXaXXXXXXXXXXXXXXXXXXXXXXXXX X XXX XXXXXXXXXXXXXXXXXXXXX XXX XXX XXXXXXXXXXXXX XXXXX+X XXXXX X X X X(.yX X X X X",
"W W ( E E ( ( ( ( ( ( ( _ _ | _ _ ( ) _ _ _ ' ] m.m.m.m.{ { >.m.m.m.m.{ [ [ { [ [ [ [ [ [ [ [ UXj.j.l.n.z.z.z.z.z.z.z.z.b.b.z.z.z.z.z.b.z.b.z.b.b.b.z.b.b.b.b.b.v.v.v.v.v.b.v.v.=Xb.=Xv.b.b.b.=X=X=XU.U.U.U.U.b.U.b.U.U.b.U.U.U.7XU.=XU.=XU.=X=XU.U.*XU.I.U.*XI.I.v.7Xv.I.7X7X=X=XI.I.v.7X7X*XI.I.=X-X*X7XI.I.I.*X*X*X*X7X7XU.U.<X*X*X*X*X*X*X*X<X7X*X*X*X7X*X7X7X7X7X=X=X=X7X6X6X7X:X:X:X7X7X7X<X7X1X2X<X7X7X2X7X7X4X5X4X4X7X7X6X5X7X5X6X6X5X5X6X5X6X6X6X5X6X7X5X5X5X5X5X5X6X5X6X6X5X5X6X6X7X5X6X6X6X6X6X6X7X6X6X7X6X7X6X6X6X6X:X7X7X6X7X6X=X=XU.U.I.:X3X2X;X-X>Xz.j.) ` z.>X6X4X1XR.UX) s d s i q i  .l K K K  .s i s  .B b s i i  .C L L K C  . .s s s s  . .K K H  .B  .l K s s N N K I K a L C l l s y l C K E / / / / ~ ~ E R L R E | } } } >.7.7.:.7.7.7.q.7.7.7.Z.Z.Z.0.C.Z.Z.Z.C.Z.Z.oXoX].oXoX$XoXoXoXZ.Z.oXoXoXoXoX'..X.X.X.XoX.XoX$X$X.X.X.X$XoX$X.X$X$XOX$X&X$X$X$X&X$X$X$X$XOX$X$XoXoX&X$X$X$X$XoXoX.X.X$X$X$X$XOX$X%X$X$X$X$X$X$X$X%X$X$X$X$X$XoXoX$XoX$X$X%X$X$X#X#X#X#X#XaX#X#XXX#XXX#XrX#X#XXX#XXXaXXX#XXX#X#XtXXXXXXXtXXXXXtXXXaX#XtXXX#XXXXXXXXXXXXXXX#X#XXXXX XoXXX XXXXXXX X XXXXXXXXXXXXXXXXXXXXX XXXXXXXXXXX X X X,XXXXX X X X X XXX X X XyX X X",
"( ( L ( E ( E ( ( ( ( / ( _ _ _ _ ( _ _ _ _ _ h.g.m.M.m.{ { g.k.m.m.k.{ { [ } [ { ] [ } { [ [ UXg.n.h.n.j.z.z.z.z.z.z.z.b.b.b.z.z.b.z.z.z.z.z.z.z.b.b.b.b.b.b.v.b.b.b.v.v.>X=Xv.v.v.b.b.=X=Xb.b.U.b.=Xb.U.U.U.U.U.U.U.U.U.v.U.U.U.U.U.=XU.7XU.7XI.*XU.I.U.I.I.I.*X=X7XI.=Xv.I.I.I.7X=X=XI.7X=X=X=X-X*X<X7X7X*XI.U.*X7XU.7XU.7X7X*X*X7X7X*X*X*X7X7X<X7X*X*X*X<X<X7X7X=X=X7X7X7X7X6X7X7X7X7X7X:X6X<X2X7X7X4X7X7X1X7X4X7X7X7X4X7X4X6X5X5X5X5X7X7X5X7X5X7X5X7X5X5X5X7X5X6X5X5X7X5X5X6X6X5X5X5X7X6X5X6X6X6X7X=X6X6X7X7X7X=X6X6X6X7X7X=X7X7X7X6X7X7X=XU.U.P.2X3X<X*XI.v.z.j.H j.z.>X6XIXY.R.n.) n s i i i i l K L I I K s s s K b s s i l  .L E W  .s l i w d i i i p n s p s s  .K I K K n s l K I E K V K K K l l J L ~ / / | R Y E L R R U ~ | } { } UXUX7.7.:.7.7.7.7.~.Z.Z.Z.Z.~.V.C.C.Z.C.C.Z.Z.oXoXoXoXoXoXZ.oX].oXoXoX$XoXoX$X.XOX.X$X.X$X$X$X&X$X$X.XoX$X$XoX$X$X$X$X$X$X$X$X$X$X$X$X$X$X$X.X$X$X$X$X$X$X.X$X.X.X$X$X$X$X$X$X$X$X$XoX$X$X$X%XoX$XoX$X$X$X$X%X$XoX%X$X$X$X$X$X$X$X#X#X#X#XrX#XXXXXXX#X#XtXXXXXXXaXaX#X#X#X#XaXtXtXtXXXXXtXtXXX#XXXtXtXtX#XXXXXXXXXXXXXtXtXaXaXXXXXXXXXXXXXXXXXXXXXXXXXXXeXtXXXXXtXeXXXXXXX XXXXXXX X X X+X X X X X X X X,X(. X(.(.!. X",
"( W ( ( E ( ( ( _ ( ( ( ( _ _ _ ( _ _ _ ( _ ] ] >.M.M.m.{ { >.k.m.m.m.UX[ [ [ [ } [ ] { } { { h.g.g.l.l.z.z.z.z.z.z.z.z.b.b.z.z.z.b.z.b.z.z.b.z.z.b.z.b.b.b.b.b.v.b.v.b.b.b.b.v.b.b.b.=Xb.b.b.=XU.U.U.b.b.U.b.7XU.b.U.b.v.U.U.U.U.U.=XU.U.U.7XU.U.*X=XU.I.U.I.*X*X=XI.7X=X7X7X7X7X7X7X7XI.U.7X=X=XI.*X*X*X*X*X*XU.U.U.*X7X7X*X*X*X*X*X*X*X*X*X7X7X*X*X*X*X:X7X7X6X=X=X7X:X7X6X7X6X:X7X7X7X6X7X:X7X<X2X7X7X7X2X7X7X7X4X7X4X7X4X7X6X5X7X7X6X5X7X6X5X5X7X5X5X5X5X6X7X5X5X5X5X5X5X5X5X5X5X7X5X5X7X6X6X6X6X6X6X7X7X6X6X7X6X7X6X=X6X7X7X7X7X6X6X7X7X=XU.U.I.2X<X-X-XI.v.z.j.) j.>X6X6X4X1XR.m.W m p i i i i  .I E E I K s s s  . . .s s  .L E L W  . .K s s s  .s  .l s p a d i p n N s K E } { ' R T K C l N l C K L R R | | Q R Q U L ~ R Q R / } :.} :.:.7.{ 7.7.7.7.~.Z.Z.Z.Z.Z.7.C.C.Z.Z.Z.Z.Z.oXZ.oXIXoXoX].oX].oXoXoXoXoX$X$X'.XX.X.XOX.X$X.X$X.X$X$X$X$XoX'.$X$X$X$X$X$XdX$X&X$XOX$X$X$X$X.X$X$X&X$X$X$XOX.X$X.X.X.XOX$X$X$X&X$XoX$X$X%X$X$XoX.XoX$XoX$X$X$X$X$X X$XoX%X$X%X$XXXXXXX#X#XaX#X#XXXXXXXXXXX#XXXXXXX#X#XaXXXXX#X#XtXXXtXtXtXtXtXtX#XtXXXtX#XXXtXXXXXXXXXtX#X#XtXXXXXXXXXXXXXXXXXXXXXXXXXXXXXXXXXXXXXXXXXXXXX X XXXXX X X X X X X(. XoX X X X XoX X,XXX X X",
"~ ( W ( ( E E E ( ( ( ( _ ( | _ ( ) ( ( ( ( _ ] k.M.M.m.{ { g.m.m.m.m.{ { [ [ } [ [ [ [ [ [ { { n.h.n.n.z.z.z.z.z.z.z.z.z.b.b.b.z.z.b.z.b.b.z.b.b.b.z.b.b.z.b.v.b.b.b.b.v.b.=Xv.=Xv.b.b.b.=X=Xb.U.U.U.U.U.U.U.U.U.7XU.U.U.v.U.U.U.U.U.=XU.7XU.7X=XI.I.*XU.U.I.*XI.7X*X7X7Xv.7Xv.=Xv.I.v.U.7Xv.7X-X-X*X*X*X*X*X*X7X*XU.*XU.*X*X*X*X7X*X*X*X*X*X7X7X7X*X*X*X*X:X<X7X7X:X7X:X7X7X6X7X7X6X7X:X:X7X7X<X<X7X4X2X2X2X4X2X7X5X4X4X5X7X7X7X5X5X6X7X5X5X5X5X5X5X6X5X5X7X6X6X5X5X5X5X5X5X5X7X5X5X6X7X5X5X7X6X6X6X6X7X6X6X7X6X6X7X6X7X6X7X=X7X6X6X6X6X6X:X:XU.P.=X<X<X-XI.-X>Xj.) ) z.>X>X0X8XY.R.l.) n s p q q s L L E E R W  . .s s s s s  .C K K L  .C l K s p s s s s s b n K K b p i r b s J I U L R } / / | C C P Q ~ E Q R ~ / Q R R L L R | / / / } 7.7.} } :.7.V.7.7.Z.Z.Z.oXZ.Z.Z.C.Z.Z.].Z.Z.oXoXoXoXoXoXZ.Z.oXoXoXoXoXoXoXoXoX$X.XXX.X.X$XOX$XoX$XoXoX$XoX$XoX$X$X$X$X$X&X$X$X$X$X.X$X$X.X$XOX$X$X$X$X$X$X$X.X$XoXoX.X$X$X$X$X$X$X$X$X$X$X$X$X$X.X$XoX.X%X$X$X$X$X$X$X$XoX$X%X$X.XXXXX#X#X#X#X#X&XXXXXXXXX&XXXXX#X#X#XaXaX#X#XaXtXtXtXXXtXtXtXXXtXXXaXXX#XtX#XXXtX#XXXXX#XXXXXXXXXXXXXXXXXXXXXXXtXXXyXXXXXXXtXXXXXXXXX X X X XXX X XXX X XXXXX,X X XoX,X(. X XoX X X XXX",
"( ( ~ ( ( ( ( ( ( ( ( ( ( ( _ _ ( ( ( _ _ _ ' [ k.m.V.m.g.{ { m.m.m.g.g.{ { [ [ [ [ [ { [ [ { UXg.n.h.z.z.z.z.z.z.z.b.b.z.z.z.z.z.z.b.b.z.z.b.b.z.b.b.b.b.b.b.b.v.b.b.v.v.v.v.b.v.b.=Xb.b.=Xb.=Xb.=Xb.7Xb.U.b.=XU.v.U.v.U.U.U.7XU.I.=XU.=XU.I.U.U.*XI.U.=XI.*X*X7XI.7X7XI.I.7XI.*X7X7X7XU.*X*X*X=X-X*X*X-XI.*XI.I.=X7X7Xv.7XU.7X*X*X*X*XI.*X*X7X*X*X*X7X7X*X<X*X:X:X7X7X6X=X7X:X7X7X6X7X7X7X6X6X2X2X2X4X4X4X4X4X5X7X5X4X5X7X4X4X5X6X5X7X6X5X5X5X5X5X5X5X5X5X5X5X5X5X5X5X5X5X5X5X5X5X6X5X5X6X6X5X6X6X6X6X6X7X6X7X7X6X6X6X6X7X7X6X6X7X6X7X2X2X:X*XU.U.=X;X;X:X<XY.v.z.) ) j.>X>X0X6X>X>Xg.) a r r 9 i K L E E R E K l  .N s b K K r l V V K b v v s s t r t v s n b N K C b s K T I J P P V V A T / } 7.UX/ R / / ^ } / A S / / Q L ~ R ~ / } / / / / q.UX7.7.7.Z.Z.Z.Z.Z.Z.C.C.C.Z.Z.Z.Z.Z.oXZ.Z.oXoXoXZ.oXZ.$X$XoXoXoXoXoXoX$X$X$XoX$X$X$XoX$X$X.XoX$XoX$XOX$X$X%X$X$X$X$X$X$X&X$X$XoXoXoX$X$X$X$XoX$XoX$X$X$X$X$XoX%X$X$XoX$XoX$X$XoX$X$X%X$X.X.X.X%X$X%X$X$X$X%X@X$X@XXX$X.X$X.XXX$X@X$X#XrXaX#X#XXXXXXXXX#XXX#X#XaX&XaXtX#X#X#XtXtX#XXXtX#X#X#XXX#XXXtXXXXXXXXXXXXXXXXXXXXXXXXXXX#XtXtX#XXXXXXXXXXXtXXXXXXXXXXXXXXXXX X X XXXXXXXXXXXXX X X X X X X!. X XoX X X XXXXX",
"( W ( ( ( ( W ( ( ( ( ( ( ( ( _ ( ( ( ( ( _ ' ] k.m.M.m.g.{ g.>.m.m.g.{ { { [ [ { [ [ [ [ { { { g.n.n.l.z.z.z.b.z.b.z.z.z.z.z.z.b.z.b.z.b.z.b.z.b.b.b.b.b.v.b.v.b.v.v.b.b.v.v.v.v.=Xb.=X=Xb.=Xv.U.U.U.=X=XU.b.U.v.=XU.U.U.U.U.U.I.U.I.I.I.I.U.U.I.*XI.=XI.I.*X*X7X=XI.=XU.=X=XI.=X7Xv.v.=XU.*X7X-X=X*X:X*X*X*X*XI.7XI.=X7X7X*X*X*X7X7X:X*X*X*X*X7X*X:X7X<X*X7X7X:X7X:X:X:X7X7X6X6X7X6X7X:X6X6X7X4X7X2X2X2X4X4X2X5X7X5X7X4X4X7X5X7X5X6X5X6X5X5X5X5X6X5X5X5X6X5X5X5X5X5X5X5X5X5X5X5X5X5X5X6X5X7X5X7X6X6X6X7X6X6X7X6X7X7X6X7X6X6X7X6X6X7X6X2X2X:X=XU.U.=X:X;X1X<XY.v.j.H ) M.>X>X0X0X>XS.g.E H  .K W L l  .L I L L I C s s l N s s t l K V J v t t r i t u a N V K J N s N J R | / } / R ~ / R T U Q l j U / ~ Q L V A e 3 M A R A ~ R R / q.} q.UX/ #.} :.7.~.C.V.Z.Z.Z.Z.C.Z.C.Z.Z.oXoXoXZ.oXoXoXZ.oXoXZ.oXoXoXoXoXoXoXoXoXoXoX$X$X$X$X$X$X$X$X$X.X.XoX.X$X.X$X.X|.$X$X$X$X$X$X$X$X$X$XoX$XoX$XoX$X$X&X$X$X$X$X'.'.oX$XoX$X$X$X$X$X%X$X$X$X$X$X$XoX$X$X$X$X$X$X$X.X.X$X$X@XXX@X@X@X@X@X@XXX#X$XtX#X#X#XXX#XXXXXXXXX#XXXaXaXtXaX#X#XtXXXtXtX#XtXtX#XXXXXXX#XtXtXXX#XXX#XXXXXaXXXtX#X#X#XXXXXtXXXXXXXXXXXXXXXyXtXXXXXXXXXXX XXXXXXXXXXXXXXXXXXXXX X X X X X X X X XXXXXXXXX",
"( L ( ( ( ( ( ( ( E ( ( ( ( ( ( _ ) ( ( ( _ _ ] g.m.M.m.g.{ g.g.m.m.m.g.{ [ } [ { { { } [ { { { g.h.l.l.z.z.b.b.z.z.z.b.z.z.b.z.z.z.b.b.b.b.b.b.b.b.b.b.v.b.v.v.v.v.b.v.v.v.v.v.b.=X=Xb.v.=Xb.=Xb.U.b.b.U.=X=XU.=Xv.U.U.U.U.U.U.U.=XU.=XU.I.U.=X*X*X*X*XI.I.=X*X7XI.=X7X7X7X=X7XI.=XI.I.*XI.*XU.I.-X*X*X*X*X-X*X7XI.=X7X*X*X*X*X*X7X7X7X7X*X*X:X<X7X*X7X*X7X7X:X=X:X=X7X7X7X:X7X6X7X:X7X:X7X6X7X7X7X2X7X2X4X2X4X7X5X7X5X5X4X5X4X5X5X7X5X5X5X5X5X5X5X5X5X5X5X5X5X5X7X5X5X5X5X5X5X5X5X5X5X7X5X7X6X6X7X6X6X7X6X6X7X7X6X7X6X6X6X7X7X6X6X6X7X6X:X2X*XU.U.P.-X;X<X;XT.z.j.H ) z.>X6X0X:XY.S.j.W i i s i l L E / ' ' R J l e 2 w i l j u l y u y u e t u u y v M B V V y l C L R Y J l y M V R A A U / U Z U A 3 2 e j v A G U M j M A Z R Q ~ G P T / 7.q.q.UX7.~.Z.Z.~.0.0.~.C.C.Z.Z.Z.Z.Z.Z.Z.Z.Z.oXoXIXd.oXoXoXoXoXoXoXoXoXoX$X'.$XoX$X'.$X$X$X$X$XOXoXoXoX$XoX.X.X$X$X$X$X&X$X$X$X$X$X$X$X$X$X$X$X$X$X$X$X$X$X$X$XoX$X$XoX$X$X$X$XoX$X$X$X$X$X$X$X.X.X$X$X$X$X$X$X@X@X@X@X@X#X#X#X#X#X#X$X#XXXXX#X#X#X#X#XXX#X#X#X#X#X#X#XXXXXXXXXXX#XXX#X#X#XaXtXXXXX#XtX#XtX#XtXXXtXXXaXtX#X#XXXtX#XtXXXXXXXXXXXXXXXXXXXXXtXXXXXXXXXXX XXX,XXXXX XXX XXXXXXXXXXXXX XXX X XXX XXXXXXXtXXX",
"( ( ( ( ( ~ ( ( E E ( E ( ( ( ( _ ( ( ( _ ( ' ] m.m.m.m.g.[ >.m.m.m.k.UX{ [ { [ { { { [ { [ { { g.l.l.n.z.z.z.b.z.b.z.z.z.z.z.z.b.b.b.b.b.b.b.b.b.b.b.b.b.v.b.b.b.b.v.b.v.v.v.v.b.b.b.=X=Xb.=X=X=XU.=XU.b.b.7Xb.v.U.U.v.U.U.U.U.I.U.I.U.I.=XI.U.I.*XI.U.U.I.I.*X7X=XI.7Xv.7XI.=XI.*X*X=X=X7X*XI.-X=X-X*X<X<X*X:X*X*X*XI.*X*X*X*X*X:X7X<X<X*X7X7X7X<X*X*X*X*X*X7X7X7X7X7X=X6X7X7X7X:X6X7X6X7X7X6X7X<X<X2X2X2X4X2X5X7X5X5X7X4X7X4X5X6X6X5X7X6X5X7X7X5X5X5X5X5X5X5X5X5X6X6X5X5X5X5X6X6X5X5X5X7X6X6X7X6X6X7X6X6X7X6X6X6X=X6X=X7X6X6X:X6X:X6X2X<X:X*X=XH.J.=X-X3X2XP.z.` H ` z.>X0X0X8X>XS._  .d i i i  .L C  .l q ; o @ - @ - @ o o o @ o - 2 2 4 2 ; 1 2 2 q y y j C V A C l j j l Z A C A Z R V A Z V L Q / Q A - 4 4 M Q S A g 3 A S Q / UXq.G G T } 7.0.d.Z.C.7.7.~.0.Z.Z.Z.C.Z.Z.Z.Z.oXoXZ.oXoXd.Z.oXoXoXoXoXoXoXoX'.oX$XoX%XoX$XoX$XoX$X$X'.$X.X.X$X.X$X$X$X$X$X$X$X$X$X$X$X$X$X$X$X&X$X$X&X$X$X$X$X$X&X$X$X$X$X$XoX$XoX&X$XoX$X$X$X$X$XrX$X$X$X$X$X$X$X$X$X$X$X$X$X@X#X#X#XrXaXaX#XrX#X#X#X$XrX#XrX#X#XXX#X#X#XaX#XXXtXaX#X#XXX#XtXXX#XtXXXtXaXtXtX#XtX#XaXXXaXtXaXXX#XtX#X#X#X#X#X#XXXXX#XXX XXXXXtXtXXXtXXXeXXXXXXXXX XXXXX X XXX XXXXXtXXXXXXX XXX XXXXX XXXXXXXtX",
"( ( ( ~ ( ( ( ( ( W ( ( ( ( ( ( _ ( ( _ ( ( ' ] g.m.M.m.g.{ >.k.m.m.k.{ { [ { [ { { { } [ { { { h.n.n.n.n.z.z.b.b.z.z.z.z.z.z.z.z.b.b.b.b.b.b.b.b.b.b.b.b.b.b.b.v.b.b.v.v.b.v.b.b.v.=Xb.=Xb.=Xv.b.U.b.U.=X7Xb.=XI.v.U.U.v.=XU.U.U.I.U.*XI.=XU.I.I.=XI.U.U.U.=X*X7Xv.7Xv.7Xv.U.I.v.=X7XI.*X*X*X=X=X*X*X<X-X<X*X<X=X7Xv.7XI.7X*X*X*X7X:X7X*X*X*X*X7X*X*X*X*X*X*X7X7X7X7X7X:X6X:X7X7X7X7X:X6X7X6X7X<X7X7X2X7X7X4X2X7X5X5X5X7X5X5X7X5X6X7X5X5X6X5X6X6X5X5X5X5X6X5X5X5X5X5X5X6X6X5X5X6X7X5X5X6X7X6X6X6X7X6X7X6X6X6X6X7X6X=X=X=X6X7X7X6X6X6X:X:X:X:X:XT.H.H.=X-X:X:XP.b.j.H j.z.>X0X0X3X-Xc.` v v l l K l 9 ; o o @ o @ - @ - @ @ @ - @ : : 3 M j j 3 M j M z j M j M V A C M j M A A C A Q ~ / / ^ 7.:.q.:.^ A A Q ^ A A j A ! / F A j A A F G ^ q.} q.#.q.7.q.UX7.Z.Z.0.Z.Z.Z.C.Z.C.Z.Z.].!.oXoX!.oXZ.Z.oXZ.oXoXoXoXoXoXoXoXoXoX$XoXoX$XoX&X$X$XoX$X$XoXoX$XoX&X.X$X$X$X$X$X$X$X$X$X$X$X$X$X$X$X$X$X$X$X$X&X$X$X$X$X$X$XoX$X.X.X.X$X$X$X$X$X$X$X$X$X$X$X$X$X$X$X$X$X@X$X#XrX#X#X#X#X#XaXaX#X#XaX#XaX#XaX#X#X#X#X#X#XaXaXXXaX#X#X#X#XtX#XtXXXtXtXtXaXaXtXtXXX#XtXXX#XaX#X#XaXaX#XtXXXXX#X#X#XtXXX#XXXXXXXtXXXXXtXXXXXXXXXXXXX X X X X XXXXXXXXXXXXXXXXXXX X,XXXXXXX X,XXXXXXX",
"( ( ( ( ( ( ( ( E ( ( ( ( ( ( ( ( ( ( ) E ( ' ' g.m.M.m.g.{ >.k.m.k.m.k.{ { [ [ { { { [ [ { [ { g.n.n.n.z.z.z.z.b.z.b.z.z.z.z.z.z.z.z.b.b.z.b.b.b.b.b.b.b.b.b.b.v.v.v.v.b.v.v.v.b.v.b.v.b.=Xb.=X=XU.=X=XU.b.=Xb.v.7XU.U.=Xv.I.U.U.=XI.I.I.I.=XI.U.U.U.U.U.I.I.*X=XI.I.I.7X=X7XI.7X7XI.7X*X*X*XI.-X-X*X*X*X*X*X*XI.7X7X=XI.=X*X*X*X*X7X7X*X*X*X*X7X:X*X*X*X*X*X*X:X7X7X7X7X=X6X7X6X:X7X7X:X7X7X6X2X7X7X7X4X4X4X2X5X7X7X5X5X7X5X5X7X5X6X7X5X7X6X6X5X5X7X5X5X6X5X5X5X5X5X5X5X6X5X5X7X5X5X5X6X6X6X6X6X6X6X6X7X6X6X7X7X6X7X7X7X=X6X6X6X7X6X7X:X7X:X:X>XK.H.>X=X;X;XY.z.` H j.z.>X0X6X;XT.l.) m r s s l 0 % + o * % - @ o o o - - 4 4 A S Z A S Z Z Z S Z S A A A A A j A Z Q Q S Z M j A Q ;.7.0.0.7.7./ T / Q M 4 u A M A j u u A S A S Q ^ G ^ :.q.q.q.q.7.7.7.:.:.7.~.C.Z.C.C.Z.C.C.Z.Z.Z.!.oXoXZ.oXoXZ.|.oXoXoXoXoXoXoX$XoX$XoXoX$XoXoX$X$XoX$XoX$X$XoXoX$X$X$X.X$XoXoX$X$X$X$X$X&X$X$X$X$X$X$X$XoX$X$XoX$X$XoX$X$XoX$XoX&X$X$X$X$X$X$X$X$X$X$X$X$X$X$X$X$X%X%X$X@X#X#X#X$X@XXX#X#X#X#XaXaX#X#XaX#X#XaX#X#X#X#X#XtXtXXX#XaX#XtX#XtXXXXXtXtXtXXXaXXXXXXXtXXXtXtX#XtX#X#X#XXXtXXXtXtXXXXXtXtXtXtX#XXXXXXXXXXXXXXXXXXXXXXX X X X X X X XXXXXXXXXyXXXXXXXXXXXXXXX,X X XXX XXX",
"( ( ( ( ( ( ( ( E ( ( ( ( _ ( ( ( ) ( ) ( ( _ ' UXm.V.M.g.g.g.m.m.m.m.UX{ { } { [ { { [ [ [ { { h.n.n.n.n.z.z.b.b.b.b.z.b.z.z.z.z.z.z.b.z.b.b.z.b.b.b.b.b.b.b.b.v.v.v.b.v.v.b.b.v.b.=Xb.v.v.=Xv.U.b.7Xb.b.=XU.U.v.v.7Xv.v.7XU.=X=XI.I.U.U.=XU.=XU.I.U.I.U.I.I.=X7X=X=XU.v.7X*X7X7XU.7XI.*X*X*XI.=X-X*X-X*X-X*X*X7Xv.v.*X7XU.*X7X*X*X*X*X*X*X*X7X*X*X<X*X7X7X*X7X:X=X7X=X:X7X:X=X:X7X7X:X7X:X7X7X2X7X2X2X4X7X4X7X7X5X7X5X5X5X5X5X5X7X7X5X5X5X5X5X7X5X5X5X6X5X7X5X5X5X5X5X5X5X5X5X6X5X5X5X6X6X6X6X6X6X6X6X6X7X6X7X6X=X=X6X6X7X6X6X:X6X6X7X:X:X:X2X=XJ.H.U.T.-X;XT.z.j.H j.b.>X6X6X;XL.n.H m n M s u 6 @ % % o o X - - 3 j A A A j k A h 4 3 4 4 4 g 4 g g h j h k A S Z A Q Q F V A A Q ~ Q A A j j 4 - 4 e 4 3 3 4 4 4 4 4 4 g M u 3 h Q q.q.q.q.q.q.q.q.0.7.7.7.7.~.0.0.Z.C.C.C.C.Z.Z.Z.Z.oXZ.Z.oXZ.oXIXoX|.oX|.oXoXoXoX$XoX'.oXoX$X$X$XoX$X&XoXoX$XoX$X$X'.$X$X$X$X$X$X$X$X$X$X$X$X$X$X$X$X$X$X$X$X$X$X$XoX$XoXoX$X$XOX.X$X$X$X$X$X$X$X$X$X%X$X$X$X$X$X$X$X$X$X$X@X@X@X@XXX@X$X$X#XrXrX#X#XaXaXaX#X#XaX#X#X#X#X&XXX#X#X#X#X#X#XtX#X#XXXXXXXXXXXXXXXtXXXXXtX#XtXXXtX#XtX#X#X#X#X#X#X#XXXXXXXtXXXtXXXXX,XXXXXXXXXXXXX X X XXXXXXXXXXXXXXXyXXXXXXXXXXXXXXXXXXX XXX X X X X",
"~ ( ( ( ( ( ( ~ ( E ( E _ E ( ( ( ( ( ( ( ( ' ] k.m.M.M.k.g.>.k.M.k.7.UX{ [ [ { { { [ [ [ [ { h.g.h.n.n.z.z.z.z.z.z.b.b.b.z.z.z.z.z.b.z.b.z.z.b.b.b.b.b.b.b.b.b.v.b.b.v.b.v.v.v.v.=Xb.=X=Xb.b.=Xb.7Xb.U.=Xb.7Xb.7Xv.v.v.7Xv.U.U.I.I.=X*XI.=XI.I.U.I.=XI.U.U.U.I.7Xv.7XI.I.7X=X7X=XI.7X=X*X*X*X*X*X*X=X-X*X*X*XI.I.7X7X=X7X7X*X7X<X7X<X*X*X*X7X*X7X*X7X<X<X7X<X<X7X:X7X6X7X7X6X7X7X7X:X6X7X6X7X6X2X7X7X2X7X4X4X4X5X5X7X5X7X5X7X5X5X5X7X6X7X5X6X7X6X5X7X6X5X5X5X5X5X5X5X5X5X5X5X5X7X5X5X5X6X6X6X6X6X6X7X6X7X6X7X6X7X7X6X=X7X6X7X6X6X6X6X:X2X:X:X<X=XJ.H.J.U.=X;XY.v.j.) j.v.>X6X6XT.S._ m e n N a % o X o @ ; 3 l M A S A j k S ! ! ^ #.;.%.#.^ ^ F S A A z h g 4 3 j j j j A Q ^ #.^ F A h h 4 4 - , - - @ - 4 - u 3 4 4 - 4 4 - 4 g g 4 y F :.0.^ q.} } q.7.7.q.0.7.~.Z.Z.Z.C.C.].Z.oXZ.Z.Z.Z.].oXoXoXoXZ.IXd.IXoXoX$X'.$X$X$XoX$X$X$X$X$X$XoXoX$XoX$XoX$X$X$X$X%X$X$X$X$X$X$X$X&X$X$X$X$X$X$X$X$X$X$X$XoX$XoX$X$X$XoXoX.X$X$X#X$X%XoX%X$XoX$X$X$X$X%X$X$XoX$XoX.X@X$X$X$X$X#X#XXX$X#X#X$X#X$X#XaX#XaX#XaX#X#X#XXXXXXXXX#XtXtXtXXXtXXX#XXXXXXXXXXXXX+XXXXX#XXXXXtX#X#X#X#XtX#XtXtX#XtXXXXXtXXXtXtXXXXXXX X XXXXXXX X X X XXXXXtXXXXXyXXXXXXXXXXX X X X XXXXXXX X X X X X",
"( W ( ( ( ( ( ( ( ( ( ( ( ( ( ( ( ( ( ) ( _ _ h.{ M.M.M.k.{ >.m.m.m.m.{ { { { { [ [ [ ] [ [ { { g.h.n.n.z.z.z.b.b.b.z.b.b.z.z.z.z.b.b.z.b.z.z.b.b.z.b.b.b.b.v.b.H.v.v.v.v.v.v.v.U.U.H.U.U.v.H.U.7Xb.U.v.U.U.U.U.U.U.U.U.U.U.=XU.=X=XU.U.7Xv.7X*X*XI.v.7X7XI.v.7XI.7Xv.7X*X*X*X*XI.I.I.7XI.I.=X7X7XI.7XI.7XI.7XI.*X*X*X*X*X*X*X*X7X-XY.7X7XI.Y.7XI.7X7XI.I.7X7X7X:X:X7X<X7X:X7X2X<X2X<X<X2X<X2X2X1X<X7X2X2X2X2X2X7X7X7X3X4X4X2X2X7X5X5X7X5X5X7X5X5X6X7X5X5X6X5X5X5X5X5X5X5X5X5X5X5X7X7X5X6X6X7X5X6X6X6X7X6X7X6X=X6X=X6X=X6X7X6X6X6X7X7X7X6X=X=X6X=XU.L.H.x.*X2XI.b.` H n.R.8X8XW.F.n.H d r u 8 % X o - 3 y A Z Z A A Q Q ^ q.q./ ^ / Q G Q F A A A A G Q k k A h 4 3 3 j h M A A S ^ q.q.#./ F G A j M A u 4 j j 3 j A Z j 3 4 3 3 @ : g 3 4 3 Q 7.q./ / q.G q.0.q.7.q.7.oXZ.C.Z.C.Z.Z.Z.oX!.Z.].Z.IXoXZ.Z.oXoX%XoX.XoX$X$X$X$X$X$X$X$X$XoX$XoXoXoXoX$XoX$X$X$X$X$X$X$X$X$X$X$X$X$X$X$XoX$X$X$X$X$X$X$X$X$X$X$X$X$X$XoX$XOX.X$X#X$X$X$X%XoX$X$X$X.X%X$X$X$X%X$X.XXXXX&X#X#X#X#XaX&X$X$X$X$X$X$X$X#X#XtX#X#X#X#X#XXXXXXXXXtXtXaX#XXXXXXXXXXXXXXXXXXXXXXXtXtXtXXXXXXX#XXX#X#XXX#XXXaX&XtXXXXXXXXX#XXXXXXXXXXXXXXXXX XXX XXX XXXXXXX#XXXXXXXXX X X XoXoX X X X X X X X X X X",
"( ( ( ( ( ( ( ( ~ ( W ( ( ( ( ( ) ( ) ( ( _ ( h.g.M.M.M.g.>.g.m.g.m.m.{ { { [ [ { { { { { [ { h.g.n.l.n.n.z.z.z.z.b.z.z.z.z.z.z.z.z.z.z.z.z.v.z.b.b.b.v.v.b.v.v.v.v.v.v.v.H.v.v.H.U.U.U.U.U.U.U.U.=XU.U.U.U.U.U.=XP.P.I.U.=XU.I.I.U.U.U.v.v.=X=Xv.7X*XI.v.7Xv.I.=XI.7X7X7X*X*X=X=X7Xv.=X=XI.7Xv.7X=XI.7X=X7X7X=X*X*X*X*X*X*X*X*X-X7X7X7XI.7X7X7X7X7X7X7X7X7X7X7X7X7X<X7X:X7X<X7X2X7X2X7X7X<X7X<X<X7X7X<X<X2X2X4X2X4X7X2X4X4X4X4X6X5X5X6X7X5X5X5X5X5X5X5X5X7X7X5X5X5X5X5X5X5X5X5X5X5X6X5X7X5X5X7X6X6X6X6X6X7X6X=X=X6X=X6X=X7X6X7X7X6X7X=X=X=X6X>X0XI.x.b.x.L.7X*Xz.j.` j.l.z.N.l.m._ p 7 i N 9 ; q j z M A Q / / G / / F S R Q S M h u j A A A Q F A S A A A S A j j j u h 4 4 g g h A / q.q.^ G q.#.G A k j A A 4 A q 3 F ~ A A j : - - 4 3 4 4 G / G q.^ F A G 7.C.V.7.>.Z.C.0.C.C.Z.].Z.oXoXoXZ.d.d.oXoXoXoXoX.X.X$XoX$XoX$XoX$X$XoX$X$X$X$XoX$X$XoX$X$X$X$X$X$X$X$X$X$X$X$X$X$X$XoX$XoXoXoXoXoX$XoX$X$X&X$X$X$X$X$XoX.X.X$X$X$X$X$X$X$X%X$X$X.X$X$X$X$X$X$X$X$X#X#X#XrXtX&X$X$X$X.X$X$X$X$X$X#X#X#X#X#XtX#X@XtXXXtX#X#XtX#XtXtXXXXXtXXXtXtXXXXXtXXXtXtXXXXXXXXXXXaXXX#X#X#XXXXXXXtXXXXXXXtXtX#X#XXXXXXXXXXXXXXXXXXXXXXXXXXXtX@XXXXXXX X XoXoX X X XXX X X X X X XXX X",
"W ( ( W W ( ( ( ( ( ( ( ( _ ( _ ( ( ( ( ( _ _ _ >.M.C.M.k.{ g.>.m.m.m.{ { [ { [ { { [ [ [ { { UXl.h.j.l.z.z.z.z.z.z.b.z.z.z.z.z.z.z.z.b.b.b.b.v.v.b.v.b.b.v.v.b.v.v.v.v.v.v.U.H.U.v.U.v.H.U.U.v.U.U.U.v.b.U.U.U.P.U.U.U.P.I.U.I.*XU.U.U.v.7Xv.I.7X7Xv.*X*X=X7X7X=X7X7XI.*X*X*X7XI.*X7X7X*X7XI.7XI.7X7X=X7XI.=X7X<X7X7X*X7X*X*X*X7X-X7XY.7X*X7XI.7X7X7X7X7X7X7X7X*X7X7X<X7X*X<X<X7X<X<X7X7X<X7X<X7X7X7X<X2X2X2X2X4X4X7X4X4X5X4X4X5X5X5X5X5X6X5X7X7X6X6X7X5X5X6X5X5X5X5X5X5X5X5X5X5X5X5X5X5X7X5X6X6X6X6X6X6X7X7X6X7X6X6X7X6X6X6X6X6X7X7X7X>X7X=X7X=XU.x.x.v.I.-XP.z.` H j.S.R.N.l.UXk.k.} I p a C 3 j A Q / S A g 3 j j g 3 g j g h 3 4 4 4 3 3 4 4 : 4 4 : 4 4 g A A j e 3 4 u g j g h A A G #.q./ q.q.| A 4 4 M A z A A y S / A A g j - o 4 4 3 , g A G #.G A A Q :.7.oX7.7.C.C.C.C.Z.Z.Z.Z.Z.Z.Z.Z.Z.oXoX$XoXoX.X$X$X$X$X$XoX$X$X'.oX$X$X$XoX$X$XoX$X$X$X$X$X&X$X$X$XoX$XoX$X$X$XoXoXoX$XoXoXoX$XoX$X$X$X$X$X$X$X$X$X$X.X$X$X$X$X$X$XoX.X.X$X.X$X$X$X$X$X$X$X$X$X#X#X#X&X#X#X$X$X$X$X$X$X$X$X$X#X#X#X#X#X#X#X#XtXtXXXtXtXtXtX#XtXtXXXtXtXXX#XtXtXtXtXtXtXtXtXXX#X#X#X#X&XtXXXXXXX#XXXaXtX#X#XaXXXtXXXXXXXXXXXXXXXtXXX@XXXXXtXXX@X@XXX X X XoX X X XXXXX X X X XXX XXXXX",
"( ( ( ( ( ( ( ( ( ( ( ( ( ( ( _ ( ( ( ( ( ( ] h.g.M.M.M.UX{ g.k.k.m.m.{ { } [ [ [ { { [ [ { { h.g.h.l.n.n.z.z.z.v.b.z.b.z.z.z.z.z.b.z.b.z.b.b.z.v.z.b.b.b.v.v.v.v.v.v.v.v.H.v.U.U.U.U.U.v.U.U.U.U.b.U.U.U.U.U.U.U.=XU.U.U.I.=XU.U.=XU.U.7Xv.7X=X=XI.7X=Xv.I.=X=XI.=XI.7X*X*X*X*X=X*XU.7X=X*X7XI.v.7XI.=XI.7X=XI.*X7X:X7X*X7X<X7X-X7XY.7X*X7X7X7XI.7X7XI.7X7X7X7X*X7X<X<X7X7X7X2X<X7X<X7X*X7X<X7X<X<X7X7X7X7X2X2X2X7X4X7X7X7X4X4X7X6X5X7X5X5X6X6X5X5X5X5X5X7X5X5X5X5X5X5X6X6X5X5X7X5X7X5X5X5X6X5X6X6X6X6X6X7X6X=X6X=X6X7X=X6X7X=X6X6X6X6X6X>X7X7X6X:XP.b.b.I.;XT.U.` ) ] F.E.G.N.W b a l K l j q / A 3 2 - ; 4 - 3 3 g 3 3 3 4 j 3 3 3 4 g j A h g A A A h j 4 g - : 4 4 u 4 g u j A j h h j U G q.7.7.q.q./ F A M A A A A A A :.^ A u - 4 @ - - 4 , 4 M G / ! A g Z / 0.oX;.V.Z.Z.C.C.Z.Z.oX!.oXoXoXoXZ.Z.Z.oX$XoX.X.X$X$XoX$X$X$XoX$X$X$X$X&XoX$X$X'.$X$X$X$X$X$X$X$X$X$XoX$X$X$X$X$X$X$X$XoX$X$X$X$X$X$X$X$X$X$X$X$X$X$X.X$X$X$X$X$X.X$XoX.X.X$X$X$X$X$X$X$X$X.XXX$X#X#X#X#X$X$X.X$XoX$X$X$X$X#X#X#X#X#X#X#X@XtXXXtXtXXXtXXXtXXXXXXXXXXXXX#XXXtXXXXXtXXXtXtXXXrX#XtXXXXXXXXXXXXXXX#XXX#X#XtXaXXXXXXXXXXXXXyX+XXXtX@X@XtXXXXXtX@XXXXX X X X X XXXXXXXXXXXXXXXXX+X XXXXX",
"( ( ( ( ( ( ( ( ( ( ( ( _ _ _ _ W ( ( ( ( _ _ ] g.M.B.M.>.g.g.k.m.m.k.UX{ [ [ { { [ [ { [ [ h.k.g.n.h.n.z.z.z.z.z.b.z.z.z.z.z.z.z.z.b.b.v.z.b.b.b.b.b.z.v.v.b.v.v.v.v.c.v.v.v.U.v.v.=Xv.v.U.U.H.U.U.U.U.U.U.U.U.U.U.U.U.U.U.U.U.U.=Xv.=Xv.7X7XI.v.I.I.7X7X7X7XU.7X=X7X*XI.7X=XI.=X*X=XI.=X7X7X7X7Xv.=X=XI.=X7X=X*X*X*X*X*X7X7X*X7X-X*X-X7XI.7X*X7X7XI.7X7X7X7X7X7X7X<X<X7X7X<X<X:X:X*X7X:X7X*X<X<X7X<X7X<X2X<X2X2X2X2X2X2X2X4X4X5X7X5X6X5X5X5X5X5X5X5X6X5X6X5X7X5X6X7X5X5X6X6X7X5X7X5X5X5X5X5X5X6X6X6X6X6X6X6X7X=X6X7X7X7X6X6X6X6X6X6X6X7X=X7X7X*Xv.b.c.F.>X8XT.z.h.j.h.S.G.m.W n r r 0 ; @ ; u 2 4 - 4 u M k j j j j M k M h A A A A k A A A M A Q Q S #.q.S R G T Q A j j h 4 - 4 4 4 4 3 4 4 A G ^ G Q F T G A G R S S A 3 A A Q Q A u o o - 4 - 4 4 3 A F A j - A A C.C.V.V.Z.C.C.C.oXoXZ.oXoXoXoXZ.Z.Z.Z.%XoXoXoX$X$X$XoX$XoX$X$X$X$X$X$X$X$XoX$X$XoX$X$X$X$X$X$X$XoX$X$X$X$X$X$X$X$X$X$XoX$X$X$X$X$X$X$XoX'.$X$X$X$X.X$X.X$X$X%X$X$X%X.XoX.X$X$X$X$X$X.X$X.XOX$X$X$X$X.X&X.X.X.X.X$X$X$X$X$X$XXXXX@XXX@X@XXXXXXXXXXXXXXXXXXXXXXXXXXXXX#XtXaXXXXXaXaXtXtXXXtXXXtXXXXXXXXXXXXXXXtXXXaXXXtXXXXXXXXXXXXXXX XXX%X XXXXXXXXXXXtXXXXX X X X XXXXXXXXXXX@XXXXXXXXX,X X XXX",
"( W L ( ( ( ( W ( ( ( ( ( _ _ _ j.( ( ( ( ( _ ] g.m.V.M.g.g.>.m.m.m.m.k.{ [ [ { { { { [ { { { h.h.n.l.n.n.z.z.z.z.z.z.z.z.z.z.z.b.z.b.z.z.b.b.z.z.v.z.>Xb.b.v.b.v.c.c.v.v.v.H.v.v.H.U.U.U.U.v.U.U.v.U.v.U.U.U.U.H.U.U.H.U.U.U.U.=Xv.7Xv.v.I.v.7X7X7Xv.v.7Xv.=XI.v.I.v.7X=X7Xv.=X7Xv.7X7X=XI.*X7X7X7XI.I.U.7XI.7X*X*X*X7X*X7X*X7X-X7X-X7X7X7X7X7X7X7X7X7XI.7X7X7X*X<X<X7X*X7X7X<X7X7X7X*X*X7X<X7X<X<X7X7X<X7X2X2X7X2X2X7X2X2X2X7X5X5X5X5X5X7X6X5X5X5X5X5X5X6X5X6X5X6X6X6X5X7X5X5X5X6X5X7X6X7X6X5X6X6X5X6X6X6X6X6X6X7X6X=X7X=X=X6X6X6X6X7X=X=X=X7X6X*XP.U.J.S.R.R.J.h.W d < = $ 5 , $ @ 2 0 3 q u e 3 u u 3 3 4 u 3 2 4 4 4 : - : 4 4 4 j k A S G h h j j A F A F P G / q.#./ G U A A A h h M j A 4 4 4 h j A A j j j j j 3 A A 3 A A A A S M 4 @ $ @ 4 e 4 3 A S Q 3 j : k >.7.0.C.C.C.Z.Z.Z.oXZ.oXIXoXZ.oXoXoXoXoXoX$XoXoX$XoX$X$XoX$X$X$X$X$X$X$X$X$X'.$X$X$X&X$XoXoX$X$X$X$X$X$X$X$X$X$X$X$X$X$X$X$X$X$X$XoX$X$XoXoX$X$XoX.X.X$X$X.X$X$X$X$X.X$X$X$X%X$X$X.X.X.X.XXXXX.X.X.XoXoX.X.X.X$X$X$X$XXXXXXXXXXX XXXXXXXXXXXXXXXXXXXXXXXXXXXXXXXaXtX#XXXaXXXXXXXaXtXaXXXXXXXXXXXXXXXXXXXXXXXXXtXXXXXXXXXtXXXtXXXXXXXXXXXXXXX@XtXtXXXXXXX XoX X X X XXXXXXXXXXX XXXXX XXXXXXX X",
"( ( ( ( W ( ( ( ( ( ( ( ( ( _ ~ ( ( ( ( ( _ ' ' g.M.M.M.k.g.>.m.m.m.m.UX{ [ { [ [ { { [ [ { { g.g.n.j.n.z.z.z.b.z.z.z.z.z.z.z.z.z.z.z.b.z.v.b.b.b.b.b.b.b.v.v.v.v.c.v.c.v.v.v.v.v.H.v.U.=Xv.H.H.U.U.U.U.U.v.U.U.U.U.U.H.U.U.U.U.v.7Xv.7X7Xv.7XI.=XI.7X7X=XI.I.7Xv.7Xv.*X*Xv.=XI.7X7XI.v.v.7XI.=X7XI.7X7XI.7X=X7X*X*X7X*X7X*X*X7X*X<X*X<X7XI.7X7X7X7X7XI.7X7X7X7X*X7X7X<X7X:X7X<X7X<X7X<X<X7X7X<X<X<X7X<X7X2X<X2X2X2X7X4X2X2X2X4X6X7X7X6X6X7X6X7X5X6X7X5X5X5X5X5X5X6X5X6X5X5X6X7X5X5X6X6X5X5X7X5X6X6X6X6X6X6X6X6X=X6X=X6X6X7X7X6X:X6X6X=X7X=X=X=X=X-X=XD.R.;X9X8Xh.d   = d r 8 2 0 0 2 q q 0 2 - 4 2 3 3 3 4 4 4 4 4 3 A S Q ^ ^ ^ ! Q G G ! ^ ^ #.q.q.Q F T F G G T A A A G G :.#.G T M j y A A A A k h 4 4 g A j Q M 4 A h 4 A j A M j M 2 - - @ O + - 2 3 z A Z A 4 3 - z #.V.7.V.Z.].oXoXoX.XZ.d.Z.oXoX%XoXoXoXoX$X$XoX$X$X$X$X&X$X$X&X$X$X$X$X$XoX$X$X$X$XoXoXoX$X$X$X$X$X$X$X$X$X$X$X$X$X$X$X$X$X$X$XoXoX$XoX$XoX$XoX.X.X.X.X$X$X$X$X$X$X$X$X$X$X$X$X%X.X.X$XXX$X.X.X.X.XoX.XXX$X.X$X$X$X$X#X#XXXXXXXXXXXXXXXXXXXXXXXXXXXXXXXXXXXXXaX#XtXtXaXXXXXXXXXXXXXXXXXXXXXXXXXXXXXXX#XXXXXXXXXXXXXXXXXXXXXXXXXXXXXXXXXXXXXXXXXXXXX X X X X X X XXX XXX X XXXXX X X XXX XXXXX",
"W ( W ( ( ( ( ( ( ( ( ( _ _ _ _ ( ( ( ( ( _ _ _ >.M.M.M.>.g.g.k.m.m.m.k.{ { [ [ [ [ [ [ [ [ { h.g.j.n.n.z.z.b.b.z.b.z.z.z.z.z.z.z.z.b.b.b.b.b.z.b.b.b.b.b.v.b.v.v.v.v.v.v.v.H.U.v.v.v.U.v.v.>XH.U.U.U.v.U.U.U.U.U.U.U.U.U.U.U.I.7Xv.I.v.v.7X=X=X7XU.v.*X=X*X7Xv.I.7X7X=X7X7X*X7XI.v.v.7X7XI.=X7X7X=Xv.I.=Xv.7XI.<X<X7X:X7X*X*X*X<X7X<X*XI.7XI.7XI.7X7X7X7X7X7X7X7X:X2X7X7X:X<X2X<X7X<X7X7X7X2X7X2X2X2X2X2X2X2X2X7X2X4X4X4X7X7X4X5X5X5X5X5X5X6X5X5X6X5X5X5X7X5X5X5X5X5X5X5X5X5X5X6X6X5X5X7X7X5X7X7X6X7X6X7X6X7X6X6X=X6X=X=X7X=X6X6X6X6X:X=X=X=X7X*X:X;XJ.T.;Xk.5 = 5 s d f & 8 8 2 2 2 2 3 q q j e 4 2 4 e 3 u 3 j j 3 3 j 3 3 j k j j A A A S S G T ! Q G G F Q G G G #.^ q.q.^ ^ q.q.q.q.G F k g h A A G A j h h g g k A u j j 3 A 3 j A 3 2 u - @ @ - : ; 3 j j S M 3 : q z V.0.C.oX!.Z.C.V.V.Z.Z.Z.Z.d.7.d.~.oXoXoX$X$X$XoX$X$X$XoXoX$X$X$X$X$X$X$X$X$XoXoX$X$X$X$X$X$X$X$X$X$X$X$X$X$X$X$X$X$X$XoX$XoX$X$X$X$XoX$XoX$X.X$X$X.X%X$X$XrX$XrX$X$X$X$X$X$X$X.X.X.X$X$X$X$X$X$X$X$X$X$X&X#X#X&X$X#XrX#XXXXXXX@XXXXXXXXXXXXXXX#XXXtX#XaXtX#XtXXXXXXXXXXXXXXXXXXXXXXXXX X XXX XXXXXXXXXXXXXXXaXXXXXXXXXXXtXXXXX,XXXXXXXtXXXtX XXX XXX X X X X X X X X XXX X XXX X X XXXXXXX",
"W ( ( ( ) ( E ( ( ( ( ( ' ' _ _ j.W ( ( ( ( _ ] g.m.V.M.g.g.g.>.m.m.m.k.{ { { [ { [ [ [ [ { { { g.g.z.j.v.c.b.b.b.b.b.z.b.z.b.z.z.z.z.z.b.b.b.b.b.c.b.v.v.v.v.v.v.v.v.v.v.v.v.v.v.U.U.U.U.U.K.U.v.v.U.U.U.U.U.U.U.v.v.U.H.U.U.U.v.7Xv.I.7X7X*X=X7Xv.v.7X7X=X*Xv.I.=X7X*XI.7X7Xv.7Xv.I.7Xv.I.=XI.v.I.=X7X*X*X<X7X*X*X7X*X=XI.*X*X<X<X<X<X*X*X*X*X7X*X*X*X7X7XI.7X*X<X<X:X*X7X*X<X7X<X7X<X7X<X2X<X2X<X<X7X7X4X2X2X4X7X2X2X4X2X4X4X7X5X5X6X5X7X5X5X5X5X6X5X5X5X5X5X5X5X5X5X6X5X5X5X6X5X5X5X5X5X5X7X6X7X6X6X6X2X6X6X6X7X6X:X6X:X:X6X6X:X6X:X=X7X6X=X:X8XF.;XW.W = = d 9 9 0 f f ; ; 2 2 2 0 3 q 3 3 - , 4 2 4 2 4 3 4 4 4 4 3 j j j h M j j j j k A U A j A G ! ^ q.G q.q.q.^ ^ +.q.G #.#.q.q./ q.q.q.G U h g A A A F G j - : j A Q Q A A l Z M u q y - o @ @ 3 - j k 3 Q A - 3 Z k ^ V.Z.C.C.oXoXoXoXZ.oXoX%XoXZ.oXoXoX$X$XoXoX$X$X.X.XoX$X$X$X$X&X$X$X$X$X$X$X$X$XoX$X$X$X$X$X$X$X$X$X$X$X&X$X$X$X$X$X$X%X$XoX%X$X$X%X.X.X%X$X$X$X.X.X.X$X$XrX$XrX$X$X$X$XrX$X$X$X$X#XrX&X#X#X#X#X#X#XrX#X#X#X#XaXaXaX#X#X#XaXXXXXaX#X#XrXtXtXtXtXXX#XtXXXXX#XtX#XXXXXXXXXXXXXXXXXXXXXXXXXXXXXXXXXXXXXXXXXtXXXXXXXyXXXXXXXXXtXXXXXXXXXXXXXXXXX XXXXXXXXX X X X.X XXXXXXXXX X X X XXXXXyXXX",
"( ( W W E E ( ( ( ( ( _ ( ( ( ' ( ( ( W ( ( _ _ >.m.N.M.{ h.>.g.m.m.k.g.{ { { { { [ [ [ [ [ { g.g.z.h.z.z.z.z.b.b.z.z.z.z.z.z.z.z.b.b.b.b.z.b.z.c.c.b.b.b.v.v.v.v.v.v.H.v.H.v.H.v.U.H.U.U.v.U.U.U.U.U.U.U.U.U.U.U.=Xv.=XU.I.=XU.=Xv.7X=Xv.v.I.7X7X7X7XU.=XI.7X7X7X7X=X7X7XI.7Xv.7X=X=Xv.7XU.7X*X7X7X=XI.*X*X*X*X*X*X*X*X*X*X*X7X7X<X<X*X*X*X*X*X*X7X7X7X*X7X7X7X*X7X7X7X7X*X7X<X<X7X7X<X7X7X<X2X2X<X7X7X7X7X7X4X7X4X2X4X2X4X2X4X6X5X5X5X5X5X5X7X7X5X7X6X5X5X5X5X6X5X5X5X6X5X5X7X5X5X5X5X6X7X6X5X7X6X5X6X5X2X6X6X=X:X6X7X:X7X7X:X6X6X6X6X=X=X7X:X;Xc.8XW.H = f  .w f * * & ; 6 0 ; 1 ; 3 ; - ; - 2 4 4 , : - ; 2 3 u j M A A A Z A A S G G ! ! ^ G q.7.q.! Q ! #.q.+.G G q.q.q.q.q.q.q.q.q.q.G A A G q.G G A A F A G } q.G j - 4 A / ^ / / ~ L M 3 2 - - @ 2 2 2 A C 3 Z A 2 C j 3 V.Z.#X.XoXZ.$XoXC.7.:.:.7.0.oXoX&XoX$X$X$XoX$X$X$X$XoX'.$X$X$X$X$X$X$X$X$X$X$X$X$XoX$X$X$X$X$X$X$X$X$X$XrXdX$X$X$X$X$X$X$X$X$X$X$X$X.X$X$X$X$X$X.X.X$X$X$XaX$XrX$X$X$X$XrXrX$X#X#XrXrX#X#X#X#X#X#X&X$X#X#X#X#XaX#XaX#XaXXXaXaX#XaXrXaXaXtXaXaXaXaXtX#XtX#XtX#XXXtXtXXXtXXXXXXXXXXXXXXXXXXXXXXXtXXXtXXXXXtXXXXXXXXXXXXXXXtXtXXXyXXXtXXXeXXX X X XXXXXXX XXXXX XXXXXXXXX X X X XXXXXXXXX",
"( ( E ) ( ( E ( ( ( _ | _ ( ( ' ( ( ) ( ( j.( ] g.k.M.M.g.{ g.k.m.m.k.g.{ { { [ [ [ [ [ [ { g.h.g.j.h.h.j.z.z.b.z.b.z.b.z.b.b.z.b.z.b.b.b.z.b.z.c.b.b.b.v.b.v.v.v.v.H.v.v.v.v.>XU.v.U.v.U.U.U.U.U.U.U.U.U.U.U.U.I.=X*X=XU.U.U.I.v.7Xv.7X7XI.=Xv.U.=XI.I.I.7X7XI.7Xv.=X7X=X7XI.I.=X*X7X7X7X=XI.7X7X=X7XI.7X*X*X*X*X*X*X7X*X*X*X*XI.<X7X-X*X*X*X*XY.7X7X7X7X7X*X7X*X*X7X7X7X7X<X2X<X7X7X7X7X7X<X2X2X2X2X7X7X2X4X2X4X2X4X2X7X5X4X4X5X5X5X5X5X5X6X6X5X6X7X5X5X5X5X5X5X5X5X5X5X6X5X6X5X5X5X5X5X5X5X7X6X5X5X6X6X6X7X7X6X7X:X7X7X7X:X7X6X>X>X:X6X:X:X=X-X;X>XW = d 8 = ; * 0 q 0 ; ; @ - ; ; ; - : ; 2 2 4 e j j M j j A A A A Z Z Z Z A A j j u 4 4 g j A Q A j h A h G G G G G @.q.q.q.q.q.q.q.0.0.u.7.G A A U G F T A G A A q.Z.0.S -   o j ~ ^ :.7./ R - @ o - - - 3 g 3 q k 3 3 k : ^ V.C.Z.aXoXC.;.Q Q A u j e j T Z.dXoXoXoXoX$X$XoXoX$X.XoX$X$X$X.XOX$X$X$X$X'.oX$X$X$X$X$X$X$X$X$X$X&X$XdX$X$X$X$X$X$X$X$X$X$X$X$X$X.X$X.X$X$X$X.X.X$X$X$X$X$X$X$X$X$XaXaX$X$X#XaX#XrXrXrXaX#X#X#X#X#X#X#XdX#XaX#X#X#XaXaXaX#XrXrXrXaXaXaXaXaXaXaXtX#XaXtX#XaXjXtXtXtXtXtXtXtX#X#XtXXXtXtXXXtXtXXXtXXXtXXXXXXXXXXXXXyXXXXXXXXXyXXXXXXXXX X X X X XXXXXXX@XXXXXXXXXXXXX XXXXXXXyXXXXXXX",
"_ ( E ( E ( _ ( | ( ( _ ( _ _ ( j.( ( ) ( ( ( _ g.k.M.M.g.;.>.g.m.m.m.g.{ { { { { { [ [ [ { { g.g.h.z.z.z.z.z.z.z.z.z.b.z.z.b.z.z.b.b.z.b.b.b.b.v.b.v.v.v.v.v.v.v.v.v.v.H.v.v.v.H.v.U.U.U.U.U.U.U.U.v.U.U.=XU.U.U.U.I.U.I.U.U.U.=Xv.7Xv.7Xv.7Xv.=XI.7X=X=X=XI.7XI.I.*X=X7XI.=X7Xv.I.v.I.I.=X7X7X*X*XI.7X*X*X*X*X*X<X*X*X*X*X*X*X*X<XI.<X*X*X*X7X7X7X7X7X7X*X7X*X:X7X<X<X<X2X2X2X2X<X<X7X<X<X2X2X4X2X2X2X7X2X7X2X2X2X7X4X4X4X4X7X7X6X5X7X5X5X6X5X6X6X5X5X7X5X5X5X5X6X5X5X5X7X6X6X5X5X5X5X5X5X5X5X7X6X6X6X2X7X2X7X:X7X6X7X7X6X6X7X6X:X:X:X=X:X:X:XT.,X` 5 d 9 9 6 0 0 ; f ; @ @ * @ ; ; 2 ; 0 q q 2 , - @ @ @ - 4 2 3 3 4 4 : - - : - 4 3 k M A A A S G A G ^ ^ Q S G ^ G F A A G F / #.^ G G G G q.q.q.q.q.G G G #./ G G A j / Z.].7.k o   @ j V } V.7.} 3 o - 4 j 3 j 4 j l 4 l k : C.V.Z.oX>.7.^ Q A / / 0.7.q.A < 0.fXoX$XoX$XoX$XOXoX.X$X$X$X.X.X$X$X$X$X$X$XoXoXoXoXoX$X$X$X$X$X$X$X$X$X$X$X%X$X$X$X$X$X$X$X$X$X$X.X$X$X$X$X$X$X$X$XrXrX$X$X$XrX$XrX$XaXaXaXaX&X#XrX$X#X#X#X#X#X#X#X#X#X#X#X#X#X$XaXXXaXaXaXrXrXrXrXaXaXaXaXaXaXtXaXtX#XaXtXtXtXjXXXjXtXtXtXtX#XtX#XtXtXaX#XtXtXXXtXtXtXXXXXXXXXXXXXtXtXtXXXXXXXXXXX X X X X X XXX@X@X@X#X@XXXXXXXXXXXXXXXXXXXXXXXXX",
"_ ( E ( ( ( _ ( | _ ( ( ( _ _ | _ ( ( ( ( _ _ ' g.m.M.m.g.[ >.m.m.m.m.UX{ { { [ [ { [ [ h.{ g.g.g.h.l.j.z.z.z.z.z.z.b.z.z.b.b.b.b.z.z.b.b.z.b.b.c.v.v.b.v.v.v.v.v.U.H.v.v.v.v.=XH.U.H.U.U.U.U.U.U.U.U.U.U.U.U.U.I.U.=XU.U.U.U.U.I.v.7Xv.7XU.U.7X7Xv.=X7XI.7X=X7Xv.7X7X7XI.7X=X7X7Xv.7X7X*X*X*X=X7X*X*X*X7X*X*X7X7X*X*X*X*X*X*X7X*X*X<X*X*X*X7X*X7X<X7XY.7X*X7X7X<X7X7X7X2X2X6X6X2X2X2X2X7X2X2X4X2X2X2X2X4X7X4X2X4X2X2X2X7X7X4X4X7X5X5X6X5X7X5X5X5X5X5X6X7X5X5X5X5X5X5X5X5X6X5X6X5X5X5X5X5X5X6X6X2X6X2X6X6X6X6X7X6X7X7X7X:X7X6X6XI.:X:X=X=X;X;XR.9Xg.d d i ; 8 e ; & - % * o * ; ; ; 1 ; 0 ; ; ; - @ , - 4 e v M z j j l j j j A Q F / :.:.#.^ ^ A A A A u 4 u 4 4 4 4 4 4 g h A k F G q.q.q.q.+.G T G T G ^ G / G A A A ^ q.S - : ^ oXZ.Q X X X 2 M Q C.Z.:.A - - 4 3 g j l g 3 j : ~ C.Z.^ :.~ u } oXrXoX$XoX$XdXq., oX$X%X$XoX$X$XoX$XoX$X.X$XOX$X$X$X$XoX$X$X$XoXoX$X$X%X$X$X$X$X%X$X$X$X$X$X$X%XoXoX$X%X$X$X$X.X$X$X$X$XrX$X$X$X$X$X$X$X$XrX$X$XrX$XaX$X$XaXrXrXrX$X&X#X#X#X#X$X#X#XaX#X#XtX#X#X#XtX#XaXaXaXrXrXrXrXrXtXaXtXaXaXtX#XtX#XtXtXaXtXaXaXXXtXtXXXXXaXtXaXtXtXtXtXaXaXaXtXtXtXtXXXtXtXtXtXjXtXtXtXtXXXXXXXXXXXXXXX XXX@X@XXX@X@XXXXXXXXXXXtXXXXXXXXXXXXXXX",
"( E ( E ( ( ( E ( ( _ _ _ _ _ _ _ ( ( _ _ _ _ ' >.k.M.m.g.>.g.g.m.m.k.UX{ { { { { [ { [ { g.g.g.z.j.h.z.j.z.z.z.b.z.z.b.z.z.z.b.z.b.b.b.b.b.b.z.v.b.c.v.b.b.v.v.v.v.v.v.>Xv.U.v.U.H.U.U.U.U.I.U.U.U.U.U.U.U.U.=XU.U.U.I.U.U.K.K.v.7XI.7Xv.I.=Xv.=XI.*X7Xv.7XI.7X*X=XI.I.I.=XI.I.I.=X7Xv.U.*XI.=X*X*X*X*X7X*X*X*X:X<X<X*X*X*X*X:X:X7X<X<X7X*X7X7X7X7X7X7X*X7X7X7X7X<X2X2X2X2X4X2X4X4X2X7X7X2X2X2X4X2X2X4X7X4X4X2X2X2X4X4X4X4X4X7X5X6X6X5X5X5X5X5X5X5X5X5X5X5X5X5X5X5X5X5X5X5X5X6X5X5X5X5X5X5X5X7X7X2X6X2X7X7X7X6X7X6X7X6X6X7X7X7X*X2X2XU.H.:XwX9Xl.d 5 0 9 y 2 @ @ @ ; ; ; & % ; ; ; & * ; ; * o - 2 3 3 3 e 3 u A C Q >.7.S A A A M M j u 4 - @ 4 - - - 4 - 4 4 4 j 4 4 h g 4 4 h g g j k F A A G +.q.G G G G G #.G F h h A +./ h - o Q Z.Z.~ o X 2 q A Q C.Z.C.Z 4 : - ; z g q 3 4 u j C / Z ,.oXoXoXZ.oXoXZ.Z.Z.Z.oXM &XoXoX$XoXoX$XoX.X'..X$X$X$X.X.X$X$X$X$XoX$XoX$X$X$X$X$X$XoX$X$X$X$X$X$X$XoXoX$X$X$X$X$X.X$X%X$X$XrXrXrXrXrX$X$X$X$X$X$X$XrX$X$X$X$X$X$X$XrX$X$X#X#X#X$X$X#X#X#X#X#X#XrX#XXX@X#X#XaXtXaXaXaXaXrXrXtX#X#XtXtXtXtXtX#XaX#XXXaXXX#XtXtXtXtXtX#XtX#XtXtXaXaXtXtXtXaXaXtXjXtXtXtXtXtXtXtXaXtXtXtXtXtXtXtXXXtXXX@X@XXXXX@X@XXXtXXXXXXXXXXXXXXXXXtXXXtX",
"( E ( E ( E E ( ( ( ( ( _ _ _ _ ( ( ( _ _ _ _ ' { m.m.m.g.[ >.g.m.m.m.k.{ { { { { [ { [ h.g.g.g.j.z.z.j.z.z.z.b.z.b.z.z.z.b.z.b.b.b.z.b.b.z.b.z.b.b.b.b.v.b.v.b.v.H.v.U.v.U.v.U.H.K.U.U.U.U.U.U.U.U.U.U.U.=XU.U.U.U.*XU.U.U.U.U.v.=XU.=Xv.7Xv.7X*Xv.I.v.v.I.v.7XI.I.*X=X=X7X*X=Xv.I.7XI.U.*X=XI.7X*X7X7X*X*X7X7X7X*X7X7X*X*X7X*X<X<X<X<X:X7X*X<X7X*X7X*X7X7X7X7X7X<X<X2X7X2X2X2X2X2X2X<X<X2X<X<X2X2X7X2X4X2X7X4X5X7X4X2X7X4X4X7X5X5X5X5X5X5X7X5X5X5X5X5X5X5X5X5X5X5X5X5X5X6X6X5X5X5X5X5X5X7X5X6X2X6X6X6X7X7X:X7X6X7X6X7X7X7X:X6X5XU.>X0XwX0Xl.H < = % 0 9 0 @ 2 ; ; ; * $ @ ; 2 % & * * @ @ @ ; , @ @ @ - 4 M A Z j 3 3 - o - : ; 4 : 4 u j A A A 3 3 u j j u 4 @ - 2 2 j j A A k A A j h 4 4 g 4 h A G ^ q.q.q.^ / q./ A h Q ^ ,.>.z o o Z :.7.j o X : 4 2 A 7.oX;.A - - j 3 q 3 q ; : - : q C.$X#X$XZ.oX.XoX$XdXZ.oXq.q.&X$XoX$X$X.X.XoX.X$X$X$X$X$X$X$X$X$X$XoX$X$X$X$X&X$X$X$X$X$X$X$X$X$X$X$X.X.X%X$XrX$X$X$X$X$X$X$XrXrXaXrX$X$X$X$X$X$X$X$X$X$X$X$X$X$XaXrX$X$XrXrXrX#X$X$X#X#X#X#XaXrX&X#X#X$X#X#XrX#XtXrXaXaXrXrXtXrXrX#XaX#XaX#XtXaXaXtXtX#XtXtXtXtXtXtXaX#X#XaXtXaXtXtXaXtXtXjXtXaXaXtXtXtXtXtXaXtXaXtXtXtXtXXXeXtXXX@XtX#X@XXX@X@X@XXXXXXXXXtXXXXX XXXyXtXXX",
"W ) ( ( E ( _ ( ( ( ( | _ ( ' _ _ ( ( ( _ _ ( ' { g.m.g.g.{ g.m.m.M.m.{ { { { { { [ [ [ { g.g.g.j.j.z.z.z.z.b.z.b.z.b.z.z.z.b.z.b.b.b.b.b.b.b.b.b.b.c.b.b.b.b.v.v.v.v.v.U.H.U.U.U.U.U.U.U.U.U.U.U.U.U.U.U.U.U.=XU.U.U.U.I.U.U.U.7X7Xv.=XI.I.7Xv.7X7X7X=X=Xv.*X7X7X*X7X7X7Xv.7X7X7XI.7X=X*X*XI.I.I.*X*X*X*X7X*X7X*X7X*X*X*X*X*X7X<X<X2X<X7X<X7X<X7X7X7X7X*X7X<X2X*X7X7X2X<X2X2X2X2X7X<X7X<X7X7X7X7X1X7X7X7X7X4X7X4X4X7X4X4X4X7X4X7X5X6X7X5X5X5X5X5X5X6X5X5X5X5X5X5X5X5X5X5X5X5X5X6X5X5X5X5X5X5X7X6X6X6X7X7X:X6X7X6X6X6X6X6X7X7X7XU.4XwX>Xj.< . . . 9 0 1 ; + $ X @ * 2 0 2 ; + * ; ; ; * @ + * ; @ - e j v u 3 3 @ : 3 2 3 u g : - 2 3 3 3 4 - - - - - - 4 3 4 4 j j 3 4 4 - 4 4 S A A A A j h A k h h 4 4 k F G q.G G q.q.A h 4 S ,.C.~ 4 X o g 7.Q 3 @ - M - @ Z Z.Z.7.z X : - - g 3 3 3 3 4 X @ Q C.oXaXZ.Z.oX%Xd.Z.$XP dXZ.$XoX.X$X$X.XoX$X$X$X$X&X$XOX$XoX$X$X$X$X$X$X$X$X$XoX$X$X$X$X$X$X$XoX%XoX$XrX$X$X%XrX$X$X$X$X$XrXaXaX$X$X$XrX$X$XrXrX$X$X$X$X$X$XaXaX$X$XrXrXrXrX#X$X#X#XXXaXXX#XrX#X#X#X#X#X#X#X#XrX#XtX#X#XrX#XrXaXtXtX#XtXtXtXaXXXtXtXaX#X#XaXtX#XtXaXaXtXaXaXaX#XXXtX#XXXaXXXXXtXtXtXtXtXaXtXtXtXtXXXXXXXXXXXXX@X@XtX@X@X@XtXtXtXXXtXtXtXXX X XXXXXXXtX",
"( ( ( E ( ( ( ( ( ( ( ( _ _ ( ] ( _ _ ( ( _ ] ] [ g.g.g.g.>.g.g.M.M.m.g.g.{ g.g.[ [ >.[ g.g.g.g.g.g.g.z.z.z.z.z.z.z.v.z.z.z.z.z.z.b.b.b.v.b.b.b.z.>Xb.b.b.b.v.v.v.U.U.U.v.U.U.U.H.H.v.>XH.U.U.U.H.>XU.U.>XU.U.U.U.U.U.>X>XU.=XU.*XU.*X=X=X=XP.U.=X=X=X=XI.=XI.=X7X*X-X*X*X-X<X<X*X*X*X*X=XI.*X=X*X-X*X<X<X7X<X<X<X<X2X<X-X7X:X<X2X2X2X2X<X7X<X2X7X<X<X7X7X7X<X7X7X*X<X<X7X<X7X2X:X2X2X7X7X<X7X<X7X<X<X7X<X2X2X2X7X4X2X4X7X4X2X5X5X2X7X5X2X5X2X5X5X5X5X5X5X6X6X7X5X5X5X5X7X7X5X7X2X2X4X5X4X4X4X5X7X4X7X7X7X<X7X4X6X>X6X6X6X6X=X5X2X8XJ.<   < = f 7 f * + o o o @ 0 0 ; ; * o * o @ * * * * * ; 0 2 e q ; ; - ; ; 3 f ; : ; ; : ; A A j j 3 3 3 3 g 3 4 4 4 4 4 - 4 g g h A h M k 4 4 : 4 h A A k A F F k x A k h k G G X.:.d.0.q.Z g h #.Q 3 - O @ A ;.L - ; C j X 3 ,.C.C.>.3 @ j 3 : 4 : 4 h g : - 3 L V..XoXoXoXoX>.dXQ oX#X%X.X$X@X X#X#X.X#X&X$X$X.XoX$X$X$X$X$X$X&XrXrX$X$X$X$X$X$X%X$X#X%X$X$X#X#X#X#X$X$X$X$X$X$X$X$X$XaXdXrX$X$X$X$X%X%X$X$X$X$X%X#X#XdXaXrXrXrX#X#X#XaX#X#X#X#X#XrX#XrX#XrX#X#XXXXXXXXX#XXX#X#XaX#XtX#XXX#XaXtXaXXXaXXXjXtXaXaXXXaXaXXXtXtXaXaXaX#XaXtXXX#XtXaXtXtXXXtX#XtX#XaXrXrXtXtXtX@XXX XXXXXXXXX@X@XtX#XXXXXtXtXXXXXXX#XXXXXXXXXXXXXXXtX",
"( ( ( ( ( ( ( ( ( ( ( _ _ _ ] ( _ _ _ ( _ _ ( ] ] g.g.g.g.[ g.>.M.M.m.g.h.{ g.{ [ g.] g.[ g.g.g.g.g.z.g.z.z.z.z.v.z.z.z.z.>Xb.z.b.b.z.>Xb.v.v.b.b.z.z.z.v.v.z.>Xv.v.v.v.v.v.v.U.U.U.U.v.U.U.U.U.U.J.P.>XU.P.=XU.=X>XP.P.P.P.=XI.I.=XU.=XP.=X=X>X=X-X-X=X=X=X=X=X-X-X*X*X*X*X*X<X<X*X-X*X*XI.*XI.*X*X*X*X*X<X<X<X7X<X<X<X<X<X*X7X2X2X2X7X<X<X<X2X7X7X<X7X:X*X<X7X<X7X7X<X2X7X<X7X7X<X2X2X<X<X<X<X<X7X<X7X<X2X2X2X5X2X4X7X7X7X2X4X5X2X5X7X5X2X2X5X5X5X5X5X5X6X5X5X5X5X5X5X5X5X5X5X2X2X4X5X4X4X7X5X4X7X4X4X7X7X4X4X6X6X6X=XU.6X6X=XqX;Xm < 5 = f 0 q 0 ; ; ; f 0 0 * o o o . o - f o o o * * @ * @ ; ; ; @ o @ ; ; - - - ; 3 q z z 3 3 3 j g A A S S S S Q T G / ! G G F F S F F F S G G k 4 4 4 h h h A x F F F S F A F A j A q.q.0.7.^ F F ^ G 4 o : q A ~ q X j Z o o Z V.C.:.^ A - A 3 4 - g A A g 3 - : Z >..XdXrX7.#X~ oXaX#XoXoXoXZ.oX X$X#XrX$XrX&XoX'.OX$X$X$X$X$XdX&X$X$XrX$X$X$X$X$X#X#X#X#X#X#X#X$X$X$X$X$X$X%X%X$X$X$X$XrX$X$X$X$X$X$X$X$X$X#X#X#X#X#X&X#XaXtX#XrXaX#X#X#X#X#X#X#X#X#X#X#XXXXXXXXX&XXX#X#X#X#XXX#X#XtXtXtX#XaX#XaXXXaXtXtXXXaXtX#XaXtXrX#X#XrXtXtX#X#X#XtXaXXXtXtXtXtXtX#XtXtXtXtX#X@X@XXXXX XXXXXXXtX@XtXXX#XtXXXXXtXXXXXtXXXXXXXXXXXXXXXXXXX",
"( ( E ( ( ( ( ( ( ] ( ] _ _ j.] _ _ _ _ ( _ _ ] [ g.g.g.[ g.g.g.m.m.m.g.[ h.{ { [ [ ] g.g.g.g.g.h.h.z.z.z.z.z.z.z.v.z.>Xz.z.b.b.b.b.z.b.v.v.>Xb.v.v.b.>Xv.v.>Xb.v.v.v.v.H.U.v.v.U.H.U.U.U.U.U.>XU.>X=XU.>XU.I.=X=XP.=XP.=X=XI.=X*XU.=X=XU.=XU.=X=X=X-X=X=X=X=X-X*X*X*X*X-X:X*X<X-X*X*X*XI.*X*XI.*X-X-X:X<X:X-X<X*X<X<X<X*X<X<X<X7X<X<X7X7X*X*X<X7X7X*X*X*X*X*X7X*X<X7X<X7X<X7X<X7X<X2X2X7X7X<X7X7X7X<X7X2X7X7X7X4X5X4X4X4X4X2X4X2X5X5X7X7X5X5X6X5X6X5X5X5X6X6X5X5X5X5X5X7X5X7X5X4X4X4X5X4X4X4X5X7X4X4X7X7X7X7X5X6X6XU.5X6X=X6X5X>X0Xz.= d = . u 1 ; o - ; f * X o * * ; * * o o o o * * f f * - o o @ @ @ - - ; 3 0 q q q q g q j j g M j u j k u u h h h h A k h x A A F S G Q q.^ Q +.^ G A h h A k A G ^ +.#.G G G G G A j j G S +.0.0.7.q.} 3 : o o Z ~ j X q Q j   X Q 7.7.q.A A ! Q G h 4 4 3 j : o - : M ~ Z.Z.oXU Z.@XoX%XsXzXVXlXaX$X%X.X$XoX.XaX$X'.dX$X&X$X&X&XdXrX$XrX$X$X$X$X#X#X#X#X#X#X#X$X$X$X$X$X$X$X%XoX$X$X$XrXrX$X$X$X#X$X$X$X$X$X#XaX#X#X#X#XaXaX#XrX#XrX#XaX#X#X#X#X#X#X#XXXXXXX#XXXXX#X#X#X#X#X#X#X#X#X#X#X#XaXtX#XaXtX#XXXtXaXaX#XtXXXaXrX#XXX#XXXXXaXaXXXXXXXtXtX#X#XtX#X#X@X@X@XXXXXXX X X X XXXXXtXXX#XXX@X@XtX#XXXtXXXXXXXXXXXtXXXXXXXtXXXXX",
"( ( ( ( ( ( ( ( _ _ ( ( _ _ ( _ ] ( _ _ _ ( _ ] [ >.g.g.g.[ g.g.m.M.M.k.g.{ g.[ g.] g.] g.g.g.g.g.l.h.z.z.z.z.v.z.z.z.z.z.b.b.b.b.b.z.>Xb.b.b.b.b.v.v.b.v.v.v.v.v.>XH.H.U.v.U.U.v.U.U.v.U.U.v.U.U.U.U.U.=XP.=XU.U.>X=XP.=XU.=X=X=X=X=X=X=X=X=XU.=X=X=X=X:X-X=X=X*X=X-X*X*X*X<X*X*X*X-X*X-X*X*X=X*X*X*X*X7X*X7X-X*X<X*X<X<X*X<X<X*X7X<X7X<X*X7X7X<X:X7X*X7X:X7X<X7X:X7X7X:X7X<X7X7X2X2X2X4X2X2X7X7X<X4X2X2X4X<X2X2X2X2X7X4X7X4X2X5X2X5X5X5X5X2X5X5X5X5X5X5X6X5X7X5X5X7X5X5X7X7X5X4X5X5X5X7X4X2X4X4X7X7X4X7X6X7X2X=X5X:X:X6X6X:X>X,XbXg.= 5 . 8 @ @ 2 9 2 * o * ; * @ o o o o * f 0 f ; * o o o @ @ % @ @ * ; - @ ; - ; 3 ; : ; ; ; - - 4 4 ; 4 3 j h j j A A A k A S F G G S S S A ! ^ G G ^ q./ F A A h h h k x A G A A A q.q.S A A A g A q.7.0.:.Z g : o ; Z z @ : l Q j X g :.} } q.S ^ A ! h j q 3 3 3 3 : - : q q C @ - - o 2 ; ; Z :.Z.#XdXaX$XXX$X$XaXaXoX$X$X$X$X$X$XdX$XrX$XrX$X#X#XrX#X#X#X#X#X$X$X#X#X$X$X$X$X$X$X$X$XrXrX%XrX$XrXrXrX#X$X%X#X#XaX#X#X#XaX#XaXaX#X#XaXXXXX#XXX#X#X#X#XXXXXXXXX#XXX#X#XaX#X#X#X#XXX#X#X#X#XaX#XaXXXaXaXaXtXaXXXaXaXXXaXtXrX#X#XtXaXtXtXtXaXXXaXtXtX#X#X@X@XXXXXXX XXX X X X X XXXXXXXXX#XtXXXtXXXtXtXXXXXtXtX#XtXtXtXtXXXtXtXXX",
"W ( ( ( ( ( ( ( _ ( ( ( _ _ ( ] _ _ ] ( _ ( ] ] [ g.g.g.>.[ g.M.m.M.M.m.g.g.[ g.[ g.] g.g.h.g.g.h.l.h.l.z.z.z.z.z.z.v.z.b.b.b.b.b.b.z.b.>Xz.b.>Xv.v.>Xz.b.v.>Xz.v.H.v.v.v.H.U.U.U.v.U.v.U.U.H.U.H.H.=XU.U.U.U.I.U.U.P.U.=XU.*XI.=XI.=XI.I.U.=XU.U.I.=X=X=X*X*XI.I.*X-X-X:X*X-X*X*X=X-X*X*X*X*XI.*X-X*X*X*X*X:X7X*X*X<X<X7X-X*X7X7X*X7X:X*X*X:X7X7X7X7X7X7X7X2X<X<X7X7X<X<X7X<X7X7X<X2X2X2X2X7X2X7X2X4X4X4X2X7X2X4X4X7X4X7X4X7X4X7X5X6X6X5X5X7X6X7X5X6X5X5X5X5X5X5X5X5X5X5X7X5X5X4X4X5X5X6X3X4X4X7X6X6X6X6X7X6X7X6X:X:X>X;X>X>XcX,Xl.5 = f 0 ; 0 ; ; * o X   X X o . f 0 0 f ; @ ; ; * - o o ; 0 y q ; o o @ ; ; o @ @ o @ o - @ - - - 2 3 3 4 q 3 3 4 j k A A A A S F G ^ G ^ #.+.G F ^ q.G G q.q.q.G A h g z F G G G ! G A Q q.#.F Q S A g A ^ 7.q.Q A : o 4 Z C - o 2 Z / : X / 7.q.^ ^ ^ %.S j j 2 : 3 3 q q 3 o X - ; q q 0 ; ; * 3 @ o 3 L C.sXaXoXXX#X.XaX$X$X$X$X$X$X$X$X$XrX$XrXrXrX$X$X$X$X%X$X%X$X$X$X$X$X$X$X$X$X$X$XrX$XrXrXrXaXrXrX$X$X%X$X#X#X#X#X#XrXaXaXaX#X#XaXXX#XXXXX#XrXrX#XaX#X#X#XXXaXXX#X#X#X#XXXXXXX#XXXtX#XaXXXtXXX#XaX#XaXaX#X#X#XaXtX#XtXtXtXtXrXtXtXaXXXtXtX#XtXtX#XXX@X@XXXXXXXXXXX X X XXXXXXXXXXX#XXXXXtXXXtXtXXXtXXXXXtXXXtXXXtXtXtXtXtX",
"( ( ( ( ( ( ( ( _ _ ( ] _ _ _ _ ] ] ( ] _ ] _ ] ] >.g.g.] ] g.g.M.M.m.g.g.{ [ g.{ g.g.[ h.g.g.g.g.h.l.l.z.z.z.b.v.z.z.v.b.z.b.b.b.z.z.>Xz.b.b.z.b.b.z.v.b.b.v.b.v.v.v.v.v.v.v.v.v.U.H.v.v.U.U.U.U.U.U.H.U.U.U.U.U.U.U.U.U.I.I.U.*XU.I.=XI.=XU.I.I.I.I.P.I.*XI.=X*X*X*X*X*X*X*X*X*XI.*X*X*X-X*X*X*X*X-X*X-X*X*X-X*X:X:X*X-X*X<X:X*X<X<X*X7X*X*X7X*X:X<X<X<X<X7X2X*X<X:X7X7X2X7X<X:X7X7X2X2X6X4X2X4X2X2X4X7X4X1X2X7X4X4X4X4X7X4X4X5X7X5X5X5X5X5X5X6X5X5X5X5X5X5X5X5X5X5X5X5X5X5X5X4X5X0X4X4X4X4X4X6X6X7X6X7X6X6X7X6XU.wX:XF.cXyXh. .  = . X 0 X 0 ; o o * q l i 0 i q 0 ; ; ; ; 0 o o * * * f 0 l q 2 ; 1 ; ; ; 0 q q 3 q 2 ; : ; 2 ; - - ; - - - - 4 4 4 4 4 4 c k A A F G F F F G q.q.+.G q.q.^ q.q.0.0.,.! h 4 g A A j Q q.^ A ^ ^ q.^ / F h k A } q./ Q 4 - 4 j j j o @ Z L ~ j ^ 7.! q.S A Q j C j q 3 ; - o o ; 3 o o ; l q @ 2 q / >.A - o X z C.hXdX.X.X@X$X$X$X$X$X$X%X$X$X$XrXrX$XrX$X$X$XoXoX%X$X$X$X$X$X$XrX$XrX$XrX$XrXaX$XrXrX&XrXrX#X@X$X$X#X#XrX#X#X#X#XaX&XaX#X#X#XXXXX#X#XrX#XrXaX#XrX#X#X#XaX#X#X#XaX#XtXXX#X#X#XaX#XtXaXXXtXXXtXtXtXtXtXtXtX#X#XtXtXaXaXaXaXtXtXaXtXtXtXtX#XtX@X@XtXtX#X#X@X@XXXXX XXXXX#X#XtXtXXXXXtXXXXXXX%XXXtXXXtXXXtXXXXXtXyXtXXX",
"( ~ ( ( ( ( ( ( _ ( _ _ _ ] ] _ _ ] ( ( _ _ ] ] g.g.g.g.[ [ g.g.m.M.M.g.[ g.g.[ g.] [ g.] g.g.g.g.l.j.z.z.z.z.b.z.v.z.b.z.b.z.b.b.b.b.z.b.z.>X>Xb.v.z.v.v.b.b.v.v.v.v.v.v.v.v.H.U.v.U.U.U.H.U.v.=Xv.v.=XU.=XU.U.U.U.I.U.U.U.I.I.I.=XI.I.I.U.I.P.=XP.=XY.=XI.-X*X-X*X-X7X*XI.=XI.I.*X-X-X<X:XI.I.-XI.I.*X-X*X*X7X:X*X7X*X*X-XI.:X7X<X7X7X*X7X*X*X7X*X7X*X:X<X2X<X<X7X:X7X<X7X<X7X7X<X7X<X2X4X2X2X7X2X2X<X7X4X2X2X7X5X5X4X4X7X7X4X6X7X6X5X5X5X7X6X6X5X5X5X5X5X5X5X5X5X5X5X5X5X5X5X4X0X5X6X4X4X4X4X6X6X6X7X6X7X7X6X>X6XT.>XcXA.d   . = f + 8 ; L 0 ; q j q ; o @ * o @ @ * - * @ * f ; f ; * * * * @ @ @ 2 0 3 ; f q q q q q q j z u q q q q u q j 3 j 3 4 4 : : 4 4 4 g A A A S Q / G A F ^ #.+.G q.+.^ q.q.0.7.0.S F A 4 4 g A q.G F Q F #.0./ A F A S q.q./ k : q 3 j 2 o X o j / 3 S 7.F ^ #.h ~ ~ j ; - o - @ * X ; ; 2 - * ; 2 q   X ; : J :.l o X l oXfXsXXXoX$X$X%X$X$X$X$X$XrX$XrXrX$X$X$X$X$X$X$X$X$X%X$X$X$X$X$X$X$X$XrXrX$XrXrXrXrXrX$X#X#X#X#X#X#X#XaX#XaX#XrXrXrX#XaX#X#X#X#X&XrXrXrXaXaXrX#X#XaXXXaX#XaX#XaXXXXX#X#XtXtX#X#XXXXXXXXXtXtXtX#X#XaXtX#XrXtXtXrXtXaXaXtXtXtXtXtXtXtXtX#X#XtXrXrXtXtXtX#XtX@XXXXXXXXXXXXXXXXXXXXXtXXXXXXXXXXXXXXXXXXXXXtXtXXXXXXX",
"( ( ( ( ( ( ( ( _ _ _ _ _ _ _ ] ] _ ] _ _ _ _ ] ] g.g.g.] g.g.g.M.k.m.g.g.g.g.[ { g.[ [ [ g.g.g.l.j.z.j.z.z.b.b.v.z.v.z.b.z.b.z.b.b.b.b.b.v.z.b.b.v.v.v.b.v.b.v.v.H.v.v.v.v.v.U.H.U.v.U.U.U.U.U.v.U.v.=XU.U.=XU.=XU.U.=X=X*XU.=XU.I.I.I.I.=X=XU.-X=XI.=XI.-X=X-X*X*X*X*X-X*XI.=X=XI.*X*X*X*X*X*X*X=X*X*X*X*XI.I.*X<X*X-X*XI.7X*X*X<X<X7X7X*X:X7X<X*X*X*X7X7X7X2X*X7X7X7X:X2X<X7X*X*X*X*X<X2X2X2X<X7X7X<X7X7X7X2X7X4X7X4X4X4X7X5X6X5X5X5X6X5X5X5X6X5X5X5X5X5X5X5X5X5X5X5X5X5X5X5X5X0X5X4X3X4X4X5X6X6X6X7X7X7X6X7X0XJ.qXwXW . i d f < f 0 9 * ; % - * o X X X   X X X o o . o * * ; * o * - * o * @ o o @ @ o @ - @ * - ; ; ; ; ; 2 2 2 2 2 q q 3 M j j u 3 j g 3 4 4 : - : 4 4 h 4 k G G G G G +.^ ^ q.+.%.%.q.u.C.0.,...A 4 - 4 A ! %.^ Q ! S q.F F Q G ^ q.#.F 3 j l j 4 @ o X - A 3 F q.A A S y j 2 ; : - 2 ; ; @ ; # o @ ; ; L V.>.| L @ @ 2 ~ ^ l o - >.sXsXoX%X$X$X%X$X$X$X$XrXrXrX$XrX$XrX$X$X$X$X$X$X$X$X$X$X$X$X$X$X$XrX$XrX$XrX$X$X$X$X#XrXrX#X#X#X#XaX#X#XaXrXrXtX#XaXaX#X#XaXrXrXrXrX#X#XaX#X#XaXaXaXaX#XaXaXjX#XaXaX#X#XaXXXXXaXaXaXaX#XtXtXtX#XtXtX#XtXtXtXrXtXaXsXaXaXaXaXaXtXtXtX#XrXtXaXaXrX#X@XtX@XXXXXXXXXXXXXXXXXtXXXXX XXXtXXXXXXXXXXXXXXXXXXXXXXXyX",
"( W ( ( _ ( _ ( ( ( ( ] ( ] ( _ _ ] _ _ _ ] ] ] ] g.g.] ] g.;.M.M.M.m.g.g.h.h.} g.h.g.] g.g.g.g.g.h.l.z.n.z.z.z.b.z.b.z.z.b.z.b.z.v.c.c.z.v.v.v.v.v.v.z.v.v.>Xz.v.v.v.v.v.v.v.v.U.U.U.U.U.U.U.U.U.U.K.U.K.K.U.U.U.P.U.=XI.I.I.P.P.P.P.P.I.I.I.I.I.I.I.I.=X-X*X-X-X*X-X-X*X=XI.I.I.I.*X*X<X*X-X*X*X-X*X-X*X:X7XI.*X*X<X*X-X*X*X-X:X7X<X7X<X7X7X*X7X*X*X7X7X7X:X7X<X7X<X*X7X*X*X<X*X7X7X7X<X7X<X7X7X7X2X<X4X7X7X<X2X2X4X4X5X7X5X7X6X5X5X6X7X5X5X5X6X5X5X5X5X5X5X5X7X5X5X5X5X5XqX5X4X4X4X5X3X4X4X6X6X7X7X6X6X=X:X:X=X8X9XH   d  .l i 0 f ; * * @ o o @ o o + o ; . o o ; 0 q ; * * * * o . o o X o o X X X o o o o X o o X o X   X o X X o @ @ ; 3 3 u g j j j j j z k l z l k h 4 4 h h A F G %.%.q.q.q.q.+.q.q.G +.0.d.0.7.G y , : 4 4 A q.q.F G q.R ! q.Q q.q.} R u A A v 3 4 @ 4 : Z A / %.A A z u 3 @ @ 4 + o o @ ; % * @ @ . o o s } V.!.} o f L ~ >.l X L tXdXoXoX$X$X$X%X$X$XrX$X$X$X$X$X&X$X#XaXaXaX$X$X$X$X$X$X$X$X$XrX$XaX#XrX#X@X@X@X$XrX#X#XrXrXrXrX$X#X#X#X#X#XrXaXaXaXaX#XaX#X#XrXrX#X#X#X#X#XrXrXaXjXtXtXtXaXtX#X#XXXXXaXXXtXXXXXtX#XtXtX#XtXtX#XtXtXaXtXtXaXtXtXtXaXaXaXaXaXaXtXaXrXaXtXaXtX#XtXtX#XtXXXXXXXXXXX#XtX#XtXXXXXtXtXtXtXtXtXtXtXXXtXXXXXXXXXXX",
"( ( ( ( ( ( _ ( ] ( ( ] ] ( ] _ ] _ ( j._ _ ] ] h.g.g.g.g.] g.g.M.M.M.k.g.g.g.] h.g.g.} [ g.g.g.g.l.h.l.z.z.z.b.z.b.z.b.b.z.b.z.v.z.v.v.v.v.v.v.v.b.v.v.v.v.v.>X>Xv.v.v.v.v.v.U.H.U.U.U.U.J.U.U.U.U.U.L.U.U.P.U.U.U.P.P.I.I.=XP.=XP.=X=XP.-XI.=X=X=X-X=X-X-X-X:X*X7X7X*X-X*XI.*XI.=X*X*X*X<X<X7X-X*X7X:X<X<X<X<X<X:X*X<X*X<X*X7X7X<X7X<X<X7X:X7X7X<X:X7X<X7X7X<X7X7X7X<X<X<X7X<X<X-X7X<X7X2X<X7X2X<X7X2X<X7X-X7X4X4X4X4X5X5X5X5X5X7X7X5X6X6X5X5X5X6X5X5X5X5X5X5X5X5X5X5X4X4X4X5X4X5XqX4X4X4X3X3X6X6X6X6X:X:X2X2X0XqXH < d f 0 0 ; f ; * o o o @ ; o o o @ 0 0 f 0 l  .l 0 @ o * o X o o o . o @ @ @ @ o o o o o o @ o o o o o o o o X o X X X   o o o @ @ ; 3 3 3 3 g j j z k A A h h h h A F +.#.G +.G G q.q.%.+.G q.q.0.q.q.P c - g h 3 A #.#.q.q.! q.^ G q.q.G j k Q j u j 2 2 j j : 4 G +.: Q j @ - : @ o - @ @ @ @ @ * % ; * ;   l l i >.C.j  .' L Z.} o 2 Z.dXIX$X%XaX$X$X$XrXrX$X$X$XaX$X$X#XaXaXdX$X$X$X$X$X$X$X$XrXrXrX#X#XaX#X$X@X#X$X#XrX#XaXaX#XrX#X#X#X#XrX#XrX#XaX#XaX#X#X#XrX#XrX#XrXtX#XrXrXaX#X&XaXXXtXaX#X#XXXaXtXaXaXtXtXaXXXtX#X#XtX#XtX#XtXtXaXaXtXtXaXaXtXtXaXtXaXtXtXaXtXrXrXaXrXtXXX#XXX#X#XtX#XXXXX#XtX#XtXtXtXtXtXtXtXtXaXtXtXtXtXtXaXtXtXtXXX",
"( ( ( ( ( ( ( _ ( ] ] ( ] ] ] ] _ ] ] ( ] _ _ ] ] g.g.] ] g.>.g.M.M.M.k.g.g.g.h.g.h.h.g.g.g.g.g.g.h.l.z.z.z.b.z.z.z.z.b.z.b.z.b.z.b.v.c.v.v.v.v.b.z.v.z.v.v.v.>XH.H.v.v.U.U.H.U.U.U.U.U.H.U.U.U.U.U.K.U.U.U.U.U.U.P.U.P.U.P.-XP.-XY.P.-X-X-X-X-X-X-X-X-X;X-X-X<X:X-X-X<X7X*X*X*X*X*X:X<X2X<X<X<X*X*X<X<X2X<X<X2X<X<X<X<X<X7X:X<X<X7X<X7X7X<X7X2X<X<X7X:X7X<X<X<X<X7X2X<X7X7X<X7X<X2X7X4X4X2X2X4X7X2X2X4X7X7X4X7X4X4X5X5X4X4X5X4X5X5X5X5X5X5X5X5X5X5X5X5X5X5X5X5X5X5X5X5X5XqX5X5X4X4X4X4X4X3X3X3X6X6X7X=X:X,X0X;XT.W < 8 f * 0 X X X o X @ * o o O X ; ; l L l l l 0 X X o f ; ; f ; * * . o . * o O o o o o o o o o o o o @ o @ X       X o + @ X X X X X o o o o o o - - : 3 3 A A S A j h A F +.q.q.q.q.+.+.%.q.q.G q.q.q.0.0.0.h c F Q 4 h h S G q.q./ G R / 7./ U #.A j A 2 j u A A 3 : g ^ : z A : o - - - 2 2 2 @ @ & , ; ; 0 E l ~ } L 0 >.L l C./ V.Z.o $ oXdXoXdX#X#X$X$X$XrX$X$X$X$X$XaXdXaXaX$X$X$X$X$X$X$X$X$XrX$XaX#X#XaX#X#X#X#X#X#XrXaXaXaXrX$X$X#X#XaX#X#XaX#XaXaX#X#X#XrX#XrXrXaX#XaXrXaX#X#X#XaXXX#XXXXX#X#XXXaXaXaXXXtXXXXXjXtX#XtX#XtXaXaXtXtXtXaXaXaXaXtXtXtXtXtXtXtXtXaXtXaXrXtXaXrX#XXXtXtXtXrXrXrXtXtX#XtXtXtXaXaXtXtXaXaXtXaXtXtXtXtXtXtXtXtXtX",
"( ( ( ( ( ( ] ~ ( ( ( ] ( ] ( ] _ _ _ ] _ _ ] ] ] g.g.g.g.] g.M.M.M.M.k.g.} ] g.] } h.h.[ [ g.g.g.n.h.l.z.z.z.b.b.b.z.b.z.b.b.b.v.z.c.v.c.v.z.v.b.v.b.v.b.v.v.b.v.H.v.v.v.v.U.v.v.H.H.U.H.H.U.U.U.U.U.U.T.U.Y.P.P.Y.=XY.-X=X=X-XY.=X-X=X-X-X-X<X-X-X;X;X-X-X-X*X*X*X*X*X-X*X-X*X=X-X7X<X<X<X<X<X*X<X7X<X<X2X<X2X2X2X2X<X<X<X<X<X<X2X7X:X7X<X<X2X<X7X2X7X2X2X7X<X7X2X2X2X<X2X<X2X<X7X2X2X4X2X2X2X2X7X4X<X4X4X7X7X7X4X5X5X4X7X5X5X5X7X5X6X5X5X7X5X5X5X5X5X5X5X5X5X5XwX5X5X4X4XwX4X4X4X4X4X4X5X0X0X6X6XwXwXqXR.l.h.H = 5 5 # ; X @ o * * . o @ * * o * 2 0 i l f ; f ; 0 q l 0 * o @ o o o o X o o X o o o O # @ @ o * o . @ o o @ ; - o X o X o @ o @ - - @ o X X o - @ - o @ o - o 4 y A A G S A A A G +.q.q.%.G F q.q.q.0.#.G q.r.Z.F 4 A G h A A g 3 A ^ q.G ^ F q.^ ;.^ 4 Z Z o j S M g 3 : M S M A : - y - 2 2 2 2 2 1 & @ + 0 @ L aX' l oXC.f } } s ;.L B. Xe + $XzXZ.#XdX$XrXrX$XrX&X$X$X$X#X#X&X$X$X$X%XoX$X%X$X$X&X$XaX$X#XrX#XaXrX#X#X#X#XrXaXaXaXaX#X#X#X#X#X#XaX#X#X#X#X#XaX#XrXaXaX&XaXaXaX&XaXaXrX#XXXaX#XaX#XaX#XaXaXtXaXaXaXaXaXaXtXaXaXaXaXtXtXjXaXaXaXaXsXaXtXaXtXtX#X#XrXtXtXaXaXaXaXrX#XXXtXXXtXrXrXrXaXrXaXtXtXtX#XtXtXtXaXtXaXaXtXtXtXtXtXaXaXaXxXtX",
"_ ( ( ( _ _ _ ] ( ] ( ] ( ] ] _ _ j._ ] _ ] ] ] ] g.g.] g.] g.g.M.M.M.m.g.g.g.h.] ] [ [ g.g.g.g.l.n.n.z.z.z.z.b.z.z.v.z.v.z.b.b.z.z.v.v.v.z.v.v.v.b.v.b.b.v.v.v.v.v.v.v.v.v.v.U.U.H.U.U.U.H.U.U.P.P.P.P.P.Y.Y.=XT.Y.=X-X-X-X-X-XY.=XY.Y.-XY.-X-XY.-XY.<X-X-XY.-X=XY.*X*X*X*X*X*XI.*X<X*X:X<X*X<XI.*X*X<X<X<X2X<X2X<X2X<X<X<X<X<X7X7X*X7X*X<X<X7X2X7X7X<X<X2X7X2X7X<X2X2X2X<X2X<X7X<X<X<X4X2X7X<X<X4X4X7X4X4X2X2X4X4X4X4X2X4X4X4X6X7X5X6X5X5X5X5X5X5X5X5X5X5X5X5X5X5X4X4X4X4XqX4X4X4X4X4X0X0X4X4X6Xl.) 5 d d 5 f < 0 = + * . X % . . * . X X o * f w ; ; ; o o o o * ; f o o o * o o X o o o o o X o o o o o + o o * o o @ o . o @ * * - + . X   X o + * - * * * * o * * @ o o o @ @ - @ ; 3 Z ! ! F S F F +.q.q.0.+.G +.+.q.q.G G q.0.0.k A G +.S ! k 4 4 A 0.%.F A q.A ;.^ o L k ; o z A - 3 4 Q A A u 3 3 - @ - - 2 2 1 ; @ ; @ 3 - l tX} E Z.@XL  .V.L ~ E } oXy u zX#X%XdX$X$XaXaX$X$X$X$X$X$X#X$X#X$X$X$X$X%XoX$X$X#XaXaX$X$XrX#XaXrX#XrX#X#XrXrXaXrXaXrX$X#X#XaXaXrXtXrX#XaXaX#XaX#XaXaXaX#XaXaXaX#X#XaX&X#XaX#XaX#XaXtXtXtXtXaXtXtXaXaXtXaXtXtXaXaXaXjXtXaXtXsXpXsXaXaXtXtXtXtX@X#XtXtXtXaXaXrXrX#X#X#XtXtXrXrXaXaXaXrXrXXXtXtXtXtXtXaXaXaXaXaXtXtXtXrXrXaXaXtXtX",
"~ _ ( ( _ ( _ _ ( ( ( ] ( ] _ ] ] _ _ ] _ _ ] ] ] g.] g.] g.g.M.M.M.M.g.g.h.} h.[ { [ { [ [ { g.l.g.l.l.l.z.z.z.b.b.z.z.v.z.b.v.v.v.z.v.v.v.v.c.v.v.v.v.v.v.v.v.v.v.v.v.v.v.U.v.v.U.v.U.U.H.U.U.Y.Y.Y.-XT.-X-X-X-XT.;XT.;X-X-X;XY.Y.-XY.Y.-XY.Y.-X-XY.Y.I.Y.-XI.*XI.*X-X-X-X*X*X=XI.*X-X7X*X*X*XI.*XI.:X<X<X<X2X2X2X<X<X*X<X*X<X7X:X7X*X7X7X<X2X:X<X<X7X7X<X7X<X*X<X2X2X2X<X7X7X7X7X7X2X<X2X7X2X2X7X2X4X2X2X4X2X7X4X5X5X5X5X4X5X5X5X5X7X5X7X5X5X5X5X5X5X5X5X5X5X5X5X4X4X4X4X4X4X4X4X4X4X-XI.b.l.H ) ` h.J.>Xh.d 0 = . *     , X X X   X = f * * 0 0 * f f - f ; * o o o * ; f * * * @ * f * * o o o o + o X o o o @ o o * @ + @ X o @ * - * @ @ X X X . . + * * ; o o o @ ; : ; 2 - - 4 3 : 3 q j A S ! G A A A +.@.q.%.G X.q.q.q.A G q.d.! A x S ,.Q 3 A 4 4 / q.F A #.Z Q ! - C j - @ u j j j - A A S g @ ; - 2 2 @ @ @ @ 1 2 o @ o o q ;./ j  XtXC.L { ~ } ~ / dXo Q AX$X%XdXaX$X&X$X$X$X$X$X$X$X$X$XrX$X$X$X$X$X$XaXaXaX$X$X#X#XaX#X#XrX#XaXrXrX#X#X$XrXaX#XrX#X#X#X#XtX#X#XaX#XaX#XaXaX#XaXaXaX#XaXaX#X#XtX#XaXaX#X#X#X#XtXtXtXtXaXaXaXtXtXXXtXaXtXaXaXaXtXsXsXaXsXpXaXaXtXaXtXrXrXtXaXaXaXrXrXrXrXrXtX#X#XrXtXrXrXaXaX#XtX#XtXXXtXtXsXaXtXtXaXtXtXrXtXtXrXxXtXsXtX",
"_ _ _ ] _ _ ( _ ] ] ( ( ] ] _ ] ( ( ] _ ] ] ] j.] g.g.] g.g.g.g.M.M.M.m.g.] { g.[ { ] [ [ [ g.g.g.h.z.l.z.z.z.b.z.b.b.b.z.v.z.z.v.z.v.v.v.v.v.z.z.v.v.v.v.v.>Xv.H.v.v.v.v.v.v.H.v.H.U.U.U.U.U.U.P.T.T.T.T.;X;XT.;X;X;XT.Y.;X-XT.-XY.Y.-XI.Y.-XY.Y.Y.Y.-X-XY.Y.*X*X*X*X*X*X*X*X*X=XI.*X*X*X-X*X*X=XI.*X*X<X*X<X<X<X<X<X*X*X<X:X*X7X*X:X7X7X<X2X<X7X*X*X7X:X<X<X7X7X<X2X2X2X2X7X<X<X7X<X7X7X<X2X<X7X2X2X7X4X4X2X2X4X4X4X4X2X4X5X5X5X5X5X5X5X5X5X5X5X5X5X5X5X5X6X7X4X5X5XwXqX4X5X4X4X4X4X1X7XK.c.l.6X,X:XR.g._  .f * * * * * @   $ * * * f q i 0 & ; * @ ; ; ; ; o f * * * o . o o o X o o * ; f * ; * ; * - * * ; * ; * o @ + @ ; & ; * @ @ ; * ; * * . . X X . . f ; * ; ; 0 0 q ~ p o o - q u 3 j 4 4 z S #.+.G G ^ G x G +.F G q.q.q.+.#.0.9.+.: F 0.Z 4 h g 3 A +.Q ! F Z Q L j q 3   q S - k A j 3 A S j j V 3 2 @ + @ @ % 2 - ; 0 : o o 3 ; E C.XXE.L ( Z l O 7.oXO 7.lX$X#X$XaX$X$X$X$X$X$X#X#XaXrXrXrX$X$X$X$X$X#X$XaX$XaX#X#X#X#X#X#XaX#XrXrX#X#X#X#X$X#XrX#X#XaX#XrXaXrX#XaX#X#X#X#X#X#X#X#XrX#XrX#XrXrX#XaXaX#X#XXXtXtX#XtX#XaXtXtXjXXXaXaXtXaXaXaXaXaXaXtXtXsXaXaXtXtXtXtXtXaXtXtXrXrXtXtXrXrXtX#XrXtXaXaXrXtXtXrXrXtXtXtXrXrXtXtXsXtXtXaXaXtXtXtXtXtXtXaXyXaX",
"_ ( _ ( _ _ ( _ ( ( ] ] ] _ ] _ ] ] ( ] _ ] ] ] ] g.] g.;.] g.M.N.B.M.M.g.h.{ { { [ { [ { g.g.g.g.l.g.z.l.z.b.z.b.b.z.b.z.v.b.b.v.v.v.z.z.v.v.v.v.v.v.v.v.b.>Xv.v.H.v.v.v.v.v.v.U.U.U.U.U.U.P.U.Y.>XT.T.>XT.;X-X-XT.;X;X;XT.-XT.-X-X-XY.-XY.Y.I.-XY.Y.-XY.I.-X-X-X*X:X<X*X-X-X*XI.*X*X<X-X*X-X*X*X*XI.-X7X:X7X<X<X<X7X:X*X*X*X*X*X7X<X<X2X7X2X2X*X7X7X:X7X7X<X7X7X7X2X2X2X7X<X7X7X7X<X<X7X7X4X2X<X2X2X4X2X2X2X4X7X4X7X4X7X2X7X7X6X7X5X6X6X5X7X5X5X5X5X7X5X5X6X6X5X5X5X5X4X4X5X5X4X4X4X8X8X8X1X;Xc.) 5 < =     f * f * * 6 1 * % * 0 i d f . X . o   * ; . ; o @ o o o o * o . o * o o . o o o @ o @ o @ * * ; ; q 0 * o o o X o @ @ - - * ; * * * * * * . . . * o o * f ; ; ; 0 * l l -   o @ o 2 3 j j 3 g x G G G q.G x F F X.F +.%.0.%.! ! 7.q.g z #.Z - A j g h ^ ! ;.;.^ k R k j ; o - u ~ Q g A 4 A } j 4 - - - - - % @ @ @ o - o o ; X ; @ * V.@XZ.~ ; ; 2 4 NXV @ $XdX$XdX$XrX$X$X$X&XaX$X$X#XaXaX$X$X$X$X$X#X#XaXaXaX$X#X#XrX#X&XrX#X#XrXrXaX#X#X#X$X$X#X#X#X#X#X#X&X#XaXaX#X#X#XXXaXaXrX#X#X#X#XrXrXrXaX#X#X#XXXXXXXXXtXtXtXaXjXaXtXaXaXaXaXaXaXtXtXjXsXsXsXtXaXtXaXtXsXaXsXtXaXtXrXrXtX#XtX#XtXtXrXaXaXaXrXrXtXaXrX@XrXtXrXtXaXtXtXaXaXtXtXaXtXaXtXaXaXtXaXaX",
"( _ ( ] ] ( _ ( ] _ ( ] ] ] _ ] ( h._ _ ' _ ] [ [ { { { [ { UXUXM.A.M.>.g.{ g.] ] g.;.h.] h.g.g.g.g.j.z.z.z.z.z.z.v.z.v.b.z.b.b.z.z.>Xz.b.v.v.v.v.v.>Xz.>Xv.v.>XH.v.H.H.H.H.H.H.H.U.>XU.U.J.U.U.J.T.P.T.P.Y.Y.Y.Y.;X;X;X;XY.Y.;X;X;XY.Y.-X-X-X>X-X-X=X-X=X*X-X-X*X:X*X*XI.*X*X*XI.*X-X*X<X*X<X*XI.I.I.-X-X*X*XI.*X*X-X7X*X<X<X*X<X<X2X7X7X<X7X<X*X<X7X*X<X<X<X7X7XI.<X2X2X2X7X<X2X2X<X4X4X7X2X2X7X7X7X4X4X7X7X7X4X5X4X4X4X7X7X4X6X7X6X5X6X5X5X5X5X5X5X5X5X5X5X5X7X5X5X5X7X5XqX:XqXqXqXwX,Xl.W m O X O = f 6 & # * + * # * . o o f - @ o o o X . + @ ; 2 % @ @ + o # * * # # * ; ; ; ; % ; * * * @ @ @ @ o @ @ - - ; @ ; 2 ; + - - @ @ - ; o @ @ @ - 2 , @ @ o @ . o o + ; ; * ; 2 @ q l 2 o X o X - ; z z j : h S F +.q.q.+.x A F x x F X.q.+.k q.#.^ G Q Q 4 A q q Q j ;.^ 7.%.h Q A - o - l l 3 g j Z : A Q j 3 - ; 4 @ @ @ + * ; * o o * * o ;   u Z.%XoX7.l o o Z VXq / hX@X$XdXdX#X&XaX$XaX$X$X$XrX$XrXrX$X$X$X$XrXrXrX$XrXrX#XrXrXrXrXrXrXrXrXdX$X$X$X$X$X#XaX#X#X#X#X#X#XdX#X#X#X#X#X#X#X#XaX#XdX#X#X#XdX$XrX$X$X$X$XrXrXdXrXrXrXrXrXdXdXaXaXaXrXaXaXaXaXaXtXtXaXaXtXaXsXsXsXtXtXaXtXtXaXtXtXtXaXtXtXsXtXsXtXtXrXrXsXrXtXsXrXrXtXaXtXsXsXtXaXtXtXtXtXaXtXaXaXaXyX",
"_ ( ( ( ( _ _ ( ( ( ] _ _ ] ] _ ' _ _ ( ' ' ] ] [ { { { { { { k.M.M.M.M.g.g.g.g.g.h.h.h.g.h.g.g.g.g.z.g.j.z.v.c.z.c.c.c.z.z.z.b.z.v.z.v.v.v.v.v.>Xv.v.z.z.>X>Xz.v.D.H.v.>XH.H.U.>Xv.U.U.U.U.U.P.U.T.T.T.Y.Y.Y.1X;XY.Y.;X1XY.Y.Y.Y.;X;X;X-X-XY.-X-XY.-XP.I.-X<X*X<X*X*X*X*X-X*X*X-X*X*X<X*X<X*X:X-X=X=X*X:X:X-X*X*X-X*X<X7X*X*X*X7X<X<X2X<X7X*X7X7X*X7X:X7X*X7X<X*X7X<X<X2X2X7X7X2X2X7X2X<X7X4X7X7X4X7X7X7X7X4X4X4X7X4X4X5X5X5X7X6X6X6X5X5X5X5X5X5X5X5X5X5X5X5X5X7X7X7X5XwX5X6X6XD.Y.F.) 5 = .   < , < $ $ # = X + . . o o . * ; - * o o o o - ; - % ; @ @ @ @ @ % ; * ; ; ; 0 f 0 0 q 2 ; & @ - - - - - - @ @ @ - ; ; ; 3 3 2 : o - 2 - - - - @ , 4 2 2 ; - - @ @ @ o   o ; 0 ; @ q 3 q L q   X o X + - - u j 4 4 j A G +.q.d.X.F F x h k G q.q.F +.q.^ S j j j C - q Z k ^ S ! ! A j A A - 0 j - o - k 3 g A ! F 3 j M ; o ; @ * * * o * o . . X ; & o V.%XQ.V.~ o o V.sX@ oXhXrXaXaX#XdXrX$X#XrX$XrX$XrXrX$X$X$XrXrXrXrX$XrXrXaXrXrXrXrXdXdXrXrXrXrXrXrXrX$XrX#X#XaX#XaX#X#XaX#XaXaXaXaX#XaXaX#XaXdX#X#XdX#XdXdX$XrXrXrXrX$XdXrXdXdXrXrXrXrXdXdXaXsX#XrXrXpXaXaXaXaXtXtXaXtXaXaXaXsXaXaXyXaXaXaXaXtXaXsXaXtXsXsXrXrXrXrXsXsXtXaXrXrXrXtXtXaXsXgXtXsXtXsXyXtXaXtXyXaXtX",
"( ] ] ( ( ] ( ] _ ] ] ] ] ] ] _ _ _ _ h.' ' ] ] { { { { [ { UXk.M.M.M.g.g.] g.{ ] ] g.h.] h.g.h.h.z.z.z.z.c.c.c.z.v.z.z.z.b.z.b.z.b.v.v.b.v.v.v.z.z.>X>Xv.v.z.>Xv.v.v.>Xv.H.U.J.U.U.U.P.P.J.P.U.P.T.=X=XY.Y.;X;X-X-X;X-X;XY.;XY.;X;X8X;X-X>X-X-XY.=XY.-XI.-X*X<X*X<X-X*X*X-X*X-X*X*X:X*X<X*X*X-X*X=X-X-X<X<X<X*X*X*X:X<X7X*X7X7X:X7X2X7X:X*X*X*X*X:X*X*X7X*X*X7X7X7X7X2X2X2X2X2X2X7X2X2X7X4X4X7X4X4X7X7X7X4X4X7X5X4X5X5X4X4X4X4X5X5X5X5X5X5X5X5X5X5X5X5X5X5X5X5XwX7X7X5Xv.v.0X>X0X` < < < . = i , , < O X X X .   X o * * * * * * * @ @ @ % ; 2 % - @ @ % 1 2 2 ; - ; * ; 1 ; - @ @ @ o o o o o o o o @ o - - : - @ - 3 u 3 4 3 g : - - 2 3 2 - - 2 4 2 4 3 ; - X   @ - X o - o 0 @ 2 2 ; ~ ' 0   o o   - - 3 z A 4 h h F +.q.d.d.#.+.G g h h G #.S S #.%.j g 4 l q @ j 4 3 ;.j G Q 3 g / L l L l j 3 3 g 3 : @ A / 4 u y 3 2 @ * * * . . o o * . +   % o :.Q.aXZ.L X o tX>.j dXdXaX#XdX#X#X$X#X$XrXrXrXrX$X$XrXrXrXrXrXrX$XrXrXaXrX#XrXrXrXdXdXrXdXrX%XaX$XdX$X#XaX#XaX#X#XdX#XdX#XaX#X#XaX#XaXaXaXdXdXdX#XdXdXdXdXdXrXrXdXrXrXrXdXrX$XrXrXtXaXaX#XsXaXrXrX#XaXaXaXtXtXaXtXaXtXaXaXsXaXaXaXsXsXsXaXsXtXsXtXaXaXrXrXrXpXsXsXrXtXaXtXtXtXtXtXaXtXaXgXsXaXiXtXaXyXyXjXyXsX",
"( ( ( ] ( ( ( ] ( ( ( ] ] ] _ ] ] _ ( ] ] ' ] [ { { { { [ { UXm.M.M.M.g.g.g.[ g.>.[ } h.h.} g.g.g.h.g.j.z.z.z.v.z.v.v.c.z.v.b.b.>Xv.z.v.v.z.>Xv.v.v.v.v.>Xv.v.v.v.v.v.H.v.U.U.U.P.U.P.=XP.U.U.U.R.P.T.Y.Y.Y.Y.;XT.;XY.-XY.;XY.;X;X;X;X-X-X-X-X;XP.-X=XI.=X*X<X*X-X*X=X=X*X*X*X*X-X<X*X<X*X-X*XI.-X-X*X:X:X<X<X<X<X*X*X*X*X:X*X*X*X7X<X7X7X*X*X7X7X*X7X7X*X7X:X<X<X7X<X2X2X4X2X2X7X2X2X1X4X7X2X2X4X4X4X4X7X7X7X4X5X7X5X7X4X4X5X4X5X5X5X5X5X5X5X7X5X5X5X5X5X5X5X5X7X5XwX7XwX5X0X>X[ m   = f f f f + + . X X X . o X @ * f * o o o o - ; ; 2 2 ; @ 2 ; ; ; - ; @ o @ @ @ @ - - o X - - - * - @ - ; q 2 3 ; : ; ; ; @ ; : - : 3 ; - - q q : - - ; - - - , , 4 e 4 ; q - o o o @ @ @ o : ; ; q 2 q } l o @ @ o - : : g S A h k h A Q q.0.q.Z.q.h h 4 h %.! A ^ G M g 3 ~ 3 j u X - #.Q ^ ^ u o A : A l ~ / k j 3 j : g } ^ 3 M - 3 o - - o * o o * * @   1 o %   L C.gXV.j o q sX3 V.fXdX#XdXaX$X#X&XrXrXrXrXrXrXrXrX%XrXrXrX%XrX%XrX#XrX#X#XrXrX$XrX$X$X$XdXaXaXrXdX#XdX#X#X#XdXaXdXdXdXaXdXaXaX#X#X#XdX#XdXdXdX#XdXrXdXrX$XrXrXdXdXdXdXdXrX%XtXrXrXsXdXsX#XsXrXaXsXaXaXsXaXaXsXaXaXaXsXaXsXsXsXsXsXtXsXsXsXsXsXsXtXaXrXaXaXsXsXrXsXsXsXsXsXaXaXsXsXsXsXsXpXsXsXtXaXaXtXaXsX",
"_ _ ] ( _ _ _ _ ] ] _ ] ] ] ] _ _ _ _ ] ] ' ] [ { { g.{ { [ UXk.M.M.M.g.g.[ [ ] g.h.g.] h.h.} g.h.h.z.g.z.z.z.z.>Xv.v.z.c.v.v.v.b.b.>Xz.v.b.v.v.z.>Xz.>Xz.>Xc.v.v.H.H.H.H.U.J.U.U.P.P.P.U.P.U.J.P.P.P.T.Y.Y.Y.-X-X-X-X;X;XY.-X-X;X;X;X;X-X;X-X-XY.=X-XP.Y.=X-X-X-XI.I.I.I.=XI.=X*X<X<X-X*X*X*X*X-X-X=X-X*X:X<X*X*X<X*X*X*X*X*X7X7X*X<X7X*X*X*X*X*X7X:X<X<X7X<X7X<X<X7X2X2X2X4X2X7X1X7X2X2X4X2X2X4X4X7X7X7X5X4X5X5X7X5X5X4X4X7X5X5X5X5X5X5X5X5X5X5X5X5X5X5X5X5X5XwX6X6X6X6XwXyXj.d 5 5 . . + .   O X X X . X X . * * * * o o * * o @ @ ; ; ; @ @ ; ; ; ; 2 ; - - ; - - - - @ - - - o - - @ @ ; - - ; ; ; 3 ; - - : : - : 4 4 4 4 - : 3 g 3 - - 4 4 , 4 4 ; 4 4 4 @ q : X : ; o ; - o - * ; z l 2 l ; q q o o - q 4 h A ! h g h h G q.G q.0.u.T G h c F +.A ^ / A 3 l A : M j @ - F A / Q - 3 j u 3 - 3 3 j u Z j u j ^ / 2 j 2 2 * * - ; * o . . O ;   o ; @ X j V.nXC.; o :.7.z rXfXaXrXrX$XaXrXrXrXrXdXrX$XrX$XrX$XrX$X$XrX%X$XpX#XrX%XrXrX$X$X%XrX$XaXdXaXrX$X#X#X#X#X$XaXaXaXdX#XaXaXaXrX#XaXrXrXaXrX#X#XdX#XdXrXrXdXrXrXdXdXrXrXrXrXrXrXrXaXsXsXsXaXaXaXaXaXaXsXaXaXsXaXtXaXgXaXsXaXaXsXsXtXsXtXsXsXsXsXtXaXaXaXaXsXsXsXsXaXaXsXiXsXsXsXsXsXgXsXsXjXsXsXyXtXtXtXgXaX",
"_ _ ] _ _ _ ] ( ] ( ] ] ] ] _ ] ] _ _ _ _ ' ] h.{ g.{ { [ { { k.M.M.M.M.g.[ { g.g.g.g.g.g.} g.g.g.z.h.z.z.z.z.v.z.c.>Xz.c.c.z.b.v.v.z.v.z.b.z.v.c.c.v.v.v.v.>Xv.D.v.v.H.H.J.U.U.P.U.U.P.U.P.U.U.J.J.J.P.T.P.Y.T.T.=X-X-X-X-X-X-X;X;X-X-XT.-X-X-X=X-XP.=XI.-XI.*X=XI.I.=XI.I.*XI.-X*X*X*X7X:X*X=X*X=XI.I.:X*X7X-X<X*X<X<X<X7X*X*X*X7X7X<X*X*X*X*X<X7X7X<X2X<X<X2X<X7X7X<X2X2X2X7X7X2X2X7X4X<X2X4X7X4X7X4X7X4X7X5X4X4X7X4X5X7X4X7X5X5X5X5X5X5X5X5X5X5X5X7X5X5X5X5X6X5X5X6XwXg.) f d = . = * @ * ; O O O O . + o + ; 6 ; @ o * f ; @ @ @ ; ; 2 2 2 ; - ; * - * ; - - @ - o o o - - o - o o - - : 2 ; ; ; 3 3 z l Z g q 2 4 4 : - : 4 o o : u 3 3 u 4 3 3 4 4 4 ; 4 o @ 3 q - ; - o ; o * 3 ; @ ; z j i f - ; z - 3 j : 4 S A G 4 k k G q.q.G q.0.0.+.h - A %.#.h Q h 4 S - G - o @ @ M Q 7.~ 4 A S ~ R ^ } Q 3 j q 4 - @ Q j j 3 3 q ; ; ; * o o * ; . . @ o @ * X * Z.nX:.o o V.q 0.uXaXrXaX$XaX#XdX$XaXaXrXrXrX$X$XrX$XrX$X%XrXrXaX#XrXrXrXrX$X%X$X$XaXdXdXaXaXaX#X#XaX#X#XaXaXaX#XaXaXaXaXdXdXdXrXaXaXdXdXdXdXdXrXrXrXrXrXdX$X$XdXrXrXrXrXrXaXaXdXdXdXsXdXsXdXdXsXaXiXsXsXaXsXaXgXaXaXgXsXaXaXaXaXsXtXsXsXtXsXaXaXpXsXsXsXsXaXaXaXaXaXaXsXaXsXpXsXaXxXaXsXtXsXsXtXaXtXgX",
"( ] ( ] ] ( ] _ ] ] ] ] ] ] _ ] ] _ _ _ _ ' ] { { g.g.{ { [ UXk.M.M.M.g.g.{ g.[ g.{ h.] h.] g.g.g.h.z.l.z.z.z.>Xv.z.z.z.c.v.v.c.z.v.z.v.b.v.z.v.v.v.S.v.v.z.z.>XH.v.H.v.H.>XH.U.U.U.U.U.>XP.U.J.J.J.P.P.P.P.P.Y.Y.Y.Y.-XY.-X-XY.=X=X-X=X>X-X-X-X-XY.Y.Y.Y.-X-XI.=XP.=XI.=XI.I.-X*X=X-X:X-X-X*X-X:XI.I.-X=X-X-X*X*X<X:X<X*X*X*X*X*X<X7X*X<X:X7X*X<X7X7X7X<X<X2X7X<X7X7X-X7X4X2X2X7X<X7X4X7X7X4X2X7X4X7X7X4X7X7X4X5X7X5X4X7X5X5X7X6X5X7X5X5X6X5X5X5X5X5X5X5X5X5X5XwX6X5X6X>X) d = . = f * o X X X O O + + o * * ; ; ; ; * o * * * 1 @ @ % @ - ; ; - @ o X   X X X o o o o o o o o o o o o o o o o ; ; ; - ; 2 j l Q :.;.S A S S k : z q o X 4 j 3 g j j 3 4 3 3 4 x o o : - j l - o - : o : 2 @ o q q  .l - : 3 3 4 Z g g ! ^ G 4 A 4 q.q.G #.q.q.q.0.T - 4 ! ^ A Z : A 3 - Q 3 @ ; - / / Q ! - : o o ; j P j j 3 ; 4 4 - Q o : 3 q 3 ; * @ @ * * o O * @ o X @ * o o !.hXQ X j v U %XdX$XrX#XaX#XdXdXaX$XrXrXrX$XrXrXrXrXrXrXrXrXsXrXrXrXrXrXrXrX$X$XrXaXdXaXaXaX#XdX#X#XaXdXaXaXdX#XdXaXdXaXaX&XdXdXdXaXaXsX#XaX$XrXrX$XdXrX$XdXdXrXdXdXdXrXsXsXaXsXsXsXsXsXsXsXsXsXsXsXsXsXsXsXaXaXaXaXtXaXaXsXsXsXsXaXaXaXsXsXsXsXsXsXaXpXpXaXrXaXtXaXaXtXgXsXgXsXgXxXaXxXsXxXgXtXsXaX",
"_ ( ] ] _ ] _ ] _ ( ] ] ] ] ] _ ] _ ] _ _ _ ] [ { { g.{ { { UXk.M.M.M.g.g.{ [ [ g.g.{ ] h.g.g.g.g.l.g.l.z.z.z.z.z.>Xz.z.z.v.b.c.v.z.b.z.z.v.>Xz.v.v.c.H.H.>Xv.z.v.H.v.v.v.v.H.v.J.H.J.U.U.P.U.U.H.L.J.P.P.P.Y.Y.Y.P.Y.Y.Y.T.Y.>XY.Y.T.=XY.P.=X-X-X=X=X-XP.=XP.Y.I.=XP.I.I.=X=XI.*X-X*X-X*X-X:X*X-X=X=X=X-X*X<X<X:X*X7X<X*X7X*X*X*X*X<X7X7X<X7X7X7X:X7X:X7X7X7X<X<X7X7X<X7X7X2X2X7X2X2X<X2X4X2X4X7X7X7X4X7X4X5X4X5X5X4X5X4X4X5X4X7X7X6X5X6X5X5X5X5X5X7X5X5X5X5X4X6X5X6X7X,X) d f f . o o o o X X o @ # + o o * 0 f * o X o o - * ; 1 ; @ @ o o X X X o o @ - 2 2 - ; 3 j j 3 ; @ ; : ; @ @ @ o @ o - ; 2 3 : 3 g z g S ,.,.F ! C.;.k z Z j o @ 3 u h M j h j h g 3 k 4 o ; q 2 j ; o o ; q 3 ; 3 o q Z z l 3 ; x Z A / 3 h A } ^ A h , G 0.A #.q.q.0.+.h - - ! #.Z F : A 3 - R u o - ; 7.j S ^ : - 2 ; u Z u 3 A j 3 g @ - ^ - 3 - - ; ; ; @ o o + X o # o o o o * * l  XAXV o 4 : Z.dX$XaX$XaX#XrX$XdXdXrXrXrX$XrX%XrXrX$XrXrXrXrXrXrXrX$XrXrX$XrX$XaX$X$XaX$XaXdX#X#X&XaXdXaXdXaXaXaXaXaXaXaXaXaXaXaXdXdXdXdX#XdX$XdXdXdXdXdXaXrXdXdXdXdXsXaXaXaXaXaXsXsXsXsXsXsXsXsXsXsXgXdXsXgXaXgXtXgXaXsXsXaXaXsXtXxXsXsXsXsXsXsXsXaXaXaXpXaXaXaXaXaXsXsXsXsXsXtXsXsXtXsXaXtXsXsXaX",
"] _ ] _ ] ] ] _ ] ] ] ] ] ] ] ] ] _ ] _ _ ] ] ] k.k.k.k.[ [ UXk.M.A.M.M.g.g.] g.h.g.} h.} g.{ g.z.g.l.l.z.z.z.c.v.z.z.z.c.v.c.c.c.c.c.c.c.v.v.v.H.v.>Xz.>X>XF.H.v.H.H.v.H.H.U.U.U.U.U.U.P.P.P.U.P.P.P.P.J.P.U.P.P.P.>XP.P.P.=XT.P.P.P.Y.Y.-X-X=XT.-XY.P.-X-X=XY.T.=X=X=X-X-X:X:X-X=X*X-X=X-X*X-X:X-X-X*X*X-X*X*X<X*X-X7X:X7X*X*X7X*X7X*X7X*X*X:X7X*X:X7X7X<X<X7X7X*X7X7X*X<X<X2X1X7X2X2X2X2X4X2X4X7X7X7X4X7X4X7X7X5X5X4X4X4X5X4X5X5X5X5X5X7X5X5X4X5X4X4X5X4X4XwX5XwX5X4X8Xh.< = + * . . . @ + . # o . X o * ; * o o o o ; f ; ; @ + o X   X o o o o - o - : ; ; ; ; ; 0 C L R L l l 9 f ; * o * @ - o ; 3 : 3 : 4 M F F Q F S g Z C.,.g / ^ 3 X 3 3 k L h j A F z 3 S 4 o - z 3 u @ @ o - 3 q z q o ; g Z ~ l - z / S ^ o - Q 0.^ Q A - +.0.h 0.%.q.].q.h - : A ^ A S 3 Z A 0 L 2 @ o z C.u A S g X ; - - q q k z ; z z ; L } 3 z 3 - 3 o ; ; o o * . o o * o X * * @ 0 C.sXq - o l aXrXaX#XdXaXdX$XaX$XaXrX$XdXrXrXrXrXrXrXdXrXrXdXrX$XrX$XrX$XaXrXrXrXrX$XrXrXdXdX#XdXaXaXaX&XrXrXaXaXaXrXaX$XdXdXdXaX&XdX$X$XdXrXdXdXdXdXdXdXsXtXsXaXaXsXsXsXdXdXdXdXaXaXsXjXsXsXsXfXsXsXsXsXsXsXsXsXsXsXsXdXsXaXsXsXsXsXsXsXsXsXsXsXsXsXsXsXaXsXaXaXgXtXsXgXgXtXsXsXaXxXsXjXsXsXsXaX",
"( ] ( ] ] ] ] ] ] ] ] ] ] ] ] ] ] ] _ _ ] _ ] h.{ { { { { { UXk.M.M.M.>.g.g.g.[ g.g.g.h.h.g.g.g.g.h.h.l.z.z.c.b.v.c.v.z.z.c.v.c.c.c.c.c.c.c.c.D.S.v.v.v.c.c.H.v.H.v.v.H.H.H.v.>XH.H.U.>XU.U.P.P.P.P.P.U.P.P.P.J.P.P.P.P.P.P.P.P.=XP.Y.=X=XY.=X-X=XY.>XY.P.-X=X-X-X=XP.-X-X=X-X:X=X-X*X:X-X*X:X-X-X*X=X:X-X*X:X<X*X<X-X*X7X<X7X*X7X<X*X:X:X7X7X7X<X7X7X<X<X7X7X<X7X<X<X7X7X<X7X2X2X7X2X2X2X4X2X2X7X4X7X4X4X4X4X4X4X5X5X4X5X4X5X5X5X5X5X5X5X5X7X5X4X5X5X4XqX5X7X7X6X=X` ` H ) f f O o . o . O # . @ o + - ; ; * o o o ; f ; ; * * o o X o o o o o o o o @ o o - 3 @ % 3 j C l q ; ; 0 q j q q f * - - ; : X @ 3 4 @ 4 3 S 0.0.+.%.3 o >.C.3 ;.C.z X : : z ! ^ +.Z %.j g A : o o j 3 o 4 o o : 3 q l j o o j Z ^ Q 4 / ^ Q j X @ ^ q.! q.j - G 0.4 0.G Z.C.0.h o g A G j j 3 L l o L ; o - S ! k A j ; - 0 ; q 3 2 3 ; g l l S z x S L 3 - ; o * * o * o . o . o o X - 2 o  .Z.7.o o : oXXXaXsXrXdXdXdXdXaXaXrXrXrXrXrXrXrXrXrXrXrXrXrX%XrX%XrXrXrXrXrX%XrXrXrX$XdX#XdXdXaXaXdXdXaXaXrX&XdXrXaXrX$XdXaXdXdXdXdXdXrXdXdXdXrXdXdXdXdXsXjXsXsXsXsXsXjXdXdXdXsXdXdXsXsXsXgXsXsXsXgXgXdXsXdXsXsXsXaXaXpXaXxXsXsXsXfXgXsXgXsXsXgXsXsXsXsXsXsXsXsXtXsXsXtXjXxXsXxXgXtXaXxXyXgXtXxX",
"] ( ] ] ] [ ] ] ] ] ] ] ] ] ] ] ] _ _ ] _ _ ] ] g.k.g.g.[ [ UXk.M.M.M.M.g.[ [ g.{ g.g.[ g.] { g.g.g.z.l.z.z.c.c.c.c.c.c.>Xc.c.c.c.c.c.c.c.v.x.c.v.v.v.v.v.F.v.H.H.v.v.v.H.v.v.H.H.U.U.J.U.P.U.P.=XP.P.U.P.U.U.U.P.U.U.U.U.P.U.P.P.=X=XY.Y.=XP.-XY.T.-X-XT.=X-X-XT.=X=X=X=X-X-X-X-X-X-X>X-X-X>X:X*X:X-X*X*X:X<X7X<X<X*X<X7X*X7X*X*X<X7X7X7X<X7X<X7X*X<X7X<X7X<X7X2X7X2X2X<X2X2X2X2X7X7X1X2X2X2X4X7X7X7X7X4X7X4X7X4X4X4X5X5X4X5X5X5X7X5X5X5X5X5X5XqX4X4XwX5X7X5XwX7Xb.v.wX8Xk. .= . . . . + . O . @ X o 9 0 o X o + f 0 * @ * * o o o o . o o o o o ; 3 : - ; ; @ ; @ X X X X X       X @ @ * * o @ - ; - : : o : g 4 - 4 A S #.Z..Xk o l ^ : z Z.~ @ : z z k ^ 2.Q 0.Q A A - 4 @ j - - 3 ; o 3 g k Z Q o o 3 Z ^ Z A ^ / z o o : 7.;.7.^ - 4 0.! 4 q.G Z.Z.0.4 g h A Q A 3 3 j 2 L q - o - ! h k l q o - 3 q q q j ; ; 3 L x j ;.~ ~ Z o @ - ; o o * o . o X o . @ o o * :  .V.l - o >.dXrXsX#XdXrXdX$X$XrXrXdX$XrXrXrXrXrX$XrXrX$XrX$X$XrXrX$XrX$X$X$X$X$X$XdXdXdX#X#XaXaXaXaXaXaXrXrX$X$XdXaXaXrXdXaXaXdXrXdXrXdXdXrXdXdXdXdXdXsXsXsXsXsXsXsXsXsXsXsXsXsXsXsXsXaXrXsXsXsXsXgXsXgXgXfXsXaXsXsXaXsXsXsXsXsXsXgXsXsXgXgXsXsXsXsXsXgXaXsXgXgXaXaXgXtXjXxXtXtXgXxXgXgXtXyXgX",
"_ ] ] ] ] ] ] ] ] [ ] ] ] ] ] ] ] ] ] _ ] ] ] h.{ k.g.g.{ [ h.k.M.M.A.g.g.g.g.] { { ] g.h.g.{ g.z.g.l.z.z.z.c.c.v.c.F.c.z.c.v.c.v.c.c.v.c.c.c.v.v.v.v.S.F.c.H.v.v.v.H.H.>Xv.H.H.K.H.U.J.U.J.J.U.U.U.P.U.U.P.P.P.P.P.P.P.P.P.P.U.P.Y.Y.Y.=XY.-X-X=X-X=XT.-X-X-XT.-X-X-XY.=X-X>XT.-X-X=X-X-X-X-X:X-X-X*X-X-X-X7X<X7X<X*X<X<X7X*X:X*X7X:X7X*X7X<X7X:X7X7X<X7X7X:X2X2X<X2X<X<X2X2X4X4X4X4X7X7X2X4X4X4X7X4X7X7X4X4X4X5X4X7X5X7X4X5X7X5X5X5X5X5X5X5X5X5X5X5X5X5XwXqXU.6X:XwXcXN.< = = . X X @ + . . o X . ; ; * X o * ; ; * o o o o X X X o X o o * * u j q ; q l Z j 3 ; - o @ @ @ @ ; o o X o o - o - X o : o - : - : 4 g A - @ 4 S ~ V.:.j o l : l C.Q 3 : 3 k ,.;.q.! %.q.Q j X - @ L q o q 3 o 3 z j S :.- X 3 Q :.S Q / q : - X 2 7.q.q.A 4 A 0.g Q %.S ].C.! : g 4 A ^ l j ; g z j - 4 @ j A M k j ; : q j q ; - o : - : : @ 3 z o 3 ; o o o ; * * * . X o o o o * . o * f ~ ~ o X : aX XrXdXaXdXrXdXdXdXdX$XdXdXrXdXrXrXrXrXrXrX%XrXrXrXdXdXrXrXrXrXrXaXrXaXdX#XdXdXaXaXaXaXaXaXaXrXrXrXdXaXdXdXdXdXrXdX$XaXaXrXdXrXdXrXdXrXdXaXaXsXsXsXgXsXsXsXsXsXsXaXsXsXsXaXaXiXsXsXsXsXgXsXdXdXdXdXpXaXaXaXsXsXpXiXsXsXsXgXgXsXgXuXsXsXsXaXgXgXsXgXgXsXsXxXsXaXgXxXsXgXgXjXyXjXtX",
"] ] ] ] g.] ] ] ] [ ] ] ] ] ] ] ] _ ] _ _ ] ] j.g.g.k.g.g.g.g.g.M.A.M.M.g.g.[ g.[ g.] ] g.g.g.g.g.l.l.l.z.z.c.c.c.v.v.v.v.b.b.b.D.v.x.x.c.x.D.v.H.c.D.v.H.D.D.H.v.H.U.H.H.U.U.H.H.H.U.U.U.H.U.U.J.U.J.U.>XU.P.=X=X=XP.=XP.I.P.=X=X-XI.=XY.-XI.P.>XT.-X-X-X-X;XT.-X>X-X=X-X-X=X-X=X>X;X-X-X-X-X-X-X*X*X:X*X-X<X2X<X:X<X<X7X:X7X*X*X*X*X7X*X7X<X<X<X*X:X<X<X7X<X7X<X7X<X<X7X4X7X4X2X4X2X2X7X2X2X2X4X7X7X7X4X7X4X4X7X4X5X7X4X4X7X4X4X4X5X5X5X5X5XwX0X5X5XqX6X5XwX5XqXbX;X` 5 5 < X . X X . . . . . o f 0 + X @ ; * * o . * o o X   X X o * * 0 q l A 3 ; 3 j 3 : 2 ; - - - ; - - - y 3 2 3 2 : - o A j o o q j 3 - 3 3 3 4 g 4 - @ o : ! >./ o 2 o l C.q : z 3 ,.~ ^ q.q.R ^ ^ 4 O @ : L ; - z - - z k L ~ ^ - X 4 ^ 7.~ Q l 3 - o   g 7.~ C.4 g S 0.- #.^ #.oX#.A o - 3 S Q A 3 - j 3 - - - : Z g C q z @ q q - - o - - - o - g - ^ S Z A 3 o o * * * * o o o . o X ; * o @ 2 0 ;.R - X Z.rX%XdXrXrXdX$XdXdX&XrXrXrXdXrXdXdXrXdXrXdX%XdXrXdXdXrX$X$XrXrXaXdXaXaXdXaXdXdX&XaXaXaXdXaXrXdXdXdXdX&XaXdXrXaXaXaXaXrXdXdXdXdXdX$XdXrXdXaXsXsXsXsXsXsXaXsXsXsXjXsXsXsXaXfXsXsXsXsXsXsXgXsXsXdXdXsXsXsXuXsXiXsXsXpXsXsXgXsXsXsXsXgXsXsXsXgXaXgXgXgXsXgXsXsXsXxXsXsXgXyXjXsXgXsXgX",
"] ] ] [ ] ] ] ] [ ] ] [ ] h.] ] ] j._ ] ] _ ] h.g.g.k.g.g.{ g.m.M.M.M.g.g.g.g.[ g.g.g.g.g.g.k.k.g.k.M.l.z.z.c.c.x.b.v.D.v.K.b.b.v.v.x.v.v.v.D.D.H.H.H.D.>Xc.H.J.H.H.H.U.U.U.H.H.H.K.J.K.U.U.U.U.K.K.U.U.U.=X=X=XY.>X-XP.P.=X=XP.P.=XI.-X=X-X-X-X-X-X-X-X-X>X>X;X:X-X:X-X=X;X>X-X-X-X-X;X-X:X-X-X-X:X-X:X-X:X<X<X<X<X*X<X7X7X<X*X<X*X*X*X*X7X7X<X7X7X7X7X7X<X7X:X7X-X7X7X7X7X4X4X4X2X2X2X7X7X<X4X7X7X7X4X4X4X4X4X5X5X4X4X4X4X4X4X4X4X5X5X5X5X5X5X5X4X5X0X4X5X5X0XF.W <   = X   O . o . . . . . o ; ; * * * * * o @ o o * o X X o o @ * * ; 2 q z L l C ~ ~ C j q j q 3 3 q 3 q j 3 g j M L Q k k 7.;.j - o l ^ j 3 : 3 g 3 j 3 o o o o - Z ~ o 3 @ l ;.g - g : o.^ u.G 0.A ^ 7.4 -   g L 3 3 z - 3 j 7.#.A j : X - 7.7./ l o - o o - z :.0.A j S ;.S - 0.k Z.C.q.: o 4 - Q R j 4 3 : 4 @ - 4 A q Z j k @ - - ; ; o : o o - @ j j Z 7.Z g : - - o o * * * * * o o * X o @ @ ; o ' Z.j o / fX$X%X$X$X$XdXdXrXdXrXrXrXrXdXrXrXrXdXdXrXdXrXdXdXdXdXdXdXrXdXaXdXdXdX&XaXdXdXdXdXdXaXaXrXdXaXdXdXdXdXaXrXdXdXrXaXaXdXaXrXrXaXaX$XdXdXrXaXaXsXsXsXsXsXjXsXsXsXsXsXsXsXsXdXgXsXsXsXgXsXsXsXiXsXgXsXdXsXsXgXsXsXsXsXsXsXiXiXsXsXsXsXsXsXiXaXgXsXgXgXgXgXgXsXgXsXsXgXsXsXxXxXgXxXsX",
"] ] [ ] ] ] [ ] ] [ ] ] ] ] ] ] ] ] ] _ _ ] ] h.g.k.k.g.h.] g.g.M.M.M.M.g.[ g.] g.[ g.h.g.g.g.l.l.l.l.l.z.z.c.c.x.v.v.v.b.b.b.b.D.x.D.x.v.D.H.D.v.D.H.H.H.H.>XH.v.U.H.H.v.H.v.U.H.H.U.H.J.>XJ.P.J.H.U.U.P.P.=XT.P.-X=X=X=X=XP.=XI.I.I.-X-X=X-X-X-X-X-XT.-X-X;X;X;X-X;X>X-X;X-X:X-X:X-X-X:X-X;X;X*X:X*X*X<X:X<X<X2X<X<X7X*X<X*X*X7X*X*X*X*X<X2X2X7X:X7X7X<X7X<X7X<X7X7X7X<X4X4X7X7X4X4X7X7X4X4X<X7X7X7X7X7X4X4X7X5X5X7X5X4X4X4X4X4X4X5X5X5X5X5X5X2XwX0XI.5XwX=Xj.H = 5 = < = #   X . . o o * * * ; X X ; f +   * @ . . X . . o . + o o o o o o o o - ; : 3 q j j q g g z j g g g k S S S #.^ ^ ;.l :.:.L 3 g g 3 q 3 u l j 3 j q - X o o o ; L q @ ; l L 3 3 c : F +.d.q.0.A :.^ o g @ j L z z g o z Q C.A g 4 3 o A 7.7.k @ ; @ o o - M } / h S Z 7.4 k ;.h oX0.^ ; X @ g ;.k j : 3 j 3 - 4 u C 3 3 l g - 3 ; ; @ 0 @ - 3 - : 3 Z 7.Q j l : o @ . o * * = * * o @ o * o o ; o q 7.V + , $XrX$XdXrXrXdXrXrXdXrXrXrXrX%XdXrXdXrXdXrXrXrXdXdXdXdXaXaXdXaXdXdXdXaXdXaXaXdXdXdX&XdXrXdXaXaXdXaXdXaXaXdXaXdXdXdXaXaXdXrXdXrXdXdX$XdXdXaXaXaXsXsXsXsXsXfXfXsXsXsXsXsXsXfXsXsXiXsXsXdXgXsXsXdXgXdXgXgXgXgXsXgXsXgXsXsXsXsXsXsXsXiXsXsXsXsXgXgXsXgXaXsXgXxXjXgXgXxXgXxXsXxXsXsXxX",
"] ] ] ] ] ] ] g.[ [ [ ] ] ] ] ] j.] ] _ ] ] ] ] g.k.m.g.g.g.g.m.M.A.M.M.g.g.g.g.h.g.g.g.g.g.g.g.M.g.l.l.z.z.b.v.b.x.x.x.b.b.b.b.v.v.x.x.v.v.v.D.v.v.H.J.H.H.H.J.v.>XH.v.H.H.v.>XH.J.U.U.P.U.U.U.>XU.U.U.U.P.U.=X=XP.P.=XP.U.P.P.P.I.I.=X=X-X-X-X-X-X>X-X-X-X;X-X;X;X:X-X-X;X:X:X-X-X-X=X-X-X:X<X-X*X-X-X:X<X<X2X2X<X<X<X<X7X7X*X7X<X*X7X7X<X<X2X*X7X:X<X7X7X:X2X4X2X2X<X7X7X7X4X7X2X7X2X2X4X2X2X7X1X7X7X4X4X4X4X5X5X5X4X4X5X4X4X4X4X5X5X5X5X5X5X0X3X4XwX0XD.>XbXg.= $ ,   X   O X . o . . * ; f X * * ; @ + + @ X . X . * ; * X o o * @ ; ; ; ; 2 : q q q 3 : 3 g 3 3 g h 3 g h Z / F A F k g Z k Z / Z j j 2 - : g 3 Z :./ g S z - o : X - - q j o - z q : q z 4 4 F oX0.A U 7.~ X o z ~ Z : Q 4 3 ^ #.;.A g k - o C C.L g o o - X - 3 ;.;.- 4 #.S F o ;.k #.$X:.A @ - - j ~ 4 g g : 3 - : 3 R g z g z o q q ; - ; - - - ; q z 4 ! :.q z l o o * o o o * * - * o . * o - o ; o V 7.4 , Z.dXrX$XrXrXrX$XrX$XrXrXrX$XdXrXdX$XdXrXdXrXrXrXrXaXrXaXrXrXdX$XaXaXaXdXaXaXdXdXdXdXrXrXrXdXdX&XaXrXaXaXrXdXdXrXaXaXaXrXdXrXdXaXdXdXdX$XjXaXsXaXsXsXfXgXjXsXsXsXsXsXsXjXgXdXsXsXsXsXsXsXgXgXdXgXfXdXfXfXsXgXsXfXgXsXsXsXsXsXsXiXsXgXsXgXgXjXsXgXsXsXgXgXsXxXgXgXsXsXgXsXhXyXgXyX",
"] ] ] ] ] ] { g.] ] ] ] ] ] ] ] ] ] ( ] ( ] ] g.g.g.M.g.{ [ g.g.M.A.M.>.g.g.g.{ g.g.g.g.g.g.g.k.m.l.l.l.c.b.b.b.b.b.b.c.b.z.b.b.c.c.c.D.v.D.v.c.v.v.c.H.H.H.H.v.H.v.v.H.H.H.H.>XH.H.H.H.>XH.U.U.P.P.=XT.P.P.P.P.=XP.>XP.P.P.P.P.I.P.P.P.I.Y.Y.Y.-XY.P.Y.P.P.-X-X-X-X-XI.-X-X-X;X*X*X-X*X-X*XY.*X*X*X*X-X<X*X*X*X<X*X7X-X*X7X:X7X*X:X*X*X<X<X2X2X2X7X*X*X<X2X<X2X5X2X3X2X3X3X<X<X4X<X4X4X4X4X2X4X4X<X4X4X4X4X4X4X4X4X4X4X4X4X5X4X4X7X5X4X4X5X5X5X5XwX4X5X0XT.cX,Xf = . . X       X $ + o ; 0 ; o ; * & % # . o o X X X o o o * * ; ; ; * ; - ; 3 ; 3 q : ; : 3 3 3 g 4 : : : : g 4 4 : : g g g S S #.S : o 4 j @ o o g k ^ aX7.A Q A : @ - o - o q 3 - ; l 3 - z j 4 4 ^ Z.:.- ^ C.g o - k ^ k z S - S #.#.Q k 3 3 : o #.,.C - o - - X 3 : >.l o x ,.~ - h ,.g .XZ.S - : : - z l 2 q - 3 j - 2 A l j 3 A : @ q : * z z z j : Z Q A Z >.@ 4 3 o f o @ o o * ; * * * o . o o @ * ; X 7.}   ;.sXtXsXaXaX&X#X#XaXaX#XaXaXaXaXrXrXrXrX$XrXrXdXrXdXrXrXrXrXdXdXrXdXdXdXdXrXdX$XrXrXdXrXrXrXdX&XdXrXdXdX&XdXdXdXaXaXaXaXdXaXaXaXaXaXdXdXaXsXsXsXsXsXgXsXhXgXsXsXsXaXxXaXdXgXgXdXgXgXsXsXkXgXfXgXgXgXdXdXgXdXsXgXkXdXgXdXdXsXsXsXgXsXsXgXsXgXsXgXsXgXgXgXxXjXxXsXgXgXxXgXxXjXxXsX",
"] ] { ] [ [ ] [ g.[ ] ] ] ] ] ] ] ] ] ] ] ] ] ] M.M.M.M.g.g.g.M.M.M.M.M.g.g.g.[ g.g.g.>.g.g.m.g.l.UXl.l.l.c.b.b.b.b.c.c.z.b.z.z.c.c.c.c.v.c.c.D.H.H.D.c.v.H.H.H.H.H.v.v.H.H.H.v.H.H.H.U.H.U.U.J.P.P.U.P.P.P.P.P.Y.Y.P.P.P.P.P.P.U.P.T.P.P.Y.Y.Y.-XY.Y.Y.-XY.Y.-X*X-X-X-X-X-X=X-X-X:X<X*XI.7X*X*X-X*X*X*XI.*X:X*X*X-X*X*X<X<X<X<X<X<X*X7X7X*X<X2X<X<X7X*X7X<X2X<X4X4X2X4X4X2X2X2X<X3X2X4X4X2X4X4X4X4X1X4X4X4X4X4X4X4X4X4X5X4X5X4X4X4X4X4X4X4X5X5X7X5X4X7X0XwXR.d = X X X . X . # . . + * 2 ; o * ; f ; $ + . X X . o * * * - * * * - - ; ; ; : ; ; - - - ; 3 ; - o - - - 3 g g : : c g z h g g h S h ! C.+.: 3 S - : X z ! S k ;.#.7.! 4 - - @ : - : q ; @ j 3 o A 4 - 4 q.7.Q : ! ;.o - - :.L k ! ! - ! ;.~ k q : z o - Z.,.o : - o o - g L ^ o ; >.~ S o #.l ^ $XQ g - j - q j j - q - q - 3 j j u 3 l q - g - q 3 g k j g S g g : #.L : ; * o @ o * o * * - * o o . o o o o * @ u } o L gX@XaXdXaXaX#XaX#X#XaXaXdXdXaXdXaXrXdX$XrXrXrXdXrXrXrX$XrXrXrXrXdXdXdXdXrXrXrXdXrXdXdXdXaXdXrXdXdXdXdXdXdXdXdXdXaXdXdXaXaXaXaX&XaXaXdXsXsXsXsXsXsXsXjXhXsXgXsXsXjXyXjXfXgXgXgXfXgXfXfXgXgXfXgXgXgXkXfXgXgXgXdXdXkXdXgXsXgXiXsXsXsXgXgXgXsXgXsXgXgXgXgXjXxXjXxXgXgXjXyXsXxXjXxX",
"] ] ] { ] ] ] ] ] ] ] ] ] ] ;.] ] ] _ ] ( ] ] g.g.M.M.M.g.[ g.M.M.A.A.M.g.>.g.g.{ g.g.{ g.k.g.k.l.l.l.l.l.b.b.b.b.b.l.c.n.z.z.z.c.c.c.D.c.v.H.v.v.c.c.v.v.H.v.v.H.v.v.v.H.v.>Xv.H.K.U.J.U.U.U.P.P.P.P.P.>XP.P.P.P.Y.P.P.>XP.T.P.P.P.P.Y.Y.Y.Y.Y.-X-XY.I.Y.Y.-X-X-X-X-X-X-X=X-X-X-X-XI.<X<XI.<XI.*X*X-XI.*X<X*X<X*X-X*X<X<X<X<X2X2X2X7X*X<X*X7X7X<X7X*X*X*X<X7X7X2X2X2X3X3X4X2X2X<X2X2X2X3X4X<X4X4X7X4X4X5X4X4X4X4X4X4X4X4X4X4X4X5X5X4X4X4X5X5X5X4X5X5X5XP.R.j.5 . X X . . . . + . # % 0 2 @ o 3 * * * . o X o o o @ * * f * * ; - * - - @ @ @ @ - ; 3 ; - o ; 3 4 g h k g 3 g z g z k k A k z A k Z S ;.C.,.k - 3 : : o j 7.! 3 A 7.~ :.S o o : - o - - 3 3 ; q 4 R ; : 4 7.Q A 3 >.S o @ 3 >.^ j #.k g ,.S z l 3 Z 3 X Q Z.A o - o - o ; 3 :.z o k ^ Q - g #.j Z.q.Q - 3 3 - 2 C : 3 ; 3 - u 4 u 3 2 3 l - q ; - : j L k A F j z : l ^ X @ - ; * * o * * o * * * o o o X o + o 2 X ^ l * oXrXdXdXaXaXrX#XdXaXdXaXdXdXaXaXrXrXrXdXrXrXrXrXdXrXrXdXrXrXdXrXrXdXdX$XrXrXrXdX$XrXdXdXdXdXdXdXdXdXfXdXdXdXdXdXdXdXdXdXdXaXaXdXdXdXdXjXyXgXsXsXgXgXgXgXjXsXsXgXsXjXxXfXgXfXgXgXgXgXgXsXsXgXgXgXfXgXgXgXgXgXgXgXgXkXdXsXsXsXgXgXsXsXfXgXgXsXgXsXgXfXgXjXsXgXgXgXgXgXjXgXgXgXgX",
"] ] { ] { ] ] ] ] ] ] ] ] ] ] ] ] ] ] ] ] ] ] ] g.M.M.g.g.g.>.g.M.M.M.M.g.g.{ g.g.{ { g.g.g.g.k.UXUXn.n.l.b.b.b.b.b.c.z.z.z.z.z.c.c.x.c.H.c.H.c.H.c.D.D.c.H.D.v.H.v.>Xc.H.v.>Xv.P.U.U.U.U.=XU.P.P.P.P.P.=XT.=XT.=XP.Y.T.=X=X-X-XY.Y.-XY.Y.1X<X-XY.I.Y.Y.-X-X-X-X-X-X:X-X-X-X=X-X*X*X-X*XI.<X*XI.7X:X*X*X*X*X-X<X<X*X:X7X<X<X<X<X2X7X<X7X7X*X7X*X*X7X*X*X*X<X2X7X2X<X<X2X2X2X3X<X<X4X<X4X2X2X4X<X4X4X4X4X4X4X4X4X4X4X4X4X4X4X4X2X4X7X4X4X5X5X5X5X5X5X7X4X:X0X)   . . . . + . . . . ; 0 ; ; f : f * . o X X o o + * @ o * * - * @ * - ; ; ; 3 q g g 0 - ; - : 2 : : - o - 3 g z : g g g g j j h j g 3 g S ^ 7.Z.:.z : : - o h 7.~ 4 A ^ F 7.#.3 - : : : @ ; 3 ; : - A A : : A ^ Q g - C.: o - Q :.Q z #.g ~ ^ g z k l j - X ,.Z.4 o - o ; @ ; ~ L o - Q L z X >.Z ;.C.^ g @ Q - - l C - 3 3 - j 4 3 3 2 3 j : 3 : g z : z S A A j j g z ;.j ; o * * o o * o o o * f * * o . o o @ ; O L } X / fXsXdXrXrX$X#X#X#XdXaXaXdXaXaXaXaXdXdXrXrXrXrXrXrXdXrXdXrXrX%XrX$XrXdXrXrXdXdXdXdXdXdXdXdXaXdXdXdXfXfXfXdXjXdXdXdXaXdXdXdXdXdXdXdXdXsXjXsXsXsXsXjXgXgXgXgXgXjXgXgXjXfXfXkXgXgXfXfXgXgXfXfXgXgXfXgXgXgXdXdXdXgXdXdXgXsXgXsXgXsXgXgXfXgXgXfXgXgXfXsXgXxXgXgXsXgXgXjXxXgXgXgXgX",
"] ] { ] ] ] ] ] ] ] ] ] ] ] ] ] ] ] ] ] ] ] ] { M.M.M.M.>.g.g.M.C.M.B.M.>.g.g.g.{ g.g.g.g.g.k.g.UXn.l.n.n.z.b.z.x.b.c.z.z.z.z.b.v.F.c.v.c.D.c.H.c.c.D.c.v.v.H.H.H.H.v.H.H.v.H.U.U.J.U.U.U.U.P.P.J.P.T.P.T.=XY.=X-XT.-X=X-X-X-X-X-XY.-X-X1X1X1X-XI.-XY.-XY.-X-XY.;X:X-X;X-X-X-X=X-X*X*X-X*X7X*X<X-X-X*X*X*X:X<X<X<X7X<X*X<X<X7X:X<X7X<X<X:X7X<X<X-X*X*X*X7X<X<X<X<X*X<X<X2X3X<X2X2X<X4X<X<X2X<X4X4X4X4X4X4X4X4X4X4X4X4X4X4X2X4X2X7X5X4X4X5X5X5X5X5X4X4XwX4Xl.= = = . . X . + # % * f 0 * @ 0 3 * * o . o X . . . o o * * * o * @ @ * ; q q 3 2 3 - - - - : 3 2 ; 3 k Q k k ~ #.S x k g g h j g j k ~ g o : Q :.C.C.>.g o : - ! ,.F 3 ^ #.Z ,.7.k - - g 3 @ : q : : @ ^ A : 3 7.Z Q o Q ;.o : - ~ 0.g Q Q o #.L : L j j 3 - 3 Z.#.o ; o ; o 2 q ~ - o q Q L o S ^ A Z.:.j - k q - j L ; 3 3 - 3 3 3 j - 3 3 3 : 3 2 j Z ^ F 4 : A l z 3 l Z 3 ; 2 * o o * o o o f ; f * o o o o + @ * l >.o q aX#XrX$XrXrX$XrX$XrXaXaXaXdXaXaXdXdXdXdXrXrXrXrXdXrXrXdXrX$XrXrXrX$XdXrXdXdXdXdX$XdXdXdXdXdXdXdXdXjXfXfXfXdXfXdXdXdXdXdXdXdXdXdXdXdXaXsXsXsXgXjXjXgXgXaXjXgXxXxXjXxXfXgXgXfXfXfXgXgXkXgXgXfXgXfXgXfXfXdXuXdXsXgXdXgXsXsXgXgXgXgXgXfXfXfXgXgXgXfXgXgXsXgXgXgXhXxXjXxXgXgXgXgX",
"] ] ] ] { ] ] ] ] ] ] ] ] ] ] ] ] ] _ ] ] ] ] g.>.M.M.g.g.g.g.M.M.A.M.M.g.g.g.g.g.g.g.g.g.>.k.k.UXl.l.l.l.l.b.b.x.x.c.c.c.c.b.b.c.c.c.c.c.c.c.v.c.c.v.v.v.H.v.K.H.H.v.H.H.>X>XH.U.U.H.K.H.J.U.U.>XU.P.P.P.>XP.P.Y.=XY.-X=X-X-X-XY.-X-X-X<X-X-X-X-XY.-XY.-XY.-XY.-X-X-X-X;X-XI.Y.-XI.*X<X*XY.*X-X<X7X*X-X*X<X7X<X<X<X:X<X*X-X*X-X:X:X7X<X<X<X<X<X*X*X*X-X<X<X<X<X7X-X7X<X2X2X2X<X<X4X<X2X4X<X4X<X4X7X4X4X4X4X4X4X4X4X4X4X4X4X4X4X4X4X4X4X5X5X5X5X5XwX4XK.R.Y.d < = . X     o & 6 0 ; ; ; ; ; f - * . o X o o o * * * o o f * * - 0 3 3 ; - @ o o o ; ; - ; : 3 g j j k Q #.>.;.D L l g c j q 3 - : 3 S ^ L : ; q Z C.Z.S 4 o : o.! ^ 4 ^ ^ z ~ 7.x : - j z : - z 4 - M ! - : Z Q Z Z - >.z X 3 z ^ } k ^ o z ^ k z L : j : o ^ 7.; o o o @ ; ; L 3 o @ z x - 3 :.A 0.7.A h - q ; 2 j k o 3 ; : 3 g u : 3 2 3 - 3 3 4 Z ;.:.,.! 4 z : 3 g Q 3 l @ * * * o o o o * o @ - ; * * . o * @ 3 l 3 o Z.sX$X$XrXrXrX$XrX$XaXaXaXaXaXaXrXdXrXrXdXdXdXdXdXdXdXrXrXdXdXdXdXdXdXdXdXdXdXdXdXdXdXdXaXdXdXdXfXfXdXdXjXdXdXdXdXdXaXdXaXaXdXdXdXaXaXsXsXsXsXsXsXgXgXjXxXgXsXjXgXjXfXkXfXgXfXkXgXfXgXfXkXgXsXfXgXdXgXdXdXdXgXsXgXdXgXgXgXgXsXfXfXfXgXfXgXgXfXgXgXhXgXgXgXgXgXjXxXgXxXgXgXgX",
"_ ] ] ] ] ] ] ] ] [ [ ] [ ] ] ] ] ] ] ] ] ] ] g.M.M.M.M.g.g.g.M.A.A.M.M.M.g.g.>.g.g.g.g.g.g.g.k.UXl.l.l.z.b.b.b.x.x.x.c.c.b.x.b.v.c.F.c.c.v.c.D.v.v.v.D.x.v.v.K.H.H.H.v.H.H.v.U.U.H.K.U.K.K.U.P.P.P.P.P.P.P.P.P.=XP.T.=X=X-XY.-XP.Y.Y.-XY.-XY.Y.Y.-XY.-XY.Y.Y.P.-X-X-X-X-X-XI.=X*X-X=X*X-XI.<X7X2X<X<X:X-X*X-X:X*X-X*X:X-X=X=X:X*X<X<X7X<X<X<X7X-X*X*X:X<X<X<X2X<X-X<X7X<X<X3X<X2X<X2X<X<X2X2X2X1X4X4X4X4X4X4X4X4X4X4X4X5X4X5X4X4X4X4X4X5X5X5X5X5X7X4X4XqXIX) 5 f = o X X + ; ; 3 * ; q 0 ; ; * o X X o . * * o * o o * * ; * * ; ; - o o - ; 2 3 3 : - 3 q q 3 l A Z k z : - - : : - o - - o X o : : z ;.,.^ k 3 3 3 ~ o.: : o F k 3 : ,.Q Q Q #.;.Z 3 k l : : z : 4 k Z g - S Z z g z ~ o ; z g ,.z k Z - S l j L q 3 - @ 3 :.L o @ o ; o ; j k o o - l : ; :.Q #.7.F j o 3 ; : 2 L - 4 2 @ 4 j j 4 3 3 3 ; 2 3 3 A A / 0.0.} ~ g q : j * l j ; ; - @ o o o o o * ; * * * * o ; @ : * : o :.hX%X$X$XrX$X$X$XrX&XrXdXdXdXaXrXrXrXrXrXrXrXdXrXdXdXdXdXdXdXdXdXdXdXdXdXdXdXdXdX$X&XdXdXdXdXdXfXdXdXdXdXdXdXdXdXdXdX&XaXdXaXaXdXaXaXsXsXsXgXjXiXsXjXxXjXsXjXxXgXsXdXgXgXfXgXgXgXgXgXgXfXgXgXgXgXfXgXdXgXgXfXdXgXdXgXgXgXkXgXhXgXgXsXfXgXhXhXgXgXhXxXhXgXhXxXjXxXhXjXxXxXaX",
"] ] ] ] ] ] ] g.] ] ] ] ] [ ] ] ] ] ] ] ] ] ] g.g.M.M.M.g.g.>.M.M.A.A.M.g.g.g.g.g.{ >.g.g.g.g.k.l.l.l.l.l.z.z.b.c.b.c.c.x.x.x.x.c.v.c.c.c.c.v.D.v.H.H.D.x.v.v.K.>Xv.v.v.U.U.H.U.>XU.U.J.U.J.U.P.P.P.P.=XP.P.P.P.Y.Y.P.P.P.Y.P.=XP.Y.I.Y.Y.Y.Y.P.-XY.-XY.-XY.Y.P.-X-X<X<X:X-X-X=X-XI.I.-X*X<X7XY.;X<X<X<X:X-X*X-X=X-X*X*X*X-X-X*X<X<X<X<X<X<X*X:X*X*X*X7X<X2X<X<X<X<X<X2X4X4X2X4X4X4X3X4X<X2X4X<X4X2X7X4X4X4X3X4X3X4X4X4X0X4X5X4X4X4X4X4X5X5X5X5X5X4XwX4XT.qXh.7 . o = . o % & ; f @ 0 q 0 * - o . X o @ . * * o o o o * * ; ; ; o o o - @ - - - - ; q 3 : 4 3 3 4 Z z - - 4 : o o - - o - ; : 3 q : - q j 3 l ;.^ j 3 4 g S x : 4 A 4 4 z #.Q k z ;.>.k z ~ S ; g 3 S z ~ k 3 j Q q 4 3 L 3 : : 3 Q / z Z - j L z z Z ; 4 - @ :.} o @ o - o 3 ; R o o : q ; o ;.S ^ :.:.3 3 o - ; 3 l q @ 4 4 : l 3 3 ; 3 3 3 : - : j C F / G } ~ Q x g l - 3 q q ; f o o * * o * ; f * * * * * o ; @ 0 ; o L sX$X$X$X%X$X$XrX$XrXdXdXdXaXrXrXrXrXrXrXrXrXrXdXrXdXdXdXdXdXdXrXdXdXdXdXdX$XdXdXdXdXdXdXdXdXfXdXdXdXdXaXaXdXdX#X#X#XdXaXaXdXaXaXdXsXaXsXgXsXgXjXiXjXsXxXjXxXjXsXgXgXfXgXgXgXfXfXgXgXgXfXsXgXgXfXkXgXgXgXgXfXkXgXgXfXgXfXfXfXgXfXgXgXfXgXhXPXgXhXgXhXjXxXxXjXxXhXgXjXaXjXxX",
"] [ ] [ ] ] ] { g.] ] ] ] ] ] ] ] ] ] ] ] [ g.g.k.M.M.m.g.{ g.m.N.B.B.M.m.g.g.>.g.g.g.>.g.g.m.m.UXl.S.l.x.b.b.b.D.b.F.b.b.b.D.b.v.v.c.c.c.c.v.c.v.v.v.v.b.x.v.v.v.U.U.U.>Xv.v.U.U.U.U.>XU.P.P.U.J.>XP.P.P.T.Y.=X=XT.=XP.P.P.P.Y.Y.P.Y.Y.P.Y.-XY.Y.-XY.-XI.-X-X-XY.:X<X<X1X-X*XI.I.I.I.I.I.I.7X<X:X<X<X<X*X:X:X-X:X-X=X=X-XI.I.-X*X:X<X<X<X<X<X<X=X-X*X<X2X;X2X<X7X<X<X2X<X4X<X<X2X2X<X4X2X4X2X3X4X2X4X2X4X2X2X2X4X4X5X5X0X5X4X4X4X4X4X4X4X5X4X7X5X7X0X8X,X,Xj.= + O o O @ 2 X 2 o ; q 2 - @ + o o = @ o o o o * o - ; f ; * * o o @ - ; ; - ; : 3 3 - : 4 3 3 : 4 4 4 j 4 - 4 g k g 3 k j j q j 3 4 - o - : : o z ;.~ z 4 : k h : A k : 4 S F g L 4 ! ;.Q Q ,.S 4 j g ~ S Q g g z Q : 3 k L - h j g 7.k q j o z L q ~ l 3 o : Z :.f @ - * @ - o ;.o o : 3 z @ Z C ^ ^ >.3 l o - , 4 3 3 4 4 3 - Z l - 3 3 3 3 : : q S :.V.:.~ Z F j z j Q j o 3 ; - @ ; * o X o o o + ; & * * 6 @ o ; ; q ; : fX%XoX$X$X$X%X$XdXrXdXdXrXrXdXrXrXrXrXrXdXrXdXrXdXrXdXdXdXdXdXdXdXaXaXaXdXdXdXdXaXdXdXdXdXdXdXdXdXaXaXdXdXaXaXdXdXdXdXdXdXdXdXdXdXsXsXfXsXgXsXgXsXgXjXhXgXjXjXyXjXgXgXfXgXdXgXfXfXgXgXgXfXfXgXgXgXkXfXkXfXfXfXgXgXgXgXgXgXgXgXsXgXsXfXgXgXgXkXhXkXhXgXkXgXxXjXxXgXxXgXgXjX",
"] ] ] ] { ] ] ] ] ] ] ] ] ] ] [ ] h.] ] ] [ [ g.m.M.M.m.k.g.g.m.N.B.B.M.g.g.g.g.g.g.g.g.g.g.k.k.l.m.l.c.l.b.b.b.D.b.b.b.D.b.b.b.v.c.v.c.v.b.v.v.v.v.v.v.v.b.v.K.v.U.U.J.H.H.U.U.J.U.U.U.P.P.>XU.P.P.P.P.=X=XT.-X=XT.T.Y.P.P.Y.>XY.-XP.P.Y.Y.P.P.-XY.Y.Y.-XY.-XY.-X:X<X1X<X;X-X*X-X-X*XI.<X<X*X<X-X:X:X:X<X<X<X<X;X:X-X*X-X=X-X=X:X*X:X-X:X<X:X-X-X*X;X2X;X2X:X:X<X<X<X2X4X4X2X4X4X3X<X4X1X4X4X4X2X4X3X4X3X4X4X4X2X4X4X5X4X4X4X3X4X4X4X4X5X5X4X4X5X4X0XY.:X>X .= = . O ; $   2 - ; 3 2 ; ; @ o o o . o * * o o o f 0 ; ; - @ @ * o ; 2 ; - @ ; 3 ; 4 3 4 q z g g 4 h 4 h h A q.G #.<.q.#.j 3 3 : o - : g : - : : : : ^ #.h 4 : : g 4 g g : g Q z h l : x x Q ;.>.! z k z ;.Q k g g L : g z L : l k 3 ;.Z 3 g : 3 z 3 L Z 3 3 : : / z o 3 ; o - o ~ ; - o 3 0 - Z S ;.Q ;.z j : @ ; - 3 e ; ; 4 - k j : 4 3 q ; : 4 3 3 g g g z k L k q : : q - j : q - o * * o * o + o * @ * ; ; ; ; - ; @ q ; @X%XoX$X$X$XdXrXrXdXrXdXdXrXrXdXrXdXrX$XdXdXdXdXdXdXdXdXdXdXdXrXdXaXaX$XdXdXdXdXdXaXdXdXdXdXdXdXjXdXdXdXdXdXdXdXdXdXdXdXfXdXdXdXfXgXsXjXsXgXjXgXgXsXxXgXhXxXsXjXxXfXgXgXgXkXgXgXfXgXgXfXgXfXgXgXfXgXfXgXfXfXgXfXkXhXgXhXgXhXgXfXsXfXgXgXgXfXhXgXkXgXhXkXgXhXhXhXgXsXgXsXxX",
"] ] ] ] ] ] ] ] ] ] ] ] ] [ [ ] ] _ h.' [ ] g.g.k.V.M.m.g.{ k.V.B.B.B.m.k.k.k.g.>.g.g.g.g.k.g.m.l.l.7.l.x.b.x.b.b.b.D.b.b.b.b.b.v.c.c.c.v.v.v.v.v.v.v.c.v.v.v.v.H.U.U.J.U.H.U.J.H.U.U.J.U.U.U.P.P.P.>XP.-XT.-X-X=X-X=XP.P.P.P.P.=XY.Y.Y.P.P.P.Y.Y.Y.-X-X-XY.Y.-X-X;X;X;X1X<X;X-X:X*X<X7X<X7X*XY.*X-X-X;X3X3X3X4X:X:X;X:X-X:X-X-X-X:X*X<X<X:X:X<X*X-X:X<X2X<X:X:X1X2X2X3X2X<X4X<X2X4X4X<X4X2X2X4X4X3X4X2X2X4X2X3X3X2X4X3X4X4X4X4X4X5X4X4X5X5X5X4X4X4X0X1XqXG.< = X * & . X o e o q 3 ; ; * o @ @ o o o . . o o ; ; ; * o o o * ; 0 - o - ; 2 - : - : 3 3 4 4 4 : 4 h h h h h h h S F F A F #.^ S ^ Q g g : : : - : g g h #.#.x g h 4 g k 4 g F S c x : c x z Q 2.C.+.! k x ~ k Q 3 x z g x Q g k S : k ~ g 3 g 3 3 z z L : 3 3 - k E o : : - ; o q q o - * z ; q R ^ Q ! Z j j @ ; - 2 3 4 4 2 - j j : 3 : ; ; : : 3 - o o o o : g l L Q l Z - o ; ; 3 0 * o * X o o @ o @ & ; 1 * ; - ; o q ; Z.$XoX%XoX$XaXrXrXrXdXdXrXdXrXdXdXdXrXdXdXdXrXdXrXdXdXdXdXdXrXdXpXdXaXdXdXdXdXdXdXdXdXdXdXdXdXdXfXdXdXfXfXfXdXdXfXfXdXfXdXfXfXfXdXhXgXgXfXjXgXgXhXjXgXjXgXjXxXgXgXfXgXfXgXfXfXfXkXfXfXkXhXhXgXfXgXgXfXkXfXhXkXkXkXhXgXfXgXgXgXgXgXfXfXgXhXfXkXhXkXkXhXhXgXhXxXxXgXgXgXjXxX",
"] ] ] ] ] ] ] g.[ ] ] ] ] ] ] [ } h._ h.] [ [ g.m.N.B.m.k.g.UXM.N.B.B.m.k.g.UXg.k.g.g.g.g.g.k.g.m.l.b.x.l.D.x.b.D.b.b.b.b.b.b.b.v.v.c.c.b.b.v.v.c.c.v.v.v.v.v.v.v.H.U.H.H.H.H.U.U.U.J.U.J.P.U.U.P.P.P.-X=X=XY.=XP.Y.Y.Y.P.=XT.=X-XY.P.Y.P.Y.P.P.I.Y.Y.-X-X-XY.Y.=X-X;X;X<X1X:X-XI.-X*X<X<XY.<X*X-X:X;X:X3X3X3X3X8X3X3X3X;X:X;X:X:X<X<X<X<X<X<X<X:X-X:X2X<X<X<X;X1X2X2X2X2X4X<X2X<X2X2X<X2X<X2X4X2X4X3X2X4X4X4X4X2X4X4X4X4X4X4X3X5X4X4XqX5X5X4X4X7X4X3X;XwX] = = = f *   X u @ - j 0 ; @ @ * o o o . o o o * f ; * o o o ; f ; - @ - : ; ; : - : ; 4 4 4 4 4 g g g A x k k S G G S D +.! #.Q k g g h k Z k c z 3 3 - 4 - : ! k 4 4 g g g g g z k ! h k 4 h g h D C.<.! ! x ,.k x h z x 4 ^ ! x l ^ 4 g ^ z : z 4 : z z k : j Z 4 q ~ : - 3 o - o 3 l o * 3 l - 0 A Z / L Q q l - ; - 4 4 4 - 4 - A j q 3 : 4 3 ; - 3 g l k 4 o - : - : : g Z j : : 3 ; ; l 0 o o X o o o + * ; 6 X - 6 q - q ; C.$XoXoX%X%XrX$XdXrXrXpXrXrXdXpXdXdXdXdXrXdXrXdXdXdXdXdXdXdXdXdXdXaXaXdXdXdXdXdXdXdXdXdXdXfXfXdXdXfXdXfXdXdXfXfXdXdXfXfXjXfXfXjXfXjXhXgXgXjXgXjXgXgXgXxXjXxXjXsXgXfXgXgXfXfXkXgXfXfXkXgXhXgXfXfXgXdXkXfXkXkXfXkXfXgXfXgXfXgXgXgXgXfXgXgXgXfXkXgXhXkXhXPXhXgXhXhXhXjXxXjXsX",
"] ] ] ] ] [ [ ] { ] ] ] ] ] ] { ] h.] h.[ ] ] g.m.N.M.m.k.g.k.M.B.B.N.M.k.g.k.k.k.g.g.g.g.g.m.k.l.l.l.l.l.c.x.b.b.b.b.b.b.b.D.b.v.c.c.c.b.b.b.b.v.v.v.b.v.v.v.v.H.H.H.U.H.H.H.U.H.U.K.U.U.J.U.J.P.P.P.P.Y.T.P.=XP.=XY.T.P.T.P.Y.Y.Y.P.P.P.-XY.Y.Y.P.-XY.Y.Y.Y.Y.I.-X-X-X-X-X<X-XI.*X-X*X7XY.<X*X;X:X:X;X3X3X3X3X8X3X3X3X;X2X1X;X<X:X<X<X<X<X:X-X*X-X:X<X2X2X3X<X2X2X3X2X4X2X<X2X4X<X<X2X<X4X<X3X4X4X2X4X4X4X4X3X2X4X4X4X4X5X4X4X5X4X4X4X4X4X4X4X4X4X7XL.,Xd   f f * X . ; 2 o l 2 3 ; - o o @ o o o X * f 0 * o o o o f ; ; ; @ @ - ; : : : - : 4 4 4 : 4 g h h c A S x F X.X.f.q.%.+.G %.+.#.$.! S k k g : : 3 : z g z c : S x g k h g h g h h #.z g k g S h c ! ,.<.,.#.,.x k k g x : Q ! F j ^ A 4 F k 3 z 3 : g z k k F Q : 3 L q o : - - - ; z j o l : q g z z ;.L ~ j l - - @ 2 e 4 4 - - z g 3 3 : : 3 : - : : 3 k k u 3 g : 3 ; 3 3 3 3 z - - ; ; 0 q o . o o o @ @ * 0 o o 2 0 : ; ; 7.dX%XoX$X$XrX%X$XrXdXdXrXdXrXdXdXrXdXdXdXdXrXrXdXdXdXdXdXdXdXdXdXdXdXrXdXdXdXdXdXdXdXfXdXfXdXdXjXfXfXdXdXhXhXfXdXfXfXfXdXgXsXfXgXgXfXfXfXgXgXjXsXxXjXgXhXjXgXgXjXgXgXgXfXfXgXgXgXfXgXfXkXgXfXfXgXgXgXfXhXhXkXkXfXgXgXgXgXsXgXgXfXhXgXgXhXgXhXhXkXkXhXhXPXhXgXPXhXxXsXsXjX",
"] ] ] ] ] ] ] g.] ] ] ] ] g.g.] g.] } g.[ ] { g.k.N.M.M.g.>.k.M.B.B.B.M.m.g.k.k.g.g.>.g.g.g.k.m.7.l.l.l.l.b.b.b.D.b.b.b.b.D.b.b.v.v.v.b.b.v.v.b.v.c.b.b.v.v.v.v.v.H.H.v.v.>XU.U.K.H.U.J.J.U.P.U.P.U.P.T.P.P.P.P.-XT.-X=X=X=XP.=XY.Y.Y.Y.P.Y.-X-X-XY.Y.-XY.-XI.-X-XI.=X-X-X-X*X-X=XY.*X-X<X*X<X<X;X;X3X3X3X3X6X3X3X:X3X:X3X:X;X<X*X<X:X;X<X:X-X:XI.:X;X<X<X3X2X2X1X7X2X2X4X3X4X<X2X4X4X<X2X4X4X4X<X4X2X4X4X4X4X4X4X4X4X4X4X4X5X5X5X5X4X4X4X4X4X4X4X4X1X4X;X< < f f . . ; ; X j y ; ; : o o @ o o o * * ; ; * o o * ; ; ; * o * @ : ; - - : ; : : 4 4 4 4 4 4 g h g h h x F x x F x F @.X.+.D G +.$.#.D S k x k : 4 c 4 : z c g S x h z k h h x h x x h h x x k k x #.$.<.C.^.+.k F h k 4 h ! Q Z G S 4 A z k S 3 : g z Z k Q ! 3 3 z z o ; : - - - z z @ j 3 q j z k ;.L ~ l j - - - : 3 u 4 - - A : 3 4 : 3 q : q q 3 ; 3 Q ^ Q - @ 3 j S g g ; ; z 3 * ; 0 f ; * o o . @ o @ ; ; o o @ q 3 ; ;.rX$X$X$X%X%X$XdX$X$XdXpXdXdXdXrXdXdXrXdXdXdXdXdXdXdXdXdXdXdXdXdXdXdXdXdXdXdXdXdXdXdXfXdXdXjXfXfXdXdXfXdXdXdXfXjXdXfXdXfXsXjXsXjXgXfXjXsXsXgXgXgXjXgXhXhXgXsXsXxXsXfXgXgXgXgXgXgXgXgXgXgXgXfXgXgXhXkXgXkXfXfXgXfXgXgXgXgXgXgXgXfXhXfXgXgXkXgXhXkXhXkXgXhXgXhXgXgXxXjXgXgX",
"] ] ] ] ] { ] { [ ] ] ] ] [ ] g.g.h.g.[ [ ] [ g.m.M.B.m.m.{ k.M.B.B.B.M.m.g.g.g.k.g.g.{ g.k.g.m.c.l.l.l.b.b.b.b.b.b.b.c.b.b.D.b.v.v.c.b.b.v.b.b.v.v.c.v.v.v.v.v.H.H.H.v.v.H.U.J.U.K.J.U.>XU.U.P.J.P.U.U.P.P.P.P.Y.=X-X-XT.-XY.P.-X-X=XY.Y.Y.Y.-XP.Y.Y.I.Y.Y.Y.-X*X-XY.-X-X-X-X:X*X*X*X-X<X<X:X<X:X3X:X3X;X3X3X8X:X8X3X:X3X;X1X<X<X<X2X2X<X;X:X<X:X-X<X2X3X3X2X2X<X<X2X4X2X<X4X3X4X4X4X4X4X4X4X4X3X4X4X4X4X4X4X4X4X4X5X4X5X5X0X5X4X4X5X5X4X5X4X7X7X7XqXqXc.f f f . + * + @ 2 K 3 : ; o o o o * o @ * * * o o o ; - * ; * @ o o ; ; ; 3 ; : : 3 j 3 h g g h h h h x x x x G G G X.X.F F ..D G k c x O.o.S x x ! x k k k x : 4 S k Q k z k k h x z k ! ! h x z x F D ! ,.0.0.C.! o.D k S c : F F ! G S h h g S S g g g g S j S Z g 3 z z : : : @ - : g ; ; ; z q 3 j ~ ~ S Q l q - - - - 2 3 4 : 4 A : u 4 : 3 g 2 g 3 3 4 : j A z ^ ~ g 3 L ~ x 3 : : q q * o 0 f * o o * . X @ * q @ o o q q : ;.dXoXoX$X$X$X$X$X%XrXrXrXdXpXdXaXrXrXdXdXdXrXdXrXdXdXdXdXdXdXdXdXdXdXdXdXdXdXdXdXdXdXfXfXdXdXdXfXdXfXfXfXfXfXfXdXfXdXfXsXsXgXsXsXsXfXgXgXgXjXjXsXsXgXsXgXxXjXjXxXgXfXfXfXfXkXfXgXdXgXgXgXgXgXfXgXgXgXsXkXfXkXkXfXhXgXhXgXgXgXgXkXgXgXhXnXhXhXgXkXkXhXgXgXgXPXhXgXjXxXjXgX",
"] ] ] ] ] [ [ [ { [ ] ] { ] g.] ] g.g.h.g.[ g.g.m.N.N.m.k.g.g.M.N.A.B.M.m.g.g.>.g.g.g.{ g.g.k.m.7.l.l.l.l.l.b.b.F.b.c.F.b.D.b.b.c.c.c.c.b.v.v.v.v.v.v.v.v.U.U.v.H.v.v.>XU.U.U.K.J.U.U.U.U.U.U.U.U.P.>XJ.P.P.P.P.-X=X-X-X-XP.Y.Y.;X-X-XY.P.Y.-X-XY.-XY.I.Y.I.Y.-X-X-X-X-X:X;X-X-X<X<X<X-X*X-X:X;X:X-X;X:X3X3X6X3X6X4X8X8X4X4X3X1X3X4X3X3X4X2X2X<X<X<X<X2X2X<X;X;X<X2X3X2X4X4X4X2X4X3X2X2X3X4X2X4X4X2X4X3X4X4X4X4X2X4X5X5X5X0X0X0X4X4XwX5X5X5X4X4XqX7X4XIX) = f = . * . o 2 L 3 q 3 - o o o o o o o o X o @ ; ; f o o o @ ; ; 2 ; ; : ; : q z z 3 4 g g h 4 h h h x x x h x F x X.|.r.9._.w.=.@.D x h k ! x k S ~ x k x k S D k x x ! x x ! Q x k x x ! x h o.x D O.x 2.*.C.2.D o.D h ! x 4 F G ! q.S A A g k k : k 3 4 F k ! h : : 3 3 q : 3 - - : 3 l : : q z j ; ~ l l z 2 : ; 2 - 4 4 u 4 : 3 A : j : 4 3 q 4 l j S Q A j A A j ^ Q g : z l x 3 o - q q * - 0 * * * o o + + @ ; ; o - 3 q ; ;.$XZ.Z.%XoX%X$XrXrX$XdXrXdXrXrXdXdXdXrXdXrXdXdXdXdXdXdXrXdXrXrXdXdXdXdXdXdXdXdX&XdXdXfXdXfXfXjXdXdXdXdXfXdXdXfXdXfXfXdXfXsXsXgXsXhXfXfXgXsXjXxXxXjXgXjXxXjXgXsXsXfXgXgXkXgXgXkXgXsXgXgXgXgXgXgXPXgXgXfXgXkXfXkXkXnXkXgXgXgXkXkXkXkXhXgXhXgXkXkXhXgXnXPXhXgXgXgXgXxXjXxXjX",
"] ] [ ] g.] [ g.g.] ] ] g.] ] g.g.] g.g.] ] g.g.M.M.A.M.g.g.g.M.B.B.B.M.m.k.g.g.k.g.k.g.g.m.m.m.M.l.l.l.z.z.F.x.F.b.b.b.D.b.b.b.c.c.v.c.v.c.c.v.v.x.v.v.v.H.v.K.v.>XH.H.J.K.U.U.U.U.U.K.K.U.K.I.P.U.P.U.P.P.P.I.Y.Y.1XY.Y.Y.1XY.1X1XY.Y.1XY.Y.Y.Y.Y.Y.Y.Y.Y.Y.1X1X1XY.1X1X1X1X1X1X1X-X-X;X-X1X<X1X1X1X3X3X8X0X0X8X0X4X8X4X4X4X4X4X8X4X3X1X3X3X8X1X1X3X1X1X<X<X<X;X3X3X4X3X2X2X3X2X4X2X4X<X3X4X4X<X4X4X3X4X4X4X4X4X4X4X4X4XqX5X5X5XqX5X4X5X0XwX7X4X0XIX[ 5 , , + @   @ @ @ / j q ; @ X o o + . . o X o * f * o o @ o * @ @ @ - - 3 3 q g g 3 3 h g g g k h c h c c x h k X.G G ..+.F ....D x x h x h h x S D F D ..F x F x x x ..F ....x x ..G F S F ..F S D &.x o.%.D 9.9.%.%.+.o.h D h c S D ..#.! h k h h k h h h g S F k S g : 3 z q : : 3 ; : 3  .z 3 3 z z - } j l l : j ; ; q : : j 4 - j j 3 4 3 3 3 3 3 g h S Q A F F S j h G F k h g 4 j A e - - 2 2 @ f o * * o . * * * ; ; o o z z / oX].oXoXZ..X.X.X$X$X$X#XaXsXaXdXdXrXdXdXdXdXdXdXdXrXdXrXdXdXdXdXdXfXjXfXdXdXdXjXdXdXdXfXfXdXjXfXfXfXdXdXfXfXjXdXhXfXdXdXfXfXgXdXdXfXfXkXfXfXkXkXfXfXfXfXfXfXfXfXdXgXkXkXkXkXkXgXkXgXkXkXkXkXkXuXkXgXgXgXfXgXkXkXnXgXhXhXgXkXgXhXkXgXgXgXgXgXfXxXhXgXgXgXxXjXxXjXfXfXfXfX",
"] ] ] ] ] ] [ ] ] ] g.] g.] ] g.g.g.] g.h.h.h.g.M.M.M.M.g.h.M.M.B.B.B.M.m.k.k.k.g.k.>.g.g.k.g.m.M.M.N.l.z.c.x.x.b.b.F.l.b.D.F.b.x.v.c.c.c.x.v.c.x.v.x.v.v.v.U.U.v.v.v.v.D.K.U.U.U.H.U.U.L.K.U.U.U.U.U.P.P.P.I.Y.Y.Y.Y.1XY.Y.Y.Y.Y.Y.Y.IXY.Y.Y.IX1XY.Y.Y.1X1X1X1X1X1X1X1X1X1X1X1X;X;X;X;X;X1X1X1X4X1X3X3X3X4X4X4X4X0X8X4X8X0X0X0X4X4X1X3X3X4X1X4X3X3X4X3X3X1X1X3X;X:X3X3X<X<X3X2X3X3X2X3X2X2X2X4X4X<X2X4X<X4X4X2X4X4X4X4X5X4X5X5XwX2X5XwX2X2X0XwXL.F.F.n.n < + @ @ o @ X q L q q ; ; o . + O . o * o * . o o o o - ; ; - ; ; 3 q 3 : - - : 4 : 4 : g c 4 x S g c x c c F G x c x x x x x x D ....X.-.%.-.+...x h x S F D D x x x ..h S F x x @.@.....-...@.D *.G O.<.$.$.0.9.9.+.S ..D x x ..D h <.F S A h S h h Z h k F ! D x g 3 3 z g 3 3 z : 3 : z z : q Z q : ^ g C z 3 g : - : : : j 3 - j 3 4 3 3 3 3 g g k A F Q q.F k k A A A V j A A j 4 u 4 O o , ; 1 q o o ; * o X o * ; 3 ; - 3 q ^ Z.C.oXoXoX XoX.X%X$X$X$XrX#XpXdXdXdXdXdXdXdXdXdXdXdXdXdXaXdXdXdXfXfXdXdXfXdXfXdXdXdXfXdXdXfXdXfXjXdXjXdXfXfXfXdXfXfXfXfXdXfXgXdXgXgXfXkXfXfXdXfXfXfXfXfXfXkXfXkXkXgXgXkXkXkXkXkXkXkXkXkXkXkXkXkXkXkXkXgXkXgXkXfXgXgXgXPXkXgXkXhXhXkXgXgXgXgXhXhXhXgXhXhXsXxXjXgXhXfXfXhX",
"] ] ] ] ] [ g.[ ] g.g.] ] g.g.g.g.g.g.g.h.] h.g.M.M.M.M.g.g.g.M.B.A.A.N.k.k.g.>.g.k.k.g.k.k.k.M.k.M.l.l.l.c.x.x.b.b.b.b.b.D.b.b.x.x.x.v.v.x.x.v.x.x.v.x.v.H.v.U.H.v.v.H.H.H.H.U.U.J.K.K.K.L.U.I.P.J.>XU.P.P.Y.P.Y.<XY.Y.1XY.1X1XY.IX<XY.Y.Y.Y.Y.1XY.1XIX1X1X4XIX1X8X8X1X1X;XY.Y.Y.;X-X;X1X1X1X1X1X3X3X1X1X3X4X3X3X4X4X3X4X8X0X4X8X1X3X<X1X3X3X4X0X4X4X3X3X1X3X1X3X3X3X3X3X3X2X3X<X3X2X2X2X3X2X4X2X<X4X2X4X<X2X4X4X4X4X5X5X5X4X4XwX2XwX5X6X5X8X8Xl.F.m.m   . & . o @ @ X L C 3 2 @ o X X X X X X o o o @ @ @ o * 3 ; ; : : - * - - : : : 4 g 4 g c 4 : x S c h +.x x S F F +.q.6.*.q.X.F S D F S h x x x F S S x D x x D G F F F o.@...D ..x x -.@.$.@.G 8.$.<.,.+.*.8.%.0.9.9.D x $...S ......D ,.S D S x S x S k z S F S Z g 4 : 3 g g : g q : z g 3 z : Z Z 3 3 / z l z q 3 3 : 4 : : 3 3 4 g 3 3 3 3 3 3 3 h A g G q.0.q.0.;.q.Q S #.F A 4 G A 4 4 3 3 @   2 * f ; o = o . X @ * 0 q ; : : / C.C.Z.oXoXoXoXoX$X$X$X$X#XrXrXdXdXdXdXdXdXdXdXdXdXdXdXdXdXdXdXdXdXjXfXfXdXdXdXfXdXjXdXfXhXfXfXdXdXdXfXdXfXfXzXdXfXfXfXfXfXfXfXdXfXfXhXkXkXfXfXfXfXfXfXzXfXkXfXfXfXkXkXkXkXkXkXkXkXkXkXkXnXNXnXnXkXkXkXkXfXgXgXgXgXgXfXxXgXkXkXPXPXgXhXgXgXgXgXhXgXgXxXgXgXgXgXgXgXfXfXgX",
"] ] ;.] g.] ] g.g.] ] ] g.] g.] g.] g.g.g.h.h.g.g.M.M.M.g.g.g.M.B.B.B.M.m.k.k.g.k.k.k.k.g.g.m.M.M.z.l.z.z.c.c.b.D.D.l.F.b.l.b.b.x.c.v.c.x.v.v.x.x.x.x.v.v.v.v.U.U.H.H.H.H.U.U.v.U.H.U.K.K.U.K.I.U.P.U.U.P.I.Y.-XY.Y.Y.Y.Y.1XY.1X<XY.1X1X1X1X1X1X1X1X1X1X1X1X1X4X8X1X1X1X1X;X1X;X;X-X;XY.Y.;X;X1X1X1X<X<X<X1X1X1X3X3X1X3X1X4X1X3X1X1X1X<X1X1X8X4X4X0X0X4X3X3X3X3X3X3X3X3X3X3X3X3X<X2X3X3X<X2X3X4X4X4X4X2X4X4X4X3X4X5X4X4X5X4X4X4X7X0X5X7XwX0X8X:XD.` e = X X O X o @ o @ Q l 0 ; o o X X o O O o o . + * * o @ * o o o o - - ; - - : : : : g g z k o @.$.h G F S x x F @.%...F x F +.+.X.@.*.-.*.q.-.q.@.@.@.@.$.......D D ..X.X.o.o.@.......X.X.*.*.@.@.<.*.<.9.@.%.u.9.6.0.8.D @.*...o.@.D ..D O.D S D F h G S D F ! ! S k h h g g g j q g h g z 3 g z : Z z : z Q z z g z : q 3 : 3 q g 3 3 j 4 3 3 g 3 4 3 4 g 3 h h / ^ q.q.%.q.^ Q k A j k h u 3 @ @ 0 @ o o ; 0 o @ * * * o o f 3 2 3 - S V.C.C.].Z.Z.oXoX%X$X$X$X#XrXaXdXdXdXdXdXdXdXdXdXdXdXdXdXdXdXdXdXdXdXdXhXdXdXdXfXdXdXfXfXjXdXsXjXdXfXfXfXfXjXfXfXdXfXfXfXkXhXfXfXfXkXfXhXkXfXfXgXfXkXkXfXzXfXfXkXkXkXfXkXkXkXkXkXmXNXzXkXnXnXnXnXzXkXlXkXkXgXkXgXgXgXgXgXhXgXhXnXkXhXPXhXPXhXPXgXgXhXjXxXjXgXgXgXgXgXfXgX",
"] ] [ [ ] g.] g.g.] ;.g.g.[ g.g.] g.g.g.h.h.g.g.M.M.M.M.g.g.M.M.B.B.B.M.m.g.g.g.k.>.k.g.>.M.m.M.N.l.N.c.z.z.c.c.b.b.l.b.b.l.l.b.c.x.c.x.c.v.c.v.v.v.x.v.v.v.H.v.H.H.>Xv.U.H.U.>XH.U.H.U.K.I.K.U.U.U.U.I.P.I.I.Y.Y.Y.T.Y.Y.Y.Y.;X<XY.1X1XY.IXY.IXY.Y.7XIX1XIXY.1X1X1X1X1X1X;X;X1XY.;XY.Y.;XY.Y.;X;X-X-X-X<X-X-X1X<X1X;X<X;X<X<X<X<X<X;X<X1X3X0X0X8X4X0X8X8X3X3X0X6X6X8X8X5X0X4X3X3X3X4X3X4X2X3X2X4X4X4X4X4X4X4X4X4X4X4X5X5X5X4X5X6X5X0X5XwX:XqX,XW =   < 5 =   * & @ o 2 l q q - o o + o @ * @ o o o o @ o o o o o o - o - - : - : 3 : g g z g g h ! F c F X.F F h X.@...D D D @.F X.+.+.@.@.@.+.X.-.q.q.*.*.%.*.$.%.%.@.X...o.X.@.@.@.X...@.*.*.q.8.8.<.@.*.8.u.<.0.^.u.<.^.9.+.$...o.@.%.+.+.G o...o.! D h o.x G o.F F x h h h z g h z h z z z g 3 k : g L : 3 Z S z g h u 4 g g 4 3 g 3 g g j 3 g 4 g h g g g k k x A +.#.#.%.S j 4 A F A j A S l q ; ; o @ * o o * 2 0 o o f * @ - ; q j - q ,.C.Z.].oX].oX X$XoX$X%X#X#XaXsXdXdXdXdXdXdXfXfXdXdXfXfXfXdXdXdXdXdXfXdXfXdXdXdXfXfXdXhXgXfXdXdXdXfXdXfXfXjXfXdXdXdXkXkXlXfXkXkXkXhXfXkXhXfXfXgXfXfXfXkXfXzXfXfXkXkXfXkXkXkXkXNXkXNXnXnXnXnXnXnXCXzXNXkXkXkXkXkXhXPXhXhXPXhXhXxXnXhXnXPXnXhXPXhXhXhXhXgXhXgXhXhXgXhXgXgX",
"] ] [ [ [ ] ] g.] g.g.] ] g.] g.g.g.h.g.g.g.g.g.M.M.M.M.g.g.g.M.N.B.N.M.m.m.k.k.k.m.k.k.k.M.M.M.N.~.l.l.z.c.c.c.b.b.b.l.l.b.b.b.c.x.v.c.v.c.v.c.v.x.x.v.v.v.v.H.H.v.H.v.H.H.H.H.U.H.U.U.K.K.I.U.P.I.P.P.P.P.Y.I.Y.Y.T.Y.Y.;XY.Y.Y.Y.Y.Y.Y.Y.Y.Y.Y.Y.Y.7X1X1X1X1XY.;X;X1X;X1X1X1X-X;X;XY.Y.Y.;XY.:X:X-X-X-X-X-X;X<X;X;X:X-X-X-X-X;X-X;X<X1X3X0X4X4X8X0X4X3X3X3X3X8X8X8X6X0X0X0X4X4X4X4X4X2X4X2X3X2X2X3X2X2X4X4X4X5X4XqX5X4X5X5X4X5X5X0X0X;XwX:X)   = f * = # # % ; @ - l q q ; o o o @ @ + + o X o o o o o o o o o - - - - : * : : g z h z x k h ! F G F ..F 4 x %.0.%.S ..q.$.o.G X.$.%.6.8.0.9.0.8.8.8.0.8.6.0.q.6.6.q.-.@.@.@.*.=.-.$.8.*.@.8.8.*.t.q.8.9.i.9.u.0.u.].0.^.8.+.@.o.<.<.@.*.<.&.o...$...x x D ! <.0.F F F k S h g c g z z k x k z z x : S x : g k z z 4 A g 4 k g 4 g h g g g g g g g g j A k h A 4 g h 4 4 F #.;.q.G h 4 4 g 4 g / x 3 ; ; q X o o o f 0 * X o @ ; * @ 3 l - : ^ C.Z.Z.Z.Z.oX!.oXoX$X$X#X#X#XaXdXdXdXgXdXfXdXdXdXdXdXfXfXdXfXdXdXfXfXfXdXdXfXfXfXdXfXdXfXsXfXfXjXdXjXfXfXfXfXfXdXfXfXfXfXlXlXkXzXhXkXfXfXzXfXgXfXfXfXfXkXfXkXkXkXkXkXfXkXkXkXkXNXkXnXnXMXNXzXmXkXNXnXzXkXkXkXkXnXnXnXnXnXnXnXhXkXnXnXhXnXhXhXnXxXnXxXhXhXxXhXxXhXPXgXnX",
"] [ [ [ [ [ [ g.g.] g.] [ g.] g.] g.g.g.h.g.g.g.g.M.M.g.g.g.M.M.B.B.A.M.m.k.g.k.k.k.m.k.k.m.M.M.N.l.l.l.l.z.x.c.b.D.b.b.b.b.b.b.c.c.c.x.c.x.x.x.H.v.v.v.H.v.v.v.v.H.v.H.K.J.U.K.U.J.P.U.K.I.I.K.=XP.P.P.P.Y.P.Y.Y.Y.T.Y.;XY.Y.Y.Y.Y.Y.Y.Y.Y.Y.Y.1XY.IXY.1X1X1X1X1X1XY.1X1X1X1X1X;X;XY.-X1XY.1X;X<X-X;X-X-X;X<X1X<X3X<X1X1X<X<X1X;X;X3X1X3X3X3X3X8X4X4X3X8X3X6X8X8X6X6X8X5X0X0X0X4X0X5X0X4X3X3X2X2X3X2X4X4X5X4X4X5X5X5X5XqX4X5X5X5X5XwX6XqXcX`   < f = . . + # # @ o ; s q 2 @   o o @ . o X X   o o o o o @ @ : - - @ : : : : g 3 h g : g z x S F F S D D F X.*.X...D D @.@.$.%.9.r.u.u.9.8.u.u.r.9.r.8.8.r.u.u.r.9.8.8.8.8.8.9.q.@.*.r.*.&.*.*.1.&.8.6.9.p.).u.).0.9._.u.9.q.+.0.1.^.0.O.*.<.%.O.O.-.....O.o.*.<.<.! x S x h c k h k x D S S x c h z g x z c g k k g h h g h h g g h h h g g h h g g g g A k k h F F F F g 4 h A F G @.F h 4 4 - : 3 q q ; ; 0 o o o o * 0 * X o * ; o ; l 3 3 Z 7.C.C.Z.Z.Z.Z.oXoX%X$X%X#XrXsXpXdXdXdXdXgXdXgXdXdXdXfXfXfXfXfXdXhXfXdXdXfXfXfXfXhXfXdXgXfXfXfXfXfXdXfXfXfXfXfXfXfXfXfXkXlXlXlXkXkXfXkXkXzXfXfXkXkXkXfXfXzXzXkXkXkXkXkXkXkXkXkXkXkXNXNXNXnXmXNXNXkXkXkXkXkXkXzXnXnXMXhXhXnXnXnXkXlXnXnXnXnXhXnXnXhXlXhXnXhXxXgXgXkXnXgX",
"] ] ] [ ] ] [ [ ] g.] ] g.] g.[ g.] ] h.h.] h.g.M.M.M.M.g.g.g.M.B.A.A.M.m.m.m.k.m.k.k.m.m.m.M.M.N.S.N.l.z.c.x.x.b.D.D.~.b.b.b.b.x.v.c.v.v.x.x.x.v.v.v.v.v.v.H.H.v.v.H.U.U.U.J.J.U.U.P.P.I.I.U.I.=XP.Y.P.P.P.P.P.1XY.T.T.Y.;XY.Y.1XIXY.Y.Y.Y.Y.Y.7XIX1X1X1X7XIX1X1X1X1X1X1X1X1X1X;XY.;X;X1X1X1X1X1X<X;X<X<X<X3X3X1X1X3X1X3X3X3X1X3X3X3X3X8X3X3X1X1X3X8X1X8X:X3X8X8X8X:X8X0X0X0X4X0X0X5X0X3X3X2X4X4X2X4X4X4X0X4X4X4X4X5X5XqX5XqX5X5X5X6X6XcXW.  f = = * = # + . . @ X @ - ; ; o @ o - ; @ o o o o @ o o @ - @ - - ; : 3 ; 3 : 3 : : h z z S ! S h %.G o.%.....+.G D x D %.*.*.8.q.0.q.8.9.0.0.u.u.r.9.9.9.8.8.8.8.8.w.0.r.u.y.u.u.u.y.8.8.8.*.-.=.&.6.9.r.*.w.8.).u.u.d.8.0.9.).&.<.*.0.1.0.9.<.O.O.&.O.@.@.O.@.0.$.%.+.D D S h x k c h D D x x z k x c x ! c x z h h g A k h c h h z h k k h h z h h g g g h h h A k S k ^ %.,.F S A g A 4 h h 4 j : : : 3 q ; q 0 @ @ * o ; 0 * X * ; o ; l j l k 7.C.0.C.C.].Z.Z.Z.%X%X#X#X#X#XdXdXdXgXdXfXgXdXgXdXfXdXdXfXfXfXfXdXfXfXfXjXfXfXhXfXfXdXsXsXjXfXzXfXzXdXfXfXfXdXkXfXfXfXkXlXkXlXzXkXkXfXkXkXfXkXkXfXzXkXkXkXzXkXkXkXkXkXkXkXkXkXkXMXkXnXnXNXnXnXmXzXzXkXkXkXkXkXnXhXnXnXhXnXhXnXnXnXnXnXVXnXxXhXnXnXnXnXhXhXhXnXnXhXnXnX",
"] [ ] [ ] [ g.] g.g.] [ g.] g.g.g.] g.h.h.g.g.g.M.M.M.h.h.h.M.M.B.A.A.B.M.m.k.m.k.g.k.m.m.M.M.M.N.l.S.l.b.b.F.x.D.D.x.D.D.D.b.b.x.c.x.c.v.c.v.v.v.v.D.D.v.H.U.v.J.H.U.H.>XU.U.U.U.I.K.I.I.K.I.K.Y.P.P.-XY.Y.T.T.-X-XY.;X;X;XW.Y.;XY.;XY.Y.;XY.;XY.IX1X1XIX1XIX7X;X;X;X;X1X8X1X1X;XY.1X1X1X1X1X1X<X1X;X;X1X3X3X<X4X3X3X3X4X8X4X8X8X3X4X8X6X3X8X4X:X0X8X3X8X6X8X6X:X0X;X0XqX0X0X0X8X0X0X0X0X5X0X3X4X0X5X5X5X0X5X4X4X4X5X0X5X5X4X5X2XqX8X0XwXd = < = * * . * + + X o o X o * + o o 2 ; @ o @ o o o o @ @ : ; : 3 : 3 : 3 3 3 3 c z g A g F G A k q.o.D X...k G ..x x ..*.*.%.%.6.8.9.8.q.0.r.d.0.r.u.y.y.u.u.w.r.u.r.d._.).i.i.i.u.i.u.u.y.y.w.y.u.u.u.i.i.y.9.w.9.u.u.^./.u.9.8.=.9.8.8.9.u.<.<.$.3.@.&.*.@.&.8.0.q...F G ..x h F c x D S x x x S x x c D S h h x h h h x h h h x x x k h x k h h h g k h c g c h k h c k S ! <.C.q.G G G k 4 4 c 4 4 4 ; j 2 - ; q f @ ; ; @ @ f ; o X ; ; ; L z z ^ V.0.C.C.V.Z.C.!.oXXX$X$X#XaXrXdXgXdXdXgXdXkXfXfXfXfXfXfXfXfXfXfXfXfXfXhXfXfXfXfXfXgXfXfXfXfXfXzXdXzXfXfXfXfXkXkXzXkXlXkXlXzXkXkXkXzXfXkXkXfXfXkXzXkXkXkXfXkXkXkXkXkXzXkXkXzXnXnXnXnXMXVXMXnXkXnXnXkXnXnXhXhXxXnXnXnXnXnXnXnXnXNXnXnXnXnXNXmXnXhXnXxXhXnXnXhXnXkXnXnX",
"] ] ] [ g.] ] g.] [ ] g.] g.g.[ ] h.] g.g.h.h.g.h.M.M.M.M.h.M.M.B.A.A.V.M.m.m.m.m.m.m.m.m.M.M.M.N.l.l.l.l.c.x.b.D.D.b.D.F.D.b.b.c.v.c.v.c.v.x.v.x.v.v.v.H.v.v.H.H.H.H.U.v.U.U.U.I.U.I.K.K.I.I.K.P.P.T.=X=XY.P.=XT.-XY.;X;XY.1X1X1XIX;X;XIX1X1X1X1X7X4X4X4X1X4X1X;X;X;XY.1X;X1X1XY.1X1X1X8X3X8X1X1X<X:X<X3X3X1X3X1X1X1X3X3X4X8X4X8X0X8X8X8X8X8X8X0X8X6X8X8X8X4X8X:X0X0X:X0X0X0X0X6X0X5X0X0X5X5X4X4X4X4X0X4X0X5X0X5X4X4X4XqX5X5X5X5X0X:X0XF.d . $ * * * . o * + X o o o * - o o @ o o o o o @ * o 3 ; - @ @ - : ; : 3 4 : : z z : h h ! F S +.o.X.x S x x @.X.x ..<.*.*.6.8.y.9.8.8.d.d.r.w.0.w.d.y.u.i.w.w.i.d.u.y.d.).i.u.d.).s.d.p.i.i.i.i.u.u.i.i.).s.d.p.p.i.d._._.^.u.u.9.9.^._.].i.9.*.1.*.*.*.1.2.&.&.<.&.*.X.........x x x x D D D D ..D o.D x D x x x x x h x F x x x x h h x x h c h x h k h S F h k h h k h h h S F F q.^ G ^ G F h 4 4 4 4 - ; - @ * 3 2 @ o ; 0 * ; o 2 ; o ; : j L j ^ 0.>.<.C.C.C.C.].oX X%X%X#X#XrXdXdXdXgXdXfXfXfXfXfXfXfXfXfXfXdXfXfXfXfXdXfXfXfXfXfXjXhXhXhXfXzXdXzXdXfXfXfXfXfXfXkXzXkXkXkXkXfXfXkXkXkXlXkXkXfXkXkXkXzXfXfXkXkXkXzXkXkXNXmXkXnXnXVXVXnXVXnXnXkXkXnXNXnXnXnXnXnXnXnXhXnXhXhXnXnXnXNXnXNXnXnXnXhXxXnXhXhXnXnXhXnXnXnXPX",
"] g.[ [ ] g.] g.] g.g.[ g.] g.] g.g.g.g.h.h.h.g.M.M.M.M.g.g.g.M.A.A.A.N.M.m.m.m.m.M.M.V.M.M.M.A.~.l.S.l.c.c.c.x.F.x.x.x.b.b.b.b.x.v.x.c.x.x.x.v.v.v.v.v.v.v.v.H.v.H.>XH.J.U.U.U.U.U.K.I.U.I.U.I.P.U.U.T.T.P.T.-XT.Y.T.Y.Y.8XIX;X;X;XIXY.;X;X1XIX1X1XIXIX4X1XIX7X-XY.Y.;X;X1XY.;XY.;X1X1X1X4X1X8X;X<X-X<X3X3X3X1X3X1X<X3X4X0X8X4X3X8X8X6X0X8X8X0X0X8X0X0X8X0X0X8X0X0X0X0X0X0X0X6X8X8X0X8X0X5X5X0X4X4X4X4X5X5X0X5X5X5X4X4X4X5X5X4X5X7XqXT.R.d X = o * @ o . * . X X X X o .   X X X o - * * @ - - o - @ : 3 3 g g 3 : 3 h g 3 g k h g x h q.F F x F x h &.X.c X.6.<.=.1.1.8.w.t.9.d.r.0.r.d.r.w.r.u.u.y.y.y.u.u.i.i.i.u.y.u.).).).)._.i.d./.).i.d.i.).s.).).).).)._.)._.)./.d._.).^._./.t.8.0.9.1.t.w.9.w.1.=.*.=.o.@.%.+...F D ..D ..@.@.@.@.....D x D x x x x x x F x F G F F x x x x x D F D S F F h x x h F h h h h h h g h S j A G A h h A k 4 : : 4 3 3 - - - ; ; o o * ; 0 * ; 0 @ o o 3 l l ! 7.7.V.C.C.C.C.C.Z.oXoXoX$X#XpXdXdXgXgXgXdXkXfXfXfXfXfXkXfXfXhXfXfXfXfXfXhXfXgXgXgXhXhXhXnXnXzXdXdXzXfXfXfXfXzXkXfXkXkXzXkXzXkXkXkXhXkXlXkXkXkXkXzXzXkXfXkXfXkXkXkXzXNXkXnXNXnXnXnXnXnXnXnXnXhXnXnXnXnXhXnXnXnXhXnXnXnXnXnXnXnXnXBXNXNXnXnXkXhXnXhXhXxXnXhXhXnXhXPXhX",
"] ] ] ] [ ] g.] g.[ [ g.g.] g.g.g.] ] g.h.h.h.M.M.M.M.h.M.h.M.M.A.A.A.B.M.M.M.m.m.M.M.M.M.M.M.B.S.~.l.l.l.l.c.c.x.x.x.b.F.b.b.b.x.x.x.x.v.x.v.v.D.v.v.v.v.H.H.v.H.v.v.v.U.U.U.J.K.K.K.K.U.U.I.K.J.K.J.J.P.J.P.Y.T.Y.T.;X;XY.;X;XY.T.Y.;XY.;X1X1XIX7X7X1X1XIX1X1XY.;XY.;X1X;X;XY.Y.Y.Y.;X1X1X1X;X;X-X<X1X1X3X<X3X<X1X<X1X1X8X4X0X8X4X8X0X6X0X0X0X0X0X0X;X0X8X0X0X0X0X0X0X0X0X0X:X3X:X6X8X5X0X3X4X7X4X4X4X4X5X5X5X4X5X5XqX4X4X4X4X6X5X0XJ.qXd X , = o * o . + o X o o o * o . o o . o @ o o o @ - @ ; ; g j 3 q 3 : g z g g c z k h h A %.F x x x x x -.X.x ..q.*.*.8.t.t.9.w.w.u.6.8.r.r.0.u.d.d.d.y.w.u.u.w.r.i.u.p.d.s.).d.).i.).).s.d.).).i././.i.s.d.).).).).)._._._._._.)._.u.^.u.9.t.9.t.8.w.t.8.1.1.1.2.1.*.-.X.X.X.X...F ....$.&.-.o...........D ......X.D ....G ....F F F F x D ....D D o.X.%...F F x x F k x x h c h k F F G F F G #.+.S S : 4 ; : - ; - ; ; @ o o o f 0 . ; - o o @ q L ~ V.0.,.V.0.C.C.C.Z.Z.Z.oX%X%XdXdXgXgXfXdXfXfXfXfXzXfXfXfXkXfXfXfXfXfXfXfXhXhXgXhXhXhXhXhXhXhXfXzXdXfXfXzXkXzXzXkXfXzXNXkXzXkXkXfXkXkXkXkXkXkXkXkXkXkXkXkXkXkXkXkXkXzXkXNXkXkXnXnXnXnXnXnXnXnXnXnXkXnXnXnXnXnXnXnXnXnXnXnXnXnXNXnXNXnXnXnXnXnXnXnXnXxXhXhXnXxXnXnXnXnX",
"] ] ] g.] g.g.g.] g.[ g.g.] g.] g.g.] g.h.h.g.g.h.M.M.M.g.g.M.M.A.Z.A.B.V.M.M.m.M.M.M.M.M.M.B.N.~.l.l.l.z.z.c.c.x.x.x.c.c.b.l.b.D.c.x.v.x.v.v.v.v.v.v.v.v.H.v.H.H.v.v.U.J.U.J.K.K.K.I.K.K.K.I.K.>XH.J.J.P.J.T.T.T.-X;XY.;X;X8XT.W.Y.;XW.1X1X1X1X1X1X1X1XIXIXY.1XY.Y.;X;X1X1X1XY.;X;X;X;X-X;X-X-X;X-X<X<X1X1X3X1X1X<X1X<X3X3X0X3X;X0X8X8X0X0X0X0X0X0X0X0X0X0X0X0X0X0X0X6X0X0X0X:X:X8X6X6X6X3X3X3X<X4X2X4X4X4X4X0X4X5X5XqX4X4X4X4X5XqXH.8XF.< X 1 + @ o o o @ . + o + o o O o X @ o o o + @ - - - 3 3 4 3 2 : 3 : 3 g 3 c g z z c c ..0.h h F F x ..-.D x -.6.6.*.8.e.t.t.u.r.r.8.6.d.d.8.r.s.s.r.r.u.i.w.r.).).d.u.u.i.).i.i.d.).)././.d._.d._._./.u.d.d._.)._.d._._.[.[.[._._._./._.[.{.^.t.t./.*.r.w.*.=.9.8.*.&.*.*.%.X.D ..X...@.-.@.O.X.O.@.X.........X.X.X.@.@.o.G ..+.X.F F ......D ..D D G ..-.+.F F S F x F S c c h k h k x F G ! ^ G k F ^ S A z 3 o 3 - ; ; ; 0 ; o o ; 0 ; o ; ; o 3 k ~ 7.7.,.0.7.V.V.C.Z.Z.Z.oX X$XdXdXgXdXdXfXfXkXkXfXfXkXkXfXzXkXfXfXfXfXfXfXzXfXhXhXPXhXhXjXxXhXfXfXfXfXkXzXzXkXkXzXkXzXkXAXnXkXkXkXkXkXkXkXkXkXkXNXkXkXkXkXkXkXkXkXkXkXlXnXnXkXnXnXnXnXMXnXnXnXnXkXnXnXnXPXhXnXnXnXnXhXnXnXnXVXBXnXnXnXnXnXnXnXnXhXnXnXnXnXxXhXnXPXnXnX",
"] g.] g.g.] ] g.] g.g.[ g.>.g.] g.h.g.g.g.h.g.g.M.M.M.g.g.g.M.M.A.A.A.B.M.M.M.M.M.M.M.M.M.M.M.B.~.S.N.l.l.c.c.b.x.x.F.c.l.c.F.c.x.v.x.c.c.v.v.x.c.v.v.v.v.v.v.v.v.H.H.J.U.U.U.J.K.K.K.K.I.I.K.K.>XP.P.P.T.Y.T.>X;X-XW.;X1XW.Y.Y.Y.;X;X;XIX1X1XIXIX1XIX1X1X1X1X1X;X;X;X;X1X1X1X;X;X1X1X1X1X;X;XY.-X:X<X:X;X<X3X3X3X1X-X<X3X3X4X8X0X;X8X0X8X0X0X0X8X0X8X0X6X,X0X0X0X0X0X0X0X:X:X0X8X:X3X8X3X3X;X3X3X<X4X3X4X4X4X4XqX5X4X5X5X4X5X4X4X-X;XwX` O < + $ @ + + o @ @ @ o . o o o X X X @ @ ; - ; ; ; ; - - - : : : 3 4 g : c z k g h x S A h h F x c @.q.c ..*.X.6.8.8.t.w.e.w.w.r.8.8._.d.r.r.d.d.d.r.s.d.i.i.s.).).d.).).s.d.u.i.i._.i.)._./.d.)._._._._.d.).)._._._._._._.[._._._.{.{._.}.}._./.t.u.w.8.t.r.y.r.w.8.*.-.@.-.$.@.@.-.-.-.*.=.&.@.-.&.O.O.X...X.X.@.@.@.@.@.o.X.@.+.o.x ..F ..X.+.o...F X.G ....F o.F x x x h k k h h k k A S F ! +.^ A ^ G A S j - u 3 q 3 * ; 2 * o o f 0 @ @ ; @ @ z Q :.,.>.V.>.V.0.C.C.Z.Z.oX$X#XdXgXdXfXgXgXdXfXfXzXzXfXfXfXfXfXfXfXkXfXzXfXzXfXnXhXhXhXhXxXjXhXfXkXfXfXfXzXkXzXkXzXkXkXNXkXzXkXzXzXkXzXAXkXzXkXkXkXkXNXzXkXzXkXkXkXlXkXnXnXnXVXnXVXnXSXnXVXnXVXnXnXVXnXnXnXnXnXnXnXnXnXnXnXnXVXBXmXnXMXkXnXnXNXnXnXxXhXhXhXnXnXnXhXnXhX",
"] ] g.] ] g.[ [ g.[ g.g.] g.] g.] g.g.g.h.h.h.h.h.M.M.M.M.g.g.M.B.A.A.B.M.M.M.M.M.M.V.M.M.B.M.N.S.N.l.S.z.z.b.b.x.x.F.c.x.c.c.b.c.v.c.v.c.v.x.v.v.x.v.v.v.v.v.H.H.H.H.U.U.J.U.U.K.K.K.K.K.I.I.I.Y.T.P.>XY.T.-X-X;X;X;X;X1X;XY.Y.;X1X1XIX8X1X1X1X1X1XIX1X1XIX1XIX;X;X;X1X1X1X1X;X1X1X1X1X1X1X;X-X<X-X1X;X-X-X2X3X3X<X<X;X1X3X3X4X:X0X;X8X8X8X8X8X0X8X0X8X0X0X0X0X0X0X0X0X0X0X0X,X:X0X0X8X8X4X3X3X4X<X4X4X4X4X4X4X4X4X4X5X5X5X4X4X3X=XcX0Xm O m O $ + O o @ @ * * * ; * + # @ @ + @ @ @ @ - - - o : 4 : 3 3 4 4 : g z x g c k x h x h S x x h @...c ..@.*.8.8.=.9.t.r.y.u.r.w.y.s.d.r.r.d.d.6.r.s._.i.u._._.d.u.).)._.u.d.d.u.)._.i.].).).).).).).).).)._._._._._.)._.[.[._.).).{.[./._._.{.{.u.u.s.8.8.).u.w.8.8.-.*.6.q.*.-.*.9.8.1.4.e.e.1.*.&.*.*.*.*.=.=.6.6.%.*.=.%.@.%.@.X.X.....X.$.$.@.@.o.@.+.%.@...+...G F S S S c h g c 4 h S ^ q.q.S G G A 3 j 4 : - ; q 3 @ o ; ; 2 o * 0 0 o @ ; o : k ^ >.7.7.,.0.7.C.C.C.Z.Z..X@XpXdXgXgXgXgXdXkXkXfXfXfXkXfXkXfXzXfXfXfXfXzXfXfXhXhXhXPXPXhXhXhXzXfXkXzXzXzXzXzXzXzXzXNXkXzXnXkXNXkXAXkXkXkXkXkXkXkXkXkXkXkXkXzXnXnXlXnXnXnXVXnXnXVXVXVXBXVXVXBXNXNXNXnXnXnXVXnXnXnXhXnXnXnXnXVXNXnXnXnXnXnXNXmXnXnXnXnXxXnXgXnXnXhXnXnX",
"] g.] g.>.[ g.g.g.g.[ g.g.g.g.g.g.h.h.g.g.h.g.h.M.M.M.M.M.g.M.M.A.A.B.B.M.M.M.M.B.B.N.N.M.M.A.N.S.S.z.l.z.b.c.b.x.x.x.x.c.c.b.x.x.c.v.c.x.c.x.x.x.v.x.v.v.U.v.v.H.H.K.J.U.P.P.U.K.K.K.K.K.I.L.7X=XY.P.-X=XY.T.-XT.;X;XY.1X1X;XIX;XY.;X1X1XIX1X<XIX1X1X1X<XY.1XY.;X;XY.Y.1X1X1X1X;XY.;X1X;X1X1X;X<X<X;X-X-X;X1X3X1X<X<X-X1X3X3X4X8X8X6X8X6X8X8X0X8X0X:X8X8X:X:X0X0X0X0X0X0X0X0X6X0X0X0X0X6X8X6X3X2X4X4X2X4X4X4X4X4X4X4X5X5X5XqX4X8XqX9XR.< 5 e + + O o o o o @ * ; * @ @ @ $ @ O @ @ @ @ * - - : ; 2 : q 3 3 g 3 z c g g k k h x x x x x c @.F c o.6.*.@.8.8.8.r.w.8.w.w.y.w.9.r.6.r.r.8.d.s.s.s.p.d.i.p.d.).).i.d.p.i.s.).).i.d.i.).d.d.)._._.d./.d.).).).s.).).s.d._.[._.).)._._._.{.)./._.i.].|._._.i.r._.|.8.y.6.=.8.t.w.8.=.1.=.*.=.8.8.=.=.e.8.8.8.8.8.q.6.6.8.8.6.=.q.q.@.@.-.-.-.@...+.$.@.X.-.+.o.@.o.%.+.o.G S S S x h 4 4 4 : 4 F #.G A k G F A j j 4 : @ o ; 0 ; * ; f f * 3 0 - - @ o g ~ } ,.7.:.V.7.7.V.C.C.oX X@XrXdXdXgXdXdXgXdXfXfXzXkXfXfXfXfXkXfXzXkXfXfXkXfXhXnXhXhXhXhXnXhXfXzXzXfXkXkXzXkXkXkXNXkXkXkXNXNXNXNXNXNXAXkXNXkXkXzXzXkXkXkXzXkXNXNXnXNXnXnXnXSXVXVXSXVXBXVXSXBXNXBXVXmXVXnXnXnXnXnXxXhXnXnXnXnXlXSXNXmXnXnXnXNXnXhXxXhXhXxXnXnXnXnXnXhX",
"] ] g.] g.g.h.g.g.g.g.g.g.] g.g.g.h.g.h.g.h.M.g.M.M.M.M.M.g.M.M.A.A.E.A.M.M.M.m.M.M.M.B.A.M.A.M.~.b.~.l.l.b.D.b.b.b.~.b.~.b.b.b.x.x.x.c.x.x.D.x.x.x.D.v.x.H.x.H.K.D.K.K.L.L.K.L.I.K.I.L.L.L.L.K.P.R.P.P.Y.T.Y.-XY.1X1X1X1X1X1XY.T.;X;XIX8X;X;X;X1X8X8X;X;X;XT.;X;X-X-X-X;X;X;X;X:X:X;X;X3X;X;X;X2X;X-XI.-X-X1X3X3X<X;X3X3X3X3X3X:X:X6X8X3X3X:X6X8X3X3X3X3X8X3X6X8X6X8X6X8X3X6X0X0X0X4X0X8X8X6X;X6X6X4X4X4X4X0X4X5X5X0X5X5X0X0X5X0X;X9X) = _ 7 O , + @ @ O + + @ ; * X X @ * * o @ @ - - - ; : ; : 3 3 3 3 3 g g k h h A x h h h x x x x ..x x X.6.@.@.6.w.6.8.6.8.8.r.8.y.d.r.6.6.r.d.s.p.p.p.r.d.s.p.s.s.s.s.p.s.s.i.i.i.i.i.i.s.s./.s.s.+X).[.s.s.).[.[.s.s.).).[.[.[.[.i.i.u.).)._.[._._.)._._._.`.).)._._.i.9.r.r.r.w.9.w.8.e.w.w.8.w.r.8.8.q.6.6.6.r.0.6.q.r.r.8.8.9.6.q.X.X.X.@.6.%.X.X.*.-.@.-.*.@...D F @.o.o.G S S +.A h g : h 4 - k ^ #.F A k j A 4 3 z 0 @ o o @ ; f ; ; * - 2 3 - : - - L :.>.>.,.>.7.7.2.V.C.Z. XXX%XdXuXdXkXfXfXkXkXfXfXkXfXkXfXkXgXnXhXhXPXhXhXPXhXnXhXPXhXhXnXnXhXnXnXnXnXnXnXMXVXnXVXnXnXnXnXnXnXNXNXMXnXkXnXnXnXkXnXnXNXBXNXnXnXNXVXNXNXmXmXNXVXnXVXSXSXVXBXBXVXnXnXnXVXVXnXnXnXhXhXnXhXnXnXnXnXNXnXVXVXnXVXVXnXnXhXnXnXnXnXxXnXnXnXnX",
"g.] ] g.g.] g.g.] g.g.g.g.g.g.g.g.g.g.g.h.g.h.g.h.M.M.h.g.g.g.A.A.A.A.A.M.M.M.M.M.M.M.M.M.N.A.A.~.~.l.b.l.b.b.b.b.b.b.F.b.b.F.b.c.x.x.D.x.x.x.x.x.D.x.H.D.x.H.x.K.K.K.K.K.L.I.K.K.I.I.K.K.I.L.L.P.P.P.P.P.Y.Y.Y.Y.Y.Y.1XY.1XY.Y.Y.;X-X1X;X;X;X;X;X-X;X;X-X-X-XT.;X;X-X;X;X:X;X-X-X-X;X:X;X;X3X:X1X<X-X-X-X;X3X3X<X<X;X1X1X3X1X3X:X8X:X;X3X3X8X3X3X:X:X3X3X:X8X:X3X3X:X8X8X:X4X8X0X0X6X4X6X4X4X6X3X6X4X4X6X4X4X6X0X5XwX0X0X5X5X0X;X;XqX= _ ] X , @ O o X @ @ . X X * ; % + . o ; ; - @ @ - ; 3 q q q g g g g 3 g h h h h c c h x x x x ..x x X.f.-.-.*.6.8.8.r.u.r.r.8.r.r.8.6.r.8.r.p.d.p.p.d.p.s.s.p.s.s.p.p.p.s.p.p.i.i.s.i.i.i.i.i.p.p.p.i.p.).s.).[.[.).d.s.d.s.).[.s.i.i.i._.)._._._._._.`._._._.[.)._._.u.i.y.u.u.i.i.i.y.i.i.u.y.y.u.y.r.r.r.w.r.r.r.r.f.d.r.8.8.8.r.8.6.*.-.$.@.*.*.%.@.-.@.-.q.$.X.@.$.o.o.D ! o.x F ! S k g 4 Z S 4 h S Z S S g h h : - ; q ; - @ @ f - f 0 ; ; ; ; ; - @ z ;.7.,.>.>.>.>.7.C.C.C.!. XrXrXdXgXdXfXkXdXkXfXfXfXzXfXfXkXgXnXnXnXnXPXhXPXPXhXnXnXnXnXnXhXnXhXnXhXnXVXVXVXMXnXnXVXnXSXnXVXNXnXNXNXnXkXkXnXnXnXnXNXnXnXNXnXnXNXVXSXVXnXVXnXmXVXVXNXVXVXVXBXnXnXnXnXnXnXnXnXnXnXxXnXnXnXnXnXnXnXVXnXnXVXSXnXlXnXnXxXhXnXnXhXnXkXkXnX",
"] g.] g.] g.2.g.g.g.g.g.g.g.g.g.g.g.h.g.h.h.h.h.M.M.M.M.M.g.M.M.A.E.A.A.M.M.M.M.M.M.M.M.B.B.M.B.F.F.l.l.l.D.b.b.b.D.D.b.b.b.D.b.x.x.x.D.x.x.x.D.x.D.x.x.x.H.H.H.K.K.K.L.K.K.I.K.I.L.K.I.I.K.I.K.J.P.P.R.P.T.Y.Y.;XY.Y.Y.Y.Y.Y.Y.Y.Y.Y.-X;X;X-X-XY.-XY.-X-X-X-XT.;X>X-X;X;X;X;X-X-X;X;X;X;X2X:X;X<X;X;X:X-X;X<X3X;X;X<X1X<X3X3X;X;X3X3X:X3X:X3X3X;X:X;X;X:X;X;X;X3X3X3X3X:X3X3X8X0X6X8X6X8X0X5X0X4X4X4X4X8X4X5X6X5X0X0X0X5X5X4X0X:XcXh.= l.i   O X o o o o X o . X O @ * @ @ * @ @ - ; ; ; : ; 3 : 3 3 3 3 g j h Z c g h h h h F c c ..x x -.r.-.X.=.8.e.w.r.r.u.r.d.r.r.8.r.r.r.r.p.y.s.p.d.d.p.s.s.p.p.p.p.p.s.p.i.i.i.s.s.p.i.p.i.i.p.i.p.i.i.).i.i.).).s.i.i.p.s.).).).i.).)._._._._._._._.`.`.)._._.d._._.i.).u.y.u.i.).i.i.i.s.i.p.y.p.d.p.r.r.r.r.d.r.d.p.r.r.8.8.8.9.8.r.8.q.@.@.$.q.6.*.@.X.@.@.-.@.%.*.<.F %.+.G +.x S ! Z x 4 g h h A Z j F S k g A 4 ; ; 3 0 0 ; * o * ; 0 3 ; : ; : - o 3 / 7.,.;.:.;.,.2.M.V.C.!.!.$XpXdXuXgXfXfXkXfXfXkXkXzXkXkXkXhXnXnXMXnXnXhXhXPXnXlXVXnXnXnXnXnXnXnXnXVXnXVXVXVXnXnXSXVXMXnXVXNXnXNXnXnXnXnXnXNXNXnXnXnXnXnXnXVXSXVXVXVXVXNXmXnXVXVXmXSXnXVXSXnXnXnXnXnXnXnXnXnXhXnXhXnXnXnXnXnXnXnXnXnXnXnXVXnXnXnXhXnXhXnXhXnXnXnXkX",
"] g.g.g.g.g.g.g.g.g.g.g.g.g.g.g.g.g.g.h.h.h.M.M.h.M.M.M.M.g.M.M.A.A.A.N.M.M.M.M.M.M.M.M.M.M.A.A.~.l.~.l.l.b.b.b.b.b.b.b.l.b.b.b.x.x.x.x.D.x.v.x.D.x.H.H.H.v.x.K.K.K.K.K.I.K.K.I.K.L.L.K.K.I.L.I.P.J.P.P.U.T.Y.P.Y.Y.Y.Y.Y.T.L.L.P.Y.Y.Y.-XT.-XY.-XY.Y.T.T.T.-X-X;X:X-X;X3X;X:X-X-X-X;X:X<X;X;X;X;X<X;X1X<X2X3X1X<X<X-X<X1X<X<X2X:X:X;X3X;X3X:X:X:X;X;X:X;X:X:X;X:X3X3X:X3X;X:X3X8X3X3X8X4X0X0X5X5X8X0X6X0X4X0X5X0X5X5X0X0X6X3X8X0XqX= ] W   *   X O o o X o . + o X X X @ ; ; ; @ ; - - : ; - : : 3 3 3 : g 4 4 4 g h h h F x c h x x x X.6.=.X.X.6.w.8.r.r.r.r.r.y.r.6.8.p.p.8.r.y.s.y.y.p.p.s.r.s.s.p.p.p.s.s.s.i.s.i.i.p.p.a.i.i.[.s.).s.s.s.).s.i.s.s.s.s.).s.).).).).)._._.i.)._.[.{._._._._._._._.).)._.d.i.d.).i.i.u.p.u.y.y.y.y.p.d.d.p.r.r.r.r.r.d.r.d.r.8.8.8.r.9.r.8.6.*.-.%.*.*.*.6.6.%.X.X.-.%.&.*.%.%.D +.! o.+.Z k k k F h 4 S S k S Q k h k A 4 z 3 : - ; ; - . * o * 2 f : ; o - - - k >.>.;.;.:.:.>.>.7.C.(.Z.%X%XdXdXgXfXkXfXkXkXkXkXkXkXkXzXnXnXnXVXnXnXnXnXhXnXnXVXVXnXnXnXnXnXnXVXnXnXMXVXVXnXnXMXVXnXSXVXnXNXmXnXnXnXnXnXnXnXnXBXNXBXnXNXnXVXmXVXBXSXVXVXBXVXmXVXVXVXnXnXnXnXnXnXnXhXhXnXnXnXnXnXhXnXhXhXnXVXMXVXVXnXVXnXVXnXnXnXnXnXnXnXnXlXnXnX",
"g.g.g.g.g.g.g.g.g.g.g.g.g.g.g.g.g.g.h.g.h.g.M.h.M.g.M.g.g.g.M.A.A.E.A.A.M.M.M.M.M.M.M.M.M.M.M.A.~.F.l.l.l.b.b.l.b.b.b.F.F.b.D.D.x.D.x.D.x.D.x.D.x.D.K.D.x.H.H.K.K.K.K.K.K.L.K.K.K.L.K.L.I.K.I.K.P.P.J.P.P.T.P.T.Y.Y.P.T.Y.L.L.L.P.T.P.Y.T.Y.Y.=X-XT.=XY.-X-X-X-X;X-X-X-X-X;X;X=X;X>X1X;X;X;X;X;X;X-X<X3X1X3X;X3X1X:X:X<X;X<X1X;X;X:X:X;X:X3X;X3X:X;X;X;X:X;X;X;X3X3X8X3X3X3X3X3X3X:X:X8X0X0X0X0X0X0X0X0X5X0X5X5X0X6X6X5X8X4X3X1XcX) H A.= = . . o X X X . * o . . o + O o o - ; - - - @ - - : ; 3 : 3 3 4 g g g h c S F F c c x F S ..@.q.*.*.-.=.8.f.e.y.y.r.d.r.6.6.r.r.r.8.p.r.p.a.y.p.s.p.i.r.p.p.p.p.s.s.s./.i.i.i.i.p.p.p.s.s.s.+X)./.).+X).).[.).).d.).[.).[.[._.).).[.[._._._.`.`._./._._./._._._._.).).i.i.)./.p.r.r.p.s.s.d.p.d.i.p.y.s.p.r.d.r.r.r.p.y.r.r.r.r.r.8.9.r.8.6.6.=.-.*.8.6.*.X.X.%.%.-.%.&.0...+.+.F ! +.Q Q g S ! A h k S S S S S g 4 j g q 3 - o @ ; ; * o o * * 2 2 ; o : @ ; L >.:.#.:.>.>.,.2.B.C.!.oX%XrXiXdXkXkXfXkXkXkXkXzXkXkXzXnXMXVXnXNXnXnXnXnXVXVXnXVXnXnXnXnXVXnXnXVXnXVXVXnXVXnXnXnXnXSXnXmXnXNXnXNXnXkXNXnXnXnXnXmXNXmXNXVXnXSXSXBXVXVXVXBXBXBXBXVXVXVXnXnXnXnXnXnXnXnXnXnXnXnXnXnXnXhXxXnXnXhXnXnXnXnXVXnXnXnXnXnXhXnXnXnXnXnXnX",
"g.] g.g.g.g.g.g.g.g.g.g.g.g.g.g.g.g.g.g.h.g.h.h.g.M.M.M.M.g.M.M.A.E.E.A.M.M.m.M.M.M.M.M.M.A.A.M.~.l.~.l.l.b.b.b.b.F.b.b.l.b.b.b.c.x.x.x.x.x.x.D.v.x.x.D.x.x.D.K.K.K.K.K.I.K.I.I.I.K.I.K.K.I.K.I.P.R.P.T.P.T.P.L.Y.T.P.P.L.L.L.L.P.L.T.P.P.Y.Y.Y.-X-XY.Y.T.-XT.;X-X-X-X;X:X;X-X-X;X;X-X-X:X;X;X-X:X-X1X<X3X1X<X<X;X;X-X<X;X2X<X;X;X3X3X;X2X;X3X;X3X3X:X:X:X3X:X2X:X3X6X8X3X3X:X8X3X3X3X4X0X0X0X0X0X0X0X0X0X0X0X5X0X6X2X5X4X4X4X8XcX5 k.)   =   o   X @ * . . . . + * ; @ o X o @ @ @ : - - - ; : : : : c g k k k k S S x h x D x x @.$.@.f.6.X.6.8.e.e.y.s.p.8.6.6.r.r.r.r.6.r.p.r.r.y.p.p.p.s.s.p.s.p.p.p.s.s.p.p.i.i.i.p.i.i.).s.i.[.).i.i.s.s._.).[.).s.i.d.).i././._._._.`.[.{.[._._.[.`._._._.i.d.)._.d.).).s.u.u.i.s.s.s.r.r.y.s.d.s.s.d.y.s.s.r.r.r.p.r.r.d.y.8.8.8.r.r.r.9.r.8.*.*.q.=.*.-.q.=.@.@.X.X.%.<.%.0.%.+.<.F +.#.D k h k S h S ! A A F ,.A : g 3 g 3 3 : o @ ; * @ o o o @ 0 q o ; : - z ^ :.;.:.:.>.7.>.M.C.!.Z.%XrXpXdXkXfXkXkXzXkXkXkXzXzXkXnXVXVXVXnXnXnXNXVXnXnXnXnXnXVXVXVXnXnXVXnXnXVXMXSXVXnXnXnXnXnXnXmXzXnXnXNXmXmXNXnXnXBXNXNXBXBXNXnXnXVXVXBXSXZXSXBXZXZXVXBXSXnXnXnXnXnXnXnXnXnXnXnXVXnXnXnXhXnXnXnXnXVXnXnXnXnXnXnXnXnXnXnXnXhXnXnXnXnXnX",
"g.g.g.g.g.g.g.g.g.g.g.g.g.g.g.g.g.g.g.g.h.h.M.M.M.M.g.M.M.M.M.M.A.A.A.B.M.M.M.k.M.M.M.M.M.M.A.B.7.F.b.l.l.b.b.l.F.b.~.b.b.b.b.b.x.x.c.D.x.x.D.x.D.x.x.x.x.x.x.K.K.K.K.K.K.L.L.K.K.I.L.I.I.I.K.L.P.P.P.=XP.P.L.P.P.Y.P.T.I.I.L.I.P.P.P.P.Y.Y.-X-X-XY.Y.-XY.-X-XT.-X=XY.:X;X;X;X-X;X-X;X:X:X-X-X-X-X:X;X<X1X2X<X<X<X;X<X1X;X1X<X;X3X;X:X3X;X:X3X3X2X;X2X;X:X;X3X;X3X3X3X8X:X8X3X:X3X6X8X8X0X0X0X8X8X0X0X0X0X0X5X0X5X5X6X0X4X1X4XqXR.d ] = =   . . * ; f * X   . * * @ @ @ - ; @ @ - o : 3 3 3 ; : g g g g h j h h h c c x S F F G ....@.0.6.-.6.6.e.e.r.s.y.r.8.6.6.p.s.r.8.r.p.r.y.p.p.p.p.i.p.p.p.s.p.p.p.s.s.p.p.i.i.i./.i.).).p./.i.s.i.i.).+X).).).).i.i.d.).i.)._.{.[.`.[.}.{._._.[.[.`.`._._.d./._._.)._.).s.i.p.s.s.).p.a.r.y.y.p.y.s.s.p.r.r.r.r.r.p.r.r.r.r.r.8.8.8.8.r.w.8.8.*.=.6.6.*.X.*.6.@.@.@.X.%.@.+.*.q.%.q.8.F ! S ! F g k h A k ! S A G +.A : 4 4 3 3 3 : @ o * ; ; @ o o * 0 - ; ; - 3 L } ;.;.>.>.>.>.>.B.C.oX%X$XaXdXfXkXfXkXkXzXNXNXzXzXkXnXnXnXVXnXnXNXNXnXVXnXnXnXVXnXVXVXnXVXVXnXVXnXVXVXnXnXnXnXnXnXVXzXNXkXNXBXBXNXnXNXnXnXBXNXmXNXNXnXVXVXVXVXVXnXVXSXBXBXBXVXVXnXnXnXnXnXnXnXVXnXVXVXnXnXnXnXnXhXnXnXnXnXnXnXnXnXhXVXnXnXnXnXnXnXnXnXnXNXnX",
"] ] g.g.g.g.g.g.g.g.g.g.g.g.g.M.M.g.g.g.g.g.h.M.M.M.M.g.M.g.M.A.A.E.A.B.M.M.m.M.M.M.M.M.B.A.B.A.D.F.~.l.l.b.b.b.b.b.b.b.F.b.b.D.c.D.D.c.x.x.x.x.K.x.D.x.x.x.x.K.K.K.K.K.I.K.L.K.I.K.I.K.K.L.K.K.P.P.P.T.I.T.P.P.P.P.P.P.L.I.I.Y.T.P.P.T.Y.Y.-X-XT.Y.-XY.-X-XY.Y.-X-X-X-X;X:X;X-X:X-X<X;X<X-X-X-X-X-X;X;X<X;X1X;X3X1X1X<X2X;X2X;X;X3X3X:X3X3X3X:X;X3X:X;X3X3X:X3X;X8X6X6X3X;X3X:X3X8X6X0X0X5X4X6X4X4X0X5X0X0X5X4X4X5X5X0X4X1X8XcX_ W 5   = = . . K 9 + X . * = X o @ + @ @ 2 : 2 : ; : ; : : : 3 : : 3 g h h h h h S F ..o.+.@.....@.6.*.@.=.6.6.r.e.r.8.6.6.r.r.p.8.6.e.r.r.8.6.p.i.i.p.p.i.s.p.s.s.s.p.s.s.p.r.a.p.i.i.i./.i.i.s.).+X).).p.s.[.d._.).)._.)._._./._.[.{.{.{.{.}._._.`.{.{.`._.)._.d.)._.).s.).d.d.s.).).s.d.s.p.p.s.p.y.y.p.d.p.d.s.s.s.r.r.r.r.w.w.8.r.r.r.r.r.y.8.8.6.*.@.-.q.@.6.6.-.*.-.@.@.*.$.@.%.*.+.q.q.D +.S F ! k h h h k A S k S A S : : 4 q g 2 ; - o 0 f * * * X * f * ; 3 3 l ~ ,.>.;.:.:.>.2.V.C.Z.IX$XsXuXfXkXkXkXzXkXkXkXNXkXNXVXVXVXnXnXnXnXnXnXnXnXVXnXnXnXnXVXSXVXnXVXnXSXnXnXnXnXnXPXnXVXnXmXnXNXnXNXBXBXNXmXVXNXmXNXNXNXNXVXSXnXSXVXnXnXVXVXVXBXBXVXSXVXnXnXnXnXVXnXVXVXnXnXnXnXnXnXnXnXnXVXnXVXnXnXnXnXnXnXnXnXnXnXnXnXxXNXmXnXnX",
"g.g.g.g.g.g.g.g.g.g.g.g.g.g.g.g.M.h.g.g.g.h.h.M.M.M.M.h.M.M.M.M.A.G.G.A.M.M.M.k.m.M.M.N.N.N.B.A.~.D.c.l.l.b.c.c.x.x.x.c.c.x.l.b.x.x.x.x.D.x.D.x.x.D.D.x.K.D.K.K.K.K.K.K.K.K.K.K.K.K.I.L.K.L.L.L.P.P.P.P.P.T.P.P.I.I.L.L.I.I.Y.I.L.L.L.L.Y.7XY.Y.;X-X-XY.-XY.-XY.-X-X=X-X-X=X-X=X<X-X;X-X-X-X-XY.-X<X<X1X;X-X-XI.:X<X<X3X<X1X1X;X:X3X;X3X3X3X3X3X3X:X:X2X3X3X3X;X;X6X8X0X6X8X3X3X6X8X4X0X0X3X3X3X3X3X3X8X4X0X6X0X5X:XwX4X0X3X1XqX) f . = = X X 0 u ;   @ & # . X % o o Z C @ ; - ; : - 2 3 3 3 g g h g g c h k k S D ..@.$.+.G ..X.*.6.-.-.f.a.e.a.e.f.=.6.e.r.8.q.6.e.r.e.e.e.a.y.a.i.i.p.a.p.p.s.p.p.p.i.p.p.y.i.i.i././.).).+X+X+X[.s.p.i./.).{.|.{.[.[.[.'.|.}._.}.`.{.{.+X+X`.{.`.`./._._./.).).[.).).).)._.i.s.).).s.s.s.s.d.s.s.p.p.r.p.p.p.p.r.r.r.r.p.p.w.r.e.e.e.w.e.w.t.8.8.8.=.*.=.-.*.X.@.6.q.*.@...@.q.-.%.q.X.G o.F +.@.F F ! A F h g S A A G g ! S g : 4 g 2 ; 2 * ; ; 6 ; O O * 3 f o q - j Z ~ ;.;.>.>.;.>.M.C.Z.Q.eXsXsXkXkXkXzXkXNXkXkXNXkXNXnXBXnXnXBXnXNXNXmXVXNXnXNXnXBXnXnXVXSXnXnXSXnXnXnXnXnXnXnXnXnXVXVXVXVXVXmXVXVXVXVXVXmXNXnXnXVXVXSXnXVXVXVXSXVXSXVXSXVXnXVXnXnXnXhXnXnXnXnXnXnXnXhXnXnXhXnXnXnXnXnXhXnXnXnXnXnXnXVXVXVXVXnXnXnXnXnXNXnXnX",
"g.g.g.g.g.g.g.g.g.g.g.M.g.g.g.g.h.M.g.h.h.j.M.h.h.M.M.M.h.M.M.A.A.G.G.A.M.M.k.M.M.M.M.N.M.N.A.A.R.~.~.c.c.b.b.x.F.c.c.F.c.c.b.c.x.x.x.x.x.D.x.x.x.x.K.x.x.x.K.x.K.K.K.D.K.K.K.K.K.K.K.K.K.K.K.L.P.P.P.P.P.P.P.L.L.L.Y.Y.I.L.L.Y.I.Y.Y.I.Y.Y.I.Y.-X-X-XY.Y.-XY.Y.-X-XY.-X-XY.-X-X-X:X-X-X-X=X-X*X-X<X1X<X;X:X-X-X;X;X<X1X2X1X<X3X:X;X3X3X;X3X:X3X3X;X;X3X;X;X3X3X3X3X3X8X6X4X3X:X3X6X8X4X0X4X3X3X3X3X3X4X6X5X5X5X7XwX=X0X8XY.qXqXd = . . . . o f * O . o O . X o o @ u u 3 2 2 3 4 3 3 3 3 3 z S k k S ! ! G +.*.q.q.8.q.&.@.o.X.X.-.$.*.f.f.e.a.f.f.6.e.s.d.8.=.6.f.e.6.=.r.a.r.r.r.a.p.p.p.p.p.p.r.r.s.i.p.p.p.s.i.i./.).i.p.p.).).+Xs.y.u./.{.[.)._._._.[.[.[.}.`.}.{.+XOX{.{.{.`.}.{.`.`.{./.i.].).).).).u.i.i.i.).s.s.s.s.p.s.p.s.r.p.r.p.r.r.r.r.r.r.r.r.r.r.w.r.e.e.e.8.e.w.w.e.e.6.=.*.*.-.@.-.6.*.*.=.q.X.%.%.*.*.%.X...F G F G q.F F c F k h A x h F ^ ^ ~ k - - ; 3 ; ; ; + . * 0 ; o o z ; o ; q C ~ ] ;.;.>.>.>.>.C.Z.oX%XtXuXkXkXzXkXzXkXNXmXkXkXNXNXnXBXNXNXBXNXmXnXnXNXmXNXBXnXNXSXVXVXVXVXVXnXVXnXnXVXnXnXVXnXSXmXnXmXnXVXmXVXSXVXmXVXNXVXmXVXmXVXVXVXMXVXVXVXnXVXVXVXSXVXnXnXnXnXnXnXnXnXnXnXnXnXnXnXnXhXnXnXhXnXnXnXnXnXnXVXnXnXnXVXnXnXnXhXnXBXNXnXNX",
"] g.g.g.g.g.g.g.g.g.g.g.g.g.M.M.g.g.h.M.h.M.M.M.M.M.M.M.g.M.M.M.A.E.A.A.M.M.M.m.m.m.M.M.N.N.B.A.~.~.b.l.l.b.c.c.x.x.x.b.F.x.b.F.x.x.D.D.D.K.x.D.K.D.x.D.x.v.x.K.x.D.D.K.K.K.K.K.K.K.I.K.K.K.K.K.P.P.U.L.L.U.P.P.I.I.Y.I.I.I.L.I.I.I.I.I.I.I.Y.Y.Y.-XI.*X-XI.*X-X=XI.I.I.Y.=XY.P.-X-X-X*X-X=X-X-X-X-X;X<X<X;X-X-X;X;X1X1X1X<X1X<X3X;X:X;X:X3X3X3X:X1X;X1X3X:X:X3X3X:X3X3X8X3X:X3X3X3X3X8X4X3X3X3X3X3X8X3X6X5X5X5X:XqX0X;XqXW.qXG.= . = X . * * o   X @ . X X O @ @ ; u 2 o : ; - ; 3 g 3 3 g 3 j k S F ! ! +.%.q.@.@.$.@.$.%.-.-.@.X.@.=.f.a.f.f.=.f.r.r.e.6.6.8.6.e.f.6.=.a.p.r.r.r.r.a.p.p.p.p.s.r.s.s.i.i.p.s.i./.).).s.i.p.p.i.p.[.[.[.i./._.|.|.)._.|.|.|.}.{.`.}.}.OXOX{.'.}.`.}.{.{.{.{./.s.).).).).i.i.i.p.p.p.i.p.p.p.p.s.s.r.p.p.p.p.a.r.r.r.r.r.r.r.r.r.r.e.e.4.f.=.e.e.8.w.8.=.=.*.*.-.@.@.*.*.-.=.6.X.@.%.q.@.q.@.F F S D x +.S F G S F ! k ^ %.A 4 F ! Q g - 3 q ; ; ; ; o @ ; ; ; o * ; o : q L z ~ ;.>.;.>.2.M.C.Z.!.%XtXsXkXkXkXNXNXkXkXNXkXNXkXnXNXnXBXBXNXnXNXVXmXNXNXNXNXmXnXnXnXVXnXVXnXVXVXnXnXnXVXnXVXnXVXnXVXVXSXnXVXVXnXmXVXmXSXVXNXmXVXnXVXVXnXMXMXVXSXSXnXVXVXSXnXnXnXhXnXnXnXnXnXnXnXhXnXnXnXnXnXnXnXnXnXnXVXVXnXnXVXnXnXVXnXhXxXnXnXNXnXnXNX",
"g.g.g.g.M.g.g.g.g.g.g.g.M.g.g.g.M.g.g.g.h.h.j.M.M.M.h.M.M.g.M.M.A.E.G.A.M.M.m.M.M.M.M.M.N.N.B.F.R.F.S.l.b.l.c.c.c.x.c.x.c.x.x.b.x.x.x.x.x.x.x.F.x.K.K.x.H.D.x.D.K.D.D.K.K.K.K.K.K.K.K.L.K.I.K.K.P.L.L.L.L.L.P.P.I.I.I.I.I.L.I.L.I.I.I.I.I.Y.Y.7X*XY.<XY.I.I.-XI.I.I.-X=XP.=XP.-X-X*X-X*X-X-X<X*X-X-X:X-X<X-X:X-X2X;X<X2X3X1X3X;X;X2X:X-X;X:X;X3X3X:X:X:X:X:X3X;X8X:X3X3X;X3X3X3X3X3X3X3X3X3X3X3X3X3X6X4X5X5X5X0X6X6XqXqXY.qXqX5 = = = X . * . . o . . X @ # O @ ; - - @ - 2 ; : 4 3 3 3 k Z k A D F F S F ..+.+.q.$.@.@.-.@.X.F X.-.=.=.=.f.=.=.f.f.f.f.f.8.r.r.e.f.f.e.r.r.e.r.a.y.a.i.p.p.p.p.p.p.s.s.s.i.s.s.i.i./.)./.[./.i.).).).).)./.).{.[.[._.)._.[.`.|.'.'.'.}.'.'.{.'.OX{.{.{.`.{.}.`._._.)._._.).).i.i.i.s.p.p.p.p.p.s.p.p.p.p.p.p.r.r.r.r.r.r.r.r.r.e.w.e.e.e.e.e.1.1.1.e.8.=.=.=.-.6.-.X.-.-.q.-.X.q.-.-.-.@.q.*.D @...F S S G x S S h ^ G ^ ^ S F j Z k z g 3 ; : ; 0 ; 2 * O * 2 0 o ; o - : L l ~ ~ ;.>.>.>.M.C.C.!.%XtXpXgXkXkXkXNXNXNXNXmXkXNXnXnXBXNXnXBXNXnXNXNXNXnXmXNXNXNXVXSXVXSXVXVXnXSXnXnXVXnXVXnXVXVXnXmXnXVXmXnXnXmXnXVXVXVXmXNXSXVXSXVXVXSXVXVXVXVXnXVXnXVXnXnXnXnXnXnXnXnXnXnXnXhXnXnXnXnXnXnXhXnXnXnXVXnXnXVXnXVXnXnXnXnXnXnXhXnXnXnXnXMX",
"g.2.g.M.g.M.g.M.g.M.g.M.g.M.g.M.h.g.M.h.g.h.M.M.M.M.M.g.g.M.M.M.A.E.G.A.M.M.m.m.m.M.M.M.N.B.B.B.~.F.~.F.l.b.x.b.b.b.D.x.x.x.b.x.x.x.x.b.x.x.x.x.x.K.K.x.x.x.H.K.K.K.K.K.K.K.K.K.K.K.I.L.K.I.K.I.P.I.P.P.U.P.P.P.I.I.I.Y.I.I.I.L.L.L.Y.I.I.7XY.Y.7XY.Y.I.-XY.*X*XI.=XY.I.-XI.I.Y.=X-X*X-X-X*X:X-X-X-X-X-X1X<X;X;X<X3X<X1X1X3X;X2X3X;X:X:X-X:X;X;X1X:X3X:X3X:X3X3X3X3X:X:X:X3X3X3X:X8X;X3X1X3X1X1X5X6X5X5X5X5X6X5X6X0X0XR.8XcX)   f . . . = + X * * X X o . + o @ @ - o - : 2 3 4 q 3 g g Z Q ! ! S x x G +.F F ..@.o.X.q.6.*.X.X.X.=.f.f.6.=.=.f.a.f.f.f.a.r.e.6.f.e.e.a.a.r.r.r.a.y.p.i.p.p.p.p.s.p.s.s.s.s.s.[./.s./.).).+X).+X+X[.[././.).[.{.`.[._.`.).[.`.}.'.'.'.OX'.OXOXOXOX{.{.{.+X}.OX[.[._.).).).).).s.s.i.s.i.p.a.p.p.r.p.s.p.p.p.r.p.p.p.p.r.r.f.f.r.r.e.e.f.e.e.e.e.e.=.e.=.=.=.=.&.-.6.-.X.-.q.-.X.*.-.X.%.X.%.%.X.$.%.F o.F F G F A F g h S S F ^ k k g j 3 3 - ; ; ; ; ; ; ; @ @ ; 0 0 - ; o q ~ L ~ ;.>.>.>.>.V.C.Z. XeXaXkXkXkXAXkXmXkXNXmXNXNXnXmXNXNXBXnXmXnXnXnXNXmXNXnXmXNXVXNXmXVXSXnXVXVXnXVXnXnXVXVXnXVXVXSXVXnXVXVXnXnXnXVXBXBXVXVXVXVXVXSXnXVXnXSXVXnXnXVXnXVXnXnXnXnXnXnXnXnXnXhXnXnXnXhXxXhXnXnXnXnXnXnXVXVXVXnXnXnXnXVXnXVXnXnXVXnXnXgXnXgX",
"g.g.g.g.M.g.M.g.g.M.g.g.g.g.g.g.g.g.g.g.g.g.h.M.M.M.M.M.M.g.M.A.A.E.E.A.N.M.M.M.M.M.M.M.N.N.G.G.R.~.b.l.F.b.F.b.x.D.D.b.l.x.x.x.x.x.x.x.x.x.x.x.x.D.x.D.H.x.H.K.K.K.K.K.K.K.K.K.I.K.I.I.I.L.I.L.I.I.K.K.U.P.P.P.L.Y.I.Y.I.I.L.I.L.I.I.I.I.Y.7XY.Y.7XI.7XY.Y.Y.I.-X*X*X-X=X=X-X*X-X*X=X-X-X*X<X-X-X-X<X<X<X;X-X:X;X1X3X1X3X1X3X;X:X3X:X;X:X;X:X2X3X3X:X;X;X3X3X;X8X:X8X3X8X3X3X:X8X6X3X3X3X3X4X3X5X5X5X5X6X5X5X5X5X5X0X;XbXn.= m f . o = * +   + . X X . o . @ ; o : o - 2 ; 3 3 g j z l Z S S Q S S F G G F D +.+.X.%.6.q.X.X.X.*.*.-.=.f.=.=.a.f.f.f.f.f.f.e.e.e.r.a.r.r.y.p.a.r.p.p.p.p.p.p.s.p.s.s.s.s.s.s.[.).[.).i.s.s.).)./.[.{.[.[.{.[./.`.|.}.}.`.|.}.}.'.OX`.OX'.'.OX'.'.{.}.}.}.{.{./.[.[.).s.s.s.s.s.s.s.s.p.p.p.p.p.r.p.p.s.p.a.r.r.r.p.p.r.r.r.r.r.a.e.e.f.f.e.e.e.e.e.=.6.e.1.=.-.X.-.6.-.-.X.-.q.*.-.-.X.@.-.*.q.o.G +.@.o.F G #.+.G k A h A k 4 z z 3 4 ; 3 ; : @ - * * ; 2 - X @ 0 q q ; q j L ~ _ ;.>.>.>.>.7.B.Z. XeXpXgXkXkXNXmXNXNXkXmXmXkXnXnXmXnXnXNXNXNXmXBXmXNXBXnXNXmXmXmXNXnXVXSXVXSXVXVXSXVXSXVXVXSXVXnXmXVXnXnXnXVXnXVXBXBXVXSXNXSXVXVXVXVXVXVXVXSXVXSXVXnXSXnXVXVXnXnXnXnXnXnXnXhXnXnXnXnXnXnXVXVXVXVXnXVXVXnXVXnXVXnXnXnXVXnXnXnXkXnXnXnX",
"g.g.g.M.g.M.g.M.g.g.M.g.g.g.g.g.M.g.g.M.h.h.M.M.M.M.M.M.M.g.M.A.G.E.E.A.N.M.M.m.M.M.N.N.N.B.~.R.~.R.~.b.l.b.x.b.D.D.F.b.F.b.b.b.x.x.x.c.x.x.x.x.x.D.K.x.x.H.H.K.K.L.K.K.K.K.L.K.K.K.L.I.I.K.I.I.I.L.P.P.I.L.I.P.L.Y.I.I.I.I.I.I.L.I.I.Y.I.Y.Y.Y.Y.I.Y.Y.Y.I.I.Y.=XY.-X*X-XI.=X-X-X*X-X-X-X-X-X=X-X-X;X:X<X<X-X-X<X3X1X3X3X2X2X3X;X3X3X;X3X;X:X;X3X3X3X:X3X3X3X3X3X3X3X3X3X3X8X3X8X6X6X:X2X3X4X7X5X7X5X5X6X6X5X6X0X2X2XbXF.< _ H * . . . . o   . o X o . o o * ; @ 2 ; - - : : q 3 q k Q ~ Q S ! F G ..G G +.@.@.X.$.q.6.6.-.-.-.-.-.-.=.=.=.=.f.f.=.-.f.f.a.r.f.w.p.y.r.e.a.p.a.y.a.p.p.p.p.p.s.s.p.s.s.s.s.|.[.+X[.s.).+Xs.).+X{.{.[./.).[.{.}._._.|.{.[.|.[.}.'.OX`.'.OX+XOX`.{.}.OXOX}.'.{.+X).[.).).s.s.s.i.p.s.i.p.p.p.p.p.p.p.p.p.p.p.p.p.r.r.p.p.r.r.r.f.e.e.f.f.e.f.f.e.e.=.e.8.=.=.=.-.X.X.-.q.X.-.6.-.-.q.q.X.-.@.@.*.@.F +.@.@.%.G F #.+.+.G S A g F z z g 3 3 : ; ; o - - @ @ ; ; - @ + 0 q 0 L L z ~ ;.;.>.>.;.>.V.V.E.!.XXpXgXkXkXnXNXNXNXNXNXmXNXnXBXmXnXnXmXBXmXNXmXNXNXNXBXnXmXNXmXVXSXVXSXVXVXVXSXVXVXVXVXVXVXVXnXnXVXVXSXnXVXSXVXBXZXBXVXVXmXSXnXSXVXVXSXVXVXVXSXSXVXnXVXnXVXnXnXnXnXnXnXnXnXnXVXnXnXVXnXnXVXnXVXVXVXVXVXnXnXVXnXnXnXnXnXnXnXnXkXnXnX",
"g.g.g.M.g.g.g.M.M.g.g.g.g.M.M.g.g.h.M.h.M.g.g.M.M.M.M.M.g.M.M.A.A.E.E.A.N.M.M.M.B.M.N.N.N.~.~.~.~.F.F.l.F.b.x.b.D.D.x.F.c.b.b.b.F.x.x.x.x.x.x.x.x.x.x.v.D.x.K.K.K.K.I.K.I.K.K.K.K.K.I.L.I.K.K.K.I.I.P.I.I.I.I.I.I.I.I.I.I.I.I.7XI.Y.I.I.Y.7XI.Y.7XY.*XY.*XY.I.*X-XY.=XY.=X-XI.-X*X-X-X*X*X-X:X-X-X-X;X;X<X<X;X-X1X<X3X1X3X1X3X;X3X2X;X2X;X2X:X;X3X2X3X3X:X3X3X3X6X3X8X6X8X3X6X3X3X8X3X8X2X4X4X5X5X5X6X6X6X6XwX6X2X6XqX0X5 ] )  .. . * X X + . X X o . o o * * o 2 - ; ; 3 3 : A A z A S ! Q S S G S S +.%.@.+.@.%.-.*.-.*.*.q.X.X.=.f.6.=.f.=.=.=.=.f.f.r.r.r.r.y.e.r.a.a.r.r.a.p.p.p.p.p.p.a.a.s.p.p.s.s.s.s.s.[.s.[.[.[.[.[.[.[./.+X{.}.{.[.[.|.`.{.|.}.}.}.}.{.'.+XOXOX{.OX+XOX}.OXOX+X{.{.{.[.[.|.|.).).s.).p.i.i.i.p.s.p.p.s.p.r.p.p.p.p.r.p.r.r.p.p.p.r.f.e.a.e.4.4.f.f.f.=.4.e.e.=.=.=.-.-.X.-.6.-.q.6.X.X.q.6.X.q.X.+.@.X.@.G +.F %.%.+.+.q.%.F A h G A k l k g q o @ - ; @ @ @ - - ; 0 ; ; ; @ q ~ ~ :.;.>.;.;.>.>.>.7.V.C.Q.%XaXuXnXkXmXNXmXNXMXMXNXNXBXmXnXnXnXNXnXSXNXNXNXmXmXNXmXNXmXNXnXSXVXVXVXSXVXVXSXVXSXVXVXnXmXmXVXVXVXBXVXSXVXBXBXBXBXBXVXnXVXVXnXVXVXnXVXSXVXVXVXnXVXnXVXVXnXVXnXVXnXnXnXnXnXVXVXVXnXVXVXnXnXnXnXVXVXnXnXnXVXnXnXnXnXnXhXhXkXkXnXNX",
"g.g.g.g.g.g.g.g.g.M.g.M.g.g.g.M.g.S.g.M.g.g.g.S.N.N.M.g.k.M.M.A.G.E.E.A.N.M.N.M.B.M.B.M.A.A.A.A.E.A.S.z.l.D.x.D.x.D.x.x.b.c.b.x.b.K.b.D.b.b.b.D.D.D.K.b.K.D.K.K.K.K.K.K.K.K.K.K.K.I.K.L.I.K.I.K.L.I.K.I.K.I.I.I.I.I.I.K.I.L.I.I.Y.I.I.Y.I.Y.Y.Y.I.Y.I.Y.Y.7XY.I.I.I.7X7X7XY.Y.I.I.Y.7XY.7X1X7X<X<X<X1X;X;X<X;X2X;X3X<X3X1X1X3X1X3X3X3X2X1X<X<X<X<X<X3X4X4X4X4X7X1X4X3X4X4X3X4X4X4X4X3X3X3X4X3X4X4X1X3X4X0X5X4X5X3X0X0Xn.l.| UXP   $ O + . X O   X o o o * o * @ ; ; - 3 3 3 l / z k Z k j S S k F +.+.! o.@.@.+.@.=.8.8.*.*.*.-.-.=.=.=.e.1.e.1.8.4.e.e.e.e.e.a.r.a.r.e.r.a.a.r.p.y.a.i.p.i.s.s.).).).s.).s.).).)._._.|.[.).+X{.{.[.|.{.{.[._.}.}.|.}.`.{.`.{.}.{.}.OX}.}.}.OXOX&X}.'.}.OX'.`.[.[.[.s.|.s.s.s.[.s.a.p.s.s.p.p.p.p.r.f.a.p.a.r.p.r.r.p.p.r.r.r.r.r.a.a.e.=.f.f.=.-.f.=.=.=.=.=.=.q.X.-.*.*.*.-.6.@.*.*.@.@.X.G X.G G +.+.%...G %.$.+.%.^ S k F A z j 4 : - @ o - @ @ @ o @ o ; ; q 2 * @ q L ~ >.;.>.>.>.>.{ >.M.C.M.!. XtXxXhXnXnXnXnXVXVXVXSXnXmXNXnXmXNXNXmXNXCXCXNXCXmXNXmXNXmXNXCXCXCXCXmXAXmXAXnXmXNXNXNXNXNXNXmXmXCXNXmXCXNXCXNXNXmXmXNXNXNXmXNXmXNXCXNXmXCXCXBXNXNXmXNXNXmXNXBXnXBXBXBXBXBXNXNXnXmXBXmXNXnXVXNXNXVXnXnXnXnXnXnXnXhXnXhXxXkXNXkXnX",
"M.g.g.M.M.g.M.>.g.g.M.g.M.g.M.g.g.g.g.g.g.S.M.g.N.N.M.M.M.k.M.A.G.E.!.A.A.M.N.N.M.M.M.A.B.A.A.A.A.A.S.z.l.c.b.b.D.b.x.b.x.b.c.b.K.b.b.b.D.D.D.D.D.D.K.K.b.K.D.K.K.K.K.K.K.K.K.K.K.L.L.I.L.I.K.I.K.K.K.K.I.K.I.I.I.K.I.I.I.I.I.I.I.I.I.I.I.I.I.I.I.I.I.I.I.Y.Y.I.7XY.Y.Y.Y.1X7XY.7XY.I.Y.<X1X<X<X<X-X;X<X<X<X;X2X<X<X3X1X3X1X<X2X2X2X2X<X<X<X<X7X<X<X7X1X<X4X4X1X4X2X4X3X3X2X3X3X5X4X5X3X5X0X0X5X4X3X3X4X0X4X4X4X3X<X8X1XY.| l.$ $ , $ + X X X   o o o @ @ @ - @ - : 3 3 q z z z q k Z k k S F F o.! G o.@.+.@.&.6.=.*.6.6.-.@.-.-.-.=.=.=.=.e.e.e.e.e.e.e.r.r.r.r.r.a.r.e.r.r.r.a.r.a.p.p.p.p.s.s.s.d.s.)._.).[.).[.{.[.[._.[.[.[.[.[.|.}._.}.|.`.`.|.}.{.`.}.OX}.}.}.OXOXOXOXOX}.}.`.}.|.|._.|.s.s.s.s.s.s.s.s.s.s.a.a.a.p.p.s.p.r.p.p.a.r.r.r.p.p.a.r.a.p.r.r.f.r.r.e.f.f.e.1.f.=.4.=.=.=.=.=.=.-.X.X.-.-.-.q.@.-.%.-.@.%.X.@.$.+.G ..$.q.@.o.q.F G +.#.F k 4 g 3 3 3 3 : @ @ @ @ - * - * @ @ ; 0 3 3 q x ^ >.2.>.;.>.>.>.>.M.M.(.!.,XtXgXhXnXnXnXnXVXSXnXSXVXNXNXNXnXmXnXNXNXmXNXmXmXNXmXNXmXAXmXmXmXCXCXmXCXAXmXmXAXNXmXmXmXmXNXNXNXNXCXAXmXNXmXCXmXNXCXNXmXCXNXNXCXNXmXBXNXBXBXmXBXNXmXNXmXNXNXNXBXBXNXNXNXNXmXnXNXNXBXzXmXNXnXNXNXnXnXnXVXnXVXVXnXVXnXVXnXmXnXnXnX",
"M.g.g.M.g.M.M.g.M.g.M.M.g.M.g.M.g.M.g.M.g.M.M.M.N.N.g.M.k.M.M.A.E.E.E.G.B.N.N.N.M.A.M.A.A.A.A.E.G.S.S.l.c.c.b.c.x.x.x.D.b.x.x.x.D.D.D.b.b.b.D.b.D.b.D.K.K.D.K.K.D.K.D.K.K.K.K.K.I.K.K.L.K.I.K.K.K.K.K.I.K.I.K.I.I.I.K.K.I.I.I.I.L.I.I.I.I.I.I.I.Y.I.I.Y.Y.7XI.I.Y.Y.7XY.7XY.Y.7XY.Y.I.7X7XY.Y.<X:X-X;X;X3X;X<X;X3X<X;X<X1X3X3X<X1X2X<X<X<X-X-X*X-X7X<X<X4X1X4X4X2X3X2X3X3X3X2X3X4X4X4X5X0X5X5X0X4X3X3X4X0X4X4X4X4X<XY.qXUXR.H O , = + X X X X o o o - @ o @ : : - 3 ; 0 g l z 3 g j k k k S F F S ! ! ..@.*.*.8.=.=.=.8.6.-.X.-.-.-.=.=.=.1.e.e.8.e.e.r.r.t.a.r.e.r.r.r.e.e.w.r.y.y.a.p.i.p.p.p.i.i.d.s.).).[.|.).{.|.)./.{.{./.[.[.{.}.|.}.}.}._.|.}.}.}.`.}.}.}.{.{.{.{.{.{.OX}.{.'.}.}.|._.'.[.s.[.s.s.s.s.s.s.p.p.s.s.s.p.p.p.p.p.p.p.r.r.p.p.p.a.r.a.p.r.f.e.r.e.e.f.e.e.e.-.f.=.=.=.=.-.=.*.-.-.-.q.-.-.-.6.%.@.@.X.X.q.*.@.$.$.o.+.%.%.D F X.q.^ ^ F G S k g 2 : 3 3 ; o o o . + o o o @ o 3 q 3 q Z ~ >.>.>.>.>.>.>.>.2.M.C.(.,XtXxXnXhXnXnXnXVXVXnXnXVXmXNXnXAXkXNXNXmXmXNXNXmXNXNXNXmXCXCXCXAXCXCXCXCXmXAXAXmXmXmXNXkXNXmXmXNXNXmXmXCXNXmXCXNXCXNXCXNXBXmXBXNXBXBXmXmXAXBXBXNXmXNXNXmXnXNXNXnXNXNXnXBXNXzXNXnXNXNXBXNXNXnXnXnXnXVXnXVXVXVXVXnXVXnXnXVXNXNXNXNX",
"g.g.g.M.M.g.M.M.g.M.M.g.M.g.M.g.M.g.N.g.N.g.M.S.M.N.S.g.M.k.M.A.E.W.R.A.B.B.N.N.A.M.A.A.A.A.A.A.G.A.A.z.l.l.b.c.b.b.x.x.x.x.x.x.b.D.b.D.D.b.D.D.K.K.K.D.D.K.D.K.K.K.K.K.K.L.K.L.K.K.L.L.I.K.K.L.I.I.K.K.K.K.I.K.K.I.I.I.I.I.I.I.I.I.I.I.Y.I.I.Y.Y.Y.I.I.I.Y.I.I.Y.Y.7X7XY.Y.7XY.7XY.I.I.Y.7XY.7X-X-X:X2X1X<X;X;X;X<X;X;X<X<X<X<X<X<X<X<X<X7X<X-X1X7X<X<X<X4X1X2X1X2X4X3X2X3X<X<X3X4X0X4X5X0X5X4X4X1X3X8X0X3X3X4X4X4XqXF.` qX< 5 $ X O X X O   @ o * * @ o - @ @ q ; : z l z g q z g j k S S F D o.$.$.+.$.<.q.*.@.*.8.=.*.*.*.@.-.=.=.=.e.e.e.1.e.e.e.e.a.e.t.r.e.r.r.r.r.a.a.r.p.a.p.p.i.p.p.r.i.d.).s.).d.)._.).[.{././.[.{.).[.[.|.|.{.{.[.}.}.}.}.}.}.}.{._.}.}.}.}.}.}.OXOX}.}.}.}.'.|._.|.s.[.[.s.s.[.s.s.s.s.s.s.+Xs.p.p.p.p.p.s.s.a.r.p.p.p.r.r.r.r.r.f.e.r.r.e.f.e.e.e.=.=.=.=.=.=.=.=.=.*.=.=.-.-.X.-.-.X.%.6.q.@.X.o.G G %.%.@.$.*.%.F F G G %.G A A A j 4 : 2 3 ; ; o @ o o o o * * @ ; ; ; 3 l L ^ ;.>.>.>.;.>.>.M.2.C.!.,XtXgXxXnXnXnXVXnXVXnXSXnXNXNXnXkXNXmXnXNXNXNXmXNXmXmXNXNXCXmXmXCXCXCXCXCXAXmXmXAXNXNXNXNXmXAXmXNXCXNXNXCXCXNXNXCXNXmXCXCXCXBXBXmXBXBXNXNXCXCXCXmXBXBXBXNXNXmXnXNXNXNXmXNXmXAXMXNXNXNXmXNXNXNXnXnXnXnXVXSXVXnXVXSXnXnXVXnXnXmXnXkX",
"M.g.g.M.M.g.M.g.g.M.M.M.g.g.M.M.M.M.g.M.g.M.g.M.N.N.M.g.M.M.M.A.G.E.!.G.N.N.N.N.M.A.A.M.A.A.A.G.R.G.A.l.z.c.z.b.b.x.x.x.F.x.D.x.b.D.D.b.b.D.D.b.b.K.b.K.D.K.D.K.D.K.K.D.K.K.K.I.K.L.K.K.K.K.I.L.K.I.K.I.K.I.K.I.I.K.I.K.I.I.I.I.I.I.Y.I.I.7XY.I.I.I.I.Y.Y.I.Y.L.7XY.7XY.7XY.Y.7X-XI.I.I.Y.I.-X-X-X-X-X;X1X<X;X;X-X:X-X-X-X;X;X:X<X<X<X<X7X-X*X-X<X<X<X<X2X3X2X<X2X3X3X2X2X2X1X<X2X3X3X4X4X0X4X4X4X3X3X4X4X4X3X4XY.qXqXn.IXl.H < $ X + . X .   @ o * o o @ - - - : - 3 z l q : g j h z k Z F ! ! G F o.o.@.+.X.$.=.*.-.-.*.6.6.-.=.*.=.f.e.e.e.e.e.e.e.e.e.e.e.e.a.f.r.r.y.a.r.r.r.r.a.y.p.p.s.s.s.).s.).).).)._._.[.[.)._.{.{.[._._.[.[._.[.`._.{.{.{.}.|.}.}.}.{.{.}.}.}.}.'.{.}.'.}.OX}.}.[._.s.s.s.s.s.s.s.s.+X+Xs.s.s.p.s.+Xp.a.p.p.p.a.r.p.r.r.r.r.r.r.f.e.a.a.e.e.f.f.f.f.f.f.f.=.=.=.=.=.6.*.-.-.X.-.q.6.6.@.-.-.X.X.+.X.$.+.+.%.X.G ..G q.+.+.G %.:.^ S g g q 4 - - ; 2 ; * o o o o o @ - * @ @ ; 3 z ~ >.>.>.>.M.2.M.2.M.M.E. XXXyXhXnXnXnXnXVXnXnXnXVXNXnXmXmXNXkXmXnXCXmXmXAXmXNXNXmXBXCXBXCXCXCXCXCXCXmXAXmXNXmXmXNXAXmXAXmXNXNXmXNXCXmXBXBXCXCXCXNXCXBXBXBXBXBXBXBXBXBXCXNXCXNXmXBXNXmXnXBXmXmXNXBXCXmXNXmXmXNXmXNXnXNXnXnXnXVXVXVXnXnXnXnXnXnXnXnXNXkXkXmX",
"g.M.M.2.g.M.g.M.M.g.M.g.M.M.g.M.g.M.M.g.N.g.S.M.N.N.N.g.M.g.g.A.G.E.E.A.B.N.N.N.A.A.A.A.A.A.A.A.G.R.F.l.l.z.c.c.x.b.x.D.x.x.D.b.b.K.D.D.K.b.D.K.D.D.K.D.D.b.K.K.K.D.K.K.K.L.K.K.K.K.K.K.K.K.K.K.I.K.I.K.K.L.I.L.K.I.K.I.I.I.Y.I.I.Y.I.Y.I.Y.I.Y.Y.Y.I.Y.Y.7XI.Y.Y.7X7X7X7XY.7XY.-X-X*XI.I.-X7X-XY.-X-X;X<X<X:X;X-X-XI.-X-X-X;X<X<X-X<X<X-X7X-X7X<X<X7X2X<X<X<X2X1X2X3X2X2X3X2X2X3X3X2X4X4X3X4X3X4X2X3X4X0X4X3X3X4X4XL.L.IXl.n + + . + . X X X o * @ o @ @ - * ; ; ; q q 3 3 q q 4 z Z S k S S F D ! o.%.*.6.q.6.=.*.-.=.=.*.&.*.-.=.*.*.=.1.e.w.8.e.e.e.e.e.8.e.r.r.f.r.r.a.e.e.e.w.r.a.a.p.p.r.i.s.d.s.)._.)._.[._._.)._.{.{.}.[.[.[._.[.[.|.[._.|.}.}.`.}.}.|.[.[.{.|.}.{.`.`.'.{.{.{.|.'.[._.[.s.).s.s.[.s.s.s.s.s.s.s.s.s.s.p.p.p.s.p.a.r.a.p.p.p.r.r.r.r.a.a.e.e.e.f.f.e.f.=.=.=.=.=.=.=.=.-.*.-.-.-.X.X.-.%.-.*.q.q.%.X.o.+.+.+.@.@.%.%.%.+.q.q.F F #.q.^ Z A g 2 - - - @ @ @ * @ o o o o ; - * ; ; ; q L >.>.>.>.>.M.M.M.>.C.C.oXtXsXxXhXnXnXVXnXSXVXnXSXNXNXNXkXmXmXNXAXAXAXmXmXmXmXmXmXBXmXBXBXCXCXCXCXAXmXCXmXNXNXNXmXNXAXCXmXAXmXNXCXBXBXBXBXCXCXmXAXCXBXBXBXBXBXmXnXBXCXCXAXCXCXBXBXBXBXBXBXmXNXBXBXNXmXnXNXNXCXNXNXBXNXVXnXSXVXMXVXnXnXnXhXnXnXnXnXkXkXkXkX",
"M.g.M.g.M.g.M.g.M.M.M.M.M.g.M.M.g.S.M.M.g.S.M.N.N.N.M.M.M.M.M.A.E.W.E.A.A.B.A.N.A.A.A.A.A.A.A.!.G.R.S.z.z.z.x.c.x.x.x.D.D.x.x.b.D.b.K.b.D.b.D.D.b.K.D.D.b.b.K.K.K.b.K.K.K.K.K.K.L.K.K.K.K.K.I.K.K.K.I.I.I.I.I.I.I.I.L.I.I.Y.I.Y.I.I.I.Y.Y.I.Y.I.I.Y.I.Y.7XY.Y.Y.I.Y.Y.Y.Y.Y.7XY.:X*XI.Y.-X*X-X*X=X-X-X;X;X<X;X2X<X;X-X-X-X-X<X1X<X<X<X<X<X<X-X<X1X2X3X2X<X<X<X3X1X2X3X3X3X1X2X3X3X2X2X3X3X3X4X3X4X3X3X3X8X4X2X3XqX7Xb.qXY.F.e < . + . . X X o * * o o @ - * * ; : q q : : 3 g g j A Z k k k S D G $.%.$.%.*.q.-.-.*.6.6.=.@.-.*.=.-.=.=.1.e.e.e.6.e.e.8.e.e.e.e.r.r.r.a.r.w.w.w.r.a.a.t.r.a.a.r.d.i.i.i.).)._./.[.)._.s./._.+X[._.[.[._.[.|.|.{.|.}.}.{.|.}.`._.|.|.}.|.OX}.}.{.}.`.{.{.'.|.[._.[.[.[.s.s.s.s.s.[.s.s.[.[.+Xs.s.s.s.s.s.s.s.p.p.s.p.p.r.r.a.p.a.r.e.e.e.a.f.f.f.f.f.f.f.f.=.=.=.=.-.6.6.q.-.X.X.*.6.*.X.@.%.-.@.D +.+.+.+.+.+.+.+.G o.+.%.^ %.^ ^ S z 3 3 ; - o ; ; * * * * ; * o * * - ; ; q L ~ >.2.M.>.>.>.>.g.C.C.!.XXxXgXxXmXnXnXmXVXnXVXSXNXmXmXNXNXNXNXmXCXCXCXCXNXCXmXmXmXBXBXmXBXmXCXCXCXmXAXmXNXmXNXNXCXAXAXAXCXCXNXNXBXBXBXCXCXCXAXCXCXCXCXBXCXBXnXBXCXBXCXCXCXCXBXCXBXBXCXBXBXBXFXZXNXCXNXNXCXNXCXmXBXVXmXVXVXSXVXVXnXnXnXnXnXnXnXnXkXnXkXkX",
"g.M.M.M.M.M.M.M.g.M.g.M.M.M.M.M.M.M.M.g.M.M.M.M.N.N.M.g.g.M.M.A.G.E.!.A.B.M.A.A.A.A.E.A.A.A.A.A.R.G.F.S.S.c.x.c.x.x.D.D.D.D.x.x.D.b.D.K.D.D.b.D.K.b.b.D.D.D.D.K.K.K.D.K.K.D.K.K.K.K.K.K.K.K.K.L.K.L.K.K.K.I.L.I.L.I.I.L.I.L.7XI.I.I.I.I.I.I.I.Y.7XY.Y.7XY.7X7XY.I.I.Y.7X7XY.Y.7X-X*X*XY.*X-X*X-X-X-X-X-X;X<X;X2X<X1X;X:X:X-X<X3X<X<X<X<X<X<X<X<X2X3X3X3X1X<X<X<X<X2X3X3X3X2X3X3X4X4X3X3X2X2X3X4X4X3X4X3X8X3X3X3X7XI.7XY.qXUXm 5 $ 1 + . X   * & - o @ @ ; o - q ; : : ; : q q : k A z h k D ! ! ! +.$.%.*.%.-.6.*.*.*.-.-.6.=.-.=.=.=.=.8.e.e.e.e.8.4.e.e.e.r.r.r.r.r.p.y.e.a.p.r.p.p.y.p.p.p.p.p.i.y.y.i.s.i.p.)./.i.u.a.i./.i.).[.).[.[.[.[.s.OX}._.`.}.OX}._.{.[._.`.{.{.{.`.{.{.{.`.|.|.|._.[.s.s.[.|.+Xs.s.[.[.s.s.s.s.s.s.|.s.s.s.s.p.a.a.s.p.p.r.r.p.r.r.a.r.a.a.a.f.=.f.a.f.4.f.4.=.=.=.=.6.-.=.6.-.@.-.-.6.*.-.q.6.@...X.+.@.%.8.%.+.@.q.+.%.^ G ! #.! Z S L Z z q 3 q 0 ; @ o o o o o o o o o ; ; 3 q L ;.m.>.>.M.>.>.>.M.A.!.,XtXgXhXnXVXVXmXVXSXVXnXmXNXNXmXNXmXmXAXmXCXCXCXAXCXCXmXBXmXBXmXBXCXBXBXCXCXAXmXNXNXmXNXCXmXmXmXmXNXmXCXNXCXCXAXCXCXCXCXAXCXBXBXBXBXBXBXBXCXCXCXCXAXBXBXCXCXBXBXZXFXBXZXCXCXCXmXCXCXCXAXBXVXnXVXVXVXnXVXnXnXnXnXnXnXnXVXnXNXnXnX",
"M.M.M.M.M.M.M.M.M.M.M.M.M.M.M.2.k.M.k.M.k.M.M.N.N.B.N.k.l.7.N.~.E.W.E.A.A.M.A.A.A.A.A.A.A.G.E.>XE.R.~.z.l.c.x.v.x.x.D.v.x.x.x.D.D.D.D.b.D.b.D.b.D.D.D.K.D.D.D.K.K.K.K.K.K.K.K.K.L.K.I.L.L.I.K.K.I.K.I.K.L.K.I.I.I.I.I.I.I.I.Y.I.Y.I.I.L.I.L.K.I.I.Y.Y.Y.Y.7XY.7X*X-X-X:X<X*X-X-X-X*X-X=X-X-X*X-X-X-X:X<X3X<X1X1X<X<X;X;X<X<X1X3X3X1X<X<X<X<X<X<X<X3X3X3X3X<X<X1X<X3X2X3X2X<X<X2X3X:X2X3X2X2X<X3X4X4X4X1X4X1X3X3X4XI.qXT.9Xl.R.5 d r . X . O ; @ o o @ o @ : f 3 q - 3 ; 3 - 4 j k 4 g S ! F ! ! +.+.%.%.*.&.*.-.=.-.-.=.=.=.=.-.-.=.-.=.e.e.e.e.e.e.e.e.e.8.e.a.r.r.r.r.r.r.r.a.r.a.s.p.p.p.a.s.i.s.s.s.).)._.i.[./.[.[.[.{.}.).[./.[./.[.[.[.i.{.[.[.}.`._.[.|.}.|.[.[.`.}.{.{.{.`.`.`.{.{.[.).[.s.[./.[.i.i.).+Xi.s.+X[.s.+X[.p.s.s.s.p.p.a.a.a.i.p.p.r.r.e.r.a.r.f.r.f.e.e.e.a.f.=.=.=.=.=.=.-.6.-.*.q.-.-.-.6.q.-.-.*.$.@.+.+.$.+.@.@.$.%.*.6.+.+.#.#.^ F Q S ^ Q / A C 0 ; * o o o o @ o o . ; X @ o ; z q q E >.7.M.2.g.M.>.m.C.!.eXtXgXgXnXnXVXSXNXSXnXNXAXnXmXNXmXNXnXmXmXmXmXmXNXmXmXCXLXBXBXBXBXFXBXBXmXCXCXCXNXmXAXAXCXCXCXCXCXBXBXBXCXBXCXBXCXCXCXCXAXBXCXCXCXCXZXCXCXCXCXBXCXAXCXCXCXCXAXCXCXCXCXCXCXAXmXNXmXAXnXnXBXSXNXSXBXVXBXNXVXVXSXnXVXVXSXnXnXnXnXnX",
"g.g.M.M.M.M.M.M.M.M.M.M.M.M.M.M.M.M.M.M.M.k.M.N.N.N.N.k.m.l.N.~.E.W.W.G.A.M.A.A.A.A.A.A.A.G.A.!.E.R.F.S.c.z.v.v.x.D.D.x.D.x.D.x.b.D.D.K.D.K.D.b.D.K.b.b.b.b.K.D.K.K.K.K.K.K.K.L.K.L.I.K.K.I.I.K.L.I.L.L.L.K.L.I.I.K.L.I.Y.Y.Y.I.I.I.I.I.I.I.I.I.Y.Y.7XY.7XY.Y.Y.=XI.*X<X<X-X-X=X-XI.I.-XI.-X*X-X-X-X-X;X1X1X2X<X<X-X:X-X;X;X1X2X<X<X-X<X*X:X;X:X<X3X3X2X3X<X2X<X<X2X3X2X2X;X3X<X3X3X3X2X3X3X3X2X7X1X1X4X1X1X3X3X*X0X4X0XT.0XR.d d 8 . . @ . * + . + o @ @ ; : ; ; : ; : : 2 3 u j Z S k S ! S F ....G ..@.$.*.-.=.-.=.=.f.=.=.=.=.=.=.1.=.e.4.e.e.e.e.e.e.e.e.e.r.r.a.r.f.a.r.r.f.r.p.p.p.p.p.s.y.p.s.s./.).).).[.i.i././././.p.p.i.i.[.[.|.[.[._._.|.{.}.[.`.[._.`.}.[.'.|.{.`.{.{.{._.[.{.[._.s.[./.p.[.i.i./.[.p.p.).).s.s.[.s.s.s.p.p.p.p.a.r.p.r.y.e.r.r.r.r.r.r.r.e.f.e.f.e.f.=.f.e.=.=.=.=.-.=.-.-.-.-.-.X.-.@.-.*.-.-.@.@.#.X.@.%.+.@.+.G +.%.%.G F S F g j j A 3 3 ; ; ; * * o o o o o . . ; @ q o q l l ^ >.>.>.M.g.>.7.V.C.!. XtXiXPXnXVXnXVXnXVXmXNXmXNXAXmXAXmXmXmXAXAXmXmXmXmXmXAXFXFXBXBXBXCXBXBXBXCXCXCXNXmXNXmXBXAXBXNXBXBXBXBXCXBXNXCXCXAXCXCXCXBXCXBXCXCXCXCXCXBXBXBXCXCXCXCXCXCXCXCXAXCXCXCXCXmXCXCXmXmXmXAXVXVXVXVXVXmXVXBXnXnXnXVXVXnXnXnXNXNXmXNX",
"M.g.M.g.M.M.M.M.M.M.M.M.M.M.M.M.M.M.l.M.M.M.M.A.N.S.M.k.m.m.N.~.E.!.W.G.A.M.M.A.A.A.A.A.A.G.G.A.R.E.F.S.l.F.D.D.x.x.x.x.x.x.x.v.b.D.b.K.D.D.K.D.K.b.D.D.K.D.K.K.K.K.K.K.K.K.K.K.K.K.K.I.I.L.I.K.I.Y.L.I.I.K.L.L.I.Y.L.L.Y.Y.Y.Y.I.Y.L.7XI.I.I.I.Y.I.Y.7XY.Y.Y.7XY.-X*X<X<X:X*X-X*X=X-X=X=X-X-X*XI.-X-X-X<X;X2X;X;X-X-X-X:X-X;X<X<X:X-X*X-X-X-X-X1X3X3X3X1X<X1X<X<X3X3X4X3X:X<X3X4X3X4X3X3X3X3X2X7X4X3X8X4X3X3X4X*X4X8X0X-XT.,X) 9 > X . + . + @ o @ o @ - ; - o : ; : ; : u j j k S A S Z x ! F D D +.@.$.*.*.q.=.=.=.=.=.=.f.=.=.=.=.=.=.8.8.e.e.1.e.e.w.t.e.1.r.r.a.r.f.r.f.a.a.p.p.p.s.s.p.s.y.y.s.d.i.)._.[.[././.[.[././.[.i.i.i.i./.[.[./._.[.|.|._.).).[.).[.[.|.|.}.}.{.{.{.{._.).[.)._.i.[.[.[.[.[./.[.[.).p.s.).+Xs.s.s.s.s.s.s.p.p.p.r.a.w.y.f.a.r.r.f.r.a.a.f.6.f.e.f.f.4.f.4.f.=.=.=.=.=.-.-.X.X.-.-.X.@.q.*.-.@.@.+.%.@.%.%.@.*.%.%.+.+.G ! +.Q A j g 3 j 3 ; ; ; ; ; * o o @ o + * X @ ; q 0 q l L >.V.m.>.>.M.>.m.V.C.E. X,XaXgXnXnXnXmXNXNXNXNXAXmXNXMXmXAXmXCXmXAXCXmXmXAXmXmXFXBXBXmXBXCXFXBXBXCXmXBXmXAXmXAXCXCXCXmXBXBXmXCXCXBXBXBXBXAXCXAXCXCXCXBXZXCXCXZXBXBXBXBXCXCXCXNXAXCXCXCXCXCXAXmXCXCXCXCXCXCXCXNXVXmXnXVXmXVXNXnXVXnXVXnXnXnXnXnXmXNXAXmX",
"M.M.M.2.M.M.M.M.M.M.M.M.A.M.M.M.M.M.M.M.l.M.M.N.S.B.N.7.l.m.N.G.E.W.W.G.A.A.A.A.A.A.A.A.A.A.E.W.W.R.F.N.l.c.c.c.x.F.F.F.D.D.x.x.D.b.D.D.b.K.b.K.K.b.b.D.b.K.K.K.K.K.K.K.K.K.K.K.K.K.L.K.K.I.L.I.L.I.I.Y.L.I.I.Y.I.I.I.Y.Y.7XY.Y.I.I.Y.I.Y.7XY.Y.7XY.Y.Y.7XY.7XY.I.I.-X-X<X-X-XI.I.-XI.-X-X-X=X-X-X-X<X:X1X<X;X;X-X-X-X-X-X-X;X<X-X-X-XY.-X-X-X-X1X<X3X3X3X1X<X1X;X2X3X3X3X2X2X<X2X3X2X3X3X2X3X3X2X1X4X4X8X3X3X3X4X4X0X8X0XT.bX) 9 $ X + @ . . O @ o o - @ ; ; - : ; - 3 2 j j k Z 3 Z Z h S S ! S G $.$.@.@.-.*.=.=.=.=.=.=.=.=.=.*.=.=.e.=.e.e.e.1.e.e.e.e.e.e.e.r.r.r.a.r.r.r.p.p.p.a.p.s.p.s.).s.y.i.).).[.[.i.[.i.i./././.|.[./././.i.[.).i.i./.).)._.{.}.}.[.[.[.|.|.}.}.}.[.{.{.[._.[.[.).).[.[.[.[.|.).s.[.).+Xs.+Xs.s.[.s.s.s.s.s.s.p.p.p.p.a.a.e.y.e.a.f.e.e.e.f.f.f.f.f.=.f.f.f.=.=.=.=.6.6.-.-.-.-.-.*.-.-.*.q.-.@.-.o.@.+.@.+.o.@.q.*.%.$.! ! ! G Z Z j g 3 q 3 3 - * * * ; * @ o o ; X o ; j l z L L :.V.>.>.M.>.>.>.>.V.A. X XpXgXPXnXVXVXmXmXNXmXmXNXmXNXNXmXCXAXCXCXCXAXmXmXmXmXBXFXBXLXCXFXBXBXBXCXBXBXAXmXAXmXCXBXBXCXBXBXBXBXCXBXBXCXBXCXCXBXBXCXNXCXBXBXBXCXBXBXCXAXCXAXCXCXCXCXCXmXCXCXCXCXCXCXCXAXCXCXCXCXBXVXmXVXmXVXBXnXnXnXnXVXnXnXVXnXNXnXkXNX",
"g.M.M.g.M.M.A.M.M.M.M.M.M.M.M.A.N.M.M.M.M.M.M.A.B.N.N.k.m.V.N.G.W.W.!.G.A.A.A.A.A.A.A.A.E.E.W.G.E.R.F.S.z.z.F.c.D.c.c.D.D.D.x.c.b.D.D.b.K.b.b.D.D.D.b.D.b.K.K.L.L.L.K.L.K.K.K.K.I.K.L.I.I.L.L.I.L.I.L.Y.I.I.L.Y.Y.I.Y.I.I.Y.Y.I.I.I.Y.Y.7XY.Y.Y.Y.Y.Y.I.7XY.I.Y.=X=X-X<X<X-X*X*XI.*X*X-X-X-X*X-X-X-X-X;X1X-X:X-X-X=X-X-X<X1X<X1X<X-X:X-X-X<X<X-X<X<X1X3X1X1X1X2X:X3X3X3X3X2X<X<X<X3X3X2X2X3X2X3X2X4X2X4X6X3X3X3X4XwX<X4X8XqXR.m d . X $ # + . @ * @ @ * @ - - @ - - ; q 3 q 3 j : S j k F S D F G G ..+.X.X.-.-.=.=.=.=.=.4.f.=.=.*.=.6.=.1.e.e.e.8.e.e.f.f.f.e.f.r.r.r.r.r.r.r.f.r.p.r.p.s.p.s.s.i.i.p././.[.).).[./.i./.p.a.[.).[.s.[.[.[.[.[.[.)./.).)._.[.[.|.|.{.|.}.{.{.}.{.|.{.[.[.{._.)./.[./.[./.[.i./.+Xs.).).+Xp.).s.[.+X[.s.s.p.a.a.p.i.a.p.r.a.e.r.e.e.e.e.e.f.f.=.f.=.4.=.4.=.=.=.-.=.=.-.-.-.*.=.@.@.@.*.-.-.@.%...@.+.@.+...@.@.+.%.<.q.+.F F A k j j - 3 : 3 @ * @ * o @ @ @ o + o 0 o j l ~ ' ~ ~ >.>.>.{ >.>.m.>.C.E.!. XpXiXgXnXnXNXNXnXBXBXmXNXmXNXNXmXCXCXCXDXCXCXmXmXmXCXFXBXLXBXLXFXZXBXmXCXNXmXAXmXmXAXBXCXBXBXBXCXBXAXCXCXBXBXCXCXBXmXCXBXBXCXBXCXCXBXBXBXCXCXCXAXCXCXCXCXBXBXAXCXCXNXCXCXCXCXCXCXCXCXLXBXBXBXBXmXNXmXSXVXVXnXVXnXnXnXkXkXNXkX",
"M.M.M.M.M.M.M.M.M.M.A.M.M.A.M.M.N.M.M.M.M.M.M.N.A.B.M.M.l.m.N.~.E.W.,XG.A.A.M.A.A.A.A.A.A.A.A.W.W.R.R.S.S.c.c.D.v.H.F.H.F.v.v.D.D.b.D.K.b.K.K.K.b.D.b.K.K.D.K.K.L.K.K.K.K.I.L.K.K.L.K.I.K.I.I.I.L.I.Y.Y.I.Y.Y.Y.Y.Y.L.Y.Y.Y.Y.Y.I.I.I.Y.Y.Y.7XY.Y.7XY.7XY.Y.Y.7X-X-X-X-X*X:X-X-X-XY.:X;X-X*X*X-X-X-X;X<X<X<X<X-X-X-X;X;X<X3X1X3X1X1X1X<X1X3X3X1X<X1X3X1X3X<X1X<X2X2X3X4X3X3X2X3X2X2X<X1X2X3X3X2X2X2X4X1X8X8X4X0X<X0X3X3XqX8X` { d . + $ + + @ @ * @ o @ @ @ @ - - - ; g 3 3 3 3 A j k k S Q S +...+.@.%.q.q.-.=.=.-.=.-.=.=.f.-.=.=.=.4.e.e.e.r.6.e.e.6.f.f.f.r.f.r.f.r.r.f.r.f.r.r.a.r.p.p.p.s.i.i.[.[.p.y.p.[.[.[.[.+X+X/./.s.s.s.s.s.[.[.[.[.|.[.[.[.[._./.y././.[.|.}.|.{.{.{.{.{.[.[._.).i.[.[.[.[.[.[.i.[.p.s.+X).s.+Xs.+Xs.s.s.s.s.p.p.s.p.p.a.i.a.p.r.r.a.e.a.e.r.r.f.=.f.f.f.=.f.=.=.=.=.-.=.-.-.-.-.-.-.-.-.*.-.-.@.@.@.%.+.+.$.+.+.+.+.+.+.%.,.+.! S z z z 3 ; - 2 ; - * o o o o @ - o * ; o 3 / >.;.;.} { >.;.>.M.>.7.V.C.A.!. XtXsXgXkXnXmXSXBXNXmXNXmXNXmXmXmXmXCXCXCXCXCXCXmXAXCXLXBXBXBXBXZXBXFXCXCXCXmXCXAXAXmXBXBXBXBXBXBXCXCXBXBXBXCXBXBXAXBXNXmXNXCXmXCXNXBXCXBXBXBXCXAXCXmXCXCXBXCXCXCXCXCXFXCXCXCXCXCXCXAXBXBXBXBXBXBXBXNXVXVXMXSXSXnXnXnXmXkXnXnX",
"M.2.M.M.M.M.M.M.M.M.M.A.M.A.A.M.N.M.N.M.M.M.M.S.N.B.N.k.m.N.N.G.W.W.W.W.A.A.A.A.A.A.!.E.E.E.E.E.W.W.G.F.S.c.c.H.D.H.D.H.D.D.D.D.K.D.D.K.K.D.D.D.b.K.K.D.K.K.D.K.K.I.K.I.K.K.K.K.I.L.I.L.I.I.I.L.L.I.I.Y.I.Y.Y.Y.Y.I.I.Y.Y.Y.I.Y.I.Y.Y.I.Y.I.Y.7XY.7XY.Y.7XY.Y.Y.=X-X*X-X-X-X*X-X-X*X<X<X<X<X<X:X-X<X;X3X1X<X;X:X-X-X:X<X3X1X3X<X3X3X<X1X3X3X3X1X<X1X1X3X3X3X3X3X2X3X3X2X3X<X1X2X1X2X3X2X3X3X3X4X2X<X4X8X8X:X0X5X0X4XqX5XqXT.z.W.d X + + X @ @ O o @ o @ - o @ ; 3 ; g q 3 3 u j Z g h Q k k ! #.G ..%.q.-.-.-.-.=.=.f.=.-.=.f.-.=.=.=.e.=.e.1.e.e.8.6.f.f.6.f.r.r.f.r.r.r.e.e.r.r.p.p.r.a.a.f.s.p.i./.s.p.a./.[.).+X/./.a./.+Xp.s.).s.s.s.s./.)././._._.|.|.{.[.i.s./.[.[.|.{.}.{.{.|._.).).).s.[.[.[.[.{./.i.[.s.).+X+Xs.+X).).s.s.s.p.p.s.s.s.p.p.y.i.y.p.r.r.a.r.r.e.e.e.e.f.f.f.=.f.f.-.f.-.=.=.-.-.-.-.-.-.6.*.*.-.%.-.$.@.@.@...o.+.X.+.@.X.+.+.%.+.^ #.! L z z q 3 ; 2 ; ; * @ o X o o @ ; 2 o ; @ >.m.} >.;.;.>.>.>.2.M.>.m.M.(.!. XeXaXgXPXnXNXBXBXBXBXmXNXmXmXNXmXmXmXCXCXCXmXAXCXCXmXFXFXBXBXFXCXFXCXCXNXnXCXNXCXCXAXCXBXCXBXBXCXCXCXBXmXNXBXBXCXBXBXNXCXNXmXNXCXBXCXCXCXBXBXCXCXCXAXCXBXmXmXmXmXCXmXCXCXCXCXCXCXCXmXLXBXBXBXBXBXVXmXSXnXnXnXnXnXPXnXmXNXNXNX",
"M.M.M.M.M.M.M.M.M.A.M.M.A.M.A.M.N.N.M.N.M.M.M.A.S.A.N.M.m.k.~.G.E.W.W.E.A.A.A.A.A.A.A.E.E.E.E.W.W.R.~.c.z.z.S.c.H.H.F.D.D.v.H.H.D.b.K.b.D.K.D.D.D.b.D.K.K.K.K.K.L.K.K.L.L.I.I.L.K.I.K.I.I.L.K.I.I.Y.Y.Y.Y.Y.I.Y.Y.Y.Y.I.Y.I.I.Y.7XY.I.I.Y.I.Y.7XY.Y.Y.7XY.Y.7XI.-X-X*X*X*X-X<X-X-X:X<X<X2X<X<X-X:X;X<X1X1X1X;X;XI.-X-X<X<X1X1X<X1X<X1X3X3X3X3X1X<X1X3X4X3X1X1X3X3X2X3X4X2X3X2X3X2X3X2X2X3X2X4X3X2X2X3X6X8X8X4X4X4X5X2X4X8XT.wXl.d X # . X @ @ . o . @ @ o o - - - 2 g ; 3 3 j k 4 z S Z S F F ! %.@.@.-.-.q.=.X.f.f.f.f.f.f.-.-.-.=.=.=.=.=.=.e.e.f.8.6.f.e.e.f.f.r.f.r.e.r.e.e.f.f.a.f.r.p.p.s.i.p.p.i./.[././.i./.[./.p.[.|.).s.+X+X).[.[.[.[.[.|.|.[.[._.)._.|.[.).).).+X{.}.[.}.}.|._.|.{.|.[.i.[./.{.u.p.[.[.s.s.).s.p.).p.+Xs.s.a.a.a.a.a.i.i.a.i.a.p.a.r.r.a.r.a.r.e.f.e.=.=.=.=.=.f.-.-.-.-.-.-.-.-.=.-.-.*.*.@.-.*.*.X.@.%.*.$.+.o.X.+.$.$.! +.! F ! S x g 3 : 3 ; ; * ; * * o o o o X * f * ; o ~ 7.~ >.' } >.g.M.M.>.>.>.m.B.Z.!.XXpXgXkXnXNXBXVXmXBXNXmXAXCXCXAXCXCXmXmXCXCXmXmXmXCXBXBXBXBXBXGXZXCXCXCXmXAXCXAXmXNXBXBXBXBXBXBXCXAXBXNXmXBXBXCXCXBXNXmXCXCXNXBXBXNXCXCXBXBXCXCXCXAXBXBXmXCXAXCXCXCXAXCXCXCXCXmXmXAXZXBXBXBXBXNXmXnXmXVXVXnXnXnXPXgXkXNXkXkX",
"M.M.M.M.A.M.A.M.M.M.S.M.N.A.A.M.N.M.M.M.M.M.A.A.A.B.N.M.k.N.N.~.E.W.,XE.A.A.A.A.A.G.G.G.A.G.E.W.W.E.R.c.S.b.x.b.F.F.x.F.x.D.D.D.D.D.D.D.D.b.D.D.b.D.D.D.D.D.D.D.D.K.L.L.K.L.K.L.K.K.K.L.I.L.I.L.L.I.I.I.I.I.K.L.I.I.I.Y.Y.Y.I.I.7XY.Y.Y.I.7XY.Y.7XY.Y.I.Y.I.Y.7X-X<X-X-X-X-X-X-X1X1X1X<X<X;X-X-X-X<X<X<X<X<XY.1X-X-X<X<X<X<X<X:X;X;X-X<X1X3X3X<X<X1X1X3X<X3X3X3X3X3X;X:X;X3X3X8X6X8X8X6X8X6X8X3X3X4X4X4X6X8X8X6X0X0X6X0X3X3X0X8X5 * o X - ; o o @ @ @ + o @ @ - 0 3 ; : q g 3 : g S k S ! F F G G ..@.@.-.*.6.=.=.f.f.f.f.-.-.f.-.=.f.=.=.f.e.e.f.f.e.f.6.6.6.f.f.f.f.f.f.p.f.r.f.r.p.p.f.a.p.s.s.).a.p.p.p.s.+X[.p.[.[.+X[.[.s.[.s.s.[.|.+X[.+Xs.[.|.[.|.)._.|.[./.}.[.[./.).a././.y.y.u.s.).).[.[.[.[.s.+Xs.+Xs.s.p.s.+X).[.+Xs.s.s.s.p.p.a.a.a.a.a.a.p.r.r.r.i.y.y.a.y.e.e.4.e.=.=.e.4.=.=.=.=.=.-.=.=.-.-.=.-.-.-.*.*.@.@.$.%.@.%.@.G ..%.@.+.%.q.+.+.%.#.Q A z u : - @ ; % ; * @ O o o o @ o * f ; ; q 7.>.;.;.] 2.M.>.g.>.>.>.M.M.C.!.XXaXgXhXnXVXVXSXVXVXSXFXBXBXLXLXBXLXCXmXmXmXNXmXmXAXCXAXAXAXCXCXCXAXNXNXmXNXNXmXAXAXCXCXmXNXmXAXmXmXNXmXmXAXmXAXCXCXmXAXnXNXCXCXAXmXCXmXCXNXAXCXNXmXNXCXmXCXNXCXNXAXCXmXNXCXNXNXAXmXBXBXVXmXBXBXmXnXmXAXkXnXnXnXnXnXnXnXNXkX",
"M.M.M.A.M.M.M.M.A.M.M.A.S.M.N.S.A.N.M.S.M.N.M.A.B.A.M.k.m.M.~.G.!.W.,X!.>XA.A.F.G.G.A.G.G.G.E.!.W.R.F.N.l.c.F.b.D.F.F.F.F.x.D.D.D.b.D.D.D.D.D.D.D.b.D.D.D.D.D.D.K.D.D.K.K.K.L.L.K.K.L.L.L.I.L.L.L.I.I.I.I.I.L.I.I.I.I.I.7XI.Y.I.7XY.I.Y.I.Y.7XI.7XY.Y.Y.I.I.I.I.-X-X-X-X-X=X=XY.<X<X<X1X;X-X-XY.<X<X<X<X<X<XY.1X-X:X<X-X<X:X<X-X:X;X-X<X3X1X3X3X3X<X3X1X1X1X<X3X3X3X3X3X;X3X:X4X6X3X3X6X3X3X8X6X2X3X4X3X6X3X4X4X4X5X3X5X4X5X0XL.< * X o o @ o - + O o + @ @ @ - - - ; 3 3 - : g Z k k F S Z G ..G ..+.&.*.%.*.6.=.f.-.f.f.f.f.3.=.6.6.f.6.f.e.e.f.f.f.f.6.f.f.f.f.p.r.f.f.f.p.f.p.f.r.f.p.r.p.s.a.p.p.i.s.s.a.s.+Xp.s.[.s.|.[.+X+X[.s.[.|.s.[.+X[.[.[.|.).{._.|._.[.}.|.}.|.}.|.}.|.[.).).).).).s.s.+Xs.[.s.s.+X[.s.s.+Xs.+Xs.).s.[.s.p.p.s.s.p.a.a.a.p.r.p.a.y.i.a.r.y.y.w.e.e.e.1.1.=.=.=.=.=.3.-.=.-.-.-.-.X.*.*.-.-.-.-.-.@.-.%.@.-.$.+...+.G +.#.! ! ! ! S Z A z u 2 ; ; @ * & * @ o X o . o * ; ; ; f ;.>.;.>.] g.;.>.>.>.>.g.2.M.A.Z. XyXiXhXnXnXVXVXSXVXFXVXBXSXBXBXmXBXNXmXAXmXmXmXmXAXCXmXCXmXCXNXCXAXmXmXNXnXmXNXCXmXCXCXCXBXnXAXmXAXmXAXmXCXAXmXmXmXAXmXNXCXNXCXmXNXmXAXNXCXAXmXCXmXCXNXNXnXNXNXmXmXNXNXNXCXNXmXAXAXBXNXmXVXVXVXVXNXNXmXkXkXNXkXnXnXnXnXnXnX",
"M.A.M.M.M.M.A.M.M.M.N.M.N.N.N.M.A.N.M.M.S.M.S.A.F.~.N.k.m.M.N.G.!.,X,XE.A.A.A.A.A.G.G.G.G.E.E.W.Q.T.~.c.S.c.F.x.D.F.F.F.F.F.D.x.D.D.D.D.D.b.D.b.D.b.b.D.D.D.D.D.D.K.K.K.L.L.D.K.K.K.K.L.L.I.L.L.L.L.I.I.I.K.L.L.I.L.K.I.L.I.I.I.Y.7XY.Y.I.Y.L.Y.I.Y.I.I.Y.I.I.Y.Y.-X-XY.T.=X-X-X-X:X<X;X-X-XY.-XY.-X-X-XY.1X<X<X<X<X<X-X:X<X:X<X<X-X:X-X<X1X1X1X<X3X<X3X3X;X<X3X3X3X3X;X;X:X:X3X3X3X6X8X8X3X3X3X3X4X3X4X3X4X3X0X4X0X5X3X:X0XqXl.5 0 X * o o o @ * @ + + @ - - - @ - ; : ; 3 z Z S Z S A A S F F D ..@.&.&.@.-.6.f.-.-.f.=.f.=.f.=.=.=.=.=.f.f.f.e.6.f.f.f.e.f.f.r.f.f.f.f.f.f.p.r.r.f.p.p.a.p.p.p.+Xp.a.a.s.+X[.[.s.s.|.s.[.[.s.s.[.s.[.[.s.|.[.[.[.s.[.).|.[.{.+X)./.[.+X[.[.[.|.[.[.[.|.[.[.[.s.+Xs.[.[.+Xs.[.s.+Xs.s./.s.s.s.+Xs.s.p.a.p.p.p.p.p.p.p.p.a.p.p.y.t.r.r.r.e.e.e.e.4.e.=.=.=.=.-.=.=.=.=.=.-.-.-.-.*.*.-.@.*.-.@.@.@.@.@.<.$.G @.o.+.+.+.! G Q A j j j q 2 @ ; % * * ; * @ o o X o . o f ; 3 ~ M.] 2.>.>.;.g.;.[ >.>.g.>.A.(.!.XXyXhXnXnXnXSXVXVXBXBXBXBXBXBXnXmXmXNXAXmXNXNXNXmXmXAXCXmXNXmXNXmXAXmXCXmXNXCXmXAXCXmXBXBXmXmXmXNXAXCXCXCXCXCXAXmXmXAXAXmXCXmXCXAXCXCXCXCXmXAXmXNXNXNXNXCXMXAXNXNXNXNXNXnXmXAXNXmXBXNXnXNXVXmXmXnXnXnXkXkXnXnXnXkXnXnXnXnX",
"M.M.M.M.A.M.A.M.A.M.A.A.A.M.A.M.M.S.A.M.M.M.M.A.~.G.~.m.M.M.N.G.!.W.,X,XG.A.A.A.A.G.G.E.A.E.E.!.W.E.F.S.l.c.x.x.D.x.x.c.c.b.F.b.b.D.b.b.b.D.b.D.D.D.D.D.D.D.D.D.D.L.D.K.D.D.L.K.K.K.K.K.K.L.L.K.K.L.L.I.I.I.I.L.K.K.I.L.I.Y.Y.I.L.L.L.7XY.I.I.I.Y.7XY.Y.I.I.Y.I.-XI.-X=X-X-X-X-X-X:X;X-X-X=X-XY.<X-X-X7X7X7X1X4X<X-X7X:X*X<X<X:X<X-X;X;X<X3X2X3X1X3X3X3X1X<X;X1X6X3X3X3X:X;X3X3X8X3X8X3X6X8X6X3X2X3X6X4X3X4X4X4X4X3X4X5X:X0X8Xz.)  .X ; o @ - o * o o X + @ @ - - ; 3 3 g k L Z j S S h S S S S o.o.@.+.X.-.*.=.-.-.f.=.-.f.=.f.f.=.f.f.6.f.f.6.f.e.f.f.f.f.f.f.f.f.p.r.p.p.r.f.p.f.r.f.r.a.p.f.a.p./.a.s.+Xs.+Xs.+X+Xs.[.[.[.+X+X[.[.[.+X[.|.[.{.[.[.s.{.[.|.[.OX}.{.OX{.}.|.|.[.).[.[.[.[.[.[.[.s.+X[.[.s.s.+Xs.p.s.+X).s.).+Xp.s.s.s.s.s.p.a.p.p.p.a.r.y.a.y.y.r.t.w.r.t.r.t.e.e.e.=.=.=.=.=.3.=.=.=.=.-.-.-.-.*.&.-.-.@.-.@.$.6.%.@.*.@...F +.+.! #.! G F S j 3 2 4 : ; @ ; * @ # * * @ @ @ . o o ; ; f z >.;.g.;.>.[ ;.g.;.>.>.>.m.M.A.!. XtXiXgXnXnXVXVXSXVXSXVXmXNXnXmXNXNXmXmXCXNXmXMXNXmXnXNXmXNXNXmXNXmXNXNXnXNXmXNXmXBXCXmXCXAXmXAXmXCXAXCXCXCXAXmXAXNXmXNXNXmXAXNXmXmXNXCXnXNXmXNXNXCXNXNXNXmXnXNXNXzXmXNXmXzXmXNXNXNXnXnXBXnXVXNXnXNXNXkXNXnXnXnXkXnXkXkXnX",
"A.M.M.M.M.A.M.A.M.A.S.N.A.M.A.M.M.A.A.N.A.A.M.>XG.G.S.M.m.M.B.G.W.!.,X!.G.G.A.A.A.A.G.G.E.E.E.W.W.T.R.c.l.F.x.x.D.D.l.F.F.b.F.b.b.D.D.D.b.D.b.D.D.b.D.D.D.D.D.D.D.D.K.L.K.D.K.K.K.D.D.K.L.L.L.L.K.I.K.I.I.I.K.I.L.K.K.I.L.I.I.I.L.L.I.I.I.I.I.I.7XY.I.I.Y.Y.Y.Y.-X-X-X-X;X:X-X;XI.-X;X-X-XI.-XY.Y.7XY.7XY.<X<X1X<X<X<X-X7X<X7X-X-X;X;X;X<X3X<X<X1X3X3X<X;X;X2X3X3X3X6X:X3X;X3X;X3X3X6X8X8X6X:X8X3X3X4X3X3X3X4X3X5X3X4X5X3X3X5XD.(  .  & o ; ; o o o . o @ - - ; ; - : l L l z z j k k k F S x F G X.+.X.@.-.q.=.=.=.f.f.=.=.=.=.f.f.f.6.f.f.e.6.f.r.f.f.f.f.f.f.f.r.r.p.p.f.p.f.f.p.f.p.f.p.a.p.e.p.a.a.p.).s.p.i././.).[.[.+Xs.+X[.[.+Xs.[.[.|.{.[.|.[.[.[.[._.|.[.).}.[.[.[.[._.|.[.[.s.s.[.s.[.s.[.[.+Xs.s.+X+Xs.[.s.[.s.+X[.s.s.+Xs.s.s.s.a.p.y.a.a.y.a.p.a.p.u.r.w.w.e.w.e.e.e.e.=.=.=.=.=.=.=.=.=.*.-.-.-.-.-.-.*.-.X.+.@.*.%.*.%.@.*.$.+.+.D G ! ! F S A A 3 4 2 2 - @ @ * @ . + @ ; * @ o * o * - ; ; L g.>.;.>.>.] ;.>.{ ;.>.g.V.A.!. XyXtXgXnXnXnXVXSXnXmXnXmXmXNXNXmXNXmXAXNXNXmXMXkXmXmXnXNXNXmXNXMXnXMXkXmXMXNXNXNXBXBXmXAXmXAXmXAXCXCXmXAXmXmXNXmXNXmXNXMXmXNXmXNXnXmXmXNXNXmXNXmXmXmXCXNXNXnXmXmXMXnXmXNXkXmXNXmXnXnXnXnXmXnXmXnXmXNXkXmXmXMXkXNXkXkXkXkX",
"M.M.A.M.A.M.A.M.A.M.N.A.A.A.M.A.A.A.M.N.M.M.M.A.~.G.~.M.M.M.N.E.W.,X,XW.G.S.A.A.A.G.G.G.A.E.W.W.IXE.~.l.l.c.D.x.D.D.F.b.c.F.F.F.b.b.b.D.D.D.D.D.D.D.D.D.D.D.L.D.K.K.K.D.D.L.L.D.L.L.L.K.K.L.K.L.I.K.I.I.K.I.I.I.L.L.L.L.I.I.I.I.I.L.I.I.I.I.Y.I.Y.Y.I.Y.Y.Y.7X7X-X-X-X-X;X;X-X:X-X-X:X-X-X-X-X-X1XY.1XY.Y.<X1X<X-X<X;X<X-X-X1X<X<X-X-X<X;X1X;X;X<X1X3X1X<X1X;X<X3X3X8X:X3X;X:X3X3X3X8X8X4X8X3X3X3X3X3X4X4X3X4X3X0X4X2X0X4X:X3X1XW d X f @ o ; o o + . * * ; ; 2 3 0 j z z 3 3 g k g A x A F F F F F ..@.*.*.-.=.-.=.f.-.=.=.f.=.=.f.f.6.6.f.f.f.f.f.r.r.f.6.f.f.r.f.f.f.f.p.f.p.f.p.p.a.f.p.p.p.p.p.a.a.a.p.p.s.p./.p.i.s.[.s.[.s.[.[.s.s.[.s.[.[.|.[.|.[.[.).[.[.[.[.|.[.{.{.|.|.|.|.[.[.[.s.|.[.[.+Xs.[.[.s.s.).s.s.+X).p.p.s.s.s.s.a.a.a.p.p.a.r.e.r.y.p.a.p.a.u.y.r.r.a.t.e.e.e.e.1.=.e.f.=.=.=.=.=.-.-.-.*.&.@.-.*.@.X.X.@.&.X.@.*.@.+.%.+.o.! F G G A A h A j 2 - ; 1 ; ; * # . o + @ @ @ . * * * * ; ; l >.>.] >.;.] ] >.;.} >.>.>.C.(.!.XXyXgXgXnXnXnXnXkXnXnXnXkXmXmXNXNXmXmXnXkXkXkXkXkXNXnXkXkXkXkXkXkXkXkXkXkXNXkXmXnXCXAXmXmXmXAXmXmXAXmXNXmXAXmXNXmXNXmXNXNXmXNXMXNXNXNXkXmXNXmXNXNXNXmXnXmXnXNXnXkXnXnXnXNXmXkXmXnXnXnXmXnXVXNXnXkXNXMXkXNXkXNXMXkXMXnXMX",
"M.A.M.A.M.A.M.A.M.A.N.A.A.N.A.M.A.A.A.A.A.M.A.A.G.G.~.M.M.N.B.R.W.Q.,XE.A.A.S.A.S.G.G.G.E.E.!.W.W.T.~.S.F.x.F.x.D.b.F.F.F.b.b.F.D.D.D.D.D.D.D.D.D.D.D.D.D.D.D.D.L.K.K.L.K.K.L.L.K.D.D.K.L.L.I.L.K.I.I.L.I.I.K.I.I.I.L.I.I.Y.Y.I.I.I.I.I.I.I.I.Y.I.I.I.Y.I.7X7XY.:X-X;X:X-X-X-X-X-X-X:X-X-X-X-XY.7XY.Y.7X7X1XY.7X-X7X<X<X<X<X<X<X<X-X:X-X<X<X<X-X;X;X<X1X1X<X1X3X;X3X3X3X3X:X3X;X:X4X8X6X0X4X3X:X4X4X3X3X2X3X2X4X4X5X2X3X5X<X3X0X) 5 = & * o @ o o . . o o @ ; : 3 q z q : q g g j k S k h G G S F D o.@.-.*.*.*.=.=.=.=.=.=.4.f.-.f.f.f.f.f.f.f.f.f.f.f.f.f.f.f.f.f.f.f.f.p.f.s.p.p.p.a.p.a.p.p.p.s.s.s.[.s.p.s.i.+Xi.p./.[.p.s.s.s.|.s.s.[.+X|.+X[.[.|.[.|.[.[.[.[.[.[.[.[.|.[.[.[.[.[.[.[.|.[.s.[.[.s.s.[.+Xs.).).s.s.).p.s.p.p.p.a.a.a.a.a.a.e.r.r.r.a.y.r.r.y.y.a.r.t.a.r.e.e.e.e.=.4.f.=.f.4.=.=.=.=.-.-.=.*.-.@.%.@.X.@.@.6.-.%.*.@.o.G G +.! G F F S S h j u 3 - - - 1 @ ; * @ @ o o o @ o . o o * ; 0 z _ ;.;.;.;.;.;.>.g.g.{ >.>.V.A.!. XtXpXgXgXnXPXhXkXkXnXkXnXnXkXNXNXnXmXnXkXkXkXmXkXMXnXkXkXuXkXgXgXkXkXkXkXmXNXmXmXMXNXmXNXNXmXMXNXmXNXmXmXMXNXkXkXMXmXkXmXNXmXNXnXNXmXmXNXNXkXmXnXmXNXkXNXnXnXNXnXnXnXnXNXkXNXmXmXnXnXnXnXmXmXnXmXkXkXkXkXkXkXkXnXnXnXnX",
"M.M.(.M.A.A.M.M.A.M.A.N.A.A.A.M.A.A.M.A.A.M.A.A.~.G.~.N.M.M.~.E.Q.,X,X!.A.A.A.A.A.A.G.G.G.E.W.W.IXE.R.c.l.F.x.F.D.F.b.F.F.D.F.b.b.D.D.D.D.D.D.D.D.D.D.D.D.D.D.L.K.K.K.D.D.L.D.K.K.L.L.K.L.L.L.L.K.K.K.K.K.K.L.I.I.I.I.L.I.I.I.Y.I.L.I.I.I.I.Y.I.I.I.I.Y.L.Y.Y.Y.-X-X-X-X-X=X-X-X-X-X:X;X-X-X-X-XY.Y.1XY.1X7XY.Y.-X-X<X<X<X<X<X<X1X<X-X-X;X1X<X-X:X;X2X1X<X1X<X1X:X3X3X3X:X3X3X3X:X8X6X8X6X8X3X8X6X3X4X6X3X2X3X3X:XqX4X2X0X3X2XqX` 5 = % * ; - o o * * ; * - ; 3 - - ; q z g q g k S Z A F F h A F ..+.+.X.-.-.-.=.=.=.=.=.=.e.=.=.f.f.f.f.e.e.e.r.f.f.6.f.f.r.6.p.f.f.f.p.f.p.f.f.p.f.a.f.p.p.p.).p.p.s.s.s.s.[.[.[./.p.[./.a.p.[.+X[.[.+X|.s.|.[.s.[.[.|.[.|.[.[.s.|.[.[.[.}.[._.|.|.|.[.).[.s.+X[.|.s.+X[.[.s.+Xs.).+X+Xs.).s.p.s.s.p.p.p.p.a.r.a.y.y.r.r.r.r.w.r.t.w.w.e.e.e.e.4.=.1.=.=.=.4.3.=.4.=.=.-.*.-.*.-.-.X.-.%.-.-.@.*.&.@.$.@.o.X.o.! F F S A A g g u q - - @ @ @ # * * + o X @ @ * * X . - ; ; f L ;.;.] ] >.] ] } ^ ;.>.>.m.C.E.Q.tXaXiXgXgXhXPXkXkXkXkXkXkXkXkXnXkXkXkXkXkXkXkXnXkXPXkXgXgXuXuXuXuXkXMXkXmXkXkXnXNXnXkXkXMXNXNXNXkXmXkXNXNXNXMXNXmXkXkXNXmXkXNXCXmXNXmXkXMXMXkXnXnXnXnXkXMXnXMXnXMXnXnXMXkXkXkXnXBXmXnXNXmXNXNXkXkXPXkXMXkXMXkXkXMXnXnX",
"A.M.M.A.M.A.M.A.M.M.A.A.A.A.A.A.S.A.A.M.M.A.A.A.A.G.A.N.M.M.~.E.Q.,X,XE.A.A.S.A.A.R.G.E.G.E.!.W.IXZ.~.l.~.l.b.F.D.D.b.F.F.b.F.b.F.b.F.D.D.D.D.D.D.D.D.D.D.D.D.D.L.D.D.L.D.L.D.K.D.L.L.K.K.K.K.L.L.L.L.K.K.K.L.K.I.L.I.L.L.I.I.L.I.L.L.L.L.I.I.Y.I.I.I.Y.I.I.I.I.I.-X=X-X-X-XI.=X-X-X-X-X-X-X<X1X7X1XY.Y.Y.Y.Y.Y.7XY.Y.7X7X1XY.Y.<X;X;X<X-X-X-X<X3X3X1X1X<X<X<X1X;X:X;X:X3X3X3X:X3X3X3X3X6X3X3X8X4X3X3X3X3X4X3X2X5X0X0X5X5X5X5XqXG.5 = f f 2 - X o o * o * 2 - ; * @ j ; - g 3 : S k S Q k h h F ..o.....o.X.-.*.=.=.=.=.=.f.=.1.f.f.f.f.f.f.f.f.r.e.r.f.f.f.f.r.f.f.f.p.f.f.p.p.f.a.a.a.a.a.a.p.p.s.s.p.s.s.s.s.s.s.s.[.[.[.[.[.|.[.[.[.[.s.s.|.s.s.|.|.|.|.|.s.s.|.|.s.s.|.|.|.[.|.|.[.[.[.[.[.s.[.[.s.[.s.s.s.s.s.[.s.s.s.s.s.p.s.s.s.p.p.p.p.r.r.a.p.d.p.r.y.u.a.w.w.t.e.e.1.f.e.f.f.f.=.4.=.=.=.f.3.-.-.-.-.*.&.-.@.-.@.-.-.*.-.*.*.@.@.@.+.D +.o.F Z Z k h 3 : ; 2 2 @ @ @ o * + * + o * o * * * X o @ o q q ~ ] _ ;.] ;.~ ' ;.} } ;.{ M.A.!.Q.tXtXiXgXgXgXuXgXnXnXkXkXkXkXNXMXkXkXkXkXkXNXkXMXkXgXuXgXuXgXuXgXkXkXkXkXkXkXkXvXkXMXkXkXkXkXMXkXkXNXNXkXMXNXkXMXkXMXkXmXmXNXkXkXkXkXkXkXkXkXMXkXkXMXkXMXkXkXkXkXMXMXkXmXMXNXMXnXnXMXMXmXkXkXMXkXkXkXMXkXkXkXkXkXMXkX",
"M.A.M.A.A.A.A.M.A.A.M.A.A.A.A.A.A.A.>XA.A.M.A.A.A.G.A.N.k.M.~.R.Q.Q.,XE.G.A.A.A.A.G.E.G.E.E.!.!.IXY.L.~.l.b.F.b.F.b.F.F.c.F.D.l.b.D.b.D.D.D.D.b.D.D.L.D.L.D.L.L.L.D.L.K.K.K.K.K.K.K.L.D.L.L.Y.L.I.K.L.L.L.L.I.L.I.I.I.I.I.I.I.I.I.I.I.I.I.I.7XY.Y.I.7XI.I.I.I.I.I.Y.Y.-X:X-X-X-X-X-X-X-X-X-X<X-X7X1X1X7X7XY.7XY.Y.4X7XY.<X<X<X7X<X1X1X<X;X:X;X<X1X3X3X1X1X<X<X<X:X;X8X3X3X:X3X3X:X6X3X3X:X8X3X6X2X3X3X5X3X4X4X4X5X5X0X0X0X5X0XqX:XH < $ ; * o ; o o o X o 2 - o : o 3 3 : : : z z k z h h k G G F S F X.%.@.@.*.*.=.=.=.=.4.e.e.f.f.f.f.r.f.f.r.r.f.f.f.r.f.f.r.p.f.f.f.f.f.f.f.p.a.p.a.p.p.a.p.a.a.a.a.a.s.s.s.[.i.p.p.p.i.s.).[.|.s.|.[.[.[.|.|.[.s.s.s.|.s.s.|.|.|.|.|.s.|.|.|.|.|.[.[.[.[.s.[.[.[.[.[.[.s.[.[.[.s.s.[.[.[.+Xp.s.s.p.p.p.p.p.a.a.a.p.p.p.a.y.r.w.w.w.y.a.t.w.e.f.=.=.=.=.=.=.=.f.=.-.X.-.-.f.-.*.*.*.*.-.-.@.*.*.*.-.%.@.+.+.+.! S S S A A h 3 4 ; 4 2 - @ @ * @ * * @ * o + . * * . o * - q q ~ ;.~ ~ ~ ( ~ ~ ' ~ _ ] >.2.A.(.,XXXyXtXgXiXgXgXgXkXkXkXkXkXNXkXkXkXkXkXkXmXkXkXkXkXuXgXuXgXuXgXuXuXkXkXkXkXkXkXkXkXkXkXMXkXMXMXkXmXMXMXkXMXkXkXMXkXkXkXkXkXkXMXkXMXkXkXkXuXkXkXkXkXuXkXkXkXMXMXkXkXkXkXkXkXMXkXnXkXkXNXNXNXkXkXMXkXkXkXkXkXMXMXkXMXkX",
"M.A.A.A.M.M.M.A.M.A.A.A.A.A.A.A.A.A.A.M.A.A.A.E.E.G.A.M.m.M.B.E.!.Q.Q.!.G.A.S.A.A.G.R.E.E.G.>XQ.IXY.D.b.b.b.F.b.D.b.F.b.F.D.F.b.D.D.D.D.D.D.D.~.L.D.L.D.D.L.D.D.D.L.L.K.K.L.L.L.D.K.L.K.K.L.L.L.I.L.I.I.I.L.L.I.L.I.I.I.I.I.Y.I.I.I.I.I.Y.Y.Y.Y.I.Y.Y.Y.I.Y.7XI.Y.P.Y.-X-X-X-X-X<X;X-X-X:X-X;X-X7XY.Y.Y.1X7XY.4X7X7X4X1X1X7XY.7X3X<X3X1X<X;X<X1X3X3X3X3X1X2X1X3X3X3X8X3X3X3X3X;X8X3X3X3X3X8X3X3X2X3X3X3X3X3X4X3X5X5X0X5X5X4X5X0XwXh. .f f - X - o * o o o j f - ; ; 3 ; : q 3 l g z k h h F G F h G +.@.X.X.@.6.=.-.=.=.=.e.e.1.f.f.f.f.f.r.f.a.f.f.r.r.r.f.r.f.f.f.f.f.p.f.f.p.p.a.p.a.a.a.a.a.a.a.a.p.s.s.s.s.s.s.p.[.[.s.s.[.s.s.s.[.s.s.s.[.|.|.s.|.|.|.|.|.s.|.s.|.|.|.|.|.s.[.|.|.[.|.[.[.[.[.[.[.[.s.[.s.[.[.|.s.s.s.s.p.p.s.i.p.a.p.p.p.p.y.p.p.p.y.y.a.u.r.r.t.a.a.w.e.4.f.=.=.=.=.=.=.=.f.3.=.-.-.-.-.-.*.*.*.-.@.*.*.-.-.-.%.-.$.$.+.G G ! ! S k h k u 3 2 - ; ; @ o o . * o @ o o o o * * o @ o - 3 q ~ ( ~ ( W ~ ( ~ ( ~ ' ( ~ >.M.C.!.XXyXtXiXsXgXuXkXMXgXkXkXkXkXMXkXkXkXkXkXkXkXkXkXkXgXuXgXuXgXuXkXkXuXuXgXkXkXuXkXMXkXMXkXkXkXkXkXkXkXMXkXkXkXkXkXkXkXMXkXkXkXkXkXkXuXuXuXuXgXuXkXkXkXkXkXkXMXkXkXkXkXkXkXMXkXkXkXMXkXkXMXkXMXMXkXkXbXkXMXkXNXkXkXkXNX",
"A.M.M.A.A.A.A.M.A.M.A.A.A.A.A.A.>XA.A.A.A.A.A.A.G.G.A.N.M.M.A.E.W.,XQ.!.G.A.A.A.A.G.G.E.E.W.!.,XIXR.~.~.b.l.b.F.b.F.F.F.F.D.D.F.D.D.D.D.D.D.D.D.D.L.D.L.L.D.L.D.K.K.D.K.L.L.L.L.L.L.K.K.L.L.L.L.K.I.I.K.L.I.I.I.I.I.I.I.Y.I.I.I.I.I.Y.I.Y.Y.7X7XY.7XY.I.I.Y.Y.I.=XY.=X-X-X-X:X;X3X:X;X-X;X-X-XY.Y.Y.Y.7XY.7XY.Y.7X7XIX7X1X7X1X<X1X3X3X3X<X<X;X3X1X1X4X3X3X1X1X3X:X;X:X6X3X3X8X:X;X3X:X8X3X:X3X3X2X3X6X4X2X4X3X6X5X5X0X0X0X4X5X8X,X>XH = ; ; o o . o o o o 2 @ o : ; : : 3 z 3 g g h z Z x S A x ..o...D +.-.*.-.-.=.=.6.1.e.1.e.f.f.f.f.f.f.f.r.e.e.r.r.r.r.f.r.f.p.f.f.f.f.p.f.a.a.f.a.a.p.p.a.p.p.s.p.s.s.s.s.[.s.[.|.|.[.s.[.s.[.s.s.s.s.s.[.s.s.d.p.d.s.d.d.|.s.|.s.|.s.|.s.[.[.[.[.[.|.[.[.[.s.s.[.s.[.s.s.s.s.s.s.+Xs.s.p.s.p.p.p.a.i.p.p.p.a.y.p.p.a.p.a.p.p.y.r.w.w.e.8.f.=.f.4.f.=.=.=.=.3.-.-.=.=.-.-.-.*.-.@.X.@.-.q.6.%.-.@.@.@.$.+.+.F F ! F Z j j j 3 : ; : 2 1 o o . . o o @ o o o * * o @ @ * 3  .~ ~ ~ ~ L ( ~ ( ~ ( ~ ~ ~ ] >.A.Z.,XXXtXpXiXgXkXkXkXuXuXuXkXkXkXkXkXMXuXkXkXkXkXuXuXuXgXuXgXgXdXuXuXdXuXkXuXkXuXkXkXkXMXkXMXkXmXNXmXkXkXkXkXMXMXvXkXMXkXMXkXbXkXuXuXuXkXkXkXuXkXuXuXkXMXkXMXkXkXkXuXkXMXkXkXkXkXkXkXmXkXMXkXkXkXkXkXkXNXMXkXmXmXmXMXkX",
"M.A.A.A.A.M.A.A.A.A.A.A.A.A.A.A.A.A.A.A.A.A.A.A.E.G.A.N.M.N.A.A.!.,X,XW.G.A.A.A.G.G.G.G.E.E.!.IXIXY.~.D.l.D.D.D.D.D.F.D.b.D.D.D.D.D.D.D.~.L.D.D.L.D.L.D.L.D.L.L.D.L.K.K.K.L.D.K.D.K.K.L.L.L.L.L.I.I.I.K.I.I.I.I.I.I.Y.I.I.Y.Y.I.Y.I.7XY.7XY.Y.I.Y.7XY.7XY.Y.Y.Y.-X-X-X-X;X-X;X;X<X;X;X;X-X-X-X-XY.7XY.1XY.7X1X7X4X1X7X4X7X1X<XY.1X<X3X3X3X<X<X3X1X3X3X3X3X3X1X3X:X3X;X3X6X8X3X3X3X3X3X:X:X3X3X3X2X3X4X3X3X2X4X4X0X5X0X0X5X5X0X8X0XyX) = & * ; o - - * ; * - - - q ; - : z 3 : j k z k S S S S F G D D ..@.@.@.@.=.=.6.6.6.e.e.1.f.f.f.f.f.r.f.f.r.f.f.p.r.f.r.f.f.p.f.f.f.p.f.p.f.a.f.p.a.p.p.p.a.p.p.a.a.s.s.s.[.s.s.s.[.[.s.|.|.|.s.s.[.s.s.|.s.s.s.s.y.y.r.d.s.p.p.s.s.s.|.|.[.[.[.[.[.[.+Xs.s.[.[.[.+Xs.s.s.[.[.s.+X+Xs.s.s.s.s.p.a.a.p.p.p.y.p.a.y.y.p.r.y.r.r.t.r.t.w.w.w.e.4.f.e.e.=.=.=.=.-.-.3.3.-.f.-.-.*.&.-.-.@.-.@.q.=.-.-.@.@.X...+.G F A Z S k j j q 3 - - ; ; * * * . + * @ o @ * * o * - * ; q L ~ ( ( ~ ~ ( ~ ~ ~ ( ~ L ( } >.C.E. XXXyXyXgXxXuXuXuXgXsXuXuXkXkXMXkXkXuXkXgXkXgXkXuXgXuXuXuXkXuXgXuXuXuXkXkXkXkXkXkXkXkXMXkXMXkXMXkXkXkXkXkXMXkXkXMXkXuXkXkXgXkXkXuXkXuXgXuXgXkXgXuXgXkXkXkXuXkXkXkXkXuXkXkXkXvXkXkXmXNXkXkXkXkXkXkXkXkXMXkXMXkXkXkXMX",
"M.A.A.A.A.A.A.A.A.M.A.A.A.>XA.A.A.A.A.A.A.A.A.A.E.G.A.M.M.N.A.G.!.!.W.E.G.A.A.S.G.G.G.E.E.E.!.IXIXZ.~.F.b.l.D.b.D.D.F.F.D.D.D.D.D.D.D.D.D.D.L.L.D.D.D.L.D.L.L.D.L.K.D.D.K.L.L.K.L.L.L.L.L.L.L.L.L.K.L.I.K.I.I.I.I.I.I.I.I.I.I.Y.I.Y.I.Y.7XY.7XY.Y.I.Y.Y.7XY.Y.7X-X-X-X-X-X:X:X-X;X;X-X-X-X-X-X-X7XY.7XY.1X7XY.4X4XY.Y.7X7XY.<X7X<X;X1X1X1X;X;X;X<X3X3X3X<X1X3X1X;X:X3X3X3X8X6X8X:X;X3X3X8X:X6X3X3X4X3X4X4X3X3X3X4X4X4X5X0X5X5X0X0XqXj.8 9 . o o o o o f ; o * ; ; 3 ; 3 ; : : j j z k k A S x F x G O.+.o.X.X.*.-.=.=.6.8.8.e.=.f.f.f.f.r.r.f.a.f.r.f.f.f.r.r.r.f.f.f.p.f.f.f.f.f.f.f.p.p.p.a.a.a.a.p.p.s.p.a.a.s.s.s.s.[.s.[.[.|.|.|.|.s.|.s.|.s.|.|.|.|.[._.s.s.a.a.a.p.s.s.s.i.)././.).[.[.[.[.|.[.s.[.[.s.s.s.s.s.s.s.s.s.s.s.s.p.p.y.p.p.p.a.p.p.y.a.p.p.r.r.r.r.w.t.w.e.e.e.e.e.=.=.f.f.4.=.=.-.-.-.=.=.X.*.-.-.-.-.%.*.*.-.=.-.6.&.@.+.G G +.! S k z k z 3 g 3 - - ; ; * * * o o o o @ + * * o * * ; q z ~ ~ ~ ~ ( ( ~ W ~ ( ~ ~ L L ~ ] M.C.!. XtXaXsXiXuXsXiXgXsXuXuXkXkXkXkXgXgXuXuXgXuXuXgXgXuXdXuXdXdXuXgXkXkXuXkXkXuXkXuXkXkXMXkXkXuXkXkXuXkXvXkXNXvXkXkXMXkXkXuXuXbXuXuXuXgXuXuXuXuXuXkXuXuXuXkXuXuXkXuXuXkXkXuXkXkXMXkXMXvXkXkXkXkXMXkXkXMXkXkXkXMXkXvXkX",
"(.M.A.A.A.A.A.A.A.A.A.A.A.E.A.>XA.A.A.A.A.A.A.A.E.G.A.M.M.N.A.A.!.,XW.E.A.A.S.A.~.R.E.R.T.!.Z.IXIXIXR.F.~.b.D.D.D.b.F.b.F.b.b.b.D.D.D.D.L.D.L.L.D.D.D.D.D.D.L.D.D.L.L.D.D.K.D.D.L.K.L.L.L.L.L.L.K.K.I.K.I.I.I.I.I.I.I.I.Y.I.I.I.I.I.Y.Y.Y.Y.Y.I.I.I.Y.7XI.Y.7XY.-X-X=X-X-X-X-X-X*X-X-X-X-X-X-X-XY.1X7X1X1XY.1XY.Y.7XY.Y.Y.7X7XY.-X-X<X1X<X<X:X-X;X<X3X3X3X1X3X<X:X:X:X3X3X3X3X;X3X:X;X3X:X3X;X8X2X3X3X4X3X4X4X4X4X4X4X4X5X0X0X0X;X,XG.d 9 * o o - @ * f q ; q q - 2 q ; ; 3 g g g k A x x A x k D +.o.....@.-.@.-.*.6.=.=.e.e.1.f.r.f.f.r.f.f.f.p.f.f.f.r.f.f.f.f.p.p.f.f.f.f.a.f.f.a.a.a.a.a.a.a.a.s.s.s.s.s.p.s.s.s.|.|.|.[.s.s.s.s.|.|.s.s.|.s.s.[.[.|.|.|.|.|.s.s.s.s.p.a.a.p.i.i.p./._.).s.s.s.s.s.s.s.s.s.p.s.s.s.p.s.s.p.p.s.s.a.y.p.p.p.p.p.p.r.y.y.r.r.r.t.a.r.e.e.e.e.e.e.e.1.f.=.f.=.-.f.-.=.-.=.=.X.-.*.-.-.@.-.6.6.-.-.-.%.&.@.o.o.G F F S S S j 4 3 3 3 ; ; * ; & * @ o . o o o * o f * ; ; ; L L ] ~ ~ ~ ~ ( ( ~ ( ~ L L L L _ ;.>.C.!.,XeXtXtXiXiXiXiXiXiXiXgXuXuXuXuXuXuXuXuXgXkXuXdXuXdXuXuXkXdXuXuXgXgXkXkXuXuXkXkXkXkXkXkXMXkXkXkXkXMXkXMXkXkXkXkXkXkXuXgXuXuXgXdXuXdXuXiXiXuXuXiXuXuXuXuXuXuXdXkXuXuXkXkXkXkXPXkXkXkXkXuXgXuXuXkXuXkXkXMXvXkXkXkXkX",
"A.A.A.A.A.M.A.A.A.A.A.A.A.A.A.A.A.>XA.A.A.A.A.>XE.G.A.A.M.N.A.A.E.W.,XW.A.A.S.N.~.R.E.E.E.!.IX!.IXY.~.F.l.b.D.b.D.F.F.F.b.F.F.F.D.D.L.D.L.D.D.D.D.D.D.D.D.L.L.K.K.D.K.K.K.D.K.D.K.L.L.L.L.D.L.L.K.K.K.K.K.K.K.I.I.I.I.Y.I.I.Y.I.I.I.I.I.Y.L.I.I.I.Y.I.I.Y.Y.Y.Y.-XY.-XY.=XT.-XY.-XI.=XY.=X-X-X-X1XY.7XY.1X7X1X7XY.Y.7XY.Y.Y.Y.7XP.I.-X-X<X:X-X;X;X<X1X3X3X<X<X;X3X;X3X3X6X:X;X;X3X3X8X:X3X3X3X:X:X;X3X3X4X3X4X4X0X0X5X4X0X6X6X0X0X:XqXd & 2 o - @ o @ o l q l 3 ; : : z j 3 j : g z S Z x x F S S D ..o.+.X.@.*.-.6.=.=.=.e.w.1.6.f.f.f.f.f.r.r.f.p.a.f.r.r.r.r.f.f.f.f.f.p.f.f.p.f.p.f.a.f.a.a.a.a.a.a.a.a.p.s.s.[.s.s.s.s.[.[.|.s.s.s.|.s.|.|.|.|.|.s.s.s.[.|.|.s.s.|.|.|.|.OXi.i.p.y.a.y.a.a.p.p.s.s.s.s.s.s.p.s.s.s.p.p.s.p.a.p.s.p.r.r.r.p.a.p.p.a.a.a.r.e.r.t.r.e.t.e.e.e.=.4.e.e.4.=.1.=.f.-.=.=.3.=.=.-.@.-.*.*.-.@.-.-.6.q.X.X.@.@.o...! ! ! F A j g j 3 3 2 ; ; - ; ; @ * ; * * o o o o * * ; ; 0 L ~ ~ ~ ( _ ~ ~ ~ ~ L L  . .L L ~ ] >.M.(.!. XyXpXsXaXpXsXiXuXuXkXkXuXkXuXuXuXdXiXuXuXkXuXuXuXuXdXuXuXuXkXkXuXuXgXuXkXkXbXkXkXMXkXkXMXkXMXkXkXuXkXkXkXbXkXkXkXuXuXgXuXuXuXuXuXuXiXdXpXdXdXpXdXuXuXdXuXuXuXuXkXuXuXkXuXkXMXuXuXuXiXuXkXuXuXkXMXkXkXkXkXMXvXkX",
"A.A.A.A.A.A.A.A.A.A.A.>X>XA.E.A.G.G.R.A.A.A.G.G.E.G.G.N.M.M.B.G.W.Q.W.!.A.A.S.A.G.G.E.G.E.W.W.Q.Q.W.R.S.F.F.D.D.D.D.D.F.F.b.F.D.D.D.D.D.D.D.D.D.D.D.D.D.D.D.K.K.K.L.L.L.D.D.L.L.L.L.L.L.L.L.L.L.L.L.L.L.I.L.L.L.L.L.L.L.L.I.I.I.I.I.I.Y.Y.Y.I.I.L.Y.Y.Y.Y.Y.Y.Y.Y.Y.Y.R.Y.Y.Y.Y.Y.Y.Y.Y.Y.Y.1XY.Y.-X-XY.-X;X<X:X*X-X;X-X;X1X<X1X-X-X;X;X;X;X;X;X;X:X;X3X:X3X;X-X;X;X3X3X3X:X8X;X3X;X:X8X3X3X8X3X1X1XIX1X4X4X4X4X4X4X4X4X6X5X0X0X5X2XqXm e , , O @ X , ; % 2 - ; q ; ; : 3 3 4 3 g Z S k g x x D F D F @.o.+.@.*.-.-.*.=.6.e.e.r.f.f.f.r.f.f.r.f.r.f.f.r.r.f.f.r.r.f.p.s.p.f.p.p.f.f.p.f.p.f.p.f.a.f.p.p.a.p.s.s.|.s.p.s.s.s.s.s.s.|.|.|.|.s.|.s.[.[.[.[.|.|.|.|.|.|.|.s.|.|.|.|.[.}.OX|.|.|.|.[.[.|.+Xs.s.p.p.p.s.p.s.s.s.p.s.a.s.p.s.s.r.r.p.p.p.p.p.p.p.f.f.f.p.f.f.f.f.r.f.f.e.e.e.f.1.e.1.=.3.-.=.f.-.f.-.=.-.-.-.-.-.-.=.-.*.-.@.$.@.+.....! D F S A Z k j 3 4 ; @ * - * @ ; - @ @ o @ o o o o ; q o ; ~ ~ ' ~ ~ E ~ L ~ ( ~ L l L L L ~ / [ 7.C.E.IX%XpXpXpXpXiXdXiXgXiXdXuXiXdXpXpXpXpXiXuXdXiXpXiXdXiXuXiXdXuXuXuXuXuXuXuXkXuXkXkXkXuXkXkXMXkXkXuXuXuXuXPXPXkXkXPXPXkXuXuXuXuXuXiXiXsXpXpXpXpXpXpXiXuXdXuXuXgXgXuXuXkXuXkXuXuXuXuXuXiXiXuXdXuXgXuXuXkXkXMXkXkXkX",
"A.A.A.A.A.A.!.A.A.A.!.A.!.E.A.E.G.G.G.A.A.A.G.E.E.G.G.N.M.N.~.E.!.W.Q.!.G.A.A.G.G.E.E.W.E.W.Q.Q.9XT.R.c.l.F.D.D.D.D.D.F.F.x.x.D.D.D.D.L.D.L.D.D.D.D.D.D.D.K.D.K.L.L.L.L.L.D.L.L.L.L.L.L.L.L.L.L.L.L.L.L.L.L.L.L.I.I.I.L.L.L.L.I.I.I.I.I.Y.I.I.L.Y.Y.1XY.Y.Y.Y.Y.Y.Y.Y.Y.L.Y.Y.Y.Y.Y.Y.Y.1X1XY.7X:X-X-X=X;X<X<X;X;X;X<X;X;X-X-X-X-X-X;X;X;X:X-X-X;X;X3X;X3X;X;X:X;X3X:X3X3X3X3X;X3X3X3X3X8X3X3X8X4X1X4X4X4X4X4X4X4X4X4X4X6X0X0X5X4X1XwXI 5 7 , @ @ @ - 2 ; ; f 2 : : 3 ; : 3 3 j z k z h z S D x D D D ....X.@.*.*.*.*.6.6.6.6.f.r.f.r.f.f.r.f.r.r.f.f.r.r.f.f.r.f.r.r.r.f.p.f.f.f.p.f.p.f.p.f.f.a.a.a.a.f.p.p.p.p.p.s.s.s.s.|.|.|.|.s.|.s.|.|.s.|.[.[.[.).).|.|.|.|.|.|.|.|.|.|.[.[.|.[.[.|.[.[.|.|.[.[.s.|.|.s.s.s.s.s.s.s.s.p.p.r.p.p.r.r.p.s.f.s.p.f.p.p.p.f.p.p.p.f.f.r.r.f.f.e.4.=.=.=.=.=.=.f.3.f.f.-.3.X.=.-.-.-.-.=.=.-.*.-.&.-.@.o.o.D o.! F Z A k g 3 3 2 2 ; 3 ; ; @ @ * * @ o o o * * * * ; 3  ._ ~ ~ L L L L ~ L ~ L L  .L  .L E E } 7.~.Z.oX%X#XsXpXdXuXuXdXiXuXpXiXdXpXpXpXdXgXuXuXiXiXdXpXpXdXpXiXiXuXuXiXgXdXuXuXgXkXuXgXuXuXkXkXMXkXuXuXkXuXkXkXvXPXPXkXuXuXuXgXuXuXsXiXiXpXpXpXrXrXpXdXpXiXuXuXiXiXuXuXgXuXuXuXdXuXgXuXiXdXdXuXuXuXuXkXkXuXkXkXMXkXkX",
"A.A.A.A.A.A.E.A.A.!.E.E.A.E.A.A.G.G.G.G.A.G.G.E.W.R.~.~.N.N.~.R.!.Q.,X!.G.E.G.G.F.G.E.E.W.W.Q.9X,XW.G.F.S.x.D.D.L.L.D.D.D.D.D.D.D.D.L.L.L.~.L.D.D.D.D.D.D.D.D.K.L.L.L.L.L.L.L.L.L.Y.Y.L.L.L.Y.L.L.L.L.I.L.I.L.L.I.I.I.I.L.L.I.L.I.I.I.Y.Y.I.I.Y.Y.Y.1XY.Y.Y.Y.Y.Y.Y.Y.Y.Y.Y.Y.Y.Y.Y.Y.Y.Y.Y.7XIX-X-X-X:X;X<X1X;X2X1X<X3X:X-XY.-X>X;X1X;X:X;X:X;X;X;X;X;X;X;X;X;X;X3X8X8X3X8X3X6X3X;X3X3X6X4X8X8XqX4X4X4XIX4X4XqX4X4XqX4X0X0X0X0X8X1XcX) 8 2 @ - @ @ - , ; - 0 ; @ : 3 - - 3 g j Z k h h S D ! D D ..D ..D X.@.%.*.-.6.=.6.6.6.e.r.f.f.f.f.f.f.r.r.f.f.r.r.f.r.f.p.f.r.p.f.f.p.f.p.p.f.f.f.f.p.f.f.f.a.p.p.a.p.p.s.|.s.s.s.s.s.s.s.|.s.s.|.|.|.|.|.|.|.|.|.|.|.[.|.|.|.|.[.|.|.|.[.[.[.{.|.|.|.|.[.s.s.[.s.|.[.s.s.s.s.s.s.s.p.s.p.p.p.p.f.p.p.s.p.s.p.f.p.p.p.p.f.p.r.f.f.f.r.f.f.e.f.=.=.1.=.=.f.-.-.=.f.3.-.-.-.-.-.-.-.-.=.-.*.*.-.-.@.X...D ..! F S A j j u 3 2 ; : ; ; ; * @ - ; * @ o @ @ - o o * C ^ ( E L L L L L L L L L L L l L L E ~ | } 7.~.!.IXpXpXdXpXdXpXiXiXpXdXpXdXiXpXpXdXuXgXiXiXpXpXdXpXpXpXdXiXuXuXuXiXuXuXuXuXuXuXgXiXiXdXuXuXgXkXuXuXkXuXPXkXuXgXuXuXiXiXsXiXiXiXiXsXpXpXpX%XpXpXiXiXiXuXuXdXdXiXuXuXuXuXuXuXgXiXuXdXiXuXuXgXuXuXuXkXuXuXkXuXkXkX",
"A.A.A.A.A.E.A.A.A.A.A.!.A.E.!.A.E.>XE.G.A.G.G.R.W.E.G.B.m.N.~.E.W.Q.Q.W.E.A.F.A.G.G.W.W.W.Q.Q.Q.;XW.G.c.c.F.D.D.D.D.R.D.F.F.b.D.D.D.D.L.L.D.D.D.D.D.D.D.b.D.D.D.L.L.L.L.L.D.L.D.L.L.L.Y.L.L.Y.Y.Y.Y.Y.L.I.L.L.L.Y.Y.Y.I.I.L.L.I.I.I.Y.7XI.Y.I.Y.Y.Y.Y.Y.Y.Y.Y.Y.Y.Y.Y.Y.Y.Y.Y.Y.7XIXY.Y.Y.1XY.1X1X<X;X;X<X<X<X3X<X3X1X1X<X<X<X<X1X3X3X3X1X;X:X;X:X;X3X3X3X3X;X3X3X;X3X3X4X8X8X8X8X3X8X3X8X8X8X4X4X4X4X4X4X4X4X8XqXqX4X4X:X0X0X0X0XY.yX_ 7 u @ @ - - - - @ @ ; o @ - 3 2 : 3 3 j k h k k ! F o.D F ..+...F X.@.X.-.q.q.6.6.6.f.f.r.f.f.f.f.f.f.r.f.r.f.f.r.f.f.r.p.f.p.f.f.f.p.p.p.p.p.f.p.p.p.p.p.f.a.p.p.a.p.p.p.s.s.s.s.s.|.|.|.|.s.|.s.s.|.|.|.|.OX}.OX|.|.[.|.|.|.|.s.[.|.|.|.[.|.|.|.|.|.}.[.[.|.[.|.s.s.|.s.|.s.s.s.p.p.s.p.p.s.p.p.f.p.p.f.f.p.f.f.p.f.f.f.f.f.f.f.f.f.r.f.a.f.f.e.e.1.=.f.f.3.=.f.-.-.-.=.X.-.-.=.=.=.-.*.-.-.@.@.@.o.o.D D Q Q S A k j 3 2 ; ; - - ; ; @ - ; ; @ o @ @ * - * - l } ~ ~ L L L l  . .5.L L  . .L L L L E E / UX~.Z.%X%XeXpXrXpXpXdXpXpXpXpXpXdXpXpXiXiXiXiXdXpXpXpXpXpXpXpXpXiXdXuXdXiXuXiXdXuXuXuXiXiXiXiXuXuXuXkXkXuXkXMXgXuXuXiXuXsXiXiXiXiXiXpXpXsXpXrXpXpXiXpXdXiXdXpXpXiXpXpXdXuXdXuXuXuXiXiXuXgXuXkXuXkXuXuXuXkXuXkXuXuXuX",
"A.A.A.A.E.A.A.>XA.A.A.!.A.!.>XE.E.>XE.G.G.G.E.E.!.E.R.N.M.N.~.G.Q.Q.9XQ.E.G.G.G.G.G.E.W.Q.Q.Q.Q.,XW.G.z.z.S.F.x.D.D.F.F.D.F.b.F.D.D.D.D.D.D.D.D.D.D.D.D.D.D.D.D.L.L.L.L.D.D.D.L.L.L.L.L.L.L.Y.L.Y.Y.Y.L.L.Y.L.L.Y.Y.Y.I.I.L.L.L.Y.7XY.7XY.Y.Y.Y.Y.1XY.1X1X1X1X1XIXY.IX7X7XY.7X7XY.7XY.Y.Y.Y.1X1X<X<X;X;X1X3X;X<X;X<X<X1X1X1X<X<X;X3X3X3X3X:X1X1X3X;X3X3X3X3X3X3X3X3X3X3X8X6X8X8X3X8X3X8X8X8X8X5X4X4X4X4X4X8X8X8X8X8X0X8X8X0X0X0XqX;XqX] > s @ - - - 3 - @ ; @ @ - - : : 4 3 3 j 3 4 z S ! ! ! o.F ....G ....@.@.q.6.*.6.6.e.r.r.r.f.r.f.f.f.f.r.r.f.f.f.f.r.r.r.f.f.p.f.p.f.p.f.f.p.p.p.p.p.p.f.p.f.p.p.p.r.r.p.s.p.s.s.|.s.s.s.|.|.|.s.|.|.|.|.|.|.|.[.[.[.|.|.).[._.[.|.|.[.[.[.[.[.|.|.[.|.}.[.|.|.|.[.[.|.s.s.s.s.s.s.s.s.s.f.p.s.s.p.r.p.p.s.p.r.f.p.f.f.p.f.f.6.6.f.f.f.r.4.=.=.f.f.f.-.f.f.3.-.f.-.3.-.-.=.-.-.=.-.=.=.-.-.@.@.@.@.o.o.o.! D F F L Z j 3 q 3 ; ; - - - ; - @ - ; ; * @ o ; - ; * 0 ~ ~ L L L L z  .Z L l L Z L L ~ L W L R ~ { V.!.Q.%X%XIXpXrXpXpX%XpXpXpXpXpXdXdXpXpXrXpXpXpXpXpX%XpXdXpXiXuXuXuXuXuXuXuXdXiXdXiXiXdXiXiXuXuXuXuXuXuXkXuXuXuXuXuXiXiXiXiXiXpXiXiXiXiXpXpXdXpXdXpXpXpXdXiXpXpXpXiXdXiXiXdXuXdXiXuXuXuXuXuXuXkXuXkXuXkXkXuXkXdXuX",
"(.A.A.A.A.A.E.A.!.E.(.>X!.A.!.A.E.E.G.E.G.G.E.W.W.E.G.B.V.N.~.R.Q.IX9XQ.E.G.G.G.G.R.W.W.Q.IX%XIX,XW.G.c.l.c.x.x.D.D.F.F.b.b.l.b.D.b.D.b.D.D.D.D.K.K.L.D.K.D.D.L.L.L.L.L.L.L.D.L.L.L.L.L.L.L.L.Y.Y.L.Y.Y.Y.L.L.L.Y.I.I.I.I.L.I.I.Y.I.Y.Y.Y.7X7XY.Y.<X1X1X1X1X1X1XY.Y.Y.4XIX7XIX7XIX7XIXY.Y.Y.1X1X1X1X;X<X<X1X<X;X-X;X;X<X<X1X<X<X3X3X;X3X;X;X;X3X3X3X3X3X8X3X8X3X8X;X;X3X;X8X4X8X3X3X3X3X6X8X4X0X4X4X4X7X4X4X8X8XqX8X0X8X,X0X0X5X8X8X0Xg.f t - : 4 @ 3 - - 3 - ; ; - ; ; 3 3 3 k j h k S ! x x o.D ....D G +.@.@.=.-.6.6.6.6.6.e.f.r.f.f.f.a.f.f.f.r.f.r.r.f.r.r.f.p.p.f.f.p.s.f.p.f.p.f.p.p.p.p.p.p.p.s.p.r.s.p.s.s.s.|.|.s.s.r.|.s.|.|.s.|.|.|.[.[.|.[.).[.[.[.|.[.[.[.|.|.[.[.[.[.[.[.[.[.+X|.|.s.s.+X[.|.s.s.s.|.s.p.s.s.s.s.p.r.s.s.p.r.p.p.p.p.f.s.s.p.f.p.r.f.f.f.r.f.f.f.=.=.f.4.f.-.f.f.-.f.X.-.-.-.f.=.=.=.-.-.-.=.=.=.-.@.@.@.o...D D ! F S S Z k j j 3 2 3 3 ; ; @ - ; * @ ; ; ; * o 0 ; f - q L L l l l L l x  .l L Z  . .L L L L C J R } m.Z.!. X%X%XrX%XpX%XpXrX%X%XpXpXpXpXpXpXpXpXrXpXpXpXpXiXiXdXuXuXuXuXuXuXuXiXuXuXdXiXuXuXuXuXdXuXuXuXkXuXuXgXuXiXgXiXuXsXiXiXsXiXsXiXsXsXiXpXpXpXpXpXdXpXpXdXpXpXdXpXuXuXdXiXpXdXiXdXuXuXgXkXuXuXuXuXkXuXuXuXuXuXkX",
"A.A.A.A.E.A.A.A.!.A.>XA.E.E.E.!.E.E.W.G.G.G.R.W.W.E.G.~.M.N.~.E.Q.Q.9XQ.W.G.G.G.E.W.W.Q.,X9XQ.eX,X;XG.N.l.c.F.F.b.F.F.b.b.F.D.b.b.~.D.D.D.D.D.D.D.K.D.K.K.K.K.L.L.L.L.Y.L.L.L.L.L.L.L.L.L.L.L.L.L.Y.L.L.Y.L.I.L.I.Y.I.I.L.I.I.Y.Y.Y.I.I.Y.Y.Y.Y.Y.1X1X1X1X1X7X4XY.7XIX7X7X4X4X7X1X1X7XY.IX7X1X1X1X<X:X-X;X<X:X;X-X-X;X:X<X1X1X<X;X:X3X;X;X;X3X;X3X;X;X3X:X8X3X8X;X;X;X3X;X3X3X3X3X3X3X8X4X8X8X4X7X4X4X4X1X1X8X4X8X8X4X0X0X0X0X5X1X0X,XS.0 l 3 - 3 - ; : - 2 - ; - @ : ; : q g z j k k S x ! ! ! ..G o.....X.-.@.-.q.*.6.6.6.f.f.r.f.f.f.r.f.a.r.r.f.f.f.f.r.r.f.f.r.p.p.p.f.p.r.f.p.r.p.f.p.f.p.p.r.p.p.r.s.s.p.f.p.s.s.|.|.|.|.s.s.|.|.s.s.d.s.+X+X{.|.[.[.[.).|.{.[.).i.[.[.[.[.[.[.|.|.[.|.|.|.|.|.|.|.|.|.s.s.|.s.s.|.s.s.s.s.p.s.p.r.r.a.f.f.f.f.f.f.f.f.f.e.f.f.r.r.f.f.r.f.f.=.f.f.3.f.-.-.f.X.3.-.X.f.-.=.-.=.*.-.-.=.=.-.@.@.+.....D F D S k k A k j j 3 2 2 0 0 ; @ @ * - @ ; 0 ; ; @ ; l ; @ l  . .l l l L l  .x  .l z  . .L  .l  .l K L / >.V.E.!.%XIX%XpXpXpX%XpX%XrXpXpXdXpXpXpXpXpXpXpX%XpXiXiXiXuXuXuXuXuXuXuXkXuXuXuXuXuXiXuXiXuXdXuXdXiXuXuXuXiXuXiXgXuXiXiXiXiXiXuXpXpXiXpXiXpXpXpXpXiXiXiXiXdXiXpXiXiXuXuXuXpXpXiXiXiXiXiXiXuXkXgXuXuXuXuXuXuXuXuXkX",
"A.A.A.A.A.A.!.E.A.E.E.>XE.>XE.A.W.!.>XE.E.G.E.W.W.W.G.B.N.B.F.E.Q.9XeX9XW.W.W.G.G.W.W.Q.Q.9X9XeX8XW.R.z.S.c.x.c.F.F.F.F.F.b.F.b.F.b.D.D.D.D.D.D.K.D.K.K.D.K.K.K.L.L.L.L.L.L.L.L.L.L.Y.L.L.L.L.Y.L.L.L.Y.L.Y.L.I.L.L.I.L.I.L.I.I.L.L.I.I.Y.7XY.Y.Y.1X1X1X1X7X1XIX4XIX4X4XIX4XY.IX1X1XY.4X1XY.Y.1X1X<X:X-X<X-X<X-X-X-X-X<X1X-X<X-X;X3X;X3X;X;X3X3X;X3X;X;X;X3X3X3X:X3X;X;X;X;X;X:X8X3X3X3X8X4X8X3X4X1X4X4X4X8X4X4X8X8X4X8X5X5X5XwX5XqX;XR. .W q - 3 : - - - o ; - @ - 3 : 2 j j z 4 g g S x ! o.O.D D X.D +.G X.X.*.-.-.6.6.6.e.r.f.r.r.f.f.r.f.r.f.r.f.f.f.f.f.r.p.f.p.f.p.p.p.f.p.p.p.p.s.p.s.p.p.p.s.p.r.s.s.s.s.|.s.s.p.s.s.s.|.s.|.s.s.d.r.r.|.{.|.|.|.{.{.{.).).[.[.[.[.[.[.[.[.[.[.|.|.|.|.|.|.|.|.[.s.[.|.p.|.s.p.|.s.s.s.s.p.r.r.p.p.s.p.p.p.s.p.p.r.f.f.f.f.f.r.f.r.f.r.f.f.-.f.f.-.-.3.-.f.f.f.f.-.4.f.-.=.=.4.=.-.=.3.-.@.O.@.@.o.o.G S k k A z j j q 3 ; 3 3 3 - ; ; * - @ ; ; ; * @ o l ; @ l l l C  .Z l L l  .l l  . .z z l l l l K L E [ V.~.Z.Q.%X%XpXrX%XpX%XpXpXpXpXpXiXpXsXiXpXrXpXpXpXdXiXuXuXgXuXuXuXgXuXuXuXkXuXuXuXdXiXuXiXiXuXpXiXiXdXuXuXuXuXiXiXiXiXsXuXiXiXiXiXpXiXiXpXpXpXpXpXdXiXiXuXuXuXgXuXuXuXuXuXuXuXuXuXuXiXdXuXuXuXuXuXuXuXuXkXkXMXuX",
"A.A.A.A.A.A.>XE.>XE.E.A.!.>X!.!.>XE.W.A.G.!.!.W.W.W.G.~.N.N.~.W.Q.9XeX9XW.W.W.R.W.W.Q.9X,X9X%X9XIXIXR.l.l.D.D.D.D.D.D.D.F.D.b.D.D.D.~.D.D.D.D.D.D.K.D.K.L.L.K.L.L.L.L.L.L.L.L.L.L.Y.L.L.L.L.L.L.Y.Y.Y.L.Y.Y.L.L.Y.I.I.I.I.I.I.I.L.I.I.I.I.I.I.Y.7XY.1X1XY.Y.Y.Y.Y.Y.Y.Y.IX7XY.Y.Y.Y.Y.Y.Y.1XY.Y.-X-X-X;X;X-X<X<X1X<X<X<X1X<X-X1X;X:X;X;X;X:X3X;X;X:X;X;X:X3X3X;X;X3X3X;X;X3X6X8X8X3X:X8X;X3X;X3X4X4X4X4X1XIX4XqXqX4X4X4X4X4X4X4X5X4X4XR.W d q * q 3 - ; @ : ; - : ; ; 3 q j g j 3 g k L D x ! o.o.o.@.....@.+.@.*.-.6.q.6.6.f.r.r.e.e.r.f.f.f.6.r.f.f.r.f.r.f.f.r.r.r.r.r.r.s.r.p.p.r.s.r.r.s.s.r.s.s.s.s.s.s.p.s.s.|.|.|.s.|.d.s.s.|.s._.s.).).).).).).s.i./.).|.}.).[.[.[.|.i.[.[.|.[.[.[.[.|.|.[.|.|.|.|.s.s.s.|.s.s.s.s.p.s.p.p.p.s.p.r.r.p.p.p.p.a.a.e.a.f.f.r.r.f.a.f.a.f.=.=.=.=.f.3.f.f.-.f.f.f.-.f.f.-.-.=.=.=.=.=.-.=.&.@.@.....D D F F S k z A k u 3 0 j q ; @ ; q o ; o q * ; * * ; * q - o L L z L L C  .l l l l l z  .q  .q q q  .a K R } V.E.Q.%XpX%XpX%XpXpXpXpXpXpXdXuXiXiXpXpXpXpXpXpXiXuXuXuXuXuXuXiXuXuXuXdXiXiXiXpXiXiXuXuXuXuXuXkXuXuXuXuXuXuXiXiXiXpXpXpXpXpXpXiXiXpXpXpXdXpXpXpXpXpXiXuXdXuXuXuXuXuXuXuXuXuXuXiXuXiXuXuXuXuXuXuXuXuXuXdXuXuXMXkX",
"E.>XA.E.E.E.A.E.!.E.E.!.!.!.>X!.W.!.!.E.E.>X!.W.W.W.E.G.N.N.G.E.Q.%XeX9X9XW.W.W.Q.W.W.Q.9X9X9X9XIXIX~.b.~.l.F.b.D.D.F.F.b.F.b.F.D.D.D.D.D.D.D.D.D.D.D.K.K.D.K.K.D.L.L.L.L.L.L.L.L.L.L.L.L.L.L.L.L.L.L.L.L.L.Y.L.I.L.I.I.I.L.I.I.I.I.I.I.I.I.Y.I.Y.Y.Y.Y.Y.Y.Y.1XY.Y.Y.Y.7XY.Y.Y.1XY.Y.1X1XY.IXY.-X-X-X-X:X<X1X1X1X<X<X1X1X<X1X-X-X-X;X-X;X3X;X3X;X;X;X;X;X;X;X3X;X3X;X3X3X;X8X4X8X3X3X3X3X8X3X3X1X4X1X4X7X4X4X4X4X4X4X4X7X4X4X7X4X4XY.R.[ L q * 0 : ; ; - ; ; ; ; ; ; 3 3 3 3 g g g h x ! o.o.#.! ..o.o.o.@.@.-.-.*.6.6.6.6.f.f.r.f.e.r.r.r.f.r.r.q.f.r.r.f.f.f.r.r.r.r.s.r.r.d.p.p.s.r.s.p.p.s.s.s.s.s.s.s.s.s.s.s.s.|.|.s.|.|.|.|.|.|.)._.[._.|.).).).).i.i.i.i.[.).|.|.[.}.[.}.|.[.[.|.|.[.).[.[.[.[.|.|.|.|.s.|.|.s.|.s.p.s.s.p.r.p.p.r.p.p.r.a.r.r.r.a.f.e.6.e.r.f.f.f.f.=.f.f.f.f.f.-.-.f.f.f.-.-.f.f.-.-.-.=.4.=.=.-.-.-.-.-.@.o...D D S S Z A j 3 3 g g 3 q 3 2 - - 2 o @ o : @ ; @ @ * ; - o f L L  .L L l l l i l l l  .z z q q  .l l N J | { V.~.!.%X%XpXdXpXpXrXpX%XpXpXiXuXiXpXpXsXpXpXpXdXiXiXuXdXuXiXdXpXuXuXuXuXpXiXiXdXiXuXuXkXkXuXuXuXuXuXuXuXiXiXiXiXpXpXpXiXiXpXiXiXiXiXiXpXpXpXpXpXpXiXuXuXiXuXuXuXuXuXdXuXdXuXiXuXdXiXiXuXuXuXuXuXuXuXuXbXuXkXuXkX",
"A.A.E.A.A.>X!.E.E.E.E.E.!.!.>X!.E.>X!.>XE.>X>X!.W.W.E.A.N.N.G.W.IX%XeX9XW.W.W.,X9XW.9X9X%X9X9X9XIXIXL.~.l.b.D.b.D.F.F.F.b.F.F.b.D.D.D.D.D.D.b.b.D.D.D.D.L.D.L.D.D.L.L.L.L.L.D.L.L.L.Y.L.L.L.L.L.L.L.L.L.L.L.L.L.L.I.I.L.L.L.L.L.I.I.I.I.I.I.Y.I.Y.Y.Y.Y.Y.Y.Y.Y.Y.Y.Y.Y.Y.Y.Y.IX1XY.7XIXY.1XY.Y.-X-X-X-X<X;X<X1X1X1X<XY.<X1X1X1X:X;X:X;X;X;X3X:X;X:X:X;X;X3X3X;X:X8X3X;X;X3X8X8X6X3X3X;X3X3X3X1X4X4X4X4X4X4X4X4X4X7X4XqXqX4X<XL.Y.1XqX%Xk.' L o 3 f ; q - ; ; ; : ; 3 3 3 3 3 j 3 c k x o.o.o.o.o.o.o.o.o.@.@.$.*.q.6.6.=.=.6.f.6.e.e.f.r.q.6.f.6.f.f.r.r.r.r.r.r.r.r.s.r.r.r.r.r.p.s.s.s.s.s.s.d.s.|.s.s.s.s.s.|.s.|.|.d.|.|.|.s.|.|.s.|.[.|.|.}.|.|.|.|._.|.|.s.{.|.|.[.[.}.|.}.|.|.[.|.|.|.|.[.[.[.s.[.[.s.|.s.|.|.|.|.s.s.s.s.p.p.p.p.r.r.p.e.r.r.p.a.r.f.f.f.f.f.f.f.f.f.f.f.-.f.-.-.f.-.f.-.f.-.f.-.-.-.-.-.-.=.=.=.=.-.-.X...o.....G D F k A Z h 3 3 j q 3 0 2 3 : * ; ; o o @ ; ; * ; @ ; @ f  .~ L ~ L l  .l l l l s i z  .q  .z  . .l P I / UXV.~.!.IXIX%XpXpXpXpXpX%XpXdXiXiXdXiXpXpXiXiXiXiXiXuXuXiXdXpXiXiXiXiXuXuXpXdXpXiXuXuXkXbXuXuXkXkXuXuXiXiXiXiXiXcXpXiXpXiXiXpXpXiXpXpXpXiXpXpXdXiXdXiXiXuXiXuXiXuXuXuXiXuXpXiXuXuXiXiXuXuXuXuXuXuXuXuXuXkXuXuXMXuX",
"!.A.A.E.E.E.E.E.E.>X!.E.A.W.!.!.W.W.!.E.E.!.!.,X,X,XE.A.N.N.G.!.IX9XeX9X9XIXW.W.,X,XIX9X9X9XeX%XIXIXD.~.l.b.D.D.D.D.D.b.F.b.F.b.D.D.D.D.D.D.D.D.b.D.D.D.D.D.L.D.L.D.L.L.D.L.L.L.Y.L.L.L.L.L.L.L.L.L.L.L.L.L.I.L.I.L.I.I.L.L.I.L.I.I.Y.Y.Y.Y.I.Y.Y.Y.Y.Y.Y.Y.Y.Y.Y.Y.IX7X4XY.Y.7X1XY.Y.Y.1XY.1XY.-X:X-X<X;X;X<X;X1X<X<X1X<XY.Y.<X;X;X;X;X;X3X;X3X3X3X;X3X;X;X;X;X;X;X;X3X:X;X:X8X8X;X;X3X8X3X8X;X4XIXIX4X4X4X4X4X4X4X4X4XY.4XIXqXIXiXqX9XA.' i * ; - * q * ; - ; @ - ; 3 3 ; : g 3 g k S ! o.o.O.o...o...o.+.@.-.X.-.-.6.6.*.6.6.6.e.r.6.6.6.6.6.q.q.f.f.f.r.r.d.r.r.r.s.r.d.r.d.s.p.s.s.s.s.s.s.s.d.s.s.s.|.|.s.|.|.s.|.|.|.d.|.|.s.|.|.`.|.|.|.|.[.|.|.|.[.[.|.|.|.[._.|.|.|.|.|.{.|.|.[.[.|.}.|.|.|.|.|.|.|.s.s.|.s.s.|.|.s.s.s.p.p.s.p.r.r.p.a.a.a.a.a.a.a.f.f.f.r.f.f.f.-.f.3.f.f.-.f.-.f.f.f.-.-.f.f.-.-.f.=.-.=.-.-.-.=.-.@.@.o...G D S S x k A j j j q 3 q 3 : 0 3 ; : 0 @ ; o ; 2 - ; * * 3 L ~ E L L  .L l l l i l l l  .z  .z  .l l  .U T / 7.B.Z.Q. X%XrXpXpXpXdXpXpXiXiXiXiXiXiXiXpXiXdXuXiXiXiXdXpXiXpXpXiXdXuXuXuXiXiXuXuXuXuXuXuXuXuXbXiXuXiXiXiXpXpXiXiXiXpXiXpXiXpXpXpXpXiXiXpXpXpXiXiXuXiXiXiXiXiXuXiXiXiXuXiXiXuXuXuXuXuXuXuXuXuXuXuXdXuXuXuXuXuXuXuX",
"E.A.A.E.E.E.!.A.!.!.E.!.!.>X!.W.>X!.>X!.!.W.W.,X,XQ.E.A.N.N.G.!.%X9XeX9XIXQ.W.,X9X8XIX9XeX9X9X9XIXIXL.F.l.D.D.D.D.L.~.D.F.F.b.b.D.D.D.D.D.D.D.D.L.D.D.D.D.D.D.D.L.L.L.L.L.L.L.L.L.L.L.Y.L.L.L.Y.Y.L.Y.L.Y.L.Y.Y.I.I.I.I.I.L.I.L.Y.Y.Y.7XY.I.Y.Y.Y.Y.Y.Y.Y.Y.7XIXY.Y.7XIXY.IX7X4X1X<X1X1XY.;X;XY.:X;X;X;X:X<X1X<X1X1X7X1XY.1X<X1X;X;X3X;X3X;X3X;X3X;X:X;X;X3X;X3X3X;X3X;X3X;X3X4X8X;X3X3X;X8X3X3X4XIX4X4XqX4X4X4X4X4XIXY.,X,XQ.B.~.7.!.rXZ.} ~ j ; - @ 2 - ; - ; - - ; 3 2 : 3 3 3 h k ! o.o.o.@...+.X.o.o.+.X.@.$.*.*.*.6.f.f.e.e.w.f.6.6.6.f.6.r.f.r.f.r.r.r.r.r.r.r.d.d.r.d.s.s.r.s.s.s.s.s.s.|.d.|.|.|.s.s._.s.s.|.|.|.|.d.d.s.|.[.|.|.|.|.|.OX|.|.|.|.|.).|.|.[.|.|.|.|.|.|.|.|.|.|.|.|.}.}.{.}.|.}.|.|.|.|.|.|.|.s.s.|.s.s.p.p.s.s.p.p.r.r.a.a.p.r.a.e.e.r.f.f.e.f.f.f.=.-.f.f.f.-.f.-.3.-.f.f.-.f.=.-.-.-.=.=.=.=.-.-.X.-.@.@.o.....G F A h k A g j g 3 3 3 3 0 3 3 ; - ; @ * o ; ; * ; ; ; z L ~ L L Z L l l l q i l l l l  .l l z  .l L P T / UX~.~.IX%X%XpX%XpXpXpXpXdXiXiXiXiXiXpXdXpXpXpXpXdXpXiXpXpXpXiXiXiXuXuXuXuXuXbXuXuXuXuXuXuXuXuXuXuXuXiXiXuXiXiXiXiXiXpXpXiXuXiXpXpXiXiXiXiXpXpXiXuXiXiXiXuXuXdXiXuXiXiXiXiXuXuXuXuXuXuXiXuXuXuXuXuXuXiXuXuXuXuXuXkX",
"!.>XE.A.A.!.E.W.!.>X>X!.!.!.W.W.!.,X!.W.E.W.W.,X,X,XE.A.M.N.G.W.,XeXeXeXIXIX,XW.9XQ.9X9X9XeXeX9XqXIXR.F.F.b.D.D.L.D.L.D.D.D.D.D.D.L.L.L.L.D.L.D.D.L.D.K.D.L.L.D.L.L.L.L.L.L.L.Y.L.Y.Y.L.L.L.L.L.Y.Y.L.Y.L.Y.L.Y.I.Y.I.I.I.I.I.I.Y.7XY.I.7XY.Y.I.1XY.Y.1X7XY.Y.7XY.Y.Y.Y.Y.Y.Y.Y.Y.1X1XY.1X;X;XY.<X;X2X<X<X<X<X;X1X<XY.1X1X<X<X1X3X3X;X3X;X3X;X;X3X3X3X;X:X;X3X3X3X3X3X3X;X;X3X8X3X3X3X4X8X3X3X8X4XIX4X4X4X4X4X4XqX1XIXIX%XE.{ ~ / G z Q 0.>.~ 3 - * @ 0 @ * ; 3 ; - ; 3 3 3 : 3 z g k ! +.#.+.o.+...+...X.@.X.@.*.-.*.6.6.8.6.6.f.6.6.6.f.6.f.q.r.r.d.q.r.r.r.r.r.r.r.r.r.r.r.d.s.s.s.s.s.s.s.s.d.|.s.s._.d.|.d.s.|.|.s.|.|.|.|.|.s.].|.|.|.|.|.OXOX|.|.|.|.|.|.)._.|.OX|.|.[.}.}.|.}.|.|.|.|.}.|.|.|.|.|.|.|.|.s.|.s.s.s.|.s.s.s.s.s.s.p.a.a.p.a.r.r.f.e.e.f.f.f.f.f.f.f.f.=.f.f.-.-.f.-.f.f.f.f.-.-.f.=.f.f.-.-.-.=.=.=.-.X.X.X.......o...F F k A A M 3 3 q j ; - ; ; ; : f ; ; - o ; * ; ; q ; l L  .K L C  .l l i u i q 0 q q q q  . .l  .L P T ' UXV.Z.Z.IX%X%XpXpX%XpXpXpXpXiXdXpXpXpXpXpXpXpXpXpXpXpXpXpXiXiXuXuXiXuXuXuXuXkXkXuXuXiXuXuXuXuXuXuXuXuXuXuXxXiXiXiXpXpXiXiXuXiXiXiXiXiXiXiXiXiXiXuXuXiXiXuXiXiXuXiXuXiXiXiXiXuXuXuXiXiXiXiXuXuXuXuXuXuXuXuXkXuXvXuX",
"A.!.A.E.E.>X>X!.!.!.!.>X!.W.W.!.,X!.W.W.>XE.W.,X9X,X!.A.N.B.G.!.9XeXeXeX9XQ.9X9X9X9X9X9XeXeXeX9XIXIXR.~.D.D.D.L.D.D.D.D.D.L.D.D.L.D.L.L.L.D.L.L.D.L.K.K.L.D.D.D.D.L.L.L.L.Y.L.L.L.Y.Y.Y.Y.L.Y.L.L.L.Y.L.L.Y.I.I.Y.Y.Y.I.I.I.I.I.Y.7XI.7XY.Y.Y.Y.Y.Y.Y.Y.Y.Y.7XY.Y.4XY.Y.Y.Y.Y.IXIXY.1X1X1X1X;X-X<X<X;X<X1X<X;X;X<X1X<X1X1X1X4X1X3X3X;X:X8X3X;X8X3X;X;X;X;X3X3X8X8X3X8X3X:X8X3X4X8X3X3X8X8X8X8X3X4X4X4X4X4X4X4XqXqXqXqXIX>._ ;.:.q.,.#.S z k ^ L - ; ; 3 @ - ; 2 ; ; ; 3 3 3 3 3 g g x ~ #.o.o.o.o.o.+.o.@.@.+.@.-.*.=.*.6.6.6.6.w.q.-.6.q.6.6.6.f.r.r.r.r.d.r.r.r.f.q.r.r.r.r.r.s.s.s.s.s.s.s.s.d.s.d.|.|.d.|.|._.|.s.s.|.|.|.|.|.|.|.|.|.'.|.}.|.|.|.|.|.|.|.|.[.).}.}.|.|.).{.[.|.OX}.[.|.|.}.OX}.}.|.|.s.s.s.s.|.s.s.s.|.|.s.s.s.s.p.r.a.p.p.f.r.r.r.f.e.e.f.f.f.f.f.f.=.=.f.-.f.-.-.f.f.f.f.f.f.f.f.=.-.=.=.=.-.=.=.=.-.-.X.@.o.....F F S h A A A k j ; 3 u q - 3 ; - 0 ; ; 2 ; - f - 0 f j q l Z  .l L l l l i q q 0 q q q q  .i q l  . .l V U T UXV.~.IXoXqX$XpXrXpXpXpXpXiXiXpXpXpXpXpXpXpXrXpXpXpXdXiXiXpXiXuXiXiXiXiXiXkXbXuXuXuXuXuXiXuXuXuXuXuXuXuXiXxXuXuXiXpXiXiXiXiXiXiXiXuXuXuXiXiXiXiXiXiXuXiXuXuXuXuXuXiXiXiXiXuXuXuXiXiXuXuXiXuXuXuXbXkXbXuXuXuXvXMXuX",
"!.A.!.A.!.E.!.!.W.W.!.!.W.W.W.W.,XW.W.W.!.W.,X,X9X,XW.A.N.N.E.W.Q.eXeXyX9XQ.9X9X,X9X,X9XeX9X9XeXIXIXR.D.~.D.D.D.D.D.L.D.D.D.D.L.L.L.L.L.L.D.L.K.L.D.L.D.D.L.D.D.D.L.L.L.L.L.Y.Y.L.Y.Y.L.Y.L.L.Y.Y.L.L.L.L.L.L.L.Y.Y.I.Y.I.I.Y.L.I.Y.Y.7XY.Y.I.Y.Y.Y.1XY.Y.4XIXY.IXY.Y.Y.Y.Y.Y.7XY.Y.1X1X1X1X1X1X-X1X;X2X;X<X;X<X<X1X1X1X<X4X7X1X;X3X3X3X;X3X3X:X;X3X;X;X;X3X3X3X3X3X8X3X;X8X6X8X8X3X8X4X0X0X3X8X4X4XqX4X4X4X4X4XY.IXIX} ~ >.2.$.,.+.O.O.$.! x g - : 2 0 o o - ; - ; ; 3 3 3 3 3 g k Q o.#.o.! o.o.o.@.+.@.%.@.@.@.*.6.6.6.8.6.6.w.q.-.6.r.r.r.r.r.r.r.r.r.q.f.q.f.q.q.r.d.r.d.s.s.s.s.s.s.s.s.s.|.s.|.|.|.s.s._.|.|.|.|.|.|.d.|.s.s.s.|.|.|.|.|.OX&X&X|.|.|.[.s.|.).|.|.|.|.[.|.|.|.|.|.|.|.|.{.|.}.}.OX|.|.|.|.s.|.|.s.s.|.|.s.s.s.s.s.a.p.p.p.a.r.r.r.r.r.r.f.e.f.f.f.f.=.f.-.f.-.-.f.f.-.-.f.f.f.f.f.=.=.=.f.=.=.-.-.-.-.X.X.X.o...G F F S x A k k A j 3 : : q @ 3 q : 0 ; ; 3 o ; ; @ ; * q q  .~ / l l l i q q q 0 9 q i i q q q q q q l l V U / UXV.~.Z.IXIXpXpXdXpXpXpXdXpXiXdXpXpX%XpXpXpXpXpXpXpXiXiXuXpXpXuXdXdXiXiXiXiXuXuXuXuXuXuXuXuXuXuXuXuXuXuXiXuXuXiXiXpXpXiXuXuXiXuXuXuXuXcXiXiXuXuXiXiXiXuXuXuXuXuXiXiXiXiXpXuXiXuXuXiXuXuXuXuXuXuXkXkXuXMXuXPXPXPXvX",
"!.E.E.E.E.>X!.!.W.!.!.W.W.W.,X!.,X!.W.W.W.W.,X,X,XXX,XA.B.A.E.W.,XeXyXeX,X,X,X,X,X,X,XeX9X9X9X9XIXIXT.F.F.F.x.x.F.F.F.F.D.D.D.D.D.D.D.D.D.L.L.L.D.L.D.D.L.D.L.L.L.L.L.L.L.L.L.L.L.L.Y.Y.Y.L.L.Y.L.L.L.L.L.L.L.L.L.Y.Y.Y.L.L.Y.Y.Y.Y.Y.Y.L.Y.L.Y.Y.Y.Y.Y.Y.Y.Y.Y.Y.Y.Y.Y.Y.7XY.Y.Y.Y.Y.7XY.Y.Y.IXY.1XY.7X1XY.1XY.<X1X1X1X1X7X1X1X-X:X-X-X;X1X3X3X3X1X<X<X;X;X;X;X3X8X;X3X3X3X8X3X8X3X8X8X3X8X3X8X4X4X4X4X4X4X4X4XIXqX7.S ;.$.<.%.<.=.@.3.2.o.h z : : 3 z @ ; ; ; @ 3 ; l - 3 j 3 g A F o.+.! o.o.o...o...o.@.@.X.@.&.*.q.6.*.=.6.6.-.6.8.r.8.8.r.u.r.d.r.*.*.6.6.q.q.f.q.8.9.d.9.s.u.u.d.d.d.d.d.d._.|.|.|.|.|._.|.'.|._.d.d.d.d.d.d.|.|.|.OX|.OX|.|.OX|.|.|.|.|.|.|.|.|.|.s.s.|.|.|.|.|.&X|.|.|.|.|.|.OX|.|.|.|.|.|.|.s.s.d.d.s.s.s.s.p.p.r.r.r.r.r.r.w.e.e.r.e.f.f.f.f.f.-.-.f.-.f.f.-.=.=.=.f.3.f.f.=.=.f.f.-.=.=.=.-.X.@.@.O.O.o.! S S S S Q z Z Z 3 g j 3 - ; q ; - 3 ; 3 - - - ; ; * - ; 3 l L ~ L  .l q q q q q q i i l s  .l q q q i q q  .L / { m.C.!.%X%XpXpXdXpXpXpXpXpXpXdXpXdXpXpXpXpXpXiXiXiXuXuXiXiXiXiXuXiXiXsXiXiXiXbXuXuXuXuXvXiXuXuXcXiXiXxXuXbXiXpXpXpXpXiXiXiXuXuXuXuXcXuXiXpXiXcXuXuXuXuXbXkXuXuXuXuXuXuXiXuXuXuXuXuXuXkXkXiXuXbXkXMXvXMXkXMXkXMXMX",
"E.>XE.E.E.E.!.!.!.W.W.!.W.W.W.,XW.,XW.,X!.W.,X,X,X,X,XA.N.B.A.!.,XeXyXyXeX,X,X,X,X,XQ.,X9XeX9X9XIXIXR.F.l.F.F.b.D.D.F.b.F.x.D.D.D.D.D.D.D.D.L.D.D.D.L.D.D.L.D.L.D.L.L.L.L.L.L.L.L.L.L.R.Y.Y.L.L.L.L.L.L.L.L.L.Y.L.L.L.Y.Y.Y.L.Y.Y.L.L.Y.Y.Y.Y.Y.L.Y.L.Y.Y.Y.Y.Y.7XY.Y.Y.Y.Y.Y.Y.Y.Y.Y.Y.Y.Y.7X7X7XY.Y.Y.Y.1XY.Y.<X1X1X1X1X1X1X1X-X-X-X-X-X-X<X<X3X3X<X;X;X<X<X3X;X:X;X;X;X;X3X3X3X3X3X3X3X3X3X3X4X4X8X0X0X4X7X4XqXW.| G O.O.<.1.6.=.=.&.&.3.O.o.z 4 ; 3 @ : q q : 2 - j 3 3 4 4 h k S F ! o.o.o.+.@.@.o.+.$.+.O.-.&.*.=.=.q.=.6.6.e.6.6.6.r.d.r.9.8.*...D @.q.&.f.d.r.r.u.6.-.u.0.8.u.d.d.d.|.|.|.|.].].]._.|.|.|.|.'.|.|.oX|.d.|.|.|.|.|.|.&X|.OX&XOX}.|.s.|.|.|.|.|.|.|.|.|.|.s.s.|.|.|.&X|.|.OXOX|.OX&X|.|.|.|.|.d.|.|.d.s.s._.s.d.d.p.d.y.r.r.a.a.e.e.e.e.e.f.f.f.f.f.f.f.f.f.f.-.f.=.=.f.f.f.f.-.f.4.f.f.-.-.-.-.-.@.@.O.O.#.o.o.F x k k k S q A Q j q g @ - 3 ; ; ; ; 3 ; ; ; : 3 : ; 0 z L L L  .z s q q l q  .q q  .l  .L l  .q q l  .i  .L | { V.A.!.,XIXpXpXpXpXdXiXpXpXpXpXpXpXpXpXpXpXiXiXuXuXuXuXuXiXiXuXiXiXiXiXiXiXiXiXiXiXcXcXuXcXuXxXuXiXiXiXcXuXiXiXpXpXiXiXiXbXuXbXiXuXuXuXiXcXuXuXuXbXuXuXuXbXuXuXbXuXuXiXiXuXuXuXuXkXbXuXbXuXuXkXkXuXkXkXbXMXPXuXMX",
"!.!.!.E.!.!.,X!.>X!.,X!.!.,X,X!.W.W.,X!.,X,X,X,XyX,X!.A.A.A.E.W.9XyXyXeX,X,X,XW.,X,XQ.9XeX9X9X9X9XIXR.F.c.c.F.F.D.x.F.F.D.D.D.D.~.b.D.D.D.D.D.D.L.D.D.D.L.D.D.L.L.L.L.L.L.L.L.L.L.R.Y.Y.L.L.L.Y.L.L.L.L.L.Y.L.Y.L.L.Y.Y.Y.Y.Y.Y.L.Y.Y.Y.L.L.Y.Y.Y.Y.Y.Y.Y.Y.Y.Y.Y.Y.Y.Y.Y.Y.Y.Y.Y.Y.Y.7XY.Y.Y.Y.Y.Y.Y.Y.Y.Y.<X1X1XY.Y.7XY.1X7XY.Y.-X-X-X:X-X<X:X<X1X<X;X:X<X2X1X;X;X;X;X3X3X3X3X3X8X3X3X3X3X3X3X4X4X4X4X4X4X4X1X8XA.l #.x 5...8.*.*.=.e.=.1.0.<.! 4 - o o - 3 z g 2 - 3 g 3 : g j k S G o.o.o.o.+.o.@.@.@.$.@.@.$.&.-.*.*.-.-.*.q.-.6.8.p.r.6.=.6.%.@.$.-.*.@.X.G G G q.@.%.8.0.8.8.r.r.0.d.d.d.d.d.].`.|.|._.'.'.|._._.d.|.d.d.|.|.|.|.|.&XOX&XOX&XOX|.|.s.d.d.|.|.|.|.|.|.|.|.s.|.|.|.|.&X&X|.OX|.|.OX|.|.|.|.s.s.|._.|.s.|.d.s.s.s.d.y.p.p.y.a.y.a.r.r.r.r.e.f.f.f.f.f.f.=.=.-.-.f.=.f.f.f.=.-.f.f.=.f.f.f.f.-.*.-.&.-.@.O.o.o.! D F S k j h z z j g C j ; q - 3 3 ; ; * ; ; ; 3 ; 3 3 3 q L L  .L z q l i q l  . .i  . . .l l  .l q q i i l  .W ( >.V.~.!.Q.%XpXpXpXiXpXdXpXpXpXpXpXpXpXiXpXiXuXuXuXuXuXiXiXiXiXiXiXiXiXiXiXiXiXiXiXpXpXpXiXuXxXcXiXiXpXiXiXiXiXiXpXcXiXiXcXbXiXiXuXuXuXuXuXuXuXuXuXuXuXuXuXuXuXuXuXuXiXuXuXuXuXuXuXuXkXkXbXuXuXkXbXbXkXvXkXkXvXMXkX",
"E.!.>X!.!.>X!.W.,X!.!.,X,X!.,X,X,X,XW.Q.W.W.,X,X,X,X,XE.M.A.E.!.,XyXyXyX,X,X,XW.W.Q.,XQ.9X9XeX9X9XIXE.F.S.x.x.x.F.F.F.b.x.x.D.D.D.D.D.D.D.D.D.D.D.D.D.L.D.L.D.D.D.L.L.L.L.L.D.L.L.Y.L.L.Y.L.L.L.Y.L.Y.L.L.L.Y.L.Y.L.Y.L.Y.Y.Y.Y.Y.Y.L.Y.Y.Y.Y.Y.Y.Y.Y.Y.Y.Y.IXY.Y.Y.Y.Y.Y.Y.Y.7XY.Y.Y.IXY.Y.Y.Y.Y.Y.1XY.1XY.<X1X1X1X1XY.1X1XY.Y.=X-X-X-X-X<X;X;X1X<X;X1X<X<X1X3X3X;X3X:X;X3X8X3X8X:X3X8X3X3X;X;X1X1X8X8X0X8X4X<X9XN.l #.x x ..X.6.*.*.4.4.1.2.2.,.k o - - - 0 z j ; q 3 u 3 3 j k A F o.#.o.o.o.o...+.+.o.@.@.@.$.-.*.&.-.$.-.*.r.r.8.9.6.$.X.q.@.-.*.8.6.o.D D X.q.q.X.=.q.%.*.u.0.0.0.r.0.r.0.0.d.d._._.].d.d.|.'.|.|.|.|.|.|.s.|.|.|.|.&X&XOXOX|.}.|.|.|.|.|.|.|.|.|.|.|.|.|.s.d.|.|.|.|.|.|.&X|.&X|.&X|.&X|.|.|.s.|.|.|.s.|.|.s.s.d.s.d.s.s.y.y.r.r.r.e.e.e.f.f.f.-.f.f.f.f.f.f.f.=.=.=.=.=.f.f.f.f.-.-.f.-.=.*.-.-.-.@.o...D D F S x k z j z g q q : j l g 0 3 0 : - - ; - : q ; ; q q z ~ ~ L l l l  .q l l  .z l l l l l l l  .z s q l i L L / { m.~.!. X%X%XpXpXpXpXpXpXpXpXrXpXiXiXiXdXiXuXuXuXuXiXiXpXpXpXiXiXiXpXpXiXcXiXiXcXiXiXcXiXiXiXiXiXiXcXiXiXiXiXcXiXiXiXiXiXiXiXuXuXuXuXbXuXuXbXbXuXuXbXuXiXbXuXuXuXuXuXuXiXuXbXkXkXMXvXuXuXkXbXuXkXkXuXMXvXMXPXvXuX",
"!.>X>X!.!.!.!.W.,X!.,X!.!.,XW.,X,XQ.Q.,XQ.,X,X,XyX,X,XE.A.B.E.Q.eXyXyXeX,X,X!.W.,X,X,X,X9XeXeX9X8X,XR.F.F.F.D.x.F.b.~.c.F.x.F.D.D.D.L.L.L.L.D.D.D.L.D.L.D.D.D.D.L.D.L.L.L.L.~.L.L.~.L.L.Y.L.L.L.L.L.L.L.L.L.Y.L.Y.L.Y.Y.Y.Y.Y.L.Y.Y.Y.L.Y.L.L.Y.Y.Y.Y.Y.Y.Y.Y.Y.Y.Y.Y.Y.Y.Y.Y.IXY.Y.Y.Y.Y.Y.Y.Y.1XY.1X1X1X1X<X1X1X1X1X1X1X<X1XY.-X-X;X:X<X<X2X;X;X;X<X<X:X3X1X1X;X:X:X3X;X3X3X8X6X8X8X3X3X3X;X3X1X1X8X8X4X4X4X7XwXB.l o.5.D ..x =.8.=.=.1.4.1.0.<.F o : o : : z u - j 3 ; 3 j g j S ~ o.o.o.o.o.o.o.@.o.O.@.o.@.@.-.*.*.*.*.*.8.6.6.q.@.*.6.0.*.@.q.-.F c x X.*.f.q.q.8.r.q.$.%.%.@.@.+.q.q.q.q.u.^.].|._._.`.}.].|.|.oX|.|.|.|.|.d.|.|.OX&XOX}.|.}.OX|.|.|.|.].|.|.|.|.|.|.|.|.s.s.s.|.|.|.&X|.|.|.&X|.&X|.OX|.|.|._.|._.|.|._._._.s.s.s.d.d.d.y.y.y.r.r.r.8.e.a.f.f.f.f.f.f.=.f.f.-.-.=.f.=.=.=.f.-.f.f.f.f.-.=.-.-.-.@.O.O.o.o.D S x k k h g z q g j 3 3 q 3 ; - ; ; - ; 3 ; : q ; : g q z ~ L l l  .l i q l  .l q  . .q i l z l l i l q  .l K R / { V.B.!.Q.qXrXpXdXpXpXpXpXpXpXiXiXiXuXuXuXuXiXuXuXiXiXpXpXpXpXpXpXiXpXiXiXiXiXiXcXiXiXcXpXpXpXiXpXiXiXiXiXiXiXcXpXiXiXcXiXpXiXiXbXuXkXuXvXvXvXuXbXuXuXuXiXuXuXuXuXuXuXuXuXkXuXkXvXvXMXkXuXkXvXkXuXuXkXkXbXMXuXMXMX",
"!.!.!.!.!.,X,X!.!.Q.Q.Q.,X,X,X,X,X,X,X,X,X,X,XeX,XyX,XA.M.A.E.Q.eXyXyXeX,X,XW.W.W.,X,X9X9XeXeX9XeX;XR.G.F.F.F.c.F.F.b.b.b.F.D.D.D.L.D.L.L.L.D.D.D.L.L.D.L.L.L.D.L.L.L.L.D.L.L.L.L.L.Y.L.L.L.L.Y.L.L.L.L.L.L.L.L.L.Y.L.Y.Y.Y.L.Y.Y.Y.L.Y.L.Y.L.L.Y.Y.Y.Y.Y.Y.Y.Y.Y.Y.Y.7XY.Y.Y.Y.Y.Y.Y.Y.Y.Y.IXY.Y.1XY.<X1X1X1X<X<X1XY.1X1X1XY.1X-X-X-X-X;X:X;X1X2X;X;X3X;X3X1X2X:X;X;X;X;X3X3X3X8X3X3X8X3X3X8X3X1X1X8X8X4X4X4XIXqX~.L o.#.3.@.....8.t.=.1.t.9.<.,.~ o - o - : l q - 3 2 2 g j : k x ! o.! ! 5.o.+.o.@.o.o.@.@.$.@.$.&.*.-.-.*.6.6.6.8.6.8.6.@.F ......D D ....D G G G G F G ..D S +.+.+.G q.q.0.q.q.0.9.d.0.u.d.d.|.|.'.|.d.|.|.|.|.|.'.'.OXOXOX'.'.'.'.'.}.|.|.|.|.|.|.|.|.|.|.|.d.d.s.|.|.|.&X|.|.|.|.|.|.|.|.|.|._.d._.|.|.|.|.s.s._.s.d.d.r.y.y.r.y.r.r.r.8.f.f.f.f.f.f.f.=.f.f.f.f.=.=.=.6.=.f.=.=.f.-.f.-.=.-.-.-.@.O.@.O.o.D S k h z z z z l j 3 j q : q 3 - - ; - 3 3 ; f 3 : ; q q q L l l q l q q s q q q q q q s l  .q  .l l l  .q s K R ' UXV.E.!.Q.%X%XpXpXpXiXdXpXpXdXiXuXuXuXuXuXuXuXiXiXiXpXpXpXtXpXpXpXpXyXpXiXiXiXpXiXiXpXiXpXiXcXpXcXcXiXiXcXiXpXpXiXuXuXiXuXiXuXiXbXbXkXMXuXvXuXuXiXiXiXbXuXuXkXuXkXuXbXkXuXbXkXMXkXkXMXkXbXbXkXvXbXkXbXMXkXkXbXkXvX",
"!.W.W.,X,X!.,XW.,X,XQ.,X,X,X,X,X,X,X,X,XQ.,X,XyXyXyX,XE.A.B.E.Q.yXyXyXeX,X!.!.,X,X,X,X9XeX9XeXyX9X9XR.F.F.F.D.x.b.F.b.F.x.D.D.b.L.D.D.L.D.L.D.L.L.L.L.L.L.D.D.D.L.D.L.L.L.L.L.L.L.L.L.L.L.L.L.L.L.L.L.L.L.L.L.L.Y.L.Y.L.Y.L.L.Y.Y.Y.L.Y.Y.Y.Y.Y.L.Y.Y.Y.Y.Y.Y.Y.Y.Y.Y.Y.IXY.Y.Y.Y.Y.Y.7XY.Y.7X7X7XY.1X1X1X7X1X1X<X<X1X<X1X1X1XY.-X-X-X-X;X;X;X;X;X;X;X3X;X;X;X:X;X;X;X:X;X;X;X3X;X3X8X3X3X3X;X3X1X1X8X1XIX4X4XqX9XG./ ;.3.3.2.2.5.X.=.4.1.t.9.<.9.#.: : o - q L : q : : g 3 4 3 k S ! D D D ! o.o...o.o.+.$.@.*.%.%.-.%.@.+.%.*.q.8.0.r.q.@.X.q.*...x x x x D x x G G h D G F G G %.*.%.q.q.0.0.q.0.0.u.d.0.d.].].'.|.|.d.d.|.|.|.|.'.'.OXOX'.'.].'.'.|.|.'.$X|.oX|.|.|.|.|.|.|.|.s.d.s.|.|.|.|.&X&X|.&X&X&X|.|._.|.|.d.d.|.|.|._._.s.s.d.d.d.d.d.p.u.y.y.r.r.r.f.r.f.f.f.f.f.f.f.f.-.f.=.6.=.6.=.f.=.f.f.-.f.-.=.*.-.@.@.@.O.O.D ! S x k k k j k g z 3 - 3 l 3 q o : ; - ; ; ; 3 ; : 3 q z z l q j q q q 0 l q q i q j  .l l q l q  .i q  .l l K L ' 7.V.~.!.Q.%XpX%XpXpXdXpXpXpXdXiXiXdXiXuXiXuXiXuXiXpXpXpXpXpXpXpXiXiXiXiXiXcXiXiXiXcXiXcXpXyXiXiXiXiXxXiXiXcXpXiXuXuXuXiXiXuXbXiXkXuXkXbXvXMXuXuXuXbXiXuXuXuXkXkXbXuXkXuXbXkXbXkXbXvXMXkXkXkXkXMXkXkXvXkXvXkXkXvXkX",
",X!.,X!.!.,X,XW.!.,XQ.,X!.,X,X,X,X,X,X,X,X,X,XyXyXXX,XE.A.A.!.,XeXpXyXeX,X,X,X!.Q.,X,X9X9X9X9XeX9X8XR.F.F.x.x.c.D.F.F.F.x.D.D.D.D.D.D.L.D.L.L.D.~.L.L.D.L.L.L.D.D.L.D.~.L.L.L.L.L.L.L.L.Y.~.L.L.L.L.Y.L.L.Y.L.Y.Y.L.L.Y.L.Y.L.L.Y.Y.Y.Y.Y.Y.Y.Y.Y.Y.Y.L.Y.Y.Y.Y.Y.4XIX7X7XY.7XY.Y.Y.7XIXY.Y.Y.Y.1XY.1XY.1XY.<X1XY.1X<X1XY.1X1X1X-X-X=X-X-X:X;X3X;X2X;X;X;X:X;X:X3X3X;X;X;X3X3X3X;X;X;X3X;X3X3X;X8X1X8X8X4X4X4X4XyX!.Q <.,.2.2.4.X...O.1.<.<.(.9.2.$.c : : o g Z o z 3 3 k 2 4 k Z S D ! o.o.o.o.@.o.@.o.o.@.O.$.-.@.@.@.@.X.-.6.6.q.@.+.@.-.@...x x ..F S o.@.o.X.q.%.%.$.%.o.S G F A A F G G ^ q.q.q.q.q.0.0.d.d.0.d.0.d.d.d.oXd.Z.|.'.'.'.'.].'.OX'.'.|.|.|.].|.|.|.|.|.|.|.s.|.s.d.s.|.|.|.&X|.&X|.|.|.|.|.|.].|.|.d.|.d.|.|.s.|._.s.s.d.d.d.y.y.d.p.p.r.r.r.p.f.f.f.f.f.f.f.f.-.f.f.=.=.=.*.-.=.-.f.-.-.=.f.=.-.@.@.-.O.o.D D F S k k k z j l g 3 q 3 - - q q o ; ; - 0 : ; ; 3 q q q l l q 2 l q l l j  .q q s i i l  . .i l l j q 0 q q  .l E ' 7.B.Z.Z.!.IX%XpXpXpXiXiXdXpXiXiXiXiXiXiXiXuXuXuXpXiXyXpXpXyXpXiXiXiXiXiXxXuXiXcXiXiXuXuXiXiXcXpXiXxXiXcXpXpXpXiXiXcXuXuXiXiXuXuXuXMXvXMXMXvXbXuXiXiXiXuXkXbXuXuXkXkXkXkXkXkXkXkXkXMXkXMXMXkXMXMXkXvXkXvXkXMXvXkXvX",
"Q.Q.Q.Q.Q.,X,X,X,X,X,X,X,X,X,X,X,X,X9X9X,X,X,XyXyXyX9XE.B.A.!.,XyXpXpXyX,X,XW.W.,X,X,X9X9XeXyXyX%XIX~.D.b.F.D.D.F.D.D.D.D.D.D.D.D.D.D.D.D.D.~.L.L.D.L.L.L.D.D.L.L.L.L.L.L.L.L.L.L.L.L.Y.L.L.L.L.L.L.L.L.L.L.L.L.L.Y.L.Y.Y.L.Y.Y.Y.Y.Y.Y.Y.Y.Y.Y.Y.Y.Y.Y.Y.Y.Y.Y.Y.Y.7XIX7XY.Y.Y.Y.Y.Y.Y.4XIX7XY.Y.<XY.<X1XY.<XY.<XY.Y.<XY.1X1X-X;X-X;X;X>X;X;X3X8X3X:X3X;X:X3X8X3X8X;X;X;X;X3X3X8X4X8X3X;X3X;X3XIX4X4X8X8X4X4X4X,XW.} 2.2.1.4.1.=.....3.e.1.9.^.9.0.#.- : : 3 l 3 3 4 ; 3 3 g h Z F ! ! o.o.o.@.$.+.@.o.O.@.&.%.%.@.o.@.*.=.*.*.+.G D @.%.o.D D F $.&.D @.o.@.<.%.$.<.%.$.o.! S S ! o.S h h k h k ! o.! ! o.+.q.%.8.0.u.0.d.u.d.d.Z.d.0.'.oX].d.].`.`.'.'.OX|.|.|.|.|.|.|.|.d.|.s.s.s.s.|.|.&X|.|.|.|.OX'.|.|.'.|.|.|.d.|.|.|.'.].d.d.d.d.d.|.d.d.d.r.d.d.r.0.d.p.r.r.r.r.f.f.r.e.6.=.*.*.=.*.6.=.=.=.=.6.=.=.6.=.*.-.@.@.O.o.o.D S x k z k l z l g 0 3 2 3 ; 3 z ; - ; : ; 3 ; q : q : ; q z q q q l l l l q l q l  .l  .l l  .l q q  .q 9 0 l K L ' >.V.Z.!.Q.IXpXpXdXpXiXiXpXpXiXuXiXiXuXuXiXuXuXxXiXiXpXpXiXpXpXpXpXiXiXxXiXiXcXxXiXiXiXiXuXxXiXiXpXxXyXcXiXcXiXiXuXuXuXcXiXuXuXuXbXvXMXMXMXuXvXuXuXuXuXvXkXuXuXuXkXuXkXkXvXuXkXbXkXkXkXkXMXvXMXvXMXkXvXMXkXkXvXMXkX",
"Q.,X,XQ.Q.,X,X,X,X,X,X,X,XeX,XXXyX,X,X9X,X,X,XyXyXeX9XE.B.A.!.,XyXpXpXeX,X,X,XW.,X,X,X,X9XeXeXyXqXIXY.D.V.F.D.b.D.D.D.F.D.F.D.D.D.D.D.D.D.D.L.D.D.L.L.L.L.L.L.L.L.L.L.L.L.L.L.L.L.L.L.R.Y.L.L.Y.Y.Y.L.L.Y.Y.Y.Y.Y.L.Y.Y.Y.Y.Y.Y.Y.Y.L.Y.Y.Y.Y.Y.Y.Y.Y.Y.Y.Y.Y.Y.Y.Y.Y.Y.Y.7XIX4XY.Y.Y.7XY.Y.Y.7X1XY.1XY.<X1X1XY.;X<X1X<X1X-X1X1X-X-X;X;X;X3X;X3X:X6X3X;X;X8X8X8X3X:X3X;X;X3X;X3X8X3X:X3X3X8X8X3X4X4X8X8X8X4X4XIX,X!.} ,.2.4.e.t.4.3.O.-.t.4.1.u.9.9.2.L : : z Q u 3 2 4 4 3 g k S F +.! o.o.O.o.O.+.+.o.o.@.$.$.$.&.%.&.@.@.+.o.F ..%.8.%.o.@.*.$.+.o...o.D D D F F F S S x S k k h g z k k k S x ! x x G ! F ! %.q.q.q.%.q.6.9.d.0.d.oXd.d.'.OX'.'.d.].|.}.|.].d.|.|.|.|.|.|.d.s.s.r.s.|.|.}.}.&X&X|.&XOX|.'.|.|.].d.|.|.|.|.d.|.|.|.d.d.|.d.d.d.d.d.d.d.r.r.r.p.f.r.r.r.r.f.f.8.8.6.=.=.=.=.6.=.=.=.=.-.6.6.=.=.-.-.@.O.O.....D S x x x Z Z k z g 3 3 3 2 : ; 0 3 0 3 ; ; q 3 q ; q q z l l z z i l q l i l i i l i l i l q q q l q q q q q d s K ( } m.B.!.Q.%X%XpXiXpXiXpXpXpXaXpXpXsXiXiXiXiXiXuXxXiXpXiXiXiXpXiXxXiXxXiXiXiXiXuXxXcXxXiXcXxXiXiXiXiXiXiXiXiXiXiXuXcXuXuXiXuXuXvXkXMXvXuXvXvXuXvXuXvXPXvXvXkXuXuXuXbXkXkXbXuXuXkXvXbXbXkXkXMXkXkXMXMXkXkXvXkXMXkXvX",
",XQ.,X,X,X,X X,X,X,X,X,X,X,XeX,X,X9X,X,X9X,XyXyXyXyX9XE.A.B.E.,XyXpXiXyX,X,X!.,X,X,X,X,X9XeXyXyXpXIXR.~.b.b.D.D.b.D.F.D.D.D.D.D.D.D.D.D.D.D.D.L.L.D.~.L.L.D.D.L.L.D.L.L.L.Y.L.L.Y.L.L.Y.L.Y.R.L.Y.L.Y.Y.L.Y.Y.Y.Y.Y.Y.Y.Y.Y.Y.Y.Y.Y.Y.Y.Y.Y.Y.Y.IX7XY.Y.Y.Y.7XY.7XY.Y.Y.IX7XY.Y.IXY.Y.7XY.Y.Y.Y.Y.1X1XY.Y.<XY.1XY.<X1XY.-X1X-X;X;X>X;X;X;X;X;X;X,X:X;X:X;X;X8X;X3X3X:X8X;X3X3X3X3X3X;X3X;X3X3X;XIX4X4X4X8X4X4X8X8X,X:.2.2.2.e.e.4.=.O.O.1.u.t.(.t.2.2.C.c 3 l l 3 4 4 2 3 3 k k S ! +.+.o.@.+.o.+.@.@.o.o.@.@.$.&.$.@...D ..+.@.@.@.@.+.%.*.*.*.$.o.$.<.@.o.@.o.o.! +.+.o.F D x S h g z S S j : z x #.#.F #.! S +.+.%.%.%.+.@.q.q.q.r.d.q.0.0.0.].d.d.].'.].'.|.d.oX|.|.|.s.|.d.s.s.r.s.|.d.|.'.|.'.'.OX'.|.'.|.|.|.].].|.|.|.d.].|.d.'.].|.d.d.d.d.d.d.d.r.r.d.p.r.r.r.r.r.r.f.6.6.q.6.6.6.=.=.=.=.=.=.-.6.6.-.-.*.-.@.O.O...D S x k k z k Z z z g 3 ; 3 3 3 ; ; 0 q 3 ; : q 3 ; : - ; q z l l j l q i q l i q q q q q i i i q  .q q q i q 9 q i L E { m.~.!.Q.qXrXpXiXiXiXpXpX%XpXpXpXpXiXiXiXiXuXuXiXxXiXuXcXxXxXxXxXxXiXiXxXiXxXxXiXxXuXiXxXcXxXiXcXiXiXxXiXiXiXcXuXuXbXuXuXvXvXvXMXvXkXuXvXvXPXMXPXPXPXkXvXuXuXuXuXgXuXkXkXkXkXkXkXkXuXbXkXkXkXMXkXkXMXMXkXkXvXkXvX",
",X,X,X,X%X,X,XeX,XeXXXyXeXeX,XyX,X,XyX,X,X9XyXyXyXyX9X!.A.A.!.,XyXyXcXyX,XW.,X,X,X,X9X9XeXeXyXyXpXqXY.~.l.b.D.D.F.D.F.D.D.D.D.b.D.D.D.D.D.D.L.D.D.L.D.L.L.L.L.L.L.L.L.L.L.L.Y.L.L.L.L.L.L.L.Y.L.L.Y.L.Y.L.Y.Y.Y.L.Y.L.Y.Y.Y.Y.Y.Y.Y.L.Y.Y.Y.Y.Y.Y.Y.Y.7X7XIX7XIXY.Y.Y.Y.Y.7XY.4X7X7XY.IXIX7X7XIX<X1XY.1X1XY.1XY.Y.;X-X-X1XY.;X;X;X;X;X;X;X8X:X3X:X;X;X;X:X;X;X:X;X8X3X3X;X3X;X3X6X8X8X3X3X8X3X3X4X8X8XIX4X4X4X4X8X9X:.2.2.4.4.4.=.1.3.5.&.9.t.t.t.2.C.].D g z : 2 4 4 4 3 j k A A F o.o.o.@.$.O.@.$.$.+.+.@.$.%.+.@.+.o...D ..D F D G ..$.<.<.%.<.<.9.^.@.@.$.o.$.#.+.o.! ! Q x h h h g g k Q F c z ~ S k ! %.! #.! +.o.$.+.o.X.G q.q.q.0.u.0.u.0.d.|.|.|.d._.].|.|.|.|.|.|.|.d.s.s.d.s.|.|.|.|.|.'.|.'.|.].'.|.d.'.|.d.d.].'.|.|.].|.d.|.d.].d.s.d.r.d.d.d.d.r.p.p.r.r.r.f.r.r.e.8.1.6.6.=.*.*.=.-.-.=.6.-.=.6.*.-.*.&.O.....D ! Q x k k x Z z j q : ; ; ; 3 2 - - ; 3 ; ; ; - ; ; ; : q z l q i q q j i j l l  .l l  .q q  .q l q q  .i q q 9 i  .R } V.Z.Q.%X%XrXpXiXdXiXpX%XpXiXpXpXiXiXuXiXiXiXuXxXxXuXiXiXiXxXiXxXgXxXxXiXuXcXxXxXxXiXxXiXuXiXiXiXiXcXxXxXuXiXuXuXuXuXuXvXvXMXMXuXMXbXvXvXuXPXuXuXPXvXvXkXkXuXuXuXuXkXkXkXkXMXMXkXkXkXkXkXkXvXkXvXMXkXvXkXMXkXMXkX",
",X,X%X,X,XeX,X,XeX,X9X,XeX,XeX9XyX,X,X,X9X9X9XyXpXyX9XW.A.A.!.%XyXiXxXyX,X,X,X,XQ.9X9XeX%XeXpXpXqXIXY.~.l.D.D.D.D.D.R.D.F.D.D.D.D.D.D.D.D.D.D.L.D.L.D.L.L.L.L.L.L.L.L.L.Y.Y.L.~.L.L.L.L.L.L.L.Y.Y.L.Y.L.L.Y.Y.L.L.Y.Y.Y.Y.Y.Y.Y.Y.Y.Y.Y.Y.Y.Y.Y.Y.Y.Y.7XY.IX7XY.Y.7XY.Y.Y.IX7XY.Y.Y.7XIX7XY.4XY.Y.<X1X1XY.<XY.<X<X<X1XY.;X-X1X<X;X;X;X;X;X8X;X;X;X;X:X;X;X;X;X;X;X3X;X3X3X3X3X8X3X3X3X;X;X8X3X;X4X1X4X4X4X4X4X4XW.%X>.<.4.4.t.4.1.4.3.5.O.2.w.t.9.1.(.^.o.- j j : 4 3 3 3 g A h Z F ^ o.o.@.%.O.@.@.+.O.+.@.@.$.$.$.@.@.@.@.o.o...o.o.o.o.+.%.1.9.0.&.&.@.$.@.$.<.*.%.%.#.#.#.! x x z x k z z z S z z Z ;.#.S ,.+.G D D G D ..F G +.X.D +.X.+.0.d.d.d.d.|.oXd.0.d.|.d.|.|.|.s.s.s.d.r.d.|.|.|.d.d.|.].|.'.].|.'.d.].].|.|.].|.d.|.d.|.|.d.|._.].d.d.d.s.d.d.d.d.d.r.r.r.r.r.0.r.r.8.8.8.8.q.6.*.f.-.-.6.6.-.-.=.-.-.&.$.@...D ! D x x z Z Z Z z q 3 : ; ; - ; 3 : @ - ; : 2 : ; q q q z l L z z j i l l l l l l  .l l l l i i  . .q q l i i q q i l R } V.E. X%X%XiXiXiXpXpXpXeXpXiXiXpXiXiXgXuXiXxXiXxXiXxXiXpXiXxXiXiXxXxXuXxXiXxXxXiXxXiXiXxXiXxXiXiXxXiXxXcXuXuXuXuXkXbXuXvXvXMXkXbXvXkXbXuXuXkXbXuXuXvXkXuXkXbXuXgXkXkXkXMXMXmXkXMXkXMXkXMXkXkXMXkXkXkXvXkXkXMXkXMX",
"Q.,X,X9X,X9XeX,X,XeXeXyX9XeX9XeX,XyXyXyX9X9XyXyXpXpX9XW.G.A.Q.9XyXiXxXyXeX,X,X,X,X9X9X9XeXqXpXcXpXqXY.D.F.D.D.D.D.D.D.D.D.D.D.D.D.D.D.D.D.D.D.D.L.D.L.L.L.D.D.L.L.L.L.L.L.L.L.L.D.L.D.L.L.L.L.L.L.L.L.L.L.Y.L.Y.Y.L.L.Y.Y.L.Y.Y.Y.Y.Y.Y.Y.Y.Y.Y.Y.Y.Y.Y.Y.Y.7X4XIX7XY.Y.Y.4XY.Y.Y.Y.7XY.7XY.Y.Y.<X1X1XY.1XY.Y.<X1XY.<X1X-X;X<X1X;X:X0X;X;X;X:X;X;X:X;X;X;X:X;X;X;X;X:X;X;X3X8X:X8X8X3X8X3X3X3X3X4X4XIX4X4X4X4X4X;XIX>.<.(.t.t.t.4.2.O.....$.1.8.9.(.9.9.$.- j A - 3 3 j 3 g j A F ! o.o.! O.$.O.@.@.@.$.@.+.@.$.%.$.@.o.o.o.$.*.<.%.$.$.@.$.$.*.*.<.@.o.%.8.<.1.$.%.<.<.,.%.$.o.;.~ x z Z ~ ~ S z ~ S z ~ } x x Z S S k x F F S S x F ..F X.@.@.q.r.d.r.d.|.d.d.|.|.|.|.|.|.|.s.s.d.r.d.d.d.'.'.oX|.d.'.].d.'.d.|.'.|.'.d.|.|.].|.oXd.].].d.d.d.d.d.d.d.d.d.d.d.r.d.r.r.f.r.w.w.r.9.8.8.8.8.=.*.=.-.*.*.-.=.6.-.-.@.@.@.@.....D S x x z Z x Z z g 3 ; q 3 - @ : q @ o ; 3 2 3 0 g q : ; z Z l z j l l l l  .C L  .L  .i q l l  .q q l q i q q 0 i K T { m.E.IXeXeX%XpXdXdXpXpXpX%XiXpXpXiXiXiXiXxXiXxXiXiXiXxXpXyXiXiXxXiXiXxXiXxXiXiXxXcXiXxXiXxXuXcXiXiXxXxXiXiXuXuXbXuXuXMXuXvXvXMXuXvXMXuXMXuXuXuXkXPXPXkXuXkXuXuXkXkXMXMXkXkXMXNXmXMXkXMXkXkXvXkXMXkXvXkXMXMXMXkXMX",
"9X,X9X9X,X9X,XeXyXeXeX,X,XeXyX9X9X9X9XeX9X9XyXpXiXpX9XW.A.G.W.9XpXxXxXyXeX,X,X,X9X9XeX%XpXpXpXiXcXIXW.F.l.D.D.D.D.R.D.D.D.b.D.x.D.b.~.D.D.D.L.D.D.D.D.L.D.L.D.L.L.L.L.L.L.Y.L.L.L.L.L.L.~.Y.L.L.L.Y.L.Y.L.L.Y.L.L.L.Y.L.L.Y.L.Y.Y.Y.Y.Y.Y.Y.Y.Y.Y.Y.Y.Y.Y.Y.IXY.IXY.Y.Y.Y.Y.IXY.Y.Y.Y.Y.7XY.Y.Y.Y.1X1X<XY.Y.Y.1X1XY.Y.1X;X;X;X;X;X:X6X:X;X;X;X;X6X:X;X;X;X;X;X-X>X-X;X3X3X;X3X3X3X3X3X3X1X3X3X8X1XIX8X8X4X7X4X7XIXeXV.2.(.t.4.a.4.3.O.O...@.1.1.t.t.1.9.,.: M 3 : 3 j q g A A S ^ ! #.+.o.O.$.@.$.$.$.%.$.$.$.%.+.+.o...D D D ! ..@.<.8.<.&.%.*.<.1.<.<.8.1.1.<.0.8.<.<.%.$.,.$.#.;.,.~ S Z x z Z : q x g - : k h k h h c h x F h h F D ..&.8.@.q.f.r.r.q.d.d.d.|.|.|.|.|.s.s.s.|.d.r.d.d.|.].d.d.|.d.d.d.d.d.d.d.d.d.d.d.].d.d.].d.].d.d.].d.d.r.r.d.d.d.r.r.r.w.r.r.0.w.w.q.r.8.8.e.8.8.6.<.=.=.*.-.-.-.6.-.X.@.@.-.@.O...D D S S x x Z S Z z j q 3 3 2 ; - - q - o ; @ : 3 q ; ; - : q z l l l q  .l C C C  .C  .l  .i i q i q i q q q q w q i  .T [ V.!.Q.%XpXpXdXpXpXpXpX%XeXpXpXpXpXiXiXiXiXxXiXiXiXiXpXpXpXpXiXiXxXuXiXxXiXxXxXiXxXiXiXxXxXxXiXxXxXxXxXiXcXuXuXuXuXuXvXvXbXkXuXuXvXuXuXkXuXkXuXvXuXkXuXvXkXvXkXuXbXkXkXMXkXkXkXmXkXMXkXMXvXMXMXkXMXkXkXMXMXmXMXnX",
"eX%X9X9XeX9XyX9XyXyXeXyXyXeXyXyXyXyX9XeX9XyXyXpXcXpXeXW.E.G.Q.eXyXxXxXyXeXQ.,X,X9X9X9XqXpXqXcXiXiXeXR.F.F.F.D.D.D.D.F.D.F.F.b.x.D.D.D.D.D.L.D.D.L.D.L.L.L.L.D.~.L.D.L.L.L.L.L.L.L.L.L.L.L.L.L.Y.L.L.L.L.L.Y.L.Y.L.Y.L.Y.Y.Y.L.Y.Y.Y.Y.Y.Y.Y.Y.7XIXY.Y.Y.Y.7X7X7X7XY.Y.4XY.7X7XY.Y.Y.Y.Y.Y.7XIXY.<X1X1X1XY.Y.Y.1XY.<XY.1X3X;X:X;X;X0X:X,X:X;X:X;X,X;X;X:X;X0X;X-X-X-X;X;X;X;X8X3X3X8X3X;X8X3X3X;X4X1X1X1X4X4X1X1X1XeXV.V.].4.a.a.+X2.3.-...O.<.1.t.(.2.9.%.- j 4 3 g j j g A S F #.! o.$.o.+.&.@.@.@.$.$.$.@.@.@.$.@...D ..O.$.&.$.$.+.o.$.%.*.<.9.*.<.<.9.1.0.8.0.<.,.,.,.2.;.O.;.! S ~ ~ S k l l x ~ k z x k g g h c x h h c h ....x D +.F X.9.q.r.q.d.d.d.d.d.|.d.|.s.|.|.|.s.d.d.r.d.d.d.d.d.d.d.d.C.u.0.r.0.q.0.0.d.d.d.d.d.d.d.d.].d.d.d.d.0.d.d.d.d.0.r.d.q.0.r.w.w.r.f.q.=.=.8.8.8.8.6.*.6.-.-.6.*.-.-.*.-.-.-.$.@.o...D S S S Z x L z q j 0 - ; ; 3 ; @ : ; ; : - @ ; ; - 3 q q L L l q l l l l l l l l l l z q q d q q q q q q q 0 0 u s C T [ V.Z.IX%XeXeXpXpX%XpXpX%XpXpXrXpXpXiXgXiXxXiXiXyXcXiXiXiXpXpXxXxXiXxXxXiXxXiXuXcXiXxXvXMXxXxXxXuXxXxXiXxXuXuXuXvXuXbXkXbXkXvXvXvXuXuXbXuXuXbXuXMXvXuXvXkXuXkXbXkXuXkXkXMXMXMXmXmXMXkXMXkXMXkXkXkXmXMXMXkXkXMXkXMX",
"eXeX9XeX9XeXyXyXyX9XyXyXyXyXyXyXyX9XyX9XeXyXyXiXxXyXeXW.G.E.Q.eXiXvXuXpXqX%X9XIXeX9XeXeXpXcXpXcXpXqXY.~.c.F.F.x.D.D.~.D.D.D.b.F.D.D.D.D.D.D.D.D.L.L.L.L.D.D.L.D.L.D.L.L.L.Y.L.L.L.~.L.D.L.L.L.Y.L.R.Y.L.L.Y.Y.Y.Y.Y.Y.Y.Y.L.L.L.Y.Y.Y.Y.Y.Y.Y.Y.Y.Y.IXY.Y.Y.7XY.Y.Y.Y.Y.IXY.Y.Y.Y.7XY.Y.Y.Y.Y.Y.4XIX7X7XY.1XY.1XY.1X4XY.1X1XY.1X:X;X3X3X3X;X3X;X:X;X;X3X:X3X;X;X;X;X;X;X;X;X8X;X1X1X;X;X;X;X;X;X1X1X1X1X4X1X8XIX8XIX7.7.].u.u.(.4.2...O.-...3.8.8.t.9.0.,.3 z 3 4 j A 4 j A Q S ! +.#.+.$.O.O.@.@.O.@.&.%.@.@.+.%.$.@.@.+.o.o.o.%.0.<.%.+.$.&.%.&.<.,.&.<.%.*.$.3.;.O.O.D z o.~ x #.~ ~ ~ ^ ~ x Z z x z z c x x z x c l x z 5.Z D x 5.o.@.$.*.%.8.9.r.u.u.d.d.d.oXd.d.d.|.|.|.d.s.r.d.d.d.d.d.0.d.d.r.0.q.q.q.q.<.1.0.0.0.9.9.9.9.9.9.^.9.d.u.u.0.u.d.9.r.d.9.8.8.9.y.8.r.9.q.r.*.8.8.*.6.*.*.8.*.*.%.-.-.-.-.@.@.$.$.@.o.o.D F ~ S x L S L l z q q ; 0 ; * : o 3 3 - - : @ - ; z f q z z q q z z  .z  . .z q  .q  .q d 0 q d q 0 q 0 0 2 0 q q i  .E { C.!. XeXpXpXpXpXpXpXpXpXpXpXpXpXpXiXiXbXiXiXiXpXcXpXiXiXiXiXiXiXiXuXbXiXiXiXuXuXuXxXxXxXxXxXvXvXxXuXuXxXiXcXuXxXxXxXuXcXvXuXxXbXvXvXvXuXxXxXvXuXuXuXvXvXMXuXuXMXMXMXvXMXMXMXmXmXmXMXMXnXmXnXmXMXmXMXmXkXMXMXnXMX",
"eX9XeX9XeXyX9XyXyXyXyXyX9XyXyXyXyXyXyXyXyXyXiXiXxXcXeXW.G.E.W.eXuXuXvXiXeX9X9XIX9X9X9XyXeXcXcXiXpXqXW.F.c.F.D.x.D.D.D.D.b.D.b.F.F.b.D.F.D.D.D.D.D.D.D.L.D.D.D.D.L.L.L.L.L.L.L.Y.L.L.L.L.L.Y.L.L.Y.L.L.Y.L.Y.R.Y.Y.L.Y.R.Y.L.Y.Y.Y.Y.Y.Y.IXY.IXY.Y.Y.7XY.Y.Y.IXY.Y.Y.Y.Y.7XY.4XY.7XIXY.Y.7XY.Y.4XY.Y.7X7X1XY.1XY.Y.7XY.7XY.Y.Y.1X;X;X;X;X;X3X;X;X3X;X;X;X;X;X;X;X-X;X;X;X;X8X;X8X8X;X8X;X;X;X8X;X1X4X1X1X8X8X8X1XIX9XZ.7.].].p.(.t.3.O.X.-.O.O.1.u.<.^.9.0.- z g A 3 3 g A A S F G o.@.O.@.@.O.@.&.-.@.-.&.$.@.$.@.@.+.@.$.+.$.+.*.*.<.%.&.$.<.<.%.<.$.$.o.! ! ! D O.x z o.S ~ C.l oX!.2.(.7.~ ~ o.~ D k z c x g x x S 5.5.~ ~ O.o.o.O.#.%.8.9.8.8.9.u.u.d.d.d.d.d.d.|.|.|.d.|.d.|.d.r.d.d.d.d.d.|.d.d.r.6.q.X.-.@.$.<.<.<.%.$.o.,.q.0.0.0.0.0.0.q.0.0.9.0.q.q.d.9.8.q.8.8.8.&.*.*.*.*.1.9.=.*.6.6.q.-.-.-.=.q.@.X.&.%.@.D D D D 5.S z x S S l z g 3 0 g q : 3 o 0 3 @ - ; - : q : : q  . .z  . .q q  .z q  .q  .q q q q q q 0 0 q 0 q 0 2 2 0 q q l E >.B.!.Q. X%XpXrXpXpX%XpXpXpXpXpXpXpXiXiXiXiXiXiXiXpXiXcXiXpXcXiXcXuXiXuXuXuXcXuXcXuXcXuXxXxXxXxXPXvXxXxXuXuXuXuXxXbXuXxXuXuXvXPXuXvXvXvXxXvXxXPXvXvXvXvXvXvXvXxXvXxXMXSXMXSXmXmXmXmXmXmXMXMXmXkXNXNXkXNXmXnXMXmXnX",
"eXeXeXeXeXeXyXyXyXyXyXyXyXyXyXyXyXyXcXpXyXcXxXxXxXiXyXW.E.E.Q.yXiXvXvXiXyX9X9X9XeXeX9XyXyXpXcXuXpX9X;XF.c.D.D.F.D.D.D.D.F.b.D.D.F.b.F.D.D.D.D.D.D.D.L.D.D.D.D.D.L.L.L.L.Y.L.Y.L.L.L.L.L.L.L.Y.L.L.Y.Y.Y.Y.Y.Y.Y.Y.Y.Y.Y.Y.Y.Y.Y.Y.L.Y.Y.7XIXY.Y.7X7XY.Y.Y.7X7XY.Y.Y.IX7XY.7XY.Y.Y.Y.Y.Y.Y.Y.Y.Y.Y.4XIXY.1X7XY.1XY.1X1X1X1XY.7XY.;X-X;X;X;X3X;X;X;X3X3X3X;X3X3X;X;X;X;X;X8X;X8X;X;X8X;X;X8X8X;X;X8X1X4X8X8X8X8XIXT.%X~.7.oX_.u.p.a...3.3.-.=.O.-.1.w.t.C.Q : z 3 j 3 j A A h k G ! +.o.O.@.@.O.@.&.&.@.$.-.@.$.&.@.@.+.$.$.O.@.%.$.@.@.$.$.$.@.&.$.$.#.o.! F x x x ! #.,.V.~ g z Z z ;.;.L z k C.2.~ o.~ ;.D z S z x S 5.~ #.~ ~ $.O.$.2.<.9.9.u.8.9.d.d.d.d.d.d.d.|.d.|.|.|.d.d.s.d.r.d.d.r.r.d.d.d.q.6.%.X.X.+.! o.O.#.#.#.#.O.@.o.^ +.+.+.*.q.0.0.q.%.0.d.0.%.0.<.1.<.<.1.*.&.X.@.@...X.8.q.@.=.*.q.-.-.@.@.@.@.@.+.....o.D S ~ ~ x Z Z Z z q 3 0 2 3 3 2 q - - q 3 - : q j - ; q q q q q q z  .q  .q q q q q q  .q q d q 0 q q 0 0 0 0 0 0 0 s l ( >.Z.!. XeXpX%XpXpXpX%XpXpXpXpXpXpXpXiXiXiXiXiXiXiXpXiXpXiXpXpXiXuXuXuXiXuXuXuXuXiXuXuXxXuXuXuXvXvXvXPXbXuXuXcXuXvXuXxXxXvXvXvXvXvXMXvXvXvXxXxXvXxXxXvXuXvXxXvXxXxXMXMXMXMXMXmXSXSXmXmXmXmXMXmXmXmXkXNXMXmXmXBXBXmX",
"eXeXyXeXeXyXyXyXyXiXyXiXpXpXcXyXyXcXpXiXxXxXxXvXMXiXyXW.G.E.IXeXuXvXvXuXyX9X9X9X9XqX9XyXcXpXiXcXcXqXW.F.S.D.D.x.D.D.D.D.D.D.D.D.D.D.D.D.D.D.D.L.L.D.D.L.L.D.L.L.D.L.~.L.L.L.L.L.Y.L.L.Y.L.Y.L.Y.Y.Y.L.Y.R.Y.Y.Y.IXY.Y.Y.L.Y.Y.Y.Y.IXY.Y.7XY.Y.Y.IXY.Y.Y.Y.IXY.Y.Y.Y.7XY.Y.IXY.Y.Y.Y.7XY.Y.Y.7XY.Y.Y.Y.7XY.1X1XY.1XY.Y.1XY.1XY.1X;X-X;X>X:X;X3X3X;X;X;X3X3X3X;X;X;X;X;X;X;X8X;X8X8X;X8X;X;X;X;X8X1X1X4X8X4X8X8X1XIX9X~.>.oX_.u./.(...-.*.&.1.-.O.<.C.9.C.g 4 z : 3 j A Q k k S +.! o.o.+.$.$.$.&.$.@.&.*.%.$.@.-.@.@.$.&.$.$.&.*.<.*.%.$.&.%.$.$.O.o.o.x S ! #.$.o.S S ~ D L q 3 ;  .L q ; 3 l z q C L ^ #.~ ;.O.#.x S z 5.~ O.O.O.$.$.%.<.8.0.9.9.u.d.d.d.d.d._.d.d.|.|.d.d.d.|.s.r.d.r.d.r.0.d.d.q.q.q.%.X.G F o.o.! 5.o.o.#.#.F A G F G F F ..G q.q.! F q.q.q.o.*.$.o.0.0.o.$.@.+.@.@.o.$.=.6.%.6.6.q.@.X.@.X.@.@.@.@.! D D D ~ S L x L z z q ; : ; : ; ; q - * 3 0 q q : ; @ q z z q z q 0  . .z q  .q q q q 0 f 0 q q d q q 0 0 q q 0 0 i q  .L } m.~.!.Q.%XIX%X%XeXpXpXpXiXiXiXiXpXiXiXuXuXiXbXiXiXcXiXiXpXpXpXiXuXuXbXuXuXuXuXuXcXiXcXuXPXvXvXvXvXvXvXxXPXvXxXvXxXPXvXvXxXvXvXvXvXvXMXvXvXuXvXxXvXxXuXxXvXMXuXvXMXvXMXvXSXMXmXMXCXmXmXMXMXMXkXkXmXmXmXMXNXmXmXmXmX",
"pXeX9XeXeXeXyXyXyXyXpXyXyXiXyXcXiXcXxXxXxXxXbXMXMXuXpXW.E.!.IXyXuXvXvXuXpXyXeX9X9XyXyXyXyXcXiXuXiXqXIXF.l.F.D.D.D.D.~.D.D.D.D.D.D.~.D.D.D.L.D.L.L.L.D.D.D.L.L.L.L.L.L.L.L.L.L.Y.R.L.L.L.Y.Y.L.R.L.Y.L.R.L.Y.Y.Y.L.Y.Y.Y.Y.L.Y.Y.Y.7XY.Y.Y.Y.Y.Y.Y.Y.IXY.Y.Y.7XIX7X7XY.Y.Y.Y.Y.Y.Y.Y.Y.Y.7XY.7XY.Y.4XY.IX7X7XY.1X1XY.Y.7X4XY.1XY.-X-X-X-X;X;X;X3X:X3X3X3X1X3X3X3X;X;X;X8X;X;X8X8X1X8X;X8X8X;X1X1X4X1X4X8X8X8X8XIXIXIXE.q..X`.a.+X2.3.<.1.&.&.=.O.<.<.9.0.x 4 k 3 3 j j A k S ! +.D o.o.@.@.@.-.&.$.-.*.*.=.%.-.-.@.@.-.%.%.%.%.6.<.6.q.*.*.*.&.o.D x S 5.o.#.#.#.;.Q g g l g 2 ; q f l q 0 q @ ; : - 3 z l ~ ~ 5.o.~ 3.Z x x D O.O.$.$.<.<.<.<.8.r.u.0.d.d.d.d.d.d.d.|.d.s.s.s.s.d.r.d.r.r.0.d.d.9.8.<.*.@.F D x z x c z x x L 5.A F F A x h x A c S +.+.G S F %.9.o.%.<...@.@.x D @.&.%...@.=.*.8.q.*.$.%.-.@...@.o.@...o.D D D D L S x x z q 3 3 : q 0 3 0 ; @ o * 2 q - o @ 3 3 z l q q q q  .q  .q q q q q q 0 f q q d q  .q q q 9 q 9 d q  .J E } m.E.!. X%X%XpXeXpXpXpXiXuXuXiXuXiXiXiXuXuXuXcXiXiXiXiXiXiXiXiXiXbXuXbXbXuXbXuXuXiXuXxXuXvXvXvXvXvXvXvXPXPXuXvXPXvXvXvXvXvXvXvXvXvXMXvXvXvXxXPXPXvXvXuXvXPXvXvXvXxXvXvXvXSXMXSXmXmXmXMXMXMXkXMXkXmXmXmXNXmXmXmXmXmX",
"9XeXeXeXeXyX9XyXyXyXyXyXyXyXyXyXiXiXxXxXbXvXSXvXMXcXpXQ.E.!.IXpXvXMXMXPXpXyX9X9X9XyXyXyXcXuXbXvXiXeXY.F.c.F.D.D.D.D.D.D.F.F.b.D.D.D.D.D.L.D.D.L.~.D.D.L.L.L.D.L.L.D.L.L.L.L.L.Y.Y.L.Y.Y.L.L.L.Y.Y.L.Y.L.Y.Y.L.Y.Y.Y.Y.Y.Y.Y.L.IXY.7XIXY.Y.Y.Y.Y.Y.7X7XY.Y.Y.7XY.Y.IXY.Y.Y.4X7XIXY.Y.Y.Y.Y.Y.Y.Y.Y.Y.Y.4X1XY.7XY.Y.1XY.Y.Y.1X1X1X-X-X-X-X;X<X:X;X:X;X:X3X;X3X;X3X;X;X;X;X;X8X8X;X;X8X8X1X1X8X1X8X1X8X1X8X4X8X8X8XIXIXE.7.OX'.(.i.O.*.4.p.*.3.2.&.O.,.9.u.x z x 3 j 3 A F A A S ! F o.o.@.$.@.@.&.*.*.*.*.*.*.&.%.@.@.*.*.*.*.-.q.@.%.*.%.&.$.O.D x x ! ~ ! ! x z z 3 ; q ; @ f f W ~ I } } ^ L * 0 0 - 3 z z ;.L D #.;.3.x o.x ..o.o.@.&.*.<.0.8.0.0.u.r.d.r.d.d.d.|.d.|.|.s.d.s.d.r.r.d.r.d.0.r.8.q.*.%.+.G x x L 5.~ o.^ ~ ;.~ ! ! F k S S A k k h h S F k k +.%.O.$.%.%.+.+.9.%.D x @.@.o.F -.<.*.*.*.&.%.@...+...D F D o.! S S S x L Z k l q 3 * 3 3 : q : ; ; q - o : L ~ 3 g L L z q q q q q q q q q q  .f q q q q q q q 0 q q i q q q q l L | UXV.E.Q.Q.eXeX%XpXpXpXiXiXiXuXiXiXiXpXiXiXiXiXuXuXcXiXiXcXpXiXcXuXuXPXuXkXuXuXuXuXcXuXbXvXvXvXvXMXvXvXvXvXxXbXvXvXxXvXvXvXvXvXvXMXbXMXvXvXvXuXPXvXvXvXvXvXvXxXvXvXvXvXvXvXMXMXMXMXmXmXmXMXMXmXMXmXmXmXmXmXNXBXmXBXmX",
"pXpXqXpXyXeXpXpXyXyXyXyXxXyXcXyXxXxXbXvXMXvXSXSXSXxXpXQ.E.W.IXiXPXvXMXvXcXyX9X9XyXyXyXcXiXxXvXbXbXqXIXF.l.b.D.F.D.D.D.F.b.D.b.D.D.D.D.D.D.L.D.L.D.D.D.D.D.L.L.L.L.L.L.L.L.L.Y.L.L.Y.Y.Y.Y.L.Y.L.L.Y.Y.L.Y.Y.Y.Y.L.L.Y.Y.Y.R.Y.Y.Y.Y.Y.Y.Y.Y.Y.Y.7XY.Y.Y.Y.IXY.Y.Y.Y.Y.Y.IXY.Y.Y.4XY.Y.Y.Y.4XY.Y.Y.Y.7XY.7X1XY.Y.Y.Y.Y.7XY.1X7XY.:X-X;X;X;X;X;X:X;X;X:X;X3X3X;X;X;X;X;X;X;X8X;X;X8X;X;X8X8X;X1X1X8X1X8X4X8X8X8X8X1XIX!.:..XOX(.1.O.t.a.(.t.&.2.&...&.<.C.k x l g j g F ! F Z S F ! o.@.+.$.@.@.$.&.&.-.*.*.*.*.-.*.%.*.6.6.*.q.-.&.*.=.*.$.@.o.D O.D D h c z 3 g - 3 / / w i L W W 9 f q K 7.I R  .^ E.L * q z z o.#.! $.o.5.x o.! ..o.O.$.&.<.<.8.0.r.r.r.r.d.d.d.d.|.s.s.s.d.r.r.r.r.r.0.d.r.d.6.q.<.*.$.@.X.F x S x z z c z 3 A S k A ! ! k 4 h h h S F S x A o.! #.#.#.D D o.0.%.x S F @.F D #.*.<.%.@.@.@.+.F G ..F D S D ! S S L S Z l z q 3 o ; * ; ; 3 q @ ; : ; : : z z z z Z L  .q q q q q q q q q q q q q q q q d q 0 q q q q q q  . .I ' 7.B.!.Q.%XeXeXpXpXpXiXiXiXiXuXiXiXpXpXpXpXpXiXuXuXuXcXuXiXiXuXuXbXuXvXuXvXuXbXvXuXuXPXxXvXvXvXMXMXMXvXvXxXxXvXvXvXvXvXvXvXMXvXvXvXMXvXvXvXvXxXxXvXvXvXvXvXvXxXMXvXMXvXvXvXvXvXMXMXMXmXMXmXmXmXMXNXMXNXmXmXmXmXNXNXmX",
"pXpXpXyXpXpXpXcXpXpXxXcXxXxXxXxXxXxXMXvXMXSXvXSXMXxXpXQ.E.W.9XiXPXMXMXvXpXyXyXeX9XyXyXcXcXvXvXvXbXpXY.~.F.F.D.b.D.D.F.F.b.F.F.b.D.D.D.D.D.D.D.D.L.D.D.D.L.Y.L.L.L.L.L.L.L.L.L.L.L.L.Y.R.Y.L.L.Y.Y.Y.Y.R.Y.Y.Y.Y.Y.Y.Y.Y.Y.Y.Y.Y.7XIXY.Y.Y.IXY.Y.IXY.Y.Y.Y.7XY.7XY.Y.Y.Y.7XY.Y.7XY.Y.Y.Y.Y.Y.7XY.Y.Y.Y.4X1XY.Y.1XY.7XY.7XIX1X4XY.:X;X;X;X3X:X;X;X;X-X;X;X;X;X3X3X;X;X;X;X;X;X;X;X1X;X8X8X1X8X1X1X4X8X8X1X1X8X8X8XIXIXIX;.oXOXt.3.3.y.(.u./.t.*.&.$.O.2.C.~ g z z A g A A S S ! F o.#.@.$.$.&.@.&.-.*.*.*.6.*.*.@.&.*.*.q.8.6.6.q.q.=.*.&.@.......D x D c : c : 3 E Z. XE f w s [ W X W m.#  .E Y E  . X!.~ z q O.;.#.O.&.2.x ..5.5.! ..o.O.&.*.*.6.q.0.0.r.r.d.d.d.d.d.d.|.s.d.r.r.r.r.f.r.q.q.r.<.0.<.*.%.+.o.G x z z c : 3 c z g k g g j A z ! h 3 4 g S S x k h 4 k F o.%...4 %.0.D x h F S x o.+.#.$.%.%.@.@...o.....D ! F D x Z D Z S z q 3 3 - ; 3 ; ; @ ; ; : : q : 3 c : z : x ~ 5.z q  . .q q  . .q  .d q q 0 q i i q d 0 0 9 9 d q q  .L ' 7.~.!.Q.eX%XeX%XpXpXpXpXiXiXuXuXiXiXiXpXiXiXuXiXiXuXuXuXiXiXuXuXuXuXuXuXuXuXuXuXvXvXxXPXvXxXvXMXMXvXMXvXxXvXuXvXxXuXxXvXvXMXMXvXMXMXSXvXvXvXuXxXvXvXMXMXvXvXvXMXvXvXvXxXvXSXMXvXMXSXmXDXmXmXMXmXmXmXMXmXmXmXmXmXmXmX",
"cXpXcXiXiXcXiXcXuXcXuXuXxXxXxXxXbXvXvXSXvXSXSXSXMXbXyXIXE.W.IXiXvXmXmXvXpXeX9X9XyXqXcXiXuXvXMXbXuXcXIXc.l.F.F.D.F.D.F.x.D.D.b.b.D.D.D.D.D.D.D.D.D.D.L.D.L.L.L.L.D.L.L.D.L.L.L.L.L.Y.L.Y.Y.L.Y.L.Y.R.Y.L.Y.Y.Y.Y.Y.Y.L.Y.L.Y.Y.Y.Y.4XY.Y.7XY.Y.Y.IXY.Y.Y.Y.Y.Y.7XY.Y.Y.Y.Y.IX7XY.Y.Y.Y.Y.Y.Y.Y.Y.Y.1X1XY.Y.7X1XY.Y.IXY.1XY.IX7X7X3X;X;X;X;X:X3X;X;X3X3X3X3X;X;X:X;X;X8X8X8X;X8X8X;X1X8X8X0X8X3X1X8X1X8X1X6X8X8X;X9XW.IX:.oX'.4.O.1.(.[././.t.2.1.<.O.O.,.Q k z g Z A F k F F S G F G G @.@.@.$.*.*.*.-.=.*.=.=.*.@.-.=.6.f.q.6.q.6.-.-.-.@.@.X...5.D k x c c S :.A.oX!.~  . . ._ I . K | X K ' E L W oX!.iXC.k ~ ^ Q O.3.O.3.o.........o.o.@.@.&.q.6.8.9.9.u.d.d.d.d.d.d.|.d.d.r.r.8.r.r.r.8.q.8.$.<.*.$.O.o.~ D x x q Z q z 3 z g : : z x k ~ L / S g 4 g 4 z k k k S h x S D S h ,.0.! h S F D g S O.%.$.$.#.o.o.o.o.o.D F Q ! Z S ~ Z z z q q : ; - ; : ; - - ; 3 ; g z c : c z x S L >.L q z z q q  .q q q q 0 0 q q q q q q 0 0 q 0 9 9 s K E } m.~.!.,X%XeXeXeXpXpXpXiXiXuXuXbXuXiXiXiXiXuXbXuXuXuXiXiXuXuXuXuXuXbXbXuXuXvXMXxXvXvXvXvXvXxXvXMXSXvXvXvXvXvXPXuXvXbXPXvXvXvXSXvXSXbXMXvXvXSXxXvXvXvXbXMXvXvXvXvXvXvXvXMXvXvXMXMXbXmXDXDXDXmXmXCXCXDXmXmXmXNXmXmXnXmX",
"pXiXiXiXiXiXuXuXxXuXxXxXxXxXvXvXxXxXSXSXvXMXbXSXMXvXpXQ.W.W.9XiXvXmXDXvXcXyXyXeXyXyXpXuXbXbXMXbXcXcXIXF.x.x.D.x.D.F.D.F.F.b.F.D.D.D.D.L.D.D.L.D.D.L.D.L.L.L.L.L.L.L.D.L.L.~.Y.L.L.L.Y.Y.L.L.L.L.L.Y.Y.Y.R.Y.Y.L.Y.Y.Y.Y.Y.Y.Y.IXY.Y.IXY.7XIXY.Y.7XY.7XIXY.Y.Y.IXIX7XIXY.Y.7X7XY.Y.Y.Y.Y.Y.7XY.Y.Y.Y.Y.1X1X1XY.Y.7X7X1X1X7XY.Y.4X;X;X;X3X;X3X;X:X;X;X;X:X;X3X;X;X;X;X;X;X8X;X;X;X8X8X8X8X8X8X8X8X8X8X8X8X0X8X6X8XqXW.IX>.Z.'.2.O.8./.{.+X`./.t.1.2.$.O.#.! h g z Z k j A Z k S ..o.+...@.@.$.-.*.*.*.-.*.*.=.*.*.*.*.*.6.6.6.6.6.6.*.*.=.-.@.X.5.x k c c z x ,.oXC.Z. X( f L L ( ( <     s W R (  .E eX%X X XC.x k 2.2.o.o.&.O.....o...o.o.@.@.@.*.q.6.8.r.r.y.d.d.d._.s.d.d.r.r.8.8.8.8.8.8.<.<.*.$.$.#.O.o.D D ~ x x D z x x q g z z q l 3 4 g u A A A k k x k S S S S F D S F D S #.$.D h F F @.S h ! $.+...+.o.G G ! Q F ! D x Z x Z L x z 3 0 : * ; : ; - - : - : c c z 5.x x ~ 5.;.3.;.g z q  .z q q q q f q 0 q q q d q 0 i i q q q 9 l L / { V.Z.Q.%X%XyXyXpXpXpXiXiXuXuXuXkXuXuXuXuXuXuXuXuXkXbXuXuXbXuXvXvXkXuXuXuXPXvXvXMXxXxXvXxXMXxXvXvXMXvXvXvXvXvXvXvXuXxXvXvXvXvXvXSXvXMXMXMXvXbXvXMXMXMXMXMXMXMXvXvXvXvXvXvXMXvXMXMXMXmXmXDXDXmXmXmXDXDXCXmXCXmXmXmXmXmX",
"iXbXcXuXuXbXuXuXxXxXxXbXxXvXvXvXvXvXMXxXvXvXSXvXSXvXiXIX!.W.eXpXMXSXDXMXuXyXyXyXpXpXpXcXuXbXMXMXuXcXT.F.~.x.x.x.D.F.D.F.F.D.D.D.D.D.D.D.D.L.D.D.R.D.L.L.L.L.L.L.L.L.D.L.L.L.L.L.L.Y.Y.Y.L.Y.L.Y.L.L.L.Y.Y.Y.Y.IXY.Y.Y.L.L.Y.Y.Y.Y.Y.7XY.Y.Y.Y.Y.Y.7X7XY.7XY.Y.7XY.7X7X7XIX7X7XIXY.Y.Y.7XY.Y.7XY.Y.Y.Y.7XY.1XY.7X7X7X7XY.Y.7XIX7X;X3X:X;X;X:X;X;X;X;X;X;X:X;X;X;X;X;X8X8X;X8X8X;X8X8X8X8X8X8X8X8X8X8X8X8X8X6X3X8X1XIX%XUX].'.&.&.t./.{.`.+X/.t.9.0.$.o.x Q z : z A ^ Z ! k ! +.! #.o.o.@.@.$.&.=.6.*.=.6.=.=.=.*.*.*.q.6.6.q.6.f.6.6.=.=.-.@...x c c c x 5.! 3.7.!.E.XXA.0  . .E [ ' K ' | >.} } C m. X%XoXoXoXC.k ! o.%.-.&.-.O.o.......O.@.@.@.X.@.q.6.0.r.r.d.d.d._.s.s.d.r.r.8.6.6.q.*.%.%.&.$.O.o.o.o.~ ~ 5.x L ~ L x Z S Z S L L z l z 3 q 4 j 4 4 z k Q S k k k h x S ! ! $.F S G G S k x G o.S h S @.#.o.! D ! D F Q D S Z x ~ Z x z q 3 : ; ; - ; ; : ; 3 : g x z ~ #.o.! 5.5.#.~ ;.q q q q  . .q  .q f 0 q q q q q d q q 0 0 q i i l I ' { B.E.Q.9XeXeXpXpXpXiXiXiXuXuXkXuXbXkXuXuXbXkXvXkXkXbXkXuXvXuXvXvXuXuXuXMXPXvXMXvXMXxXxXMXvXMXMXvXSXSXvXvXuXvXvXvXxXxXPXvXvXvXMXSXMXMXSXbXMXMXbXSXSXMXSXMXMXSXvXvXvXMXMXSXvXSXMXvXvXMXmXmXMXMXmXDXDXCXDXmXmXmXmXmXmXmX",
"uXuXuXvXvXvXvXvXvXvXvXPXbXvXSXvXvXvXbXvXvXvXvXvXSXvXiX9XW.Q.eXiXMXSXDXMXuXpXcXyXpXcXcXuXvXvXbXMXbXpXIXF.l.F.c.F.D.D.F.x.F.b.D.D.D.D.D.D.D.L.D.D.D.D.L.D.L.L.L.L.L.L.L.L.L.L.L.L.~.L.L.L.L.L.L.L.L.Y.L.Y.Y.Y.Y.Y.IXY.Y.Y.Y.Y.Y.Y.Y.Y.Y.Y.Y.Y.Y.Y.7XIXY.Y.IXY.Y.7XY.7XIXY.Y.Y.7XY.Y.Y.Y.Y.Y.Y.Y.Y.Y.7X1XY.1XY.Y.7XY.IX7X1XIX1X7X4X3X3X<X;X-X;X;X3X3X:X3X;X3X3X3X;X;X;X8X;X8X8X;X8X8X1X8X1X1X8X3X8X8X8X8X4X8X4X0X8XIXIXIX7.Z.`.O.1././.+X`.{.+X(.9.1.$.#.! x h h h F S A ! F +.^ F +...o.+.@.@.%.=.=.=.=.=.=.=.=.=.=.6.6.6.f.f.q.6.6.6.=.-.-.X.....O.5.x o.#.;.,.2.2.oXXX X~ q ~ W E P ' ' E I '  .B %XpX X@XoXC.`.(.o.x &.2.O.&.&.O.O.....X.O.@.@.@.-.*.6.8.r.r.r.d.d.d.d.s.d.r.f.6.6.*.=.*.%.@.@.O.o.D ! D D D ! D 5.z c z z z z z z k x l l ~ k A 3 - - : : z k h Z F S S ! ! S S ! o.S h c c x g F F k S S F ! D D ! S S D ! S S ~ ~ x l z q 3 0 3 ; ; * - ; 3 3 z z z 5.O.#.3.3.x ~ ! ~ ~ z q q q q q q q 0 q 0 0 0 q 0 0 0 0 0 f f 0 0 i  .E ' 7.~.!. XeXeXtXpXpXpXiXiXuXuXuXbXkXkXuXuXkXkXvXMXMXbXkXbXMXvXvXuXMXPXbXuXvXvXvXMXvXvXxXxXvXvXvXvXMXvXvXMXvXuXvXvXvXcXuXxXvXvXvXbXMXMXSXSXSXMXmXDXMXSXMXMXvXSXvXMXvXMXvXvXvXSXMXvXvXMXMXbXmXMXmXmXmXCXDXDXmXCXmXmXnXmXnX",
"uXbXuXvXvXvXbXMXvXvXMXvXMXvXvXvXvXvXvXvXvXvXvXSXDXSXiX9XW.Q.eXuXMXDXDXMXxXpXpXyXpXiXcXxXbXMXbXbXbXcXW.F.c.c.c.c.D.b.F.D.D.D.F.b.D.D.D.D.D.F.D.D.L.D.L.L.R.L.L.L.L.L.D.L.L.L.L.L.L.~.L.L.L.L.L.L.Y.L.L.R.Y.L.Y.Y.Y.Y.Y.Y.L.Y.Y.L.Y.Y.Y.Y.Y.IXIX7XY.IXY.Y.Y.Y.Y.IXIX7XY.IX7X7XY.Y.IX7XY.Y.Y.7XY.Y.Y.Y.Y.7XY.1X7X7XY.1X1X7X7X1X1XIX3X;X;X;X;X:X3X:X;X3X;X3X3X3X;X3X;X;X;X8X8X;X;X;X1X1X;X;X8X;X1X8X1X1X8X8X4X3X4X8X1XIXIX7.d.d.@.t.[.[.{.{.{./.(.9.2.,.2.,.! k Q x #.g k S #.F F +.o...+.@.@.X.@.=.*.=.*.=.=.=.=.6.=.6.e.e.8.6.q.6.6.6.-.X.-.X.X.X...D ..o.o.O.9.C.(.Z.Z.tXC.q l L / E K l } W L z B.@X$X%X$X$XC.].(.C.O.o.*.*.*.&.&.@.o.o.@.@.@.$.@.X.-.q.q.8.r.r.d.d._.d.d.u.r.8.q.*.*.%.&.$.o.o.o.! 5.~ 5.~ D S z c z o.~ ;.2.;.#.S >.:.~ Z l ~ ~ Z Z l 3 : g z k ! ! #.+.#.#.#.#.x S o.Q D x g k k S ! ! k h F ! D ! D S S D S 5.~ S l x z z 0 0 : ; ; - - : 3 g z z x ;.#.O.3.x c 5.D S ^ z q q q q q q q 0 0 2 0 ; 2 ; f 0 f f ; f ; 0 s K ( } m.B.Q.eXeXyXpXpXiXiXiXuXuXuXkXkXkXuXuXkXkXbXMXvXkXvXvXvXMXMXvXMXuXbXuXuXuXvXPXvXvXxXuXvXMXvXMXMXMXMXvXvXvXvXvXvXvXxXuXvXvXvXbXmXvXDXSXSXbXSXbXMXSXvXSXMXvXbXSXSXMXvXMXvXSXSXvXMXMXvXMXbXmXmXbXDXmXDXmXCXmXmXmXmXnXmXmX",
"vXkXMXbXMXMXMXMXvXvXbXMXbXSXvXvXvXvXxXvXvXvXMXDXDXvXuX9XW.IXeXuXmXLXFXMXxXiXcXpXcXcXiXxXMXbXmXmXvXcXIXF.c.F.F.x.F.F.F.b.F.b.D.b.F.b.F.b.D.D.D.F.L.D.D.L.L.L.D.L.L.L.L.L.L.L.L.L.L.Y.L.Y.Y.L.R.L.L.Y.Y.L.L.Y.L.L.L.Y.L.Y.Y.Y.Y.Y.Y.Y.Y.Y.Y.7XY.Y.7X7XY.7X7XIXY.Y.Y.7XY.Y.Y.Y.Y.Y.Y.7XY.Y.Y.Y.Y.Y.Y.1X4XY.1X1XY.IX1X1XY.1X7X7X7X7X;X3X;X:X;X;X;X;X3X;X;X3X3X8X8X;X;X8X8X;X8X;X;X8X;X;X;X;XY.8X8X1X8XIX1X8X8X3X3X8X4XIXIX7.~.0.@.u.{./.+X{.+X/./.t.9.2.].C.D k ~ k Z k %.Z ! ! #.+.o.+.$.$.+.X.@.=.=.=.=.=.=.=.8.f.6.6.8.e.e.e.6.6.*.*.-.-.-.X.X.3.5.5.O.&.3.,.(.2.(.>.C.(.oX;.z l L L l i E L L m.kX$X$XdX#X#XoX'.C.].9.@.O.*.t.1.4.2.@.$.$.$.&.*.q.6.-.6.6.8.0.u.d.d._._.d.d.r.8.6.-.@.@.$.O.o.o.o.o.! D D S x c x ~ #.2.;.O.o.~ ;.7.(.3 g C.V.Z.^ ~ ~ S x ~ o.#.! ! ! ! F S F #.+.F F #.#.o.! S S S k k F F S S x Q ! D S S ~ S L S S x L L z z 3 3 ; : - * ; q z : z ~ O.3.#.5.: x D ~ x ;.z 0  . .q 0 0 0 q f 2 ; ; f ; ; ; * f ; ; f 8 s I / { B.!.Q.eXeXpXpXiXiXiXuXvXuXMXbXkXbXkXkXuXMXkXkXuXbXuXuXkXvXvXMXvXuXuXuXuXvXvXuXuXxXxXvXvXvXMXvXvXvXxXvXvXMXvXvXvXvXxXvXvXvXMXMXMXSXSXSXDXMXSXMXMXSXSXMXSXDXSXMXSXMXSXMXvXvXvXMXbXMXbXMXmXmXmXDXMXDXCXmXmXmXmXmXmXnXmXmX",
"vXMXbXMXMXbXmXbXSXvXSXvXSXMXbXvXvXvXvXbXvXMXSXDXDXSXxX9XQ.Q.pXbXSXKXKXSXxXiXyXcXpXxXxXvXMXMXbXSXvXbXIXF.S.c.F.x.D.D.F.D.F.b.F.F.b.D.D.D.D.D.D.F.D.D.L.D.L.D.L.L.L.L.L.L.L.Y.Y.L.L.L.Y.L.Y.L.Y.L.Y.L.L.L.Y.L.L.Y.Y.Y.Y.Y.Y.L.Y.Y.IX7XY.Y.Y.Y.Y.Y.Y.Y.Y.IXY.Y.Y.Y.Y.Y.Y.7XY.7X7XY.Y.Y.4XY.Y.Y.7XY.Y.Y.Y.Y.Y.1X7X1XY.1XY.1X1XY.7X4X3X;X;X;X;X:X;X;X:X;X;X:X3X;X;X3X;X8X8X8X8X;X;X;X1X;X8X;X8X;X8X8X8X1X8X1X3X6X8X3X4XIXIX7.0.q.%.y._././.[./.^.(.9.2.C.].(.! z k x - G ,.S A +.%.G o.+.+.@.@.o.@.*.*.=.6.6.e.e.e.e.6.6.e.8.f.f.f.6.=.6.6.-.=.-.X.3.......O.O.3.2.O.~ 2.(.>.2. X>.' L l } 0 L L Z.fX%XgXfX$X#XfX&XoX}.^.].<.3.@.t././.9.*.&.&.&.%.*.6.*.6.q.q.8.r.r.u.]._._.s.d.9.6.*.-.@.@.O.o.o.o.o.! ~ D D x x x 3.;.3...3.$.#.~ ~ L ^ l L ~ ~ 7.~ l S L L ;.;.~ ^ ! ! o.S k h k F ! k h D F x k k g g h k h h S x S S D D D ~ x S ~ ~ L S z z q q q f 3 ; ; : q q c z 5.o.3.~ c c 5.5.~ ~ ~ q 3 q q q q q q 0 0 ; 0 f ; ; * * * f * ; f 9  .E ] M.Z.Q. XtXpXpXuXuXuXuXvXMXMXkXkXkXbXbXkXkXvXkXkXkXuXuXuXbXMXuXvXbXuXuXuXuXuXuXvXvXxXvXvXvXvXvXvXvXvXvXvXvXvXMXvXvXvXvXvXvXMXbXSXMXMXSXSXDXDXSXSXMXSXSXSXMXSXMXSXvXvXSXvXvXvXMXvXbXMXDXMXbXDXDXMXDXDXmXDXmXmXDXmXBXmXnXmX",
"MXMXmXMXMXmXDXmXMXSXSXSXSXMXSXvXvXvXvXSXvXbXSXDXDXSXuXeXQ.IXpXuXFXKXKXSXvXcXiXpXcXcXxXbXbXDXDXDXMXcX8XF.c.F.F.x.D.F.D.F.D.D.D.b.F.F.D.D.D.D.D.b.D.D.D.L.D.L.~.L.L.~.L.L.Y.L.L.L.L.Y.Y.Y.R.L.L.Y.L.Y.L.R.L.Y.Y.Y.L.L.Y.Y.Y.Y.Y.Y.Y.Y.Y.Y.Y.Y.Y.Y.Y.Y.Y.Y.Y.Y.Y.Y.Y.Y.Y.IXY.IXY.Y.Y.Y.Y.Y.Y.Y.Y.Y.1XY.Y.Y.Y.1XY.1XY.1X1X1XY.1XY.1X;X:X3X3X;X;X;X;X-X-X;X3X;X3X:X;X;X;X;X8X;X8X;X;X8X1X1X8X8X8X8X8X8X1X8X8X8X4X8X3X8XIXIX7.C.#.*.y./././.+X^.(./.t.(.(.'.`.o.h g Q A S g ! ^ +.G %.+.o.+.@.X.+.&.8.=.=.=.e.8.=.f.1.6.6.e.e.r.r.r.6.6.6.-.6.f.=.-.-...X.&.2.&.&.2.,.O.(.C.(.2.V.(.Z.C.7.Z.;.V.oXtX X#X#X%X$X$X].].].(.2.t.(._.1.&./.{.^.<.2.*.&.*.*.6.6.q.6.8.w.u.d.d._.|.[.s.u.8.*.*.-.@.@.$.O.o.o...D 5.! x z 5.;.#.#.7.;.;.^ ;.x : q z q : @ L q q 3 ~ ;.~ x g : ! #.#.^ ! %.#.! D F +.! h c x k k h h h h h S S S x S ! ! ~ ~ S ~ x x S ~ z q ; g 3 0 : ; ; ; 0 q z z z o.5.x c ..O.;.~ 2. .; q q q 0 q 0 q f 3 0 0 0 f ; & * * * * ; 0 p Y ' 7.B.!.Q.eXpXiXiXuXPXvXvXMXMXMXbXkXMXkXuXuXkXuXbXkXvXbXuXvXvXMXMXuXkXuXbXuXuXbXvXuXvXvXvXvXMXMXxXxXMXvXvXvXMXMXMXvXvXvXvXMXvXDXSXSXSXSXSXSXMXDXSXDXMXMXbXDXSXSXMXMXMXSXvXSXMXvXvXSXMXMXSXMXMXMXMXMXDXDXDXDXDXDXmXDXmXmXSXmX",
"MXMXmXmXDXmXDXDXDXmXDXDXDXDXmXMXSXvXSXvXSXDXKXKXKXDXiXeX,X%XyXPXKXKXKXKXbXvXiXxXcXxXbXvXMXSXDXDXvXiXIXD.~.D.D.D.D.D.F.D.D.D.D.D.L.D.D.D.D.D.D.D.D.D.L.D.L.L.D.L.L.L.D.L.L.Y.L.L.L.Y.L.Y.L.L.L.Y.Y.L.R.Y.L.L.Y.L.Y.R.Y.Y.Y.Y.Y.Y.Y.Y.Y.Y.L.Y.Y.Y.Y.Y.Y.Y.Y.Y.Y.1XY.Y.Y.Y.Y.Y.7XY.Y.Y.Y.Y.Y.Y.Y.Y.Y.Y.7XY.1X7XY.Y.1XY.Y.1XY.Y.1XY.;X:X-X;X;X-X-X-X;X;X;X;X;X;X3X3X3X;X;X8X4X8X8X8X1X3X3X8X0X0X0X0X0X0X0X0X8X8X8X8X4XIX9XV.,.+.1.+X{.)./.+X+X+X(.(.t.`.OX+XL S g z S k S #.F ,.+.#.o.o...$.@.@.=.*.f.f.f.f.f.f.f.f.f.f.f.f.f.r.f.r.6.6.6.8.r.q.6.q.&.3.@.&.*.2.&.3.2.].2.D 0.(.Z.0.C.2.Z.C.C.2.C.C.C.C.C.C.<.<.0.2.3.t.u.u.}.{.9.1.}.OXu.1.*.-.6.-.6.6.6.8.8.9.d.d.d._.|.|._.d.8.8.*.@.&.+.$.@.+.o.o.5.O.x x D <.<.! ,.;.;.o.~ z L z - q 3 0 L q f @ - l z * q 3 g L ~ ~ 5.;.#.#.~ #.O.o.#.#.o.S x k z z k k k z z k x ! Q S Q D S S Z x S Z z z q q 0 : 3 3 ; 3 g 3 z z c 3.5.c x 3.3.,.<.^ q 3 q 3 0 0 3 0 0 3 0 f f ; & * * . * * * 0 0 l E >.B.Z.Q.%XpXpXsXiXuXkXPXMXMXMXMXvXuXbXuXvXvXkXbXuXbXxXuXxXuXPXvXvXvXvXxXxXxXxXvXvXvXMXvXvXvXSXvXvXvXvXvXbXSXMXSXvXvXvXSXMXMXbXSXSXSXSXSXSXMXMXSXMXSXMXvXSXMXMXSXMXSXDXvXvXvXbXMXMXMXSXMXbXDXDXDXSXSXSXDXSXDXDXDXDXDXKXSXFXSX",
"mXmXDXmXmXmXDXDXDXDXCXDXDXDXmXMXSXvXbXSXDXKXKXKXKXKXxXeX9X9XyXMXKXKXKXKXvXuXcXcXxXxXvXMXSXDXDXDXMXuXIX~.l.D.F.D.D.D.F.F.D.D.D.D.D.D.D.D.D.D.D.D.D.L.D.L.D.D.L.L.L.L.D.L.L.Y.L.L.L.L.L.Y.Y.L.R.L.L.L.Y.L.L.Y.L.Y.Y.Y.IXY.Y.Y.Y.Y.Y.Y.Y.Y.Y.Y.Y.Y.Y.Y.Y.Y.Y.Y.Y.Y.1XY.1XY.Y.1XY.Y.1X1XY.Y.Y.Y.7XY.Y.1X1X1X1X1X1X1XY.1X1XY.7X1XY.1X:X;X-X-X-X-X;X:X>X;X;X;X8X:X3X;X;X3X:X3X8X8X4X4X1X3X8X3X0X0X0X0X0X0X0XqX9X8X8X8X8X8X9XV.>.O.e.p.{.+Xi.i./././.(.+X`.oX+X! z c z A S F #.! q.%.#.F o.o.$.@.@.8.=.f.f.f.f.f.f.f.f.r.f.s.f.r.s.r.r.f.6.8.6.f.6.6.6.=.@.-.3.&.*.-.2.4.C.$.2.C.(.9.0.C.2.#.`.OX>.`.C.].2.9.(.0.<.1.1.&.t.1.*.=.@.@.<._.OXi.w.6.*.6.6.8.6.6.8.8.9.d.d.d._.|._.d.d.0.8.%.@.*.@.$.O.O.o.! O.x x 2.&.o.<.O.5.x x g 3 ~ sX~  .K Z } } E ~ ( j ; ; f z q q z z ~ ~ ;.O.;.3.#.O.o.o.o.! S S x k k k k k k x x Q x Q S ! Q S ~ S S L l z q 3 3 3 0 ; q q q z : z  .5.5.c x 3.2.2.0.,.Q z 3 ; 0 3 2 2 0 ; f ; ; * * * * . . = * * f i K / 7.E.Q.Q.eXiXiXuXuXuXuXPXvXMXMXPXvXuXiXuXuXuXuXkXkXbXxXxXxXvXxXvXvXvXvXvXxXxXPXvXMXMXvXvXMXvXvXvXvXvXvXvXvXvXMXMXvXvXMXvXvXSXvXSXMXSXSXMXSXMXSXMXSXbXMXSXvXSXSXMXDXSXSXMXMXvXvXMXMXMXSXMXSXSXDXDXDXSXSXSXDXDXDXDXKXDXDXDXDXSX",
"DXDXFXFXFXDXDXKXFXFXFXFXDXDXmXmXSXSXSXDXKXKXKXJXKXKXvXeX,X9XpXMXKXJXKXKXbXvXcXuXxXvXbXSXSXDXKXKXmXbXIXD.b.F.b.D.R.D.D.D.D.D.D.D.D.D.D.D.D.D.D.D.D.L.L.D.L.D.D.L.D.L.L.L.L.Y.Y.L.L.L.Y.L.R.L.Y.L.Y.Y.R.Y.L.L.Y.L.Y.Y.L.Y.Y.Y.Y.Y.Y.Y.Y.Y.Y.L.Y.Y.Y.1XY.Y.Y.Y.Y.Y.1X7XY.Y.1X1XY.1XY.Y.Y.7XY.1X1X1X1XY.Y.1X1XY.1XY.Y.Y.1XY.4XY.4XY.;X;X;X;X;X-X-X-X:X;X:X;X;X3X3X;X3X;X3X8X6X8X8X;X3X;X3X8X3X0X8X3X0X0X0X0X0X0X8X8X8XIX9X7.;.+.w.i.[.)./.a.(.p.(.(.'.+XoXoXO.h : z k Z S %.! F ! %.G ..+.@.@.&.1.=.6.6.f.f.f.f.f.r.r.f.p.f.f.s.r.f.6.r.f.r.9.r.6.6.1.*.&.&.&.=.2.2.9.<.o.C.C.2.;.2.C.x ,.oXaX].;.C..X2.(.'.C.2.u.u.^.t.w.t.u.<.<.8.u.|./.u.e.*.6.6.6.6.8.8.8.9.d.d.|.|.|.|._.d.9.8.$.@.*.$.@.o.o.o.o.x #.2.(.9.o.o.o.o.x z ^ V. XZ.l l L ( E q f f L ' L 0 f - q z q z z x o.~ #.;.$.,.3.;.o.O.o.o.! ! S Q L x x ~ x S S S Q S x Q S S S S k z q 0 0 f : 0 q g g q q z x 5.c c O.2.2.9.1.#.S z q ; 2 2 ; 0 ; ; * * * * * * + . . o * ; 0 l ~ { B.!.Q.%XpXiXuXPXuXuXuXPXvXvXxXvXuXiXiXuXiXuXbXbXkXuXMXxXuXvXxXvXvXvXvXbXxXxXxXMXMXMXMXvXvXvXvXvXvXvXvXvXMXMXMXSXSXvXvXSXbXSXSXMXMXbXSXSXMXSXSXSXMXMXbXmXDXMXbXSXSXSXvXSXvXvXSXMXbXDXbXMXSXDXDXSXSXSXSXSXDXDXDXKXDXDXDXFXSXSX",
"DXDXKXKXKXKXHXKXKXFXKXFXFXDXDXDXSXSXKXKXKXKXJXKXJXKXvXeX,X9XiXMXKXJXKXKXSXvXuXcXvXbXvXSXDXDXKXKXCXvXIX~.~.b.F.L.D.D.D.D.D.D.D.D.~.D.D.D.D.D.D.D.~.L.L.L.D.L.D.L.L.D.L.L.Y.Y.L.L.~.L.Y.Y.Y.Y.L.Y.L.Y.Y.L.R.Y.L.L.Y.Y.Y.Y.Y.IXY.Y.Y.Y.Y.IXY.Y.Y.Y.Y.Y.Y.IXY.Y.Y.Y.Y.1X7XY.1XY.1XY.1X7XY.Y.1XY.Y.1X1X7X1XY.Y.1XY.7XY.7X1X4XY.1X4XY.:X;X;X:X;X;X:X-X;X;X;X3X;X3X;X3X:X3X;X3X8X6X3X;X;X3X3X3X1X3X3X3X8X8X6X0X8X,X8X8X1XIX9Xm.^ $.t.p.[.+X/.(.i.(./.+X'.OX+X`.#.z g g A ~ S ! ! %.,.F G ..@.@.@.$.=.*.X.f.f.f.f.r.r.r.r.r.p.p.r.r.r.r.f.f.r.r.r.y.y.r.e.1.2.*.&.2.&.1.(.1.,.(.(.2.2.,.(.O.o.9.(.].2.2.].`.C.1.`.t.3.p.^.w.a.{.OX}./.t.u.`._.u.f.q.q.6.8.8.8.8.8.r.d.).|.|.|.|._.d.9.8.&.@.%.@.@.@.@.@.O.x ^.'.<.<.%.o.~ x D C.fX X%XC.L (  .~ 0 ' } . 0 ' E i l 0 l f : Z ~ ~ Z Z D ..~ o.~ o.! x Q D x ~ x x Z x x S x l k Q S S S S S x ~ S Z q g 3 3 3 3 : : q q q z z z z c 5.3.2.1.9.2.;.Z q 3 q 0 2 2 ; ; * * * * + o . . . + * * 0 i L ' >.E. X XeXtXsXuXkXkXiXuXuXuXuXuXuXuXiXiXcXuXuXuXuXuXuXxXxXuXcXuXxXvXbXvXvXxXxXxXvXMXbXMXMXvXvXvXvXSXvXMXvXSXvXSXvXSXvXMXMXMXMXvXSXMXSXMXSXDXbXDXbXSXMXMXMXbXMXMXMXSXSXSXvXSXMXvXSXmXmXSXSXDXSXSXSXSXSXSXDXDXDXDXDXDXKXKXSXSXFX",
"KXKXHXKXKXKXJXKXHXJXKXKXHXKXKXDXDXKXKXKXJXJXJXJXJXJXMXeX%XeXiXSXJXJXKXKXSXvXxXbXvXbXbXSXSXKXKXKXDXMXqX~.l.D.F.D.D.D.F.D.D.D.D.D.D.D.D.D.D.D.D.D.L.D.L.D.L.L.L.L.L.L.L.L.Y.L.L.L.~.Y.R.Y.Y.R.Y.L.Y.Y.L.L.L.L.L.L.L.Y.Y.Y.Y.Y.Y.Y.Y.Y.Y.Y.Y.Y.Y.Y.Y.Y.Y.7X1XY.Y.Y.1X1XY.Y.Y.1XY.1X1XY.1X7XY.7XY.1XY.1X1XY.Y.Y.Y.1XY.Y.4X1XIX1X1X7X3X;X;X;X:X;X;X;X;X;X3X;X3X;X3X3X8X;X3X3X3X8X:X3X3X;X3X3X:X3X3X8X1X3X8X8XIX1X8X8X8X9X9XV./ $.u.[.[.+X/.+X+Xp.+X`.+X`.+XC.! g : g S Z h #.#.+.o.o.o.o.+.@.@.&.*.*.f.6.f.f.f.r.r.r.f.p.p.r.f.p.r.p.r.0.r.0.y.d.r.u.8.8.8.*.*.&.*.1.9.9.9.^.9.9.t.0.(.0.D 9.(.9.].<.C.9.1.2.1.2.*.*.1.=.t._.}.OX{.{._._._.d.w.6.6.6.8.8.8.r.r.u.s._.|.OXOX|.`.].9.8.*.@.-.@.@.@.@.@.5.^.aXOX0.%.*.$.$.C.`.oXXXoXtXV.L E l | f  .E o * W  . . .f L E ; z Z ~ L Z x x ~ o.o.o.O.! ! ! o.! ~ x S S S x S x x S Q Q x Q S S ~ S z g 3 3 3 3 ; ; : 3 g g g x x c c 3.,.2.4.9.<.~ z 3 : q 0 2 2 ; * * * * + . * o . o * * 0 q l E } V.!. X XeXpXiXgXPXPXiXiXxXuXxXiXiXiXcXuXiXuXuXuXbXuXuXvXxXuXcXbXvXvXbXvXbXvXvXbXMXMXMXMXvXvXvXvXSXvXvXMXMXSXvXbXSXvXvXMXMXbXvXSXSXMXSXDXMXSXSXSXMXSXMXSXvXSXvXMXMXMXSXMXvXSXMXMXMXDXDXSXSXDXSXSXSXSXbXDXKXKXKXFXDXDXDXFXFXFXDX",
"KXHXJXKXJXJXJXJXKXKXJXJXJXKXKXKXKXKXKXKXJXKXJXKXJXKXMXeX,XtXxXSXJXJXJXKXDXvXvXvXvXSXSXSXDXKXKXKXDXbXqXF.F.D.F.D.F.D.F.D.D.D.D.D.D.D.D.D.D.L.D.D.D.L.D.L.L.L.L.L.L.L.Y.L.L.Y.Y.L.L.L.Y.Y.Y.L.Y.R.R.L.L.L.Y.L.L.L.Y.Y.Y.Y.IXY.Y.Y.IXY.Y.Y.7X7XY.Y.Y.IXY.Y.Y.Y.IX7XY.Y.Y.Y.Y.1X7XY.1X1X1X1X1X1XY.Y.Y.Y.Y.Y.Y.7X1XY.1X1XY.1X4X7X4XY.;X:X;X3X1X;X:X:X2X<X;X;X;X3X;X3X;X3X3X;X;X8X3X;X;X3X3X3X8X3X3X;X1X3X3X8X8X8X8X8X8X8XqXN.Q #.u./.+X+X/.+X+X(./.{.`.].(.(.o.z : h : A F ! ! ^ o.! o.G @.$.$.*.<.=.6.6.f.f.r.f.r.p.r.s.p.p.p.r.p.f.r.r.r.r.r.r.u.r.r.8.w.8.1.<.<.<.1.1.9.t.(.0.^.t.u.1.*.^.^.(.9.2.t.(.t.<.1.1.4.1.1.4.a././.{.OX{.`.].d.d.9.8.8.8.r.8.8.8.9.d._._.|.OX&X|.'._.u.8.*.@.*.@.@.@.@.@.<.'.^.<.$.o.+.^.].oXoXoXaX@XgX!.N L ' UXK X   . l E q 9 q  .>.^ l : - z S S z Z S D ~ o.~ o.o.! o.~ x x x x x x ! Q Q ! D S D S S S S ~ Z z q 3 3 0 3 : : 3 q g z z 5.c S 3.3.(.(.C.<.S 3 3 2 ; 2 0 0 ; * * o * * . . . = * * f 0 p L ' m.~.!.Q.eXeXiXiXuXPXPXxXuXiXiXiXuXiXiXiXuXuXbXuXMXuXuXbXxXxXuXxXbXSXSXMXSXvXMXvXMXbXSXSXvXSXvXSXSXvXSXvXSXSXvXSXSXMXvXSXMXMXSXSXMXbXSXMXSXSXSXSXSXDXSXMXMXSXvXSXvXMXMXMXMXSXMXSXmXMXDXbXDXDXDXDXSXSXSXSXSXSXKXDXDXDXSXSXDXFXSXFX",
"JXJXJXJXJXJXJXJXJXJXJXJXJXJXJXJXKXKXJXJXJXJXJXJXJXJXSXeX,XtXxXFXJXKXJXKXDXbXvXbXSXSXbXDXKXKXKXKXDXMX%XD.F.F.D.D.F.D.F.D.F.x.D.x.D.D.D.D.D.D.D.L.L.L.L.L.L.L.L.L.L.Y.L.Y.Y.Y.Y.Y.Y.Y.Y.L.Y.L.L.Y.L.Y.L.L.R.Y.Y.L.L.Y.Y.Y.Y.Y.Y.Y.Y.Y.Y.Y.Y.IXIXY.Y.7XY.7X7X1XY.1X1XY.Y.7XY.1X1XY.1X4X1X1X7X7XY.1X1XY.7XY.1X1XY.Y.1X7XY.1X4X7XY.1X;X3X;X3X3X;X;X3X;X3X;X3X3X;X3X;X3X3X;X;X3X3X3X3X3X;X3X3X3X3X8X3X3X3X8X8X8X8X8X8X1XIX9XV.Q +.t.i.s.p.+X+Xp.(./.+X`.+X].C.o.! : h k k S ! ,.%.! +.D D ..@.-.=.=.=.6.f.f.f.f.r.f.p.f.s.r.s.p.f.s.r.d.r.r.r.d.r.u.r.u.9.u.t.9.8.8.8.8.0.8.u.u.0.t.^./.9.2.^.^.t.t.u.(.t.t.t.&.4.a.1.1.8.1.u./.`._./.}.d.u.p.8.8.8.6.6.w.8.r.8.d._.`.}.&X&XOX|.].9.9.*.@.-.@.*.-.*.-.].`.0.8.u.9.,.`.'.`..XXXjXXXXXoXK K / ( E E K  . .] E  .f L E.7.:.L - - 3 Z x l S S ~ ~ O.! #.#.o.o.! ~ ! ! ! ! ! ! ! S D S S Q D S S L Z z g q 3 q 3 : 3 3 g q z z x c O.2.3.(.^.0.#.k 4 2 2 ; f ; f * * * = o o . o * * ; f 0 q l E } m.Z.!.%XeXpXiXuXuXuXPXgXiXiXiXxXxXiXiXiXbXiXuXvXvXkXuXuXbXxXvXbXDXbXbXDXDXDXDXSXDXDXDXbXMXMXbXvXvXvXSXvXbXSXSXvXSXMXSXvXbXDXDXbXSXMXMXSXSXSXMXMXbXSXMXSXMXMXSXvXMXbXMXMXbXSXMXSXMXMXmXbXSXDXDXDXSXMXSXDXSXKXKXKXFXSXDXFXFXSXSXLX",
"JXJXJXJXJXJXJXJXJXJXJXJXJXJXJXJXJXJXJXJXJXJXJXJXJXJXnXyX9XyXPXFXKXJXJXKXDXSXvXbXbXSXSXKXKXKXJXJXKXCXqX~.l.F.F.D.D.D.F.D.F.x.D.F.K.L.D.D.D.D.D.D.L.L.Y.L.L.L.L.L.L.L.Y.L.L.Y.Y.Y.L.Y.Y.Y.R.Y.L.R.Y.L.Y.Y.L.Y.L.Y.L.Y.Y.IXY.Y.Y.Y.IXY.Y.4XY.7X7XY.Y.Y.Y.IXY.7XIX7XY.Y.Y.1XY.4X1X4XY.1X1X1XIXY.4XY.Y.1X1X1X1X1X1X4XY.4X1X1X7XIXY.4X3X;X3X;X;X3X;X3X3X;X3X;X;X3X:X3X;X:X;X;X;X;X3X;X8X3X3X8X3X8X3X3X1X1X8X8X8X8X8X8X4X8X9X~.L +.9.y.p.+Xa.a.a.(.p.(.].+X(.0.! 2.c h h A Q S #.#.! o.D D ..@.$.q.*.*.q.q.f.f.r.f.p.r.p.s.r.r.s.f.s.p.r.r.r.u.r.u.d.d.y.9.u.t.t.t.8.9.8.8.1.8.t.8.9.t.u.1.1.u.i.(.(.p.8.y.t.1.a.2.-.2.w.4.1.1.u.i.^.].}.d.u.d.r.8.6.8.w.6.9.8.r.d.].|.}.OX&XOX`.d.u.r.*.@.-.X.-.=.6.6.t.^.&.o.^.OX0.(.`.C.].`.rXtXsXgX>.l R ' I } _ E ~ (  .E q ~  XZ.7.7.~ q - c z z z x O.o.#.o.o.o.! o.o.o.! ! x ! S x ! S S S ! D ~ D ~ S Z g q 3 g 3 3 q 3 : 3 c : c z x 3.;.4.(.].,.Q g 3 ; ; 2 ; * ; * * o o o o X . * * f 0 q s K / { V.~.Q. XtXpXuXuXuXiXiXiXxXiXiXuXiXiXuXiXiXuXuXuXMXbXvXuXuXvXvXvXbXDXDXDXDXDXDXbXbXSXDXSXvXMXSXMXSXSXMXSXSXvXvXMXbXMXMXSXMXSXSXSXMXDXSXSXbXDXbXMXMXMXMXbXvXvXMXMXMXMXMXmXMXMXSXMXCXbXMXmXMXSXDXDXSXSXSXDXSXFXKXKXDXDXSXFXSXFXKXSX",
"JXJXJXJXJXJXJXJXJXJXJXJXJXJXJXJXJXJXJXJXJXJXJXJXKXJXLXyX%XpXuXKXJXJXJXJXKXvXMXSXbXSXDXKXKXJXJXKXKXDXcXS.l.c.F.c.F.x.F.x.c.F.x.x.D.D.b.D.D.D.D.D.D.L.L.L.L.L.L.L.L.L.L.L.L.Y.Y.Y.Y.Y.L.Y.Y.R.L.Y.L.Y.~.L.Y.Y.Y.Y.Y.L.Y.IXY.Y.Y.Y.Y.Y.Y.Y.Y.7XY.Y.Y.1X1XY.1XY.7XY.7X1XY.Y.1X1X1X4X1X1X7XY.1X1X1X1X4X7X4X7X1X1X1X7XIX7X7X4X7X4XY.4X3X;X;X;X;X3X;X;X;X:X;X3X3X;X3X;X;X3X;X3X;X8X;X3X3X;X8X3X8X3X4X3X3X3X4X8X8X8X8X8X8XIXqXZ./ ^ <.9.t.a.(.4.2.t.u.(.(.].].0.$.o.4 x j k S #.#.! o.#.F G +.@.X.-.-.*.f.f.r.f.f.f.r.r.p.p.p.p.p.r.p.f.d.r.r.r.r.d.d.r.d.d.r.d.u.u.r.9.9.9.w.8.8.9.8.8.r.8.8.8.w.t.t.t.1.w.4.1.1.=.=.=.4.t.t.t.t.9.t./.s.u.r.u.r.8.6.f.6.6.w.r.d.d.d.|.OXOXOXOX}._.u.9.6.-.@.-.-.=.e.8._.8.&.*.*.-.&.$.o.O.,.2.C.oXXXdXsXL l R L W  . .L L ( q  .Z.Z.Z.oX7.;.c : g z z z c 5.~ #.! o.o.o.o.! o.! ! D D ! D ! ! D D x Q ~ D L L z z q z 3 q q q 3 g g g c c x x D 2.2.].C.2.x 2 q ; 0 ; * ; * * o . o = o + o ; ; 0 0 i  .W } 7.V.!.Q.IXpXpXsXuXuXiXuXuXiXiXiXiXiXiXiXiXxXuXvXvXMXvXvXvXvXvXMXbXDXDXDXDXDXDXDXDXbXDXMXMXvXSXSXvXMXMXvXSXMXMXvXvXvXvXMXMXSXMXSXSXSXbXSXSXDXMXMXvXMXmXbXMXMXvXMXMXMXMXMXMXmXMXmXmXmXbXmXmXSXLXDXDXDXDXLXDXSXSXFXFXSXFXSXSXSXSXSXFX",
"JXJXJXJXJXJXJXJXJXJXJXJXJXJXJXJXJXJXJXJXJXJXJXJXJXJXFXpXeXyXuXKXJXJXJXJXKXSXvXbXDXDXKXKXJXKXJXHXKXDXiXF.F.x.F.F.F.x.F.x.F.x.F.x.D.D.D.D.D.K.L.K.L.K.L.L.L.L.K.D.D.L.L.L.L.Y.L.Y.L.Y.Y.Y.L.Y.L.Y.Y.Y.L.Y.Y.Y.Y.Y.L.Y.Y.Y.Y.IXY.Y.Y.Y.Y.Y.Y.IXY.4X1XY.1X1X7XIXIXY.1XY.Y.1X1X1X1X7X1X1XY.1X1XY.Y.4X1XIXY.1X1X1X1X4X1X4XIXY.1XY.1XY.3X;X;X:X;X3X3X;X;X;X;X;X3X3X;X;X:X;X;X;X3X:X3X3X3X3X3X3X3X8X8X4X8X4X1X8X8X8X8X8X8X1X9X~./ %.@.8.t.p.+Xp.t.t.1.2.(.9.(.t.o.#.o.g k Q S #.F %.D G F o.+.@.*.q.6.6.q.f.f.f.f.f.f.r.f.p.r.p.r.p.s.f.d.d.d.r.r.r.d.d.r.d.d.r.u.u.u.u.u.u.u.r.r.8.r.8.9.w.e.9.t.t.1.1.e.1.1.=.=.1.4.1.1.1.9.1.9.t.^._.d.d.9.y.r.e.8.f.q.6.6.r.r.d.d._.}.}.OX}.`._.d.8.*.-.@.-.&.8.e.w.8.8.t./.]./.u.1.t.O.,.,.2.(.0.C.Z.Z.L C ~ L l l L L  .z  XXX XC.C.,.;.~ z : : c z z x ! o.o.o.o.O.#.O.+.o.o.o.! ! ! S ! ! Q D ! S S D S x z z z q g : : z z z c x c x x o.2.(.(.2.,.z : 3 ; f ; f * + . . o o o o * * f 0 0 i i K ~ [ m.~.!.%X%XpXpXiXuXuXuXiXiXpXpXpXiXuXuXxXxXvXMXvXvXbXMXMXuXvXbXMXbXDXDXDXDXDXDXDXbXbXbXSXbXMXMXvXMXSXMXSXSXMXMXMXvXMXvXvXvXvXSXMXSXMXSXMXSXMXvXvXvXbXMXMXMXMXvXMXbXMXMXMXMXbXMXMXmXmXDXmXMXMXSXDXFXDXSXFXFXFXFXFXFXFXFXSXSXSXSXSXSX",
"JXJXJXJXJXJXJXJXJXJXJXJXJXJXJXJXJXJXJXJXJXJXJXJXJXJXFXiXeXpXuXKXJXJXJXJXKXDXvXSXDXDXKXKXJXJXJXJXKXDXcXF.l.F.F.x.D.F.F.F.x.c.F.x.D.D.D.D.D.D.D.D.D.K.K.K.D.L.D.D.D.L.L.L.L.Y.R.L.L.Y.Y.L.Y.L.Y.R.Y.L.L.L.Y.Y.Y.Y.Y.Y.Y.Y.Y.Y.Y.Y.Y.Y.Y.Y.Y.Y.Y.IXY.1X1X1X1X1XY.1X1XY.1XY.Y.4X1X1X1X1X1XY.Y.1X1XY.Y.1X1X1XY.7X7X1X1X4XY.1XIXY.1X4X3X;X;X:X:X;X3X3X;X:X:X8X;X3X3X;X3X3X;X3X;X;X3X8X6X8X3X3X8X4X8X8X4X4X8X8X8X0X0X0X8X8XqX!.^ 7...&.4.a././.t.4.1.1.1.<.0.C.$.#.0.c h S F ~ S ,.F ! ..o.o.@.-.q.6.q.f.f.f.f.f.r.r.d.f.p.f.p.p.p.p.p.r.d.d.0.d.d.d.d.u.d.u.u.d.d.d.u.d.d.d.u.u.u.u.9.t.t.t.t.t.t.1.1.t.1.1.1.1.0.9.t.9.t.u.(.t.^.i.u.u.r.u.y.r.8.f.f.6.6.r.r.p.d._.|.}.}.}.{.`./.u.9.*.X.@.-.*.6.w.8.y.d._.[.|.{.+Xu.t.2.4.C.2.,.,.C.:.C.:.;.B.~ 3 l q l ~ Z.!.Z.C.C.2.>.;.#.~ q : c c z x D ! O.O.O.O.O.o.+.o.o.! D o.D D ! ! D D Q S D ~ S L z z z z z 3 c g z g : x c h x O.2.C.(.C.o.g 3 1 ; 6 * * * * o . o . = * * ; 0 3 0 q l K | { V.E.!.Q.eXpXiXuXuXiXiXiXiXpXpXiXiXuXuXxXxXvXMXMXMXbXmXMXuXvXvXMXMXbXDXDXDXDXDXDXDXDXDXMXMXbXMXbXSXbXSXSXMXSXMXvXvXvXvXMXvXSXvXSXMXMXbXmXMXMXbXvXvXvXvXMXMXMXMXvXMXMXMXMXbXMXMXMXmXmXmXmXmXMXmXLXDXFXFXFXFXSXFXDXFXLXLXLXSXSXFXFXFX",
"JXJXJXJXJXJXJXJXJXJXJXJXJXJXJXJXJXJXJXJXJXJXJXJXJXJXKXuXeXpXMXJXJXJXJXJXKXDXDXDXDXKXKXKXJXJXJXJXKXKXcXF.F.F.D.D.D.x.F.x.F.x.F.x.D.D.D.D.D.D.K.D.D.L.K.K.K.K.L.L.D.L.L.L.Y.L.Y.L.Y.L.L.Y.R.L.Y.L.L.Y.Y.Y.L.Y.Y.L.Y.Y.Y.Y.Y.Y.Y.Y.Y.Y.Y.Y.Y.Y.Y.7X1XY.1X1X1X1X1X1X1X1X7X1X1X1X1XY.1XY.7X1X7XY.Y.4XY.7X7X7XIXY.IXY.Y.7X1X1X7X4X1XY.3X3X;X;X1X3X;X;X;X3X;X;X3X;X3X:X3X;X3X;X8X3X3X3X8X3X8X;X3X8X6X8X1X8X8X8X8X8X0X8X4X8XIXIX} q.+.X.=.4.(.u.4.t.t.1.2.<.%.2.<.+.<.S h k Z F #.#.G #.o...o.X.-.*.*.=.f.f.f.f.r.r.r.r.p.p.s.p.p.p.p.p.d.d.r.d.r.d.d.r.d.d.u.d.d.).d.d.d._.d._.d.d.d.d.9.9.u.t.t.t.t.9.w.t.9.t.t.(.t.t.^.].^./.^.^.^.9.u.u.p.r.w.6.f.f.6.f.r.r.p.d._.|.}.}.}.{._.).u.8.q.-.X.-.*.8.0.6._.`.|.)./.(.(.t.2.OX+X+XoX$.2.].<.#.>.].2.C.Z.V.2.7.(.C.2.C.2.C.>.2.#.! 5.z z : : g x x ! O.+.o.@.#.@.+.$.O.o.o.! D D D D ! Q D ~ L 5.~ x l z l z z q c : : g g x h x o.3.2.(.(.2.L 3 2 ; ; ; * * . . . o . * o * & f 0 q q l  .I _ >.V.Z.Q.eXeXeXiXiXiXiXpXyXpXpXpXpXxXxXPXMXMXSXmXMXMXmXMXMXvXvXvXbXvXDXDXDXDXDXDXDXDXMXbXbXSXvXMXMXMXvXSXMXSXbXvXbXMXvXvXSXvXDXbXSXMXvXvXvXvXSXMXvXvXvXMXbXMXmXMXMXMXMXMXMXmXMXMXMXbXmXMXmXbXMXmXFXKXKXDXFXFXFXFXSXFXLXKXLXBXFXFXFXFX",
"JXJXJXJXJXJXJXJXJXJXJXJXJXJXJXJXJXJXJXJXJXJXJXJXJXKXHXMXpXiXnXJXJXHXJXJXKXKXDXDXKXKXKXKXJXJXJXJXKXDXbX~.7.D.D.D.F.x.F.F.F.x.x.F.K.D.K.D.D.D.D.D.D.K.K.K.L.D.D.L.D.L.L.L.L.Y.L.Y.L.Y.Y.L.Y.L.Y.R.Y.L.Y.Y.Y.L.Y.Y.Y.Y.Y.Y.Y.Y.Y.Y.Y.Y.Y.L.Y.Y.Y.L.IXY.Y.1XY.1X1XY.1X1XY.1X1X7XY.Y.7XY.Y.Y.Y.7XY.1X1XY.1XY.1XY.7XY.1XY.7X1X7X1X1XY.;X;X;X;X;X3X3X;X3X;X3X;X;X3X;X;X:X;X3X;X:X3X8X3X3X3X;X8X3X3X3X3X1X3X8X8X8X8X8X3X1X8XIX%X} 7.0.O.&.1.a.4.*.1.t.t.1.9.<.o.O.$.,.! h A k F #.! o.o.o.o.+.X.q.6.*.*.f.f.f.f.r.r.r.r.p.p.p.p.p.p.p.p.r.d.p.r.d.s.d.p.d.d.y.d.d.s.d.u./.].]._._.].]._.u.u.u.9.^.u.^.^.t.^.^.(.(.^.^.^.].].]./.^.].]./.u.i.y.r.f.f.=.f.=.e.e.y.p.s.s._.{.|.}.{.).d.d.8.6.-.X.@.*.6.8.6.d.^.u.u.y.9.2.4.t.2.t.{.2.^.jX<.C.C.Z.,.C.'.>.0.C.V.C.;.2.(.C.D O.2.;.5.L x x g x c x D o.o.O.@.@.$.$.$.$.$.O.+.o.o.! D ! ! D D ~ S S L Z z z z z g g g g g z x D x O.&.$.2.`.(.,.z : 2 ; % ; . . + . o + # # * ; ; ; 0 q l  .L L ' >.B.E.Q.%XeXeXiXiXiXiXpXpXiXiXxXuXxXPXMXMXMXSXSXSXSXmXMXMXvXPXbXvXvXbXDXDXKXKXDXDXbXvXSXSXvXSXSXvXSXSXvXMXbXvXvXvXvXvXvXSXvXSXSXbXMXMXvXvXMXvXvXvXvXvXMXMXmXmXMXMXMXMXMXMXMXMXmXmXmXbXmXmXMXSXSXFXFXFXSXLXLXSXFXFXFXFXFXKXKXGXGXKXKX",
"JXJXJXJXJXJXJXJXJXJXJXJXJXJXJXJXJXJXJXJXJXJXJXJXJXHXJXmXpXiXmXJXJXJXJXJXKXKXKXKXKXKXKXJXJXJXJXJXKXmXuXF.x.D.D.D.F.F.F.x.x.x.F.x.K.K.D.D.b.D.D.D.D.D.D.D.D.L.D.D.D.L.D.L.L.R.L.L.Y.R.Y.Y.Y.L.Y.Y.Y.L.R.L.R.Y.L.Y.Y.Y.Y.Y.Y.Y.Y.Y.Y.L.Y.Y.Y.Y.Y.Y.Y.Y.Y.Y.Y.Y.Y.1XY.Y.7XY.Y.1X1XY.1XY.1XY.Y.Y.1XY.Y.1XY.1XY.1XY.4XY.1XY.4X1X1X4X7X3X3X:X3X;X;X3X:X;X;X3X:X3X;X3X3X8X8X3X3X8X3X3X8X8X3X3X;X;X8X3X3X3X3X;X8X8X3X8X3X1X8XT.9X7.,.^.1.O.2.4.1.*.1.4.9.^.1.0.$.o.O.$.<.k A k G #.#.#.G o.o.+.@.X.6.=.*.q.f.f.r.r.r.r.r.p.p.p.p.p.p.p.p.d.s.s.p.d.s.s.r.p.d.d.y.d.d.d.d.s.]._._._._.]._._.`.^.u.^.^.^./._._.].].].^.].^.`.].].].].^.u.u.i.u.y.e.f.=.f.=.=.e.r.a.y.s.s.)._.[.{.[.).u.r.8.6.@.X.X.-.6.8.6.9.u.9.9.t.1.2.w.=.2.2.&.2./.`.(.(.{.2.$.2.C.+X,.2.O.O.;.S x 9.,.5.#.3.~ 5.S x x x 5.D o.o.o.O.$.@.O.@.@.$.O.o.o.o.o.! ! D ! ! x S S S x x z z z q g z z z g x D x O.&.2.O.2.`.C.+.g - 2 % * + O + + * = * * * ; f 0 q q i l l L E } m.V.Z.Q.tXeXpXpXpXiXiXiXiXuXxXxXPXMXMXMXSXmXmXDXmXDXmXDXMXvXxXvXuXbXSXDXDXDXDXDXDXDXSXbXSXSXvXvXMXvXvXvXvXMXvXSXvXMXSXvXvXvXSXSXDXMXSXvXMXbXvXvXvXMXvXMXbXmXmXmXMXMXvXvXMXMXmXMXmXmXmXmXmXMXmXmXSXFXSXSXMXmXSXSXSXFXFXKXKXKXKXKXKXFX",
"JXJXJXJXJXJXJXJXJXJXJXJXJXJXJXJXJXJXJXJXJXJXJXJXJXKXJXLXpXuXmXJXJXJXJXJXJXKXKXKXKXKXJXJXJXJXJXJXHXKXuXD.F.D.D.D.F.x.F.c.F.x.F.x.D.D.D.D.K.b.D.D.D.D.D.D.D.D.D.L.L.D.L.L.L.Y.L.L.L.Y.R.Y.Y.R.Y.Y.L.Y.Y.L.L.L.L.Y.Y.Y.Y.Y.Y.Y.Y.Y.Y.Y.Y.Y.Y.Y.Y.Y.Y.Y.Y.Y.Y.Y.Y.Y.1XY.Y.1X1X7XY.Y.Y.1X7XY.Y.1XY.1X1XY.7X1XY.Y.Y.7X1X1XIX7X1X1XY.Y.;X;X;X:X;X3X;X3X3X;X;X:X3X;X;X8X3X3X;X3X3X8X3X8X:X3X3X3X8X3X;X3X1X1X8X;X8X:X3X3X3X1XIX%XC.;.C.p.=.3.*.1.=.2.1.9.(.<.1.2.O.o.o.0.F k S Q #.! %.! G o.o.X.X.q.6.q.f.f.f.r.r.r.r.r.p.p.p.p.s.p.p.p.s.s.d.d.s.s.s.s.p.d.d.d.d.s.d.d._.s.].`.'.`.].'.'.`.`.`.].`.].].'.`.].^.(.].].^.].].`.`._.d.u.u./.p.a.e.4.f.f.=.4.f.a.y.a.p.s.i./._.)._._.u.9.6.6.-.@.X.-.q.8.6.0.d.9.9.9.8.1.9.2.1.t.<.$.<.&.^.1.^.2.,.9.C.o.D ,.2.;.2.(.x ! 2.~ o.;.O.~ 5.L S S ~ 5.! o.O.@.&.%.$.$.&.$.$.$.o.D o.! ! ! ! Q x 5.L S S L z z z g g z z g c k Q D %.2.2.O.2.(.C.S : ; ; @ * + O = . = # * ; ; f 0 q 0 q i l C W _ } m.~.Q.%XeXeXpXpXpXiXuXxXPXxXMXMXMXMXmXmXSXSXDXDXmXDXDXDXMXvXPXvXxXxXbXSXDXDXDXDXSXSXvXSXSXvXvXMXvXvXvXSXMXvXSXbXMXvXMXMXSXvXMXMXbXSXvXvXMXMXvXvXvXMXbXMXMXmXDXMXMXMXvXMXMXMXCXMXmXmXDXmXmXmXSXSXLXLXSXmXmXSXSXnXSXFXFXKXKXKXKXKXKXFX",
"JXJXJXJXJXJXJXJXJXJXJXJXJXJXJXJXJXJXJXJXJXJXJXJXJXKXJXFXiXuXLXJXJXJXJXJXJXKXKXKXJXJXKXJXJXJXJXKXKXKXuX~.l.D.D.D.x.F.F.F.c.x.x.x.D.b.D.b.D.D.D.D.D.D.L.L.L.L.L.D.L.L.L.L.L.L.Y.Y.L.Y.Y.Y.Y.Y.Y.Y.Y.L.Y.Y.L.Y.L.Y.Y.Y.Y.Y.Y.Y.Y.IXY.Y.Y.Y.Y.Y.Y.Y.Y.Y.Y.Y.Y.<XY.Y.Y.7X1XY.1X1X1X1X1XY.Y.Y.Y.Y.1XY.1XY.4XY.4XY.1X1XY.1XY.7X1X1X1XY.3X3X;X;X3X;X3X;X;X3X;X;X:X;X;X;X3X3X8X3X3X6X4X8X8X3X3X4X8X8X3X3X1X1X;X0X;X8X8X6X0X4XqXIXQ.^ <./.(.2.&.1.2.&.<.1.9.u.0.2.+.o.o.0.#.g Q S %.F +.+.+.+.@.+.q.q.6.f.f.f.r.f.f.f.r.r.f.p.p.p.p.s.s.p.p.s.p.p.p.s.s.d.d.s.s.s.d.d.y.p.].]._.'.'.|.'.'.'.'.`.'.OX'.'.`.].^.^.C.].`.`.].'.`.`.`.`.u./._.p.p.t.8.f.f.=.=.f.a.a.a.p.i.i.i.i.).).).).i.r.6.6.*.@.@.@.6.8.8.q.].].9.^.u.1.2.<.1.2.1.t.1.*.9.<.2.,.$.(.2.o.o.o.2.5.#.3.2.5.$.2.5.O.O.5.~ 5.S 5.#.#.5.5.o.-.O.&.&.&.&.&.&.O.o.o.o.o.o.! o.! ! ~ S S ~ S Z Z l z q : c h h x D *.0.(.2.3.&.C.2.z : - @ * * . * * o * % ; f 0 0 0 0 0 i j l K L ' >.B.E.Q.eXpXpXpXpXpXpXxXMXMXMXMXMXMXSXmXSXSXSXmXSXDXmXmXbXMXbXvXvXvXxXbXDXbXbXbXSXMXSXbXMXvXSXvXvXvXvXvXvXSXSXMXMXvXbXSXSXvXSXSXvXSXSXMXSXMXvXvXvXvXSXmXmXbXbXmXmXmXMXMXMXMXMXbXmXmXmXmXDXmXDXSXDXFXLXLXLXLXSXmXSXSXLXSXFXFXKXKXJXKXFX",
"JXJXJXJXJXJXJXJXJXJXJXJXJXJXJXJXJXJXJXJXJXJXJXJXJXJXJXJXiXMXBXJXJXJXJXJXJXJXJXJXJXJXJXJXJXJXJXJXJXKXSXR.S.D.D.D.D.F.D.D.F.x.x.x.D.D.K.D.D.D.D.D.L.D.L.D.L.L.L.L.Y.L.L.L.Y.L.Y.L.Y.L.Y.L.Y.L.Y.Y.Y.Y.L.L.L.L.Y.Y.Y.Y.Y.Y.Y.Y.Y.Y.;X-X-XT.-X-XY.-XY.I.-X-XY.<X<XY.1XY.1X1X4X1XY.4X1XY.Y.4XY.Y.7X1XY.7X1X1X1X7X1X1X4XY.4X1X1X2X1X3X1X1X3X1X3X;X3X3X;X;X;X;X;X;X3X3X3X8X:X8X3X8X4X8X6X8X3X3X8X3X8X3X4X3X4X8X;X:X0X0X6X0X8XIX%X7.q.0.(.0.1.8.<.$.@.0.u.t.9.9.<.o.o.2.<.4 k ! ! ,.#.F $.o.@.%.@.&.*.6.6.8.e.e.e.r.r.r.s.a.p.s.s.p.s.s.s.i.s././.i.i.i.i.).).).d.9.y.d.|.d.d.}._.}.'._.].'.`.OX].`.].].oX`.C.'.`.`.`.`.`.`._.)./.u.p./.a.r.e.e.f.=.=.=.4.f.e.a.p.p.p.p.p.s.[.i.i.a.r.8.1.-.@.X.-.q.8.8.*.^.^.9.9.^.^.0.2.1.1.<.9.1.8.*.t.&.0.2.9.^.$.&.2.1.$.2.2.$.2.O.&.@.O.......D D G X.@.@.@.X.X...2.-.-.-.*.-.X.@.o.@.o.o.! ! ! Q F x x ~ ~ z h z z k c k c c 5.,.C.t.u.(.3.$.C.,.g ; ; % # . + * o * f * ; f 3 f q 0 0 q q q l L | m.~.!.%XeXeXpXpXpXpXiXPXMXnXmXmXmXMXmXmXmXmXDXDXDXDXDXSXSXMXxXxXxXbXuXvXMXMXDXbXMXMXDXMXmXMXMXvXvXvXvXMXMXMXSXSXvXSXMXMXSXvXvXbXmXDXbXDXMXbXMXMXMXMXmXmXMXDXDXDXMXMXmXmXmXmXMXmXmXMXmXDXmXFXFXFXFXKXKXKXLXFXLXFXLXSXSXSXSXFXKXJXKXKXKX",
"JXJXJXJXJXJXJXJXJXJXJXJXJXJXJXJXJXJXJXJXJXJXJXJXJXJXJXKXiXMXFXJXJXJXJXJXJXJXJXJXJXJXJXJXJXJXJXJXKXKXbXR.F.D.D.x.D.D.D.x.D.x.F.x.K.D.D.D.D.L.L.D.L.~.L.L.L.L.L.L.L.L.L.Y.L.Y.Y.L.L.Y.L.Y.L.Y.Y.Y.L.Y.Y.L.L.L.Y.Y.Y.Y.Y.Y.Y.Y.Y.Y.T.Y.T.-X-XT.Y.-XY.Y.I.Y.7X7XY.<XY.1XY.1XY.4X1XY.Y.1XY.1XY.Y.1XY.Y.1X1XY.1X1XY.1XY.4X1X7X1X3X<X1X3X1X1X3X;X3X;X3X:X;X3X;X:X3X3X;X3X3X8X3X8X3X8X8X8X3X3X8X6X8X8X4X4X4X8X8X,X;X,X6X6X6X8XIXIXV.;.C.^.9.(.2.<.&.+.8.^.^.^.^.9.%.o.,.,.3 k #.! +.o.+.G o.@.%.&.*.<.8.6.8.e.e.r.r.r.r.p.p.s.s.p.p.s.s.).)./.i.i.i.)./.).)._.d.r.y.d._.u.d.].'.]._.]._.}.`.`.].`.`.'.OX^.'.`.'.oX+X'.`.{._.)././.i.p.i.y.a.a.e.f.f.f.e.=.f.e.a.p.p.s.[.s.s.s.[.i.i.e.e.=.*.@.X.-.1.8.8.8.9.9.^.^.9.9.9.0.0.<.<.<.1.1.1.2.*.1.1.t.^.2.<.2.9.*.2.1.&.2.@.&.@.O.O.......@.X.@.-.X.X.@.-.-.=.*.*.*.*.-.-.X.X.O.o.o.+.! +.! Q ! Q Q L z z g g g z g c x #.4.9.(./.t.3.$.2.~ : ; , $ # = * * * f ; ; 0 0 3 0 0 0 0 f 0 q  .W [ V.E.Q.eXpXpXpXsXpXpXiXPXnXSXSXmXmXSXmXDXmXDXDXDXDXDXDXDXSXMXvXxXbXuXuXvXbXMXbXMXMXMXbXmXbXMXMXvXvXvXvXbXMXMXSXSXSXvXSXSXbXvXSXMXMXMXSXDXbXMXbXMXbXMXDXmXmXMXDXDXmXMXmXmXmXmXmXMXmXmXmXDXmXDXFXKXFXKXKXKXKXKXFXFXBXSXSXSXFXFXKXKXKXKXKX",
"JXJXJXJXJXJXJXJXJXJXJXJXJXJXJXJXJXJXJXJXJXJXJXJXJXJXJXJXuXMXKXJXJXJXJXJXJXJXJXJXJXJXJXJXJXJXJXJXKXKXmXG.l.D.D.D.F.x.D.D.F.x.F.x.D.D.K.L.L.D.D.L.L.L.L.L.L.L.L.L.L.L.L.L.L.Y.L.Y.L.Y.Y.L.L.L.L.Y.L.Y.Y.L.L.Y.L.IXIXY.Y.Y.Y.Y.Y.Y.Y.Y.;XY.-X-X-XY.-XY.-XI.7XY.Y.Y.Y.Y.1XY.Y.Y.1XY.Y.Y.Y.Y.1XY.Y.Y.1XY.1X1X1X1XY.1X1X1X1X1X<X3X1X1X<X;X1X;X;X3X;X8X3X;X3X;X3X;X3X8X8X3X3X3X3X3X3X3X3X3X3X3X4X3X8X4X4X4X8X8X,X8X8X3X6X0X8X8X9X!./ C.^.(.^.2.*.$.@.0.^.^.`.^.9.9.$.$.,.h S ^ ! ^ ! o.D o.@.$.*.*.*.8.8.8.r.e.r.p.p.p.p.a.p.s.p.s.s.p.i./.i.).).i.i.i._.s.d.i.d.p._.).d.^.d._.`.|.]._.'._.`.].OXoXOX`.].'..X'.'.'.OX`.`.).).s./.i.i.p.a.a.e.e.e.=.f.e.f.e.e.a.a.p.+X[.[.[.[.s.i.u.t.8.=.-.X.3.-.=.1.8.0.9.u.u.u.t.9.9.t.9.<.0.*.1.1.w.8.1.8.8.1.1.&.&.0.9.<.1.2.<.2.&.$.O.X.......$.*.@.*.-.X.@.-.*.=.=.=.*.=.=.-.-.X.@.@.o.+.+.! ! Q D ! ! Q x Z Z g : g k g x x #.4.t.].{.9.&.$.2.x 4 - # $ # * * ; - ; ; 0 0 0 f ; f ; f ; f 0  .~ UXB.!.Q.eXeXpXiXpXpXiXgXnXSXBXSXmXDXLXLXmXFXDXDXDXDXDXDXDXSXvXxXvXvXbXbXvXvXbXMXbXmXbXmXMXbXMXbXvXvXvXvXvXMXSXMXMXSXvXvXSXMXSXbXbXDXDXbXDXbXmXmXmXbXbXmXDXbXbXDXmXDXmXmXmXmXmXmXmXmXDXFXDXCXDXFXLXKXGXKXFXKXKXKXFXSXSXSXLXFXFXKXKXKXKXFX",
"JXJXJXJXJXJXJXJXJXJXJXJXJXJXJXJXJXJXJXJXJXJXJXJXJXJXJXJXuXmXHXJXJXJXJXJXJXJXJXJXJXJXJXJXJXJXJXJXKXKXDXF.N.x.D.x.D.D.D.D.D.D.x.x.D.L.D.D.D.D.L.L.D.L.L.D.L.L.L.L.L.L.L.L.Y.L.L.Y.Y.L.Y.L.L.L.L.L.Y.Y.L.Y.L.Y.Y.Y.Y.Y.Y.Y.Y.Y.Y.Y.-XY.;X1X;X;X-X-X-X-X*X-XY.7XY.Y.1XY.7X1XY.4XY.Y.1XY.7X1X7X1X1X1XY.1XY.1X1X1X1X1X1X1X1X4X3X3X4X1X;X-X:X;X:X;X;X:X;X3X3X3X3X8X3X3X;X3X;X8X3X3X;X;X;X8X:X3X8X3X3X3X4X3X8X8X8X;X8X3X3X0X5X8XIXeX} %.9.^.^.1.*.$.*.2.9.u.^.9.^.9.*.#.,.S S F ! $.o.! o.+.@.$.*.*.&.<.6.8.6.e.r.r.p.p.a.a.s.s.s.p.s.s.i.[./.).i././.s.).d.d.).).s.)._.d._.d.d.`.`._.'.].^._.`.'.`.].^..X`.`.`.OX`.'.'.`._.).s.i.i.p.p.a.a.e.e.f.f.=.e.f.e.a.a.a.a.s.s.s.[.s.s.y.a.e.4.=.-.-.X.-.*.1.e.8.9.u.^.^.C.9.0.^.t.9.9.1.9.2.8.*.*.*.*.<.&.&.*.1.2.1.<.<.2.$.&.$.@.@.@.@.@.%.=.@.&.*.*.-.6.8.=.*.6.=.*.-.*.*.@.@.@.o.O.#.! ! F Q ! ! ! ~ Z k g 3 x x c x x O.2.9.].}.t.2.O.;.g @ $ $ $ * * * ; f ; 0 0 0 ; ; f * f ; ; f q  .] 7.~.Q.%XeXpXpXpXpXiXxXPXnXSXLXLXLXLXLXLXFXLXDXDXDXDXDXDXDXSXSXvXvXvXuXxXvXbXMXvXMXbXmXbXbXDXMXbXvXvXvXvXbXMXMXDXbXMXMXSXMXSXMXMXDXbXDXDXMXDXbXMXMXMXMXmXmXMXmXDXmXmXmXmXDXDXDXDXCXmXDXDXCXDXCXFXLXFXFXKXFXLXLXFXFXFXFXFXFXFXKXFXFXFXFXKX",
"JXJXJXJXJXJXJXJXJXJXJXJXJXJXJXJXJXJXJXJXJXJXJXJXJXJXJXHXkXmXHXJXJXJXJXJXJXJXJXJXJXJXJXJXJXJXJXJXJXKXDXR.l.F.D.x.D.D.D.F.D.D.D.x.D.D.D.D.L.D.D.D.D.L.L.D.D.L.D.L.L.L.L.L.L.L.Y.L.L.L.Y.L.L.L.L.Y.L.L.Y.L.Y.L.Y.Y.L.Y.Y.Y.Y.Y.IXL.-X;X1X1X1X1X;XY.1X-X-XY.-XY.Y.Y.Y.1X7X1X1XY.1XY.Y.Y.7X7X1X7X7X1XY.1XY.Y.Y.<XY.1X4X1X4X1X4X1X1X4X3X;X;X;X;X;X;X3X;X;X3X3X3X3X3X3X3X;X3X;X;X3X;X3X;X3X:X8X8X3X8X3X2X3X8X8X8X8X8X0X5X5X8X8XIX9X~.~ 0.C.t.1.*.&.8.9.8.8.t.u.^.u.2.<.,.S S ! #.%.#.! ..@.+.@.*.*.<.8.6.w.w.8.r.p.p.p.p.r.p.s.s.s.s.p.s.s.s.s.s./.s.s.s.i.s.).[.s.i.i.u._._.d._.^._.'.'.{.`.'.`.}.'.'.OX].`.].'.].].`.[.[.s.s.p.p.p.p.e.r.e.f.f.f.f.=.4.a.a.a.s.s.+Xs.[.[.).s.p.a.a.a.=.-.3.X.-.-.1.1.u.8.9./.^.9.0.t.^.9.^.^.u.8.1.2.<.1.*.1.1.*.=.*.&.&.<.*.&.*.$.-.$.&.$.*.=.*.<.*.&.*.*.*.*.8.6.8.1.8.8.=.*.=.=.-.&.$.o.#.#.#.o.! D S D ~ S S S z g ~ k x x x 2.2.(.^.{.(.2.O.#.c - @ $ $ - , ; f ; f 0 q 3 ; ; f f ; ; f f q L ' m.E.IXeXtXpXpXpXiXiXPXnXSXmXBXBXCXFXFXFXDXFXFXDXDXDXDXFXDXSXSXvXvXvXvXvXvXvXbXPXbXMXMXMXbXmXMXbXvXvXvXMXMXMXMXbXvXMXvXvXbXSXvXMXDXMXSXSXDXbXMXMXmXbXbXDXmXMXmXDXDXmXmXDXCXFXDXDXmXDXCXFXFXCXFXFXLXFXFXFXSXLXLXSXSXFXDXKXKXFXFXSXDXLXFXLX",
"JXJXJXJXJXJXJXJXJXJXJXJXJXJXJXJXJXJXJXJXJXJXJXJXJXJXJXJXMXFXJXJXJXJXJXJXJXJXJXJXJXJXJXJXJXJXJXJXJXKXKXR.l.F.D.D.D.D.D.D.D.D.x.D.D.D.D.D.D.L.L.D.L.D.D.L.L.L.L.L.L.L.L.L.Y.L.L.L.Y.L.L.Y.L.L.L.L.L.L.L.L.L.Y.L.Y.L.L.Y.Y.Y.Y.Y.Y.;X;X1X;X1X;X1X1X1X-X-XY.7X-X<XY.7XY.1XY.1X1X1X4XY.1X7XIXIX7X1X1X1XY.Y.1XY.Y.1X1X1X4X1X4X4X1X4X1X3X3X3X3X3X3X3X3X3X8X:X3X8X3X8X:X3X3X;X3X3X;X3X;X3X8X4X8X8X8X3X3X<X1X1X8X8X8X4X0X0X0X0X0X8XQ.IX^ %.0.<.<.%.%.8.u.u.<.8.r.u.t.9.<.#.k S ! #.+.o.+.o.+.o.@.%.*.*.8.6.f.f.r.r.r.r.s.s.p.p.s.s.s.p.p.[.s.s.i.i.s.[.s.).s.i.d.s.s.i.s.d._._._.|.^.].d.OXOX'.OX`.{.`.'.].`.'.`.+X`._.+X|.|.|.s.p.p.p.p.r.e.a.e.f.f.=.=.e.a.p.p.+Xs.[.s.s.[.+Xp.p.a.t.a.=.-.X.X.-.-.=.1.t.9.t.^./.^.y.C.9.9.u.9./.t.t.w.t.t.8.w.9.8.<.*.*.*.<.=.=.q.*.*.&.*.<.1.8.8.=.&.6.6.=.=.*.6.8.6.e.w.8.=.=.=.=.-.<.&.o.@.$.^ ! Q ! ~ ! ~ Z Q ^ z g #.x x k x 2.4.`.`.{.(.2.O.O.z : , , , , , 3 0 q q q 0 0 ; ; ; ; ; f ; 0 q L g.B.!.%XpXiXiXiXiXiXxXPXPXmXSXLXLXFXLXDXFXFXFXFXFXFXDXKXDXDXSXMXvXMXvXvXvXvXvXvXvXMXMXbXMXDXbXmXDXvXvXvXvXbXDXSXmXvXvXvXvXMXMXSXMXbXSXbXDXMXMXSXbXMXmXmXMXmXmXmXmXCXCXDXDXFXFXFXCXCXDXDXCXDXDXDXFXKXFXKXKXKXFXFXKXFXKXFXKXKXFXFXFXFXDXDXFX",
"JXJXJXJXJXJXJXJXJXJXJXJXJXJXJXJXJXJXJXJXJXJXJXJXJXJXJXJXMXFXJXJXJXJXJXJXJXJXJXJXJXJXJXJXJXJXJXJXKXHXAXR.~.x.F.D.D.D.D.D.D.D.F.D.D.D.D.D.D.L.D.D.D.L.L.L.D.L.~.L.L.L.L.L.L.L.L.L.L.L.Y.L.Y.L.Y.L.Y.Y.Y.Y.Y.L.Y.Y.Y.Y.Y.Y.Y.Y.Y.Y.-X-X-X;XY.;X;XY.1X1X-XY.Y.1X1X<XY.IXY.Y.Y.Y.Y.Y.1XY.1X1X1X1X1X1X1XY.1XY.<XY.Y.1X1X4X1X1X1X1X1X1X3X3X8X8X3X3X;X;X;X;X3X8X8X3X8X;X;X:X;X8X3X;X3X3X3X8X3X3X4X8X3X3X1X1X8X8X8X8X8X0X0XwX4X0X8X8XyXV.#.,.,.,.%.*.8.9.u.=.8.9.9.t.9.9.#.k S ! ! o.+.o.+.+.@.$.&.%.<.=.f.f.f.r.f.r.r.r.s.p.p.s.p.p.s.p.).p.).s.i.).s.).).).s.s.s.s.s.s.[.d._._.}.[._.u.`._.`.`.].].^.d.].`.}.'._.}.`.`.|.s.s.s.p.p.p.a.f.r.e.e.e.8.f.f.4.a.p.p.s.+Xs.s.s.).[.i.a.t.a.4.=.=.X.X.-.*.=.1.8.u.u.t.t.`._.9.9.u.(.u.(.i.^.u.9.8.9.r.r.r.8.8.=.8.1.1.8.6.8.6.<.*.2.8.8.1.q.*.6.8.6.*.6.8.8.6.8.e.e.=.=.=.=.*.*.*.@.$.o.Q ! F ! ~ ! ! x ~ o.Z k ! ! x x o.2.(.+X'.OX+X9.#.o.z - 2 , - , 2 q 3 q q q 3 f 3 ; f ; 0 f 0 0 l W >.E.%XeXpXiXiXiXuXgXPXnXnXmXNXBXBXLXLXDXFXFXFXFXKXKXFXDXKXDXDXSXSXMXSXMXvXvXvXvXvXMXbXbXmXbXDXbXbXvXvXvXvXMXMXSXMXMXvXvXMXvXSXSXSXDXMXDXbXSXMXbXSXDXMXmXSXDXMXmXDXDXCXDXCXFXFXDXDXDXCXmXDXmXCXCXCXFXKXKXKXKXFXFXFXKXFXKXKXFXFXFXFXFXCXLXBX",
"JXJXJXJXJXJXJXJXJXJXJXJXJXJXJXJXJXJXJXJXJXJXJXJXJXJXJXJXMXFXJXJXJXJXJXJXJXJXJXJXJXJXJXJXJXJXJXJXHXHXDX~.l.F.D.D.D.D.D.D.D.D.D.D.D.D.D.D.L.D.L.L.D.L.D.L.L.L.D.L.L.L.L.L.L.L.L.L.L.L.L.Y.L.L.L.Y.L.Y.Y.L.L.Y.Y.Y.Y.L.Y.Y.Y.Y.Y.Y.P.T.T.Y.Y.Y.;X1X1X1X1X-X<X<X<X;XY.Y.Y.7XY.1XY.1XY.1X1X1X1X1X1XY.Y.1XY.<XY.1X<X1X1X1X7X1X1X7X1XY.;X3X3X3X3X3X;X;X;X;X;X3X3X3X3X;X3X;X;X:X3X3X;X8X;X3X3X8X3X:X;X;X2X4X0X8X8X8X8X4X6X5X6XqX0X9XqXIX/ ,.,.q.0.<.9.u.u.8.9.8.1.t.u.9.%.Q ! ! ! #.$.! @.o.@.%.@.*.1.*.f.f.f.f.f.r.r.r.p.a.p.s.s.p.s.p.+X+Xs.s.s.s.).).).s.s.).s.s.s.s.s.y._._._.d.|.)._.]._./.'.`.{.`.`.]._.`.`.}.).}.|.s.s.p.p.p.r.r.e.f.e.f.f.e.e.e.f.a.s.p.a.p.+Xs.s.+X[./.(.a.a.4.4.-.X.3.-.=.=.1.8.t.r.u.^.`./.^.9.9.9.u.9.u.u.p.s.t.r.8.8.8.8.8.8.8.=.8.6.q.8.8.8.=.8.1.8.8.6.8.&.*.6.6.8.e.w.6.8.8.1.8.e.=.=.*.&.%.$.+.! F Q ! ! S S ~ L S ~ k S D $.! 5.&.4./.(.'.+X(.2.O.! g 4 2 2 , 2 e q q q 0 ; f 3 f 3 ; f 3 ; f 0 q ~ M.!.%XpXpXiXgXiXuXuXPXPXMXNXmXLXFXCXCXFXFXFXFXKXFXKXKXKXDXDXSXSXSXMXMXvXvXvXvXvXvXbXMXbXmXbXDXDXbXvXvXvXvXmXDXMXbXSXMXMXbXMXbXDXSXbXSXMXSXMXDXSXSXbXmXmXSXbXmXmXDXDXmXCXFXFXFXDXCXDXmXDXmXmXmXDXDXFXFXKXKXKXFXKXFXKXKXKXFXKXKXFXFXFXFXFXLX",
"JXJXJXJXJXJXJXJXJXJXJXJXJXJXJXJXJXJXJXJXJXJXJXJXJXKXJXKXBXJXJXJXJXJXJXJXJXJXJXJXJXJXJXJXJXJXJXJXJXJXKXR.S.F.L.L.J.J.H.D.F.D.D.x.D.D.D.L.L.D.D.L.L.D.L.D.L.L.L.L.L.L.L.L.L.L.Y.L.L.Y.L.Y.T.L.P.T.Y.Y.L.IXY.Y.L.Y.Y.Y.Y.Y.Y.L.Y.Y.;XT.T.-X-X-X1X;X;X;X;X-X;XT.;X;XY.;XY.Y.Y.;X;X;X1XY.1X1XY.Y.1X1XY.1XY.Y.1X1X<X1X3X3X1X3X:X;X:X:X8X3X3X;X3X;X:X;X:X;X;X3X:X;X:X3X;X:X3X;X3X8X3X3X;X3X8X3X;X;X:X3X4X1X8X4X1X8X4X4X6X5XwX6XwX0X0X,X~./ q.7.q.9.,.9.u.t.w.w.t.t.e.C.,.x ! ! #.#.#.#.o.+.@.$.%.&.*.8.f.6.f.r.r.d.r.p.p.p.s.p.s.s.s.s.s.s.s.p.s.s.s.s.s.s.s.s.s.s.|.[.s.s.[._.s._.d.d._.`.`.^.u._.`.`.'.}.'._.[.[.}.|.[.[.s.p.p.a.r.f.e.e.e.=.e.6.e.e.a.a.t.p./.).).+X+Xs.[.s.p.s.p.a.4.3.X.X.&.-.&.=.u.8.y.u.u.^.`.^.u.9.9.^.^.t.t.u.y.u.u.y.y.8.9.r.8.9.r.8.6.8.8.8.8.8.8.r.8.6.6.8.8.8.8.e.6.8.8.r.8.6.=.8.1.=.=.=.1.$.o.@.#.! F D ~ D S ~ ~ Z S L S o.O.o.o.2.(.(.[.}.}.+X2.o.Q g 2 3 2 3 3 0 0 q ; ; ; ; 0 ; ; f ; ; f 3 0  .;.C.Q.%XpXsXiXuXuXuXPXPXPXnXMXmXZXLXLXCXFXFXFXFXFXKXFXKXFXFXKXFXDXSXMXMXMXvXvXvXMXvXSXbXSXMXDXDXDXDXvXvXbXMXMXDXMXSXSXvXSXMXbXSXSXDXSXbXDXbXSXSXSXDXDXMXMXMXmXmXSXSXDXCXDXCXFXFXFXFXFXDXmXmXmXmXDXmXFXFXFXKXKXKXKXSXLXFXFXFXKXFXKXJXHXKXCXFX",
"JXJXJXJXJXJXJXJXJXJXJXJXJXJXJXJXJXJXJXJXJXJXJXJXJXJXJXFXmXJXJXJXJXJXJXJXJXJXJXJXJXJXJXJXJXJXJXJXKXJXKXT.c.F.D.D.H.H.F.F.D.F.D.D.D.D.D.L.D.L.L.D.D.L.D.D.L.L.L.L.L.D.L.L.L.L.L.L.Y.L.Y.L.L.P.P.Y.Y.Y.Y.Y.Y.Y.Y.Y.Y.Y.Y.Y.Y.IXY.Y.Y.Y.-X-X-X;X;X1X;X;X-XT.;X;X;X;X8X;X;XY.;X;X;X1X1X1X<XY.1X1X1XY.1XY.1X1X1X1X1X<X3X3X3X3X3X3X3X3X;X3X;X3X;X3X3X;X-X:X3X;X;X;X;X;X3X;X3X3X3X3X8X:X;X3X3X3X3X3X8X:X8X4X8X4X8X8X8X4X6XwX6X6X6X0X0X,X%XV.Y 7.7.%.9.8.t.^.t.9.t.a.t.^.,.k ! ! #.o.o.O.o.+.@.@.&.&.*.=.f.f.6.f.r.r.r.r.p.p.p.p.s.s.s.s.s.s.s.s.s.+X+Xs.s.s.s.[.[.[.s.s.d.s.[.s.d.s.d.d.)._.).).]._._.`.}.|.'.[.+X|.|.[.[.s.s.p.y.a.r.f.r.e.e.e.6.6.4.e.r.e.t.u.).).s.s.).).+Xs.p.p.p.a.=.3.X.X.&.-.&.2.r.8.r.u.u./._._.^.u.t.u.u.r.9.y.y.u.p.u.y.t.y.r.9.r.r.9.8.r.8.r.w.8.9.r.8.8.8.8.8.e.r.8.w.e.e.e.8.1.=.1.1.=.=.=.<.&.@.#.o.! Q Q ;.~ S S x x z x x ! O.#.3.2.u.(.+X[.{.+X2.#.^ k 3 3 2 ; ; 0 3 3 3 ; : ; ; f ; 3 3 f q q  .L ;.A.%XeXiXuXuXuXvXkXnXPXkXnXmXBXLXBXLXLXFXFXFXFXKXJXKXKXKXKXKXKXFXSXSXMXMXvXvXvXvXvXSXbXSXbXbXDXbXDXMXvXmXSXSXMXSXSXSXSXMXSXDXMXSXSXDXSXSXSXSXSXSXSXSXSXSXSXmXSXLXDXCXDXCXDXDXCXFXFXFXDXDXCXmXmXCXDXFXFXFXKXKXGXFXSXDXFXFXFXFXKXKXJXHXHXHXKX",
"JXJXJXJXJXJXJXJXJXJXJXJXJXJXJXJXJXJXJXJXJXJXJXJXJXJXJXFXFXJXJXJXJXJXJXJXJXJXJXJXJXJXJXJXJXJXJXJXKXJXKXE.S.R.F.D.H.F.H.F.D.D.D.D.D.D.~.D.L.L.L.L.L.L.D.L.L.L.L.L.L.K.L.L.L.L.L.L.L.L.Y.T.Y.L.L.Y.Y.Y.Y.Y.R.Y.Y.Y.Y.Y.IXY.IXY.Y.Y.-X-X-X;X;X;X;X1X;X;X;X;X;X;X;X;XY.;XY.8X;X;X;X1XIX1X1X7X1XY.Y.Y.Y.1XY.1XY.<X1X1X<X1X3X3X3X3X3X;X3X;X:X8X8X3X;X;X;X;X:X;X;X;X;X3X;X;X3X:X;X3X;X3X3X8X8X3X8X6X8X8X0X4X4X4X4X4X4X8X6X6X0XwX0X0X0X9XQ.pXm.| 7.C.q.0.9.u.i.t.t.^.^.t.,.x ^ +.#.O.#.$.+.@.o.@.$.&.=.1.f.f.f.f.f.r.r.d.p.p.p.p.s.s.s.s.s.p.s.p.s.s.s.s.|.s.s.s.s.p.s.s.[.s.[.s.s.|._.|.].)._._._.`.`.}.}.}.|.|.|.|.[.[.s.s.s.p.r.r.e.e.r.e.e.8.e.e.e.t.e.e.r.p.s.s.+X).[.s.).[.+X+Xa.4.e.-.3.O.&.&.*.=.8.w.r.t.d.).^._.^./.u.9.9.8.9.8.w.u.u.y.y.r.u.u.u.r.y.u.p.r.r.r.y.r.8.r.r.8.8.r.r.e.r.8.e.e.e.8.e.1.8.e.e.=.=.1.*.%.@.#.#.! F Q ;.o.~ ~ L z Z x k x O.3.2.2.t.(.[.(.+Xt.,.! x 3 g q 3 q q 3 3 3 q ; ; 0 3 3 ; f q q q  . .~ >.C.Q.eXuXuXvXkXkXPXPXgXPXnXnXmXBXLXLXFXLXFXFXFXKXJXKXKXKXKXKXFXDXSXvXSXSXvXvXvXvXbXDXMXMXMXDXbXbXDXSXMXbXMXbXDXSXbXSXSXMXbXMXSXDXDXDXDXSXSXSXSXSXSXDXSXmXmXmXSXLXLXFXFXFXDXDXFXFXFXCXDXCXmXmXDXDXCXFXFXKXJXJXKXLXSXFXKXKXKXKXKXKXKXKXHXHXHX",
"JXJXJXJXJXJXJXJXJXJXJXJXJXJXJXJXJXJXJXJXJXJXJXJXJXKXJXFXFXJXJXJXJXJXJXJXJXJXJXJXJXJXJXJXJXJXJXJXHXJXKXT.S.F.D.D.H.D.F.H.F.H.H.F.D.D.D.L.D.L.L.L.L.D.D.L.L.L.L.L.L.L.L.L.L.L.L.L.L.Y.L.Y.Y.L.Y.L.L.Y.L.Y.L.L.Y.Y.Y.Y.L.Y.Y.Y.Y.Y.Y.-X-X-X-X;X;X;XT.-XT.;XT.;X;X;X;X;X;XY.Y.;X;X;X7X4X1XIX1XY.1X1X1X1X1X<X<X1X1X<X<X1X3X3X3X3X3X2X;X3X;X3X3X3X3X3X;X;X;X3X3X1X:X;X;X3X;X3X3X3X8X;X;X3X3X8X3X8X6X8X0X4XqX4X4XIX8X4X6X0X0X0X0X0X0X0X8XIXeXN./ >.7.0.0.u.^.t.t.t.u.9.,.x o.#.#.#.#.O.@.o.O.@.$.&.=.<.f.f.f.f.f.r.r.r.r.p.p.p.p.s.s.s.p.p.p.p.s.s.s.s.s.s.p.p.p.p.s.s.d.p.s.s.s.).).|.).).).)._._._.`.|.|.}.|.|.|.|.[.s.s.p.a.a.r.e.e.e.e.e.e.w.w.e.e.e.a.a.i.s.[.+X[.|.+X[.s.s.p.p.4.4.*.X.@.-.&.&.*.8.r.r.r.u.).i._._.^.^.u.t.t.8.8.t.w.y.u.u.u.u.r.r.d.y.d.r.r.0.8.y.9.r.8.8.e.8.8.8.6.8.r.8.8.e.8.e.e.8.8.1.1.=.=.1.*.$.$.o.F Q F #.~ o.~ ~ x z x x x 5.;.2.4.a./.+X/./.9.$.;.#.k q j q q q q q q g q 3 q q q q q q q l l  .~ { C. X%XuXkXkXkXMXkXPXnXkXPXkXnXnXBXCXLXLXLXBXFXKXGXGXKXKXKXKXFXFXFXSXSXSXvXvXvXvXSXbXbXSXbXmXbXDXbXDXbXMXSXSXDXDXMXSXSXMXSXMXMXSXDXDXSXSXSXSXSXSXSXDXSXSXSXLXLXFXLXFXFXFXFXFXFXFXDXDXDXCXDXCXDXFXDXFXFXKXKXJXKXFXFXFXFXKXKXKXKXKXJXHXKXHXJX",
"JXJXJXJXJXJXJXJXJXJXJXJXJXJXJXJXJXJXJXJXJXJXJXJXJXKXJXHXFXJXJXJXJXJXJXJXJXJXJXJXJXJXJXJXJXJXJXJXKXJXKXW.S.F.F.F.F.c.F.F.H.J.F.H.D.D.L.L.L.L.L.L.L.L.D.L.~.L.L.L.L.L.L.L.L.Y.L.L.L.L.Y.Y.P.L.L.L.Y.Y.L.L.L.L.Y.Y.Y.Y.Y.Y.Y.Y.Y.Y.-XY.-XT.Y.-X;X;X-XT.;X;X;X;X,X;XY.;X;X;X-X;X;XY.;X;X;X;X1X1XY.IX<XY.1X1X1X1X1X1X1X1X3X1X3X;X:X;X3X:X3X3X3X3X3X3X3X;X3X3X3X3X;X3X;X:X;X3X3X;X3X3X;X3X8X3X3X8X3X8X8X3X4X0X0X0X0X4X0X6X0X0X6X6X0X0X0XqXT.yX~.Z :.,.<.0.9.u.u.9.9.^.,.S ~ o.#.$.#.#.@.o.o.@.&.*.*.=.f.f.r.r.r.r.f.p.r.p.p.p.p.s.s.p.p.s.s.p.p.s.s.p.s.p.s.s.s.p.p.s.d.p.s.s.).).).[.[.i.[.{.|.{.+X|.`.|.}.}.}.|.[.[.[.p.a.r.r.e.e.e.1.1.e.8.w.w.t.t.t.t.a.p.s.).[.|.}.|.[.+X/./.p.t.=.&.X.3.-.&.*.=.6.r.r.r.s.).)._._.^.u.u.^.u.t.t.r.t.t.(.d.u.u.u.r.u.u.y.u.r.w.r.r.r.r.6.8.e.6.8.6.6.8.8.r.f.f.r.8.8.1.=.=.=.=.*.*.&.$.#.+.! S Q ~ Q ~ ! S z x x x x ..-.1.4.w.a.a.+Xe.<.! #.S z j u j q q j q q q q q q z q l l  .z z  .Z ~ >.B.IXpXuXuXuXkXMXkXkXPXnXkXPXnXnXSXZXFXFXFXFXFXFXJXKXKXKXKXKXFXKXKXDXSXDXvXvXvXvXSXvXMXMXbXmXSXDXMXMXMXSXbXSXSXSXMXDXMXDXDXSXSXSXDXDXSXSXDXDXDXDXDXSXLXSXLXDXDXDXLXDXFXFXFXFXFXDXCXDXCXmXDXCXmXDXCXFXKXKXJXJXJXKXKXKXKXJXJXJXKXKXKXGXKXHXJX",
"JXJXJXJXJXJXJXJXJXJXJXJXJXJXJXJXJXJXJXJXJXJXJXJXJXJXJXKXFXJXJXJXJXJXJXJXJXJXJXJXJXJXJXJXJXJXJXJXJXJXKXT.S.J.H.J.H.F.D.J.F.H.H.D.D.D.D.D.D.L.D.D.D.D.L.D.L.L.L.L.L.L.L.L.L.L.Y.Y.Y.Y.Y.L.P.L.L.Y.L.Y.Y.Y.Y.Y.Y.Y.Y.Y.Y.Y.Y.Y.Y.Y.Y.Y.T.-XY.Y.>X-X;X;XT.;X;X;X;X;X;X;X;X;XIX;X;X;X;X;XY.;X1XY.;X<X1X<X1X1X1X<X1X<X<X3X<X3X3X:X:X;X;X;X;X;X3X3X3X;X:X;X;X:X;X3X3X;X;X;X3X;X;X8X;X3X:X3X3X3X3X3X:X8X4X4X4X0X5XqXqX4X,X6X,X6X0X0X0X:X6X7XwXR.9XQ.A ^ q.0.9.9.u.9.u.`.,.x o.^ #.%.%.O.$.@.@.$.&.*.=.1.f.f.f.r.r.f.r.r.f.p.p.p.p.s.p.s.s.s.s.p.s.a.p.p.p.p.s.s.s.s.p.s.p.p.[.s.[.|.|.|.[.[.[.}.}.|.}.OX}.|.}.}.|.|.+X).[.i.a.e.t.r.e.6.=.e.e.e.w.w.w.t.a.a.u.a.p.+X[.|.}.{.[.)./.(.a.t.1.=.@.O.@.&.&.1.=.8.r.r.s.)._._._././.^.i.9.w.t.t.t.y.u.i.i.u.r.u.d.u.r.r.r.r.0.r.r.e.r.e.8.e.6.6.r.r.r.f.f.f.f.8.8.8.=.e.=.*.*.&.$.@.$.o.! ! Q S Q ~ S Z z z x x x x O.*.4.4.t.+X+Xt.3.D #.z g g j j j z z j q q z z l z  .z l x  . .z  .E >.B.oX%XuXkXkXMXMXkXnXPXnXnXkXnXnXnXLXLXGXFXFXKXGXKXFXKXJXKXKXKXKXKXDXDXDXbXvXbXvXMXvXbXbXMXmXbXbXSXSXMXMXDXSXDXDXDXDXDXSXDXDXSXDXDXDXSXDXDXFXFXDXDXDXSXSXLXCXDXCXLXCXDXDXCXFXFXCXDXDXmXDXmXDXmXmXDXFXFXFXFXFXKXJXJXKXJXJXKXKXKXJXJXJXJXJXJX",
"JXJXJXJXJXJXJXJXJXJXJXJXJXJXJXJXJXJXJXJXJXJXJXJXJXKXJXKXFXJXJXKXJXJXJXJXJXJXJXJXJXJXJXJXJXJXJXJXKXJXHXT.S.J.F.H.H.c.F.H.J.F.D.D.D.D.D.L.L.D.D.D.L.~.D.L.L.L.L.L.L.L.L.L.Y.L.Y.L.L.Y.Y.L.L.T.L.P.L.Y.Y.Y.Y.Y.L.IXY.Y.Y.Y.Y.Y.Y.Y.-XY.-XY.;XY.-X;X;X;X;X;X;X;X;XW.;X;X;X8X;X;X;X1XY.1X;X;X;X;X;X1X1XY.<X1X1X1X1X3X<X1X1X2X3X;X;X3X;X;X;X:X3X;X;X;X;X;X;X;X:X3X;X;X;X;X;X;X;X3X3X:X3X;X8X3X8X;X;X8X6X4X0X0XqX0X0XqX6X,X0X0X0X6X0X0X7XwX0X8X9XeX!.! #.<.1.9.9.u.u.].#.x #.o.#.%.%.$.+.O.O.@.&.*.*.1.f.f.f.p.r.f.f.p.f.p.p.p.p.p.p.s.s.s.s.s.p.s.p.p.s.s.s.s.s.s.s.s.r.r.s.p.s.|.).|.[.+X[.+X{.{.|.{.|.}.|.|.{.+X[.).).p.t.t.e.e.e.e.8.8.w.e.w.e.w.w.t.y.p.p.p.+X+X|.}.[.{./.i.a.a.t.2.=.-.@.@.&.&.<.6.6.e.r.i.[.}._._._._.^.u.u.u.u.9.u.u.u.u.u.u.i.u.r.r.u.u.u.r.r.r.r.r.8.r.6.e.8.r.r.r.r.e.e.f.r.e.e.8.1.=.=.=.*.&.$.@.#.+.! Q S ~ Q Q S x z z x x x x O.2.4.t.4.e.a.&.D O.;.L k z q j q z q q l z z z x  .l z z  .l l  .z ~ g.C.IXrXgXuXuXkXkXuXnXnXnXnXPXnXPXnXSXBXLXKXGXKXKXKXFXKXKXKXFXFXKXKXKXDXDXSXvXbXvXbXvXbXMXmXbXMXSXSXMXSXvXSXDXDXDXDXDXDXDXbXDXDXSXDXDXDXSXKXKXKXDXDXDXDXLXLXFXDXDXmXmXCXDXDXDXDXCXCXCXCXmXmXmXmXDXmXFXFXFXKXFXKXKXJXJXJXJXJXJXKXJXJXJXJXJXJX",
"JXJXJXJXJXJXJXJXJXJXJXJXJXJXJXJXJXJXJXJXJXJXJXJXJXJXJXJXFXJXJXJXJXJXJXJXJXJXJXJXJXJXJXJXJXJXJXJXJXJXKXE.F.R.J.J.F.H.H.S.F.J.D.D.D.D.D.D.D.D.D.L.L.D.D.L.L.L.L.L.D.L.L.L.L.Y.L.Y.Y.Y.L.I.P.L.P.T.L.R.Y.L.L.Y.Y.Y.Y.Y.Y.L.Y.Y.Y.Y.Y.-X-X-XY.;XW.;X;X;X;X;X;X-X-X;X;X;X;X;X;X;X;XT.;X;X;X;X;X;X1XY.1X1X1X1X1X1X1X1X1X;X<X;X:X3X3X3X;X;X;X3X;X3X;X;X:X;X-X;X;X;X-X-X;X;X3X3X3X:X;X3X;X3X8X3X3X3X3X:X6X5X0X0X0XqX0X:X0X0X,X0X0X0X0X0XwX5X3X0XIXW.eXoXQ ;.0.9.9.d.u.u.! k ^ #.o.+.#.@.+.o.@.$.$.&.*.*.f.f.f.f.r.r.r.s.f.r.p.p.p.p.s.p.a.p.s.s.a.a.p.a.s.p.s.s.s.s.s.s.s.s.[.s.s.).s.[.|.|.|.{.|.|.OX{.|.{.{.{.|.+Xs.s.a.a.a.t.t.e.4.e.8.w.r.y.w.8.e.w.t.t.p.s.s.+X|.|.}.{.{.[./.u.t.e.=.=.-.X.-.@.*.8.6.6.e.r.y._.|.)./._._./.u._._._.w.t.u.p.u.u./._.d.u.r.r.u.r.r.r.w.r.r.r.8.r.e.r.r.r.6.e.e.e.r.f.1.8.8.=.=.=.=.&.*.%.$.$.! ! F S Q Q ~ S x z h x x x o.2.4.t.a.a.4.*.3.x 2.#.k z q z q z q z z z z  .l  .Z l z  .l l  .x L ~ V.!.%XpXuXuXuXMXkXkXPXPXnXnXkXPXnXnXnXnXBXLXLXFXFXGXFXFXKXKXFXFXFXKXKXKXDXbXvXvXvXMXMXMXSXbXmXMXMXSXMXbXMXMXbXSXDXDXSXDXDXSXDXSXDXSXDXDXKXKXKXDXDXSXFXLXSXLXDXCXmXmXmXDXCXDXCXFXDXDXmXDXDXmXmXmXCXMXSXFXFXKXKXFXFXJXJXJXJXKXJXKXJXJXJXJXJXHX",
"JXJXJXJXJXJXJXJXJXJXJXJXJXJXJXJXJXJXJXJXJXJXJXJXJXJXJXJXKXJXJXJXJXJXJXJXJXJXJXJXJXJXJXJXJXJXJXJXJXJXKXIXc.F.F.D.J.F.D.D.J.J.J.D.L.D.D.D.D.L.D.L.J.L.J.H.U.J.U.J.J.H.L.L.U.P.T.P.U.P.P.P.T.P.P.P.L.Y.L.Y.R.Y.Y.Y.L.L.Y.L.Y.Y.Y.Y.IXY.IXY.7XY.Y.Y.;X;X1X1XY.;XY.;XW.;X-X;XY.;XT.-XT.;X;X;X;X;X;XY.;X;X1X<X;X<XY.1X<X;X;X-X:X<X3X3X6X;X3X:X;X:X;X;X3X:X;X;X:X;X-X;X-X:X:X2X;X3X;X:X:X3X3X3X8X3X6X8X8X8X8XqX0XqX0X0X0X0X0X0X0X0X8X0X0X0X0X0X,X,X,X9XZ.T q.7.0.d.d.d.! S D ! O.$.$.O.@.+.o.%.&.@.=.*.8.6.e.e.r.r.r.e.f.p.p.p.r.r.p.p.s.p.s.s.s.s.a.p.s.s.s.s.s.+Xs.s.s.|.s.[.[.s.|.s.|.{.[.|.+X|.|.}.{.|.|.[.[.[.).i.t.r.r.t.w.8.e.8.e.1.w.e.w.w.r.t.r.r.a.i./.).{.}.}.}.{.+X+Xp.a.9.1.=.@.-.@.-.-.=.8.e.e.8.y.s.[.|._.).i._._.d.y.t.u.u.i.i.u.u.r.w.t.y.p.y.y.r.w.e.r.f.r.f.r.r.r.r.r.r.r.r.r.r.f.f.e.8.6.6.=.=.=.*.&.<.O.o.#.! Q ! Q L S g z x c x S D $.2.9.t.a.4.3.X.5.$.$.! z z z z z z z l z l z  .z  .L l  .Z L l l C ~ { ~.Z.%XiXkXkXkXmXmXnXnXnXnXnXSXnXPXnXnXnXmXnXBXFXFXGXCXFXFXFXFXFXHXKXKXKXKXLXDXbXMXvXbXmXmXMXbXvXvXbXvXvXMXmXmXDXDXDXDXFXDXmXDXbXDXDXDXCXFXFXDXmXDXmXDXDXCXDXDXmXmXDXDXFXFXFXCXCXFXCXmXmXmXmXmXLXFXFXKXFXKXFXHXKXKXJXJXJXKXHXKXKXKXJXJXHXJXHX",
"JXJXJXJXJXJXJXJXJXJXJXJXJXJXJXJXJXJXJXJXJXJXJXJXJXJXJXJXJXJXJXJXJXJXJXJXJXJXJXJXJXJXJXJXJXJXJXJXJXJXKXW.S.F.L.D.D.D.F.J.D.F.H.D.D.D.L.L.L.D.L.L.J.P.J.J.J.J.J.L.H.L.J.L.P.P.Y.P.P.P.T.P.P.Y.P.P.Y.L.Y.L.Y.Y.Y.Y.Y.Y.Y.Y.Y.Y.Y.Y.Y.Y.Y.4XY.Y.Y.7X;X1X1XY.-XY.-X-X;X;X;X;X;X;XT.;X;X;X;X;X;X;X;X;XY.8X1X;X1X1X1X1X2X;X;X:X;X<X:X3X:X3X;X;X:X;X:X-X;X<X;X:X:X:X:X:X:X;X;X;X3X:X2X3X3X3X3X3X:X6X3X3X3X3X5X0X0X0XqX0X0X0X0X0X8X0X8X0X0X0X,X0X6X0X0X9XcX7.T d.d.q.0.q.Q Z ! #.#.$.$.$.O.+.+.*.&.$.8.<.6.6.e.e.e.r.e.r.r.f.r.p.p.p.p.p.s.a.s.s.s.s.p.s.s.s.s.s.s.s.s.s.s.[.s.+X[.[.[.+X[.[.{.{.}.|.OX|.|.|.|.{.[.{._.).p.t.u.r.w.8.w.8.t.w.w.w.w.w.w.w.t.a.i.i./.).{.}.OX}.{.+X).i.t.1.e.*.X.-.X.-.@.*.6.6.8.r.y.s.).|.`.).).).i.r.t.y.r.).).t.r.s.s.r.i.p.y.y.r.r.r.r.f.r.a.r.r.r.r.a.p.r.r.r.r.f.r.f.e.e.e.6.=.=.*.*.&.<.o.#.#.! Q Q ~ ~ Q z z h c x S D #.<.9.t.t.4.3...X.-.%.! k S l l k l z l  .x x x  .x Z L x l l l Z L / >.Z.Q.%XiXuXkXmXnXnXnXmXmXmXmXVXMXSXnXmXnXmXNXnXmXCXCXCXCXCXZXCXFXGXHXKXHXKXDXDXSXMXMXmXMXbXMXmXMXMXMXvXMXMXDXDXmXmXbXDXDXDXDXmXmXDXmXDXDXFXDXCXDXmXCXmXDXDXCXmXmXmXDXmXCXCXCXFXDXCXCXCXDXCXCXCXCXFXFXKXGXGXJXHXKXJXJXHXJXHXKXHXHXJXJXJXHXHXHX",
"JXJXJXJXJXJXJXJXJXJXJXJXJXJXJXJXJXJXJXJXJXJXJXJXJXJXJXJXHXJXJXJXJXJXJXJXJXJXJXJXJXJXJXJXJXJXJXJXJXJXJXW.S.R.D.R.D.D.D.J.J.J.D.D.L.L.D.D.D.L.D.L.J.J.H.J.L.J.U.J.U.L.L.L.P.P.P.Y.P.T.P.P.P.Y.P.P.Y.Y.Y.Y.Y.Y.Y.R.Y.Y.Y.Y.Y.Y.Y.Y.Y.Y.Y.Y.Y.Y.Y.1X1X1X1X1X;XY.Y.Y.;X;X;X;X;X;X;X;X;X;X-X;X;X;X;X;X;X;X1X;X1X1X1X1X3X;X<X;X;X;X3X3X3X;X:X3X:X:X-X-X;X:X:X:X:X<X;X;X;X;X2X3X:X3X;X3X3X3X3X3X8X6X8X8X8X8X0X0X0X0X5X0X0X0X0X0X0X8X0X4X0X0X0X8X8X8X0X9XIXiX7.U 7.0.q.0.~ S ~ #.+.+.O.$.+.@.$.&.*.&.1.=.6.f.e.e.e.r.r.r.r.p.r.r.p.p.r.p.s.p.s.p.s.s.s.s.s.s.s.s.[.s.s.+X+Xs.[.s.[.|.[.[.[.+X{.[.}.+X{.|.{.[.[.[.[.[.)./.y.t.t.w.1.8.e.8.t.t.t.w.w.t.w.t.w.y././.s.).[.OXOXOX}.{./.p.t.e.1.=.-.@.@.@.-.*.6.6.e.r.s.d.s._.|.[.[.[._.u.u.i.i.i.u.u.y.p.p.d.p.p.y.r.r.e.r.r.r.r.r.r.r.r.r.r.a.r.r.r.r.f.r.f.8.e.6.6.=.-.*.&.$.$.O.#.#.~ ~ ~ / Q k j z z z z S O.3.2.t.(.4.&...X.&.2.#.Q k L z Z Z l x L Z Z  .L L L L L Z Z Z Z L L } m.Z. X$XiXkXkXMXnXnXMXmXmXBXBXSXVXSXVXBXmXnXmXnXmXnXmXnXBXCXCXCXCXHXFXHXKXHXDXDXCXmXMXMXMXMXMXMXMXMXmXbXMXbXmXDXDXbXDXDXDXDXmXDXmXmXDXDXCXFXFXDXCXDXmXCXDXCXmXmXmXmXmXCXCXFXFXCXDXCXFXFXFXFXCXCXFXHXHXHXHXJXKXHXHXHXKXJXHXHXHXHXHXJXJXJXHXJXKX",
"JXJXJXJXJXJXJXJXJXJXJXJXJXJXJXJXJXJXJXJXJXJXJXJXJXJXJXJXJXJXJXJXJXJXJXJXJXJXJXJXJXJXJXJXJXJXJXJXJXJXKXIXF.F.L.L.J.D.J.J.J.H.J.D.L.D.D.L.L.D.L.D.J.U.L.L.J.J.J.L.L.L.U.P.P.P.T.P.P.P.Y.P.Y.P.P.Y.Y.Y.Y.Y.Y.Y.Y.Y.Y.Y.Y.Y.Y.Y.Y.Y.Y.Y.Y.Y.1XY.Y.1X1X1X1X1XY.;X-X;X;X;X;X;X;X;X;X;X;X;X-X;X;X;X;X;X;X;X;X1X1X1X1X1X<X<X;X;X:X2X3X;X3X3X3X:X3X;X:X:X:X;X1X:X<X1X3X3X:X;X:X3X3X3X;X3X:X3X3X3X3X8X3X6X0X0X0X0X0X5X0X5X8X4X8X4X8X4X0X0X0X0X0X6X8X8X8X8XIXIXuXUX/ 7.7.7.#.S ! o.+.@.o.@.$.$.$.,.%.&.*.=.e.6.e.e.e.r.r.e.p.f.p.r.p.p.p.p.s.s.s.p.p.s.p.s.s.s.s.s.s.s.[.s.|.s.[.[.+X|.[.[.[.+X|.+XOX|.{.{.[.[.[.).).[./.i.t.w.8.w.8.e.w.8.9.t.4.w.w.w.w.r.w.y.i.).+X).+X|.}.}.}.{.).p.a.t.=.-.-.X.@.@.-.*.6.=.8.r.p.p.s.).{.).).|.|.).d.i._.y.y.i.d.y.y.).u.y.p.y.a.r.r.e.r.a.f.r.f.f.f.r.r.f.a.r.r.r.f.r.e.6.f.f.=.=.*.&.@.@.o.#.o.! ! ~ S L z g c z x 5...,.,.2.t.a.-.3.O.&.2.<.+.k Z k Z Z Z L L Z L L S L L ~ L S L L l L L ~ } V.E. XpXiXkXkXnXnXmXnXmXmXNXmXVXFXFXFXFXCXCXnXmXnXnXnXnXmXBXBXCXCXCXCXKXKXKXFXFXDXmXDXmXMXMXMXMXvXMXbXmXMXmXmXmXmXDXmXDXmXDXDXmXDXmXDXCXDXFXDXCXDXCXDXDXCXDXDXCXDXCXDXCXDXCXFXFXFXFXFXCXFXKXFXFXFXFXFXFXHXKXGXHXKXHXHXHXKXHXHXJXJXHXJXJXHXJXHX",
"JXJXJXJXJXJXJXJXJXJXJXJXJXJXJXJXJXJXJXJXJXJXJXJXJXJXJXJXJXJXJXJXJXJXJXJXJXJXJXJXJXJXJXJXJXJXJXJXJXJXHXT.~.R.D.D.L.J.J.L.J.L.L.D.L.L.L.D.D.L.L.D.J.U.J.J.J.J.P.J.J.L.J.P.P.P.T.P.P.Y.Y.Y.Y.P.P.Y.Y.Y.IXY.Y.Y.Y.Y.Y.Y.Y.Y.Y.Y.L.IXY.1XY.1X1X1XY.IX1X1X8X1X1XY.;X-X;X;X;X;X;X;X;X;X;X;X;X;X;X;X8X;X<X1X1X<X4X1X1X1X;X<X<X<X;X3X<X3X;X3X3X3X3X3X:X3X;X;X3X;X:X3X3X;X;X:X;X3X3X3X3X3X3X3X3X3X3X8X8X6X0X0X0X0X0X0X4X8X4X8X0X8X4X0X8X0X0X0X0X0X4X0X0X8XqXIXIXpX7.} / / ^ ! ! ! @.+.o.$.$.+.$.*.%.*.*.=.f.f.f.e.e.a.r.r.f.p.p.p.a.p.p.p.s.s.s.s.s.s.s.s.a.p.s.+X[.[.s.[.[.s.|.s.+X|.+X|.s.+X+X|.{.}.{.|.[.[.[.+X)._.).i.y.w.t.w.8.w.y.w.8.e.w.4.9.e.r.t.a.a.p.s.s.s.[.|.{.}.{.{./.t.w.e.=.*.-.@.@.@.$.*.=.=.6.e.u.d.s.[.|.[.i.)._._.).)./.).i.u.r.u.p.y.y.i.p.p.a.y.r.r.r.r.f.f.r.f.f.f.a.r.r.r.r.f.r.f.8.e.8.6.=.*.*.-.$.@.o.#.o.~ ^ ^ Q L x z 3 c x ~ ,.<.*.9.8.1.@.-.2.1.1.#.#.x L k Z L S L L x L Z L L ~ L L S L Z L L ~ ^ >.C.!.eXiXuXkXkXkXmXNXmXVXSXVXFXFXFXFXGXFXFXAXBXmXnXnXnXnXmXmXNXBXBXBXCXFXFXFXFXDXFXCXLXDXMXmXbXvXvXvXMXmXmXDXMXMXDXMXmXmXDXDXDXDXDXDXmXDXCXFXFXCXDXCXDXCXDXmXDXCXDXDXFXDXCXHXKXKXFXFXFXCXCXCXFXFXLXFXFXKXHXHXHXKXHXHXHXFXFXFXHXHXHXHXKXHXHXJXHX",
"JXJXJXJXJXJXJXJXJXJXJXJXJXJXJXJXJXJXJXJXJXJXJXJXJXJXJXJXJXJXJXJXJXJXJXJXJXJXJXJXJXJXJXJXJXJXJXJXJXJXKXIXF.R.L.L.J.J.J.R.L.L.L.J.D.D.D.L.L.D.D.L.L.J.J.J.J.J.J.L.P.L.P.P.P.P.P.P.P.=XY.P.P.P.Y.-XY.Y.L.Y.R.Y.Y.Y.Y.Y.IXY.Y.Y.Y.Y.1XY.1XY.Y.1X7X7X1X1X1X1X1X1X;X1X;X;X;X;X;X;X;X;X;X;XW.-X;X;X;X;XY.Y.1X1X<X1X1X1X;X<X<X;X:X<X3X3X3X3X3X3X3X;X3X;X2X3X:X3X3X;X3X3X:X3X:X3X3X;X3X:X;X3X:X3X:X3X:X3X0X0X0X8X0X4X8X4X1X8X3X0X8X4X0X0X0X0X4X4X4X6X4X0XY.wX1XIXqX~.~.UXL Q ! +.+.@.@.*.$.@.%.*.&.1.=.=.6.f.e.e.r.e.r.r.f.r.p.r.r.p.s.p.s.p.s.p.s.s.s.s.s.s.s.s.s.s.s.s.[.+X[.+X[.|.[.{.[.[.+X}.|.|.+X{.[.[.[.[.).).i.i.y.r.w.9.8.w.w.8.1.e.w.t.w.w.r.y.a.p.p.s.).+X+X{.}.}.}.+X/.a.t.e.=.*.-.O.@.X.$.&.*.*.6.8.r.p.s.[.[.[.[.[.).i.)._._.)./.i.p.i.p.y.i.y.r.w.y.y.y.a.r.r.p.r.f.r.r.r.r.f.f.a.a.r.f.f.e.6.8.6.6.*.&.-.*.@.o.+.! ! ^ ! ^ S g g c x O.O.1.<.%.1.1.1.=.4.9.1.2.#.! L x l L Z L L L L Z L ~ L ~ ~ ~ L L L L L ~ } V.Z. XtXdXkXMXNXNXmXmXNXSXVXSXSXVXFXGXGXHXHXFXBXmXNXmXkXMXnXmXNXmXmXmXCXLXLXDXLXDXDXDXLXDXDXDXCXMXMXMXMXMXbXMXMXbXMXMXMXMXmXCXDXDXmXDXDXDXCXFXFXDXCXDXDXmXmXmXmXCXDXFXFXCXFXKXHXHXKXCXFXDXmXDXCXCXmXCXFXHXJXJXKXJXHXKXFXFXKXKXHXKXHXHXFXHXHXHXHX",
"JXJXJXJXJXJXJXJXJXJXJXJXJXJXJXJXJXJXJXJXJXJXJXJXJXJXJXJXJXJXJXJXJXJXJXJXJXJXJXJXJXJXJXJXJXJXJXJXJXJXFXIX~.R.D.L.D.J.J.P.L.P.L.D.D.D.D.D.D.L.D.L.U.J.J.J.J.L.J.J.J.P.J.P.J.P.P.T.T.T.Y.Y.P.T.T.;XY.Y.Y.L.Y.Y.Y.Y.Y.Y.Y.Y.Y.IXY.Y.1XIXY.1X1XY.Y.1X1X;X1X1X;X-X;X;X;X;X;X;X;X;X;XW.;X;XY.;XY.;X;X;X1XY.1XY.Y.7X<X1X<X-X;X3X1X3X<X1X:X3X:X3X;X2X:X3X3X;X2X:X:X3X:X3X:X;X:X;X;X3X:X3X3X:X:X;X3X;X3X3X3X3X8X3X3X3X1X4X8X4X0X8X0X8X0X0X4X8X4X4X4X5X5X0XqXI.qXIXqXIX9X~.Z Q ^ +.+.+.o.&.@.o.*.%.*.8.=.e.f.f.f.r.r.e.r.e.f.p.r.p.p.p.p.p.p.p.s.s.s.s.s.s.s.s.s.[.s.s.s.+X[.[.[.+X[.[.|.|.[.[.[.{.}.|.+X[.[.[.s.)./.).i.u.u.w.w.w.8.w.8.1.8.9.e.e.w.w.r.a.p.i.s.+Xs.+X|.|.}.}.}.[./.i.r.1.1.=.&.O.@.O.-.-.-.6.6.8.w.p.s.[.[.[.|.}.{.)._.[._.s.i.i.s.y.i.d.i.p.y.w.r.r.r.a.a.a.a.r.r.r.r.r.r.f.r.r.f.r.f.r.r.6.6.6.1.=.*.&.<.O.! #.! ~ #.! ~ k g h x ~ 2.;.<.%.<.<.8.1.t.t.9.2.#.! x L S Z S L L L L L L L ~ L ~ L ~ L L L L E } >.V.!.eXrXuXkXzXMXkXmXAXmXnXVXSXVXFXGXGXFXHXGXCXBXNXmXnXmXnXnXmXmXkXmXmXNXmXDXLXFXDXCXDXCXDXFXDXCXmXMXMXMXmXMXmXMXmXMXmXMXMXDXmXDXCXDXmXmXFXFXFXFXCXmXCXCXmXmXmXmXCXCXDXFXCXFXFXHXFXAXCXAXCXDXCXmXBXFXGXFXHXHXHXHXHXHXFXHXHXFXCXHXFXHXFXHXHXHXHXHX",
"JXJXJXJXJXJXJXJXJXJXJXJXJXJXJXJXJXJXJXJXJXJXJXJXJXJXJXJXJXJXJXJXJXJXJXJXJXJXJXJXJXJXJXJXJXJXJXJXJXJXCXIXF.F.R.D.D.J.J.R.J.J.J.H.D.L.D.D.D.D.D.D.J.L.J.U.J.H.U.J.J.J.L.J.P.P.L.L.P.T.-XY.P.P.T.-XY.Y.Y.Y.L.R.Y.Y.Y.Y.Y.Y.Y.Y.Y.Y.Y.7X1XY.Y.1XY.Y.Y.;XY.;X;XY.;X;X;X;X;X;X;X;X-X-X;X;X;XT.;X;X;X;XY.1X1XY.1X1XY.1X:X;X;X<X1X:X<X1X:X;X3X;X:X;X:X;X:X;X;X:X;X;X;X-X:X;X3X:X;X3X:X;X:X;X;X3X:X3X:X;X3X1X3X1X3X3X1X8X4X4X8X0X4X0X0X0X0X8X0X0X4X5X0X5X4XqXY.8XY.1XR.k.Q ~ ! F +.$.X.$.$.+.*.*.*.1.=.f.f.6.e.f.f.r.r.a.r.p.r.f.p.s.p.r.a.p.s.p.s.s.s.s.[.s.s.+Xs.s.[.s.|.|.[.|.|.[.OX|.}.[.{.[.OX[.{.[.[.[.[.[.).).i.i.y.w.8.w.8.w.w.6.w.w.t.t.w.t.r.u.y.i.s.[.[.+X|.OX{.{.[././.y.t.1.=.-.*.X.-.@.*.$.-.6.8.w.a.s.|.[.|.[.[.[.[.[._.|.s._.).r.y.).).i.s.i.i.a.p.a.y.r.r.r.r.r.r.f.f.r.r.r.r.r.r.f.f.r.e.6.6.6.=.<.*.$.$.o.! #.! ~ ^ ~ S Z k Q D O.4.9.2.*.9.8.t.4.t.1.2.2.O.o.x Q Z Q ~ L 5.L S ~ ~ ~ ~ ~ ~ ~ L S L Z ~ ~ ;.m.Z.!.tXpXuXkXNXkXmXNXmXAXVXSXVXZXFXFXFXFXHXCXCXBXmXNXmXmXnXmXnXnXkXnXkXmXnXmXBXmXFXFXCXFXFXFXCXDXDXmXmXmXmXmXmXMXmXmXmXmXmXmXDXCXDXmXDXDXFXCXFXCXCXDXDXCXCXDXCXCXDXCXFXCXCXFXHXFXKXCXDXmXDXCXCXCXCXBXKXJXFXKXKXHXKXFXCXFXHXFXFXFXFXFXFXFXHXHXFXHX",
"JXJXJXJXJXJXJXJXJXJXJXJXJXJXJXJXJXJXJXJXJXJXJXJXJXJXJXJXJXJXJXJXJXJXJXJXJXJXJXJXJXJXJXJXJXJXJXJXJXJXJXW.~.L.L.D.L.D.D.D.D.D.H.J.D.D.D.D.D.H.H.H.J.P.J.L.J.P.J.J.P.P.J.P.P.P.T.P.P.T.>XY.P.P.>X=XY.Y.Y.L.L.Y.Y.Y.IXY.Y.Y.Y.Y.Y.Y.Y.1XY.1XY.Y.Y.Y.Y.Y.;X;X;X-X;X;X;X;XT.;XT.;X;X;X;X;XT.;X;XY.;X;X1X1X1X1X1X1XY.Y.1X4XY.1X1X7X<X1X3X3X:X:X;X:X3X3X;X3X:X-X-X:X:X3X:X;X2X3X;X:X;X3X:X3X;X3X;X3X3X8X3X3X1X8X8X0X3X3X0X8X3X3X1X0X8X0XqX8X0X8X8X4X0X0X5X3X4X0X3XR.0XG.L ~ #.! ..+.@.$.@.X.$.q.=.=.=.6.6.e.e.f.f.r.f.r.r.p.r.r.r.p.p.p.a.s.s.s.s.s.s.s.s.s.s.s.s.s.[.[.s.|.|.+X|.|.|.{.}.{.{.{.|.{.{.{.[.[.i.[./.i.i.i.u.r.8.8.w.8.8.8.1.t.w.1.w.y.y.i./.i.i./.[.).[.[.}.|.{.+Xp.a.r.e.=.-.@.@.-.@.$.*.*.6.r.e.p.[.d.s.).).).)._.[._.[.).s.i.s.).).d.y.y.y.r.p.a.w.r.p.f.r.p.r.r.f.f.r.r.r.r.e.r.6.6.e.8.6.6.*.*.*.-.@.$.+.! ! ! ~ Q #.x x z S #.2.9.t.<.1.1.9.u.9.9.1.2.O.~ ~ S Z S L ~ ~ ~ S L L ~ ~ ~ ( ~ ~ ~ ~ E ~ ~ ' ;.V.E. XtXgXnXnXnXBXmXBXBXBXFXVXFXVXFXFXFXFXGXFXBXmXnXnXnXNXNXBXBXBXnXnXMXnXmXLXSXBXSXLXLXFXFXFXFXFXFXLXDXmXmXmXmXMXMXMXmXmXDXmXmXCXCXCXCXDXCXDXCXDXCXCXmXmXCXCXDXCXCXFXCXLXFXFXCXFXFXCXLXmXFXBXFXFXFXFXFXFXKXCXCXFXFXHXHXCXAXFXCXHXHXHXHXFXHXHXHXHX",
"JXJXJXJXJXJXJXJXJXJXJXJXJXJXJXJXJXJXJXJXJXJXJXJXJXJXJXJXJXJXJXJXJXJXJXJXJXJXJXJXJXJXJXJXJXJXJXJXJXJXJX8XR.R.L.R.L.D.R.F.D.D.D.D.D.L.L.D.D.D.J.D.J.L.J.J.J.J.P.J.P.L.P.J.P.P.P.J.P.T.Y.Y.T.P.T.Y.Y.Y.Y.Y.Y.Y.Y.Y.L.Y.Y.Y.Y.Y.Y.Y.Y.Y.Y.Y.Y.Y.Y.Y.1XY.Y.Y.Y.;XY.Y.;X;X;X;X;X;X;X;X;X;XT.;XY.;X;XY.1X1X1X1XY.4X4XY.1X1X1X1X1X1X3X3X;X:X;X3X:X;X;X:X3X:X;X-X-X;X:X:X;X<X3X;X3X:X2X;X;X3X3X3X8X:X3X6X8X3X3X3X3X0X0X3X8X4X8X3X8X4X0X0X0XqXqX0X4X8X0X4X0X0X0X8X0X,X8Xg.K ! o.! +.@.$.*.@.%.-.*.=.=.=.4.e.e.e.e.r.r.r.r.r.r.p.r.r.p.p.p.a.a.s.s.p.s.s.s.s.s.s.s.+Xs.s.s.+X|.|.[.|.|.|.|.{.{.{.{.{.{.{.{.[.[.i.[.[.a./.i.r.t.8.8.e.8.=.6.w.1.e.t.r.u.y.y.i.i.i./.).[.[.{.}.}.{.+X).p.e.e.=.-.-.@.@.@.@.$.-.-.8.6.r.[.s.s.[.[.|._.).)._.[.[._._.).s.s.p.p.y.y.y.r.w.r.r.e.f.r.a.r.r.r.r.r.r.r.r.r.e.f.r.6.e.6.6.*.-.q.*.@.$.$.o.Q ! ~ Q ! Z z c x <.^.(.0.1.0.<.9.u.9.t.2.;.3.o.~ ~ S L ~ L L ~ L ~ ~ ~ ( ~ ~ ( ~ ~ ~ ~ ~ ~ } >.C.!.%XpXgXMXnXBXNXBXBXBXBXVXSXVXSXSXFXZXFXCXAXmXnXnXmXmXmXLXBXLXBXnXSXnXnXmXBXBXSXBXmXLXBXLXCXLXFXFXFXLXmXCXmXmXmXmXmXmXFXDXmXDXmXDXDXDXCXCXDXCXmXDXCXmXmXDXDXCXDXLXLXLXLXAXFXHXFXHXCXmXmXLXBXBXFXGXFXFXZXCXCXCXCXCXFXHXHXFXFXCXCXFXHXHXHXHXJXHXJX",
"JXJXJXJXJXJXJXJXJXJXJXJXJXJXJXJXJXJXJXJXJXJXJXJXJXJXJXJXJXJXJXJXJXJXJXJXJXJXJXJXJXJXJXJXJXJXJXJXJXJXJXIXF.R.R.L.L.D.D.D.D.x.D.D.D.D.D.D.D.J.J.H.H.J.J.P.J.P.J.P.J.J.J.R.P.R.T.J.P.P.T.P.R.P.P.T.Y.Y.Y.R.Y.L.L.IXY.Y.Y.Y.Y.Y.Y.Y.Y.Y.Y.Y.T.Y.Y.Y.Y.Y.;XY.;XY.;XY.;X;XT.;XT.;X;XY.;X;X;X;X;X;X;X;X1X1X1X1X1XY.7X1X1X1X1X1X1X1X1X1X3X1X:X3X3X3X3X;X3X;X:X;X-X:X:X3X:X;X3X3X;X3X3X3X3X3X3X6X3X3X6X4X4X8X0X8X4X0X0X0X0X8X3X8X1X0X4X0X0XqX8X8X8X4X0X0X;XqXqX8X0XqX8X` L ! ^ ! +.@.$.-.-.%.%.-.=.=.f.=.6.e.8.e.r.f.r.r.r.p.r.r.p.p.p.p.p.p.p.p.s.s.s.p.s.s.+X[.[.s.+Xs.+X|.[.[.|.{.|.|.{.{.|.{.{.{.{.{.[.[.).[._.i.i.u.r.w.8.6.8.1.=.8.8.t.w.w.t.r.y.i.p.i.i.i.[.[.{.+X|.{.[.[.+Xp.a.4.8.*.-.@.O.@.@.$.-.-.6.r.y._.s.s.[.{.|.[.).).[.|.|.[.).).s.d.s.s.y.i.i.y.r.a.a.w.r.r.r.r.r.r.r.f.r.r.r.f.f.e.f.6.6.6.6.6.*.*.%.@.#.%.#.F ! ^ ~ Q l c c ! C.(.(.1.<.8.<.q.9.9.1.%.;.~ D ~ ~ ~ ~ ~ ~ S L ~ ~ ~ ~ ^ ~ ( ~ ~ ~ ( ( ^ ^ :.V.Z.oXXXiXkXnXnXNXBXBXBXBXFXFXSXVXVXVXFXVXSXCXmXmXnXmXnXmXNXFXZXLXBXBXmXnXPXmXSXBXBXSXBXBXSXBXmXCXFXFXFXLXmXmXmXmXmXmXmXCXFXCXCXCXCXCXCXCXFXmXmXmXCXCXCXCXmXCXCXCXmXCXCXCXCXFXCXHXFXFXFXBXmXLXLXBXFXFXZXFXFXCXCXCXCXHXHXFXZXHXHXAXHXHXJXHXHXHXHXHXHX",
"JXJXJXJXJXJXJXJXJXJXJXJXJXJXJXJXJXJXJXJXJXJXJXJXJXJXJXJXJXJXJXJXJXJXJXJXJXJXJXJXJXJXJXJXJXJXJXJXJXJXKXQ.R.T.R.L.R.L.D.D.F.F.D.D.L.D.D.L.D.J.D.H.J.J.J.J.P.J.T.J.J.P.U.T.T.>XJ.J.T.P.T.T.P.P.T.Y.Y.Y.Y.Y.Y.Y.L.Y.Y.Y.Y.Y.Y.Y.Y.Y.1XY.Y.Y.Y.Y.1XY.1XY.;XY.Y.;XY.Y.;XT.;X;X;X;X;X;X;X;X;X;X;X8X;X;X1XY.1X1X1X1XY.1X1X4X7X1X1X<X1X4X;X:X;X3X:X3X3X8X3X3X3X:X;X;X:X;X3X3X:X3X3X:X;X2X;X:X3X3X3X:X8X8X8X3X8X4X0X0X3X0X3X3X8X4X4X0X8X8X8X0X8X8X0X8X8X0X0X0X0X0X0X,X0Xk.K ~ ! o.+.+.@.@.*.*.-.%.=.e.f.f.f.e.e.f.r.r.f.r.r.r.r.f.r.p.p.p.p.p.p.a.s.p.s.p.s.s.s.[.s.s.[.s.s.[.[.[.|.|.+X|.+X{.{.{.{.|.[.[.[.[.+X[._.i.i.y.w.8.8.8.8.=.*.=.e.1.w.t.r.y.a.u.i.i./.[.+X[.{.{.{.|.[.[.p.p.e.1.=.*.-.@.@.o.@.&.*.6.8.r.d.s.s.s.[.[.[.[._.)._.|.|.|.[.).).s.).[.).p.p.i.p.r.r.p.r.f.r.r.r.f.r.r.r.f.e.e.e.6.r.6.6.6.6.q.q.*.%.%.o.#.%.^ ! #.! Z x z h #.t.1.u.1.8.<.<.<.2.<.2.$.3.~ ~ ~ ~ L L ~ ~ ~ ~ ~ ~ ~ ~ ~ ~ ~ ~ ~ ^ ^ ~ ^ } :.V.Z. XeXgXkXnXNXmXBXBXBXBXZXVXVXSXZXFXFXVXFXmXnXNXmXNXCXCXCXFXBXmXNXmXnXnXnXnXBXBXFXBXBXBXBXmXmXLXCXCXLXCXmXmXmXNXmXmXmXCXZXFXCXFXDXCXCXFXFXCXCXCXCXmXCXCXCXFXFXCXCXCXmXCXCXFXCXCXHXZXCXCXCXBXBXFXZXZXFXFXBXHXCXCXCXCXHXHXAXHXHXHXHXHXHXJXHXHXJXHXJX",
"JXJXJXJXJXJXJXJXJXJXJXJXJXJXJXJXJXJXJXJXJXJXJXJXJXJXJXJXJXJXJXJXJXJXJXJXJXJXJXJXJXJXJXJXJXJXJXJXJXJXJXIXF.R.L.D.D.D.F.R.x.D.D.D.L.D.D.D.L.D.H.J.H.J.J.U.J.P.P.P.T.P.T.J.>XT.P.P.T.>XT.>XT.P.>XY.Y.Y.Y.Y.R.Y.Y.L.Y.Y.Y.Y.Y.Y.Y.Y.Y.1XY.Y.Y.Y.Y.1X1XY.Y.1X;XY.Y.Y.T.;X;X;X;X;X;X;XT.;X;X;X;X;X;XY.1XY.1XY.1X1X7X1X1X7XY.4X1X1X1X7X:X3X;X3X3X3X3X6X3X6X3X3X;X;X:X;X;X;X3X;X:X;X;X:X:X3X3X:X3X3X3X3X3X8X0X3X8X3X3X8X3X0X3X0X8X0X0X0X8X0X0X4X8X0X0X0XqX8X9X0X8XW.qXB.L ~ ^ ! o.O.@.@.@.%.-.%.=.6.f.=.6.e.e.6.r.r.e.r.p.r.f.r.r.p.s.p.s.s.a.p.p.s.s.p.[.s.[.s.s.s.s.[.s.|.[.[.{.|.[.|.|.|.{.{.{.[.{.{.[.[.).[.[.i.p.u.r.w.8.=.6.=.*.*.1.1.w.t.r.t.a.y.p.s.s.+X).).[.{.|.|.[.s./.y.w.=.*.=.-.@.@.X.+.$.@.=.6.r.p.d.s.s.).[.).[.).[.{.{.[.[.).).).s.).).i.y.y.p.p.r.e.a.r.f.r.r.f.r.r.e.f.f.r.f.f.6.r.6.f.6.6.6.=.%.%.%.+.! #.! ^ ^ Q S z z x 2.<.0.t.9.<.<.%.<.<.,.&.#.O.~ ~ L ~ ~ E ~ ~ ~ ~ ~ ~ ~ ~ ' ^ ~ _ ^ ~ _ ;.~ } >.C.!.%XpXgXkXNXNXBXNXmXBXBXZXBXLXBXLXFXFXFXVXnXBXBXmXBXBXBXBXBXmXnXnXnXnXnXnXnXVXVXFXGXZXFXFXFXGXFXFXGXFXFXBXBXCXLXCXBXFXFXKXHXFXFXCXDXFXFXHXCXCXCXCXmXAXmXAXAXFXCXmXBXBXmXLXBXFXZXFXFXFXZXFXBXFXFXFXFXCXFXCXCXCXCXCXHXHXHXHXHXHXHXHXHXHXJXHXJXHXJXHX",
"JXJXJXJXJXJXJXJXJXJXJXJXJXJXJXJXJXJXJXJXJXJXJXJXJXJXJXJXJXJXJXJXJXJXJXJXJXJXJXJXJXJXJXJXJXJXJXJXJXJXKXQ.F.R.R.D.R.D.D.R.D.D.D.H.L.L.L.D.H.L.J.H.H.J.J.L.J.P.P.T.J.T.P.P.T.T.P.R.T.P.P.T.Y.Y.T.Y.Y.Y.Y.L.Y.Y.Y.Y.Y.Y.Y.Y.IXY.Y.Y.1XY.1X1X<XY.Y.1X1X1X;X;X;X1X;XY.>X;X;X;X;X;X-X;XT.;X;X;X;X;X;X;X1X1X1XY.1X1X1X1X1X4X4XY.1X1X1X1X:X3X3X;X3X3X3X3X3X3X:X3X3X:X:X;X;X2X3X:X:X;X;X:X;X;X3X;X3X:X:X3X3X3X3X8X3X3X3X8X0X3X0X3X0X4X0X0X8X8X4X0X4X4X8X0X8X0XqX8X8X8X0Xk.l ^ ! o.+.o.@.@.@.@.@.*.=.6.=.=.6.e.f.e.e.f.f.r.p.r.r.f.f.p.p.p.p.p.p.p.s.s.p.s.s.s.s.s.s.+Xs.[.[.[.[.|.|.|.{.|.|.+X{.|.{.{.+X{.).[.).[./.p.i.y.8.8.6.*.*.*.-.=.1.w.1.w.t.r.y.i.p.a.s.s.).[.{.|.|.{.+X+Xp.a.w.e.*.-.@.@.o.+.o.@.-.6.8.r.y.p.s.s.[.[.[._.|.{.|.|._._.).[.).).s.s.p.i.s.a.a.i.a.w.r.f.f.r.r.r.r.r.r.r.r.e.e.e.e.e.e.6.q.=.*.@.@.@.$.! ^ ! ! ! Q S z h D <.9.^.t.9.8.2.<.2.,.#.O.#.! ~ ~ ~ ~ ~ ~ ~ ~ ~ ^ ~ ~ ~ ^ ~ _ ^ ~ ~ ;.^ ;.;.:.V.E.oX$XsXkXnXmXBXNXBXNXBXFXBXVXBXZXZXFXVXZXFXmXmXCXBXBXBXFXBXmXnXnXPXPXnXMXnXSXSXVXLXLXZXZXFXGXGXKXGXHXFXFXCXFXFXFXCXCXFXKXHXHXHXFXFXFXFXFXHXFXCXFXCXmXmXmXmXFXAXmXmXmXmXBXCXBXBXLXLXFXZXFXZXBXFXBXZXFXGXFXGXGXCXCXHXHXHXHXHXGXHXHXJXJXHXHXHXHXHXHXHX",
"JXJXJXJXJXJXJXJXJXJXJXJXJXJXJXJXJXJXJXJXJXJXJXJXJXJXJXJXJXJXJXJXJXJXJXJXJXJXJXJXJXJXJXJXJXJXJXJXJXJXJX8XS.D.L.D.D.D.L.D.J.D.J.H.L.D.L.L.J.J.H.J.J.J.J.J.J.P.J.J.T.>XP.T.P.P.T.>XT.P.T.T.T.>XT.T.Y.Y.Y.Y.Y.Y.Y.Y.Y.Y.Y.L.Y.Y.Y.Y.Y.1X1XY.1XY.1X1X1X1X;X;X;X;XY.;XY.;X;X;X;X,X;X-X;X>XY.;X,X1X;X;XY.Y.1X1X1X1X1X1X1X4XY.4X4X1X7X1X3X:X3X2X:X3X:X3X:X:X8X3X3X:X3X;X:X:X3X3X3X;X:X;X3X3X3X3X3X3X3X8X3X3X8X3X3X3X8X3X3X8X8X8X0X4X0X4X5X5X5X4X1X4X8X8X8XqX8X8X9X8X9X[ C ^ #.#.@.+.$.@.-.@.*.*.6.=.f.f.6.e.f.6.r.e.e.r.r.r.r.r.r.p.a.p.a.p.s.p.p.p.s.p.s.s.+Xs.s.s.s.s.+X[.|.{.|.+X[.|.{.{.{.{.{.[.{.[.).[.).[.).i./.u.8.8.6.=.=.*.-.=.8.4.w.w.w.t.t.a.a.p.s.s.s.[.{.|.[.{.[./.a.t.e.1.-.-.@.X.....+.@.*.6.8.s.d.r.s.s._.[.|.|.{.[.|.|.[.{.{.[.).).s.s.s.s.s.i.p.i.p.r.r.r.f.r.r.r.r.r.r.r.f.e.r.e.e.e.8.6.6.=.%.@.+.+.#.! #.^ ! ^ Q Z g h #.9.u.+Xu.8.0.<.2.,.,.#.#.#.~ ~ ~ ~ ( ~ ~ ;.~ ' ^ ~ ^ _ ~ ' ~ ~ ' ^ ~ } ;.g.7.V.Z.%XpXdXkXnXnXCXNXmXNXmXBXBXZXSXLXZXGXGXFXZXBXBXBXFXLXBXBXmXnXnXnXnXnXPXMXnXnXSXVXSXLXVXLXGXGXKXFXFXFXFXFXFXFXGXFXGXFXGXGXKXKXGXGXFXFXHXCXHXAXCXmXmXmXNXmXmXmXNXmXNXnXDXLXZXFXBXBXFXFXZXZXFXZXFXZXFXZXGXFXGXHXCXCXCXHXAXHXHXHXHXHXHXHXHXHXJXHXHXJXHX",
"JXJXJXJXJXJXJXJXJXJXJXJXJXJXJXJXJXJXJXJXJXJXJXJXJXJXJXJXJXJXJXJXJXJXJXJXJXJXJXJXJXJXJXJXJXJXJXJXJXJXKXW.~.L.D.D.L.L.L.D.J.D.D.D.L.D.K.D.H.J.L.J.H.U.J.L.P.L.P.P.P.J.J.R.P.T.P.J.P.T.J.>XP.T.T.P.R.Y.Y.Y.Y.Y.Y.R.Y.Y.Y.IXY.Y.Y.Y.1XY.Y.1XY.1X1X1XY.1XY.1XY.-XY.Y.;XY.;X;X;X;X;X-X;X;X;X;X3X3X;X1X1X1X1X1X7X1X1X1X1X1X4X1X1X1X1X4X;X3X3X;X3X;X3X:X3X3X;X3X3X3X:X3X3X3X3X3X3X:X:X;X:X3X3X6X8X:X8X6X3X8X0X3X3X3X3X8X8X4X4X0X8X0X0X8X5X5X5X4X4X4X4X8X8X8X8X9X8X9XW.[ L #.#.#.+...@.@.%.-.*.6.6.6.=.f.f.e.f.e.e.e.e.r.f.r.a.r.r.p.r.r.a.p.p.p.p.a.p.s.p.p.s.s.[.s.+Xs.s.[.+X|.|.[.+X{.|.{.{.|.{.[.[.{._.[.[._.).i./.i.6.6.=.*.=.*.*.=.9.8.w.1.w.w.w.r.a.p.s.+Xs.+X[.+X[.{.[./.a.e.f.=.@.X.O.o.....+.@.=.6.e.p.d.y.[.[.).[.|.|.[.[.[.|.[.|.|.{.).s.s.[.).i.p.s.i.a.w.r.r.r.r.r.r.f.r.r.f.f.e.f.6.e.6.f.6.6.6.q.*.$.$.%.+.! #.#.^ ! S h g h 0.9.u./.u.9.<.0.2.,.#.O.;.#.;.^ ~ ' ^ ~ ~ ^ ^ ~ ^ } ^ ~ ^ ~ ~ ^ ~ ~ } ^ ^ ;.7.C.oX%XpXgXkXkXCXnXCXNXBXBXBXLXVXVXBXZXFXGXFXZXBXmXBXBXBXBXmXmXnXnXnXmXMXnXnXnXVXnXVXSXVXSXVXSXFXCXBXCXCXCXCXFXBXFXFXCXFXBXBXCXFXGXFXGXCXCXCXCXmXmXNXNXmXmXNXmXmXmXnXMXnXmXBXLXGXFXZXFXBXFXBXFXFXZXFXCXFXFXGXHXHXHXHXHXHXHXHXHXBXHXHXHXHXHXHXHXHXHXHXHX",
"JXJXJXJXJXJXJXJXJXJXJXJXJXJXJXJXJXJXJXJXJXJXJXJXJXJXJXJXJXJXJXJXJXJXJXJXJXJXJXJXJXJXJXJXJXJXJXJXJXJXHXT.R.F.L.L.>XJ.>XF.H.H.D.D.D.J.H.J.H.J.J.U.J.J.L.U.J.J.J.P.T.P.P.P.T.P.T.P.J.T.T.P.T.T.T.=XY.L.Y.Y.Y.Y.Y.Y.Y.Y.Y.Y.Y.Y.Y.Y.;XT.T.;X;X;X>X;X;X;XY.Y.W.;X;XY.;XY.Y.;X8X1X1X;X1X;X1XY.1X1X1X;X1X2X1X3X3X<X1X<X;X<X<X3X3X1X3X1X:X;X3X3X3X;X;X;X:X3X3X3X:X3X;X3X3X8X4X3X3X1X3X4X1X1X3X1X4X1X4X4X:X8X6X0X0X6X0X:X:X0X:X6X0X:X0XqX6X0X0X:X0X,X0X0X0X8X8X0X8X8X8X] L ! Q ! o...&.&.-.%.6.*.=.e.=.6.e.8.w.e.e.e.e.r.w.y.a.e.e.r.p.p.a.a.s.p.p.s.p.a.s.s.[.[.s.[.+Xs.s.|.[.|.+X|.|.|.{.+X|.|.{.{.{.{.|.[.)._._.s.d.y.8.*.-.*.6.*.*.6.9.w.w.8.e.8.e.r.e.a.i.s.[.[.[.[.+X[.[.p.a.a.f.=.@.-.@.o.O.o.o.@.-.8.r.u.d.).s.s.[.[.).[.{.{.{.[.[.[.[.).).).)./.i.i.i.p.a.u.r.y.r.r.a.a.f.f.r.r.f.f.r.f.6.e.e.6.6.6.6.*.$.$.+.+.#.#.! ! ! ! ! c 4 x e.t.t._.t.9.9.,.#.,.,.#.^ ^ ~ ^ ~ ~ ~ ^ ;.~ ;.;.~ ;.^ ~ ;.;.~ ( ] ^ ;.;.] ;.>.Z. XtXgXhXnXnXVXVXSXVXBXmXBXBXBXBXBXFXZXBXBXBXCXCXFXCXmXmXnXmXCXmXmXmXmXkXMXNXmXmXnXmXmXMXnXMXkXmXmXkXmXmXCXNXCXCXLXFXFXFXLXLXLXLXBXFXGXGXSXSXmXmXmXmXkXmXCXmXCXCXmXmXNXCXCXCXCXmXCXCXCXmXCXCXCXCXCXFXCXFXKXHXHXHXHXAXHXHXGXGXCXZXGXHXHXHXHXGXHXHXHXHX",
"JXJXJXJXJXJXJXJXJXJXJXJXJXJXJXJXJXJXJXJXJXJXJXJXJXJXJXJXJXJXJXJXJXJXJXJXJXJXJXJXJXJXJXJXJXJXJXJXJXJXJX!.F.F.L.R.H.J.F.J.J.F.D.F.H.D.J.J.J.H.J.J.L.P.J.J.J.J.J.P.T.P.T.R.P.T.=XR.>XJ.P.T.>XT.-XT.Y.Y.Y.Y.Y.Y.Y.R.Y.Y.Y.Y.Y.Y.7XY.;X;X;X;XY.;XY.;X;X;XY.Y.Y.;X;X1X;X;X1X1X1X1X1X1X1X1X;X1X1X1XY.;X;X;X1X<X1X1X3X1X;X;X1X1X<X3X;X2X3X3X;X:X:X3X:X3X3X3X;X:X1X:X3X:X1X3X1X3X3X4X1X1X1X1X4X1X8X3X3X8X3X3X6X8X0X6X,X;X:X:X0X0X0X0X0X0X0X0X0X0X0X0X0X0X0X0XqX8X9X8X9Xk.^ ~ ! +.$.@.@.-.-.X.-.6.=.6.=.e.8.e.4.e.w.e.r.a.w.y.a.r.r.y.a.a.p.p.p.p.p.s.s.p.p.s.s.s.[.[.[.s.+X[.[.[.[.[.[.+X{.{.{.{.{.+X{.{.[.[.)._._.).u.r.=.*.*.6.6.6.8.8.w.8.8.8.=.8.e.e.a.p.i.i.i.[.[.[.{.{.+Xp.a.a.f.=.-.@.O.O.$.o.D $.=.e.r.y.d.s.).).[.[./.[.{.{.{.|.[.[.[.).).[.).).).s.i.p.a.a.y.y.a.a.r.f.f.r.f.f.f.r.r.f.f.e.f.8.8.6.<.*.*.%.$.+.! ^ F ^ ^ ! ! g c ..w./.^.^.0.u.&.,.,.#.^ ~ ~ ^ ;.^ ;.~ ' ^ ~ ^ ' ^ ^ ] ] ^ ] ~ ~ ;.;.;.] ;.;.;.M.C. XyXxXxXnXnXVXSXVXSXBXmXNXmXZXFXFXZXGXFXFXBXmXLXCXmXmXnXmXnXmXmXmXmXmXMXmXMXMXkXmXmXnXmXmXnXmXmXmXmXmXmXmXmXmXDXCXFXFXBXBXLXFXZXSXGXFXFXSXVXCXmXAXmXkXmXCXCXCXmXmXMXmXmXCXCXCXCXDXCXCXCXCXmXCXCXCXFXAXFXHXAXHXHXAXHXHXHXHXGXZXGXHXHXGXGXGXHXAXHXHXAX",
"JXJXJXJXJXJXJXJXJXJXJXJXJXJXJXJXJXJXJXJXJXJXJXJXJXJXJXJXJXJXJXJXJXJXJXJXJXJXJXJXJXJXJXJXJXJXJXJXJXJXKXT.~.D.R.D.F.J.H.H.S.H.H.v.F.H.J.D.H.H.H.L.J.U.L.J.J.J.P.P.>XP.R.=XT.>XT.P.T.P.T.P.T.T.T.-XY.Y.Y.L.Y.R.Y.Y.Y.Y.Y.Y.Y.Y.Y.IX;XT.-X-X;X;X;X;X;X;X;XY.1X;XY.Y.1X;X1X1X1X1X1XY.Y.1X;X;X1X1X1X;X-X:X1X3X3X3X1X<X:X<X<X3X1X2X;X1X:X3X3X3X3X3X3X:X3X;X3X;X;X3X3X3X4X1X1X4X3X3X3X3X1X3X4X4X3X4X1X0X8X3X8X6X6X8X:X0X:XqX,X0X0X0X0X:X6X0X:X0X0X0XqX0X0X0X0XqX0X9X9Xk.R ^ Q +.#.&.$.@.-.q.-.q.6.=.f.6.f.e.e.e.e.r.a.r.r.a.a.y.r.a.r.r.a.p.s.p.s.p.s.s.s.s.s.+Xs.[.[.s.[.s.|.s.|.+X|.|.OX{.+X[.[.{.{.{.[.[._.).).d.u.8.=.*.8.8.8.6.6.w.w.w.w.8.=.8.e.w.a.p.s.i.i./.[.[.[.[.[.i.p.r.e.=.@.O.O.-.*.O...-.6.8.r.r.s.s.).|.[.[./.[.[.{.{.{.|.{.[.[.).).)./.).i.i.i.i.p.a.a.a.a.a.f.a.a.f.f.f.r.r.f.f.8.6.6.*.*.=.*.*.%.#.+.#.o.! #.#.! S 4 x &.t.u./.u.1.<.+.%.,.#.~ ~ ^ ^ } ~ ^ ^ ^ ^ ^ ] } ~ ^ } ] ^ ;.^ ;.] ;.] ;.] { >.M.Z.XXtXhXnXnXSXLXZXSXVXmXnXBXBXFXZXFXGXGXFXFXBXCXCXCXCXmXmXNXmXmXNXkXNXMXkXkXMXMXMXmXnXMXMXnXMXMXmXmXmXmXmXCXmXmXLXmXFXLXFXFXLXFXLXLXSXFXZXSXVXCXmXmXAXmXmXmXAXCXCXmXNXmXCXCXCXDXCXCXCXCXCXCXDXDXCXCXDXFXFXFXHXHXGXHXHXHXHXHXHXHXHXHXHXHXGXGXHXAXGXGXAX",
"JXJXJXJXJXJXJXJXJXJXJXJXJXJXJXJXJXJXJXJXJXJXJXJXJXJXJXJXJXJXJXJXJXJXJXJXJXJXJXJXJXJXJXJXJXJXJXJXJXJXHX!.F.D.D.D.J.H.S.>XF.H.D.S.D.D.D.H.D.J.J.J.J.J.J.J.J.U.J.T.R.P.P.T.-XT.>XP.T.T.P.T.P.P.T.-XY.Y.Y.Y.Y.Y.Y.Y.R.Y.Y.Y.Y.1XY.Y.;X;X-X-X-XW.T.;XW.;XY.;X;XY.;X;X1X1X1XY.1X;X1X1X1X;X;XY.;X;X1XY.-X-X<X1X3X<X3X<X;X<X;X1X<X;X<X1X3X;X:X3X3X3X:X3X3X:X:X;X;X2X;X3X1X1X3X1X4X1X1X3X1X3X4X0X8X1X4X3X8X4X4X0X8X6X0X:X:X:X0X:X0X0X0X0X4X0X0X0X0X0X:X0X0X0X0X8X8X8X8Xk.l ! ! ! o.*.$.@.X.6.-.*.6.*.f.6.=.e.e.e.e.r.r.r.w.r.y.y.r.a.y.r.p.p.p.s.p.s.s.s.s.s.s.s.+X[.s.+Xs.+X[.[.|.|.|.|.|.|.[.[.[.[.[.{.[.[.|.).d.d.8.6.*.8.8.w.8.8.8.w.t.w.e.8.f.=.8.e.y.i.i.).).[.[.[.[.[.[.i.a.r.f.6.-.O.O.&.*.@...-.8.8.r.y.i.p.).{.[.[.[.[.{.[.+X[.{.{.[.)./.).).i.).i.i.i.i.i.p.r.r.r.f.r.r.f.r.r.r.r.e.f.8.6.6.6.=.=.*.%.%.&.#.#.#.#.#.#.^ ! k : ..9.9.9.^.C.2.O.#.%.;.^ ~ ^ ^ / ^ ^ ^ ^ ^ ^ ;.~ ;.} ^ } ^ ;.' ] ;.>.;.;.;.;.>.>.C.!.yXgXhXSXVXVXZXFXFXVXmXNXBXBXFXZXZXFXFXGXBXBXNXCXmXNXmXnXnXmXkXmXNXmXNXkXMXkXkXmXkXMXmXMXnXMXmXCXmXmXCXmXmXCXmXmXmXmXBXFXFXLXLXSXVXSXSXLXBXSXmXAXmXmXNXmXNXmXCXAXmXmXCXCXDXCXCXCXCXmXmXCXCXCXCXCXCXCXCXCXFXHXHXHXHXHXHXHXHXHXHXHXHXGXGXGXGXHXHXHXHXGX",
"JXJXJXJXJXJXJXJXJXJXJXJXJXJXJXJXJXJXJXJXJXJXJXJXJXJXJXJXJXJXJXJXJXJXJXJXJXJXJXJXJXJXJXJXJXJXJXJXJXKXKXT.F.F.R.L.J.J.J.J.J.F.H.H.F.D.H.H.J.H.J.J.J.J.J.H.P.J.T.P.P.P.T.>X-XY.T.T.>XP.T.P.T.=XT.T.Y.Y.L.Y.L.Y.Y.Y.Y.L.Y.Y.Y.Y.1X1X;X;X;XY.;XT.-X;X<X;X;X;XY.1X;X;X1X1XY.1X1X1X;XY.1X1X;XY.1X1X;X1X-X-X<X3X3X<X1X1X<X<X;X;X-X<X;X<X;X;X3X3X3X3X3X3X:X2X;X;X<X<X3X3X<X<X3X3X1X4X1X1X1X3X4X3X4X3X3X8X6X8X8X4X:X0X0X0X0XqX:X,X0X0X0X0X0X0X0X0X0X0X:XqXqX0X0X0XqX8X9Xk.L ^ ;.G #.$.&.&.q.6.X.q.=.-.6.6.=.e.e.e.e.r.r.a.a.a.r.r.a.y.y.p.p.p.p.s.s.p.p.a.s.s.s.s.s.+Xs.[.[.[.+X|.+X[.+X[.{.{.}.{.+X|.[.{.[.|.|._.d.u.8.6.=.8.8.w.8.w.t.y.y.r.r.e.1.e.e.e.a.p./././._.{._._.{.[.i.p.a.f.=.X.3.3.&.*.&.X.@.1.w.u.i.i.i.i.`.[.).).+X[.[.[.+X[.[.[./.).[.[.).).i.i.i.p.p.a.r.e.e.r.f.e.e.r.w.r.f.6.6.8.6.=.*.=.q.*.-.@.+.#.+.#.! #.! ^ ! k g $.9.0.9.^.<.$.#.;.#.#.~ #.^ } ~ ^ ^ ^ ^ ;.;.' ^ } ;.;.} } } ] ;.;.;.;.;.] ] >.>.C.!.tXgXPXVXVXVXZXLXVXmXnXBXZXFXZXFXZXCXZXCXCXCXCXCXNXmXBXnXNXmXmXkXmXNXmXnXnXmXMXmXMXnXnXMXnXMXmXmXCXCXmXmXmXmXmXmXmXSXBXLXLXLXBXmXmXmXMXSXSXVXmXmXmXmXmXmXmXNXCXmXmXmXmXAXCXDXAXDXmXCXCXCXCXCXCXFXCXCXCXCXFXHXHXHXGXHXHXJXHXHXHXHXHXHXGXGXHXGXHXHXHXHX",
"JXJXJXJXJXJXJXJXJXJXJXJXJXJXJXJXJXJXJXJXJXJXJXJXJXJXJXJXJXJXJXJXJXJXJXJXJXJXJXJXJXJXJXJXJXJXJXJXJXJXHXW.R.R.L.L.J.J.J.J.J.F.H.H.v.D.H.F.H.H.J.J.P.J.J.J.J.J.P.P.J.T.P.T.T.-XT.P.T.Y.T.T.P.T.-X>XY.IXY.Y.Y.Y.L.Y.Y.Y.Y.Y.Y.IXY.Y.>XY.;X;X;X;X;X;X-X;X;X;X1X1X;X;X1X;X;X;X;X1X1X;X;XY.1X1X1X1X1XY.;X<X<X1X1X3X3X<X3X<X<X;X:X;X<X<X:X3X:X3X3X3X:X3X3X;X3X:X:X;X;X:X1X3X3X3X4X1X3X1X2X3X3X8X4X3X3X4X8X6X8X6X0X0X:X0X0X:X0X:X:X:X0XqX0X5X0X0X0X0XqX:XqX6X0X0XqXW.W.] / S ! ! %.@.@.*.*.-.-.=.6.-.6.6.6.e.e.e.e.a.e.e.r.r.e.r.a.a.a.i.a.p.s.s.s.p.p.a.s.s.[.s.[.s.s.[.[.[.s.|.s.[.[.|.{.{.{.|.[.[.{.{.|.`._._.u.8.8.6.8.9.w.w.w.w.t.y.r.y.t.e.e.e.w.e.a.i././.[.{.`.`.`.[./.i.a.a.e.=.-.@.-.-.*.&.@.@.*.r.i./.).i.s.{.[.).).).[.{.[.[.[.[.[._.).).[./.).i.i.a.p.p.a.r.a.r.r.e.e.f.e.e.r.f.6.6.e.6.6.*.*.6.*.&.@.+.@.#.#.+.;.~ ! ^ h z &.C.9.0.<.$.%.%.o.o.#.^ ~ ^ ^ ;.^ ;.^ ^ ~ ~ ;.} ;.} ;.^ } } ;.;.;.] ;.[ ;.;.2.M.Z.!.yXhXnXVXSXVXLXVXmXVXnXBXLXGXCXZXCXGXGXGXZXZXCXCXCXmXmXBXmXBXmXBXNXmXmXmXNXmXnXmXnXMXMXnXnXMXmXBXCXmXmXnXCXCXmXmXmXmXSXLXLXLXLXSXmXNXnXMXnXSXMXmXNXmXmXNXmXmXMXmXmXCXCXCXCXAXCXCXCXCXCXmXmXmXCXAXFXCXFXCXFXHXHXGXHXGXHXHXHXHXGXGXHXGXGXHXHXHXHXHXHXJX",
"JXJXJXJXJXJXJXJXJXJXJXJXJXJXJXJXJXJXJXJXJXJXJXJXJXJXJXJXJXJXJXJXJXJXJXJXJXJXJXJXJXJXJXJXJXJXJXJXJXJXKXR.G.F.J.J.J.J.J.J.F.H.D.J.H.H.H.J.H.J.J.J.P.J.H.J.J.P.P.P.J.P.P.T.T.T.T.P.=XP.>XT.T.T.T.T.Y.Y.Y.Y.Y.L.Y.Y.Y.Y.Y.Y.Y.Y.Y.1XT.;X;XT.;XT.;X-XY.;X1X;X1XY.1X1X1X1XY.1X1X1X1X1X1X1X1X1X1X1X1X1X1X3X3X<X<X3X1X3X3X3X2X;X3X;X<X1X:X;X:X3X3X:X:X3X3X3X:X;X;X:X:X;X1X1X3X4X4X4X3X1X1X3X1X4X1X1X1X3X8X8X6X8X:X0X:X0X0X:X:X0X0X0X0X0X0X0X0X0XqX,X0X8X0X0X8X8X8X8X;X[ R S ! #.#.$.X.=.q.-.-.q.*.6.=.e.=.e.e.1.e.e.w.e.a.r.e.a.r.r.a.y.p.p.p.s.s.p.p.p.s.s.s.+X[.s.[.[.[.[.[.[.[.[.|.}.{.{.{.|.+X|.+X{.`.|._./.u.8.8.8.e.t.u.t.9.w.u.y.u.a.u.e.=.e.e.a.p./.).[.{.}.{.`.[.{.s.s.p.p.e.=.-.X.-.=.1.*.-.-.*.e.p./.).[.).[.s.[.+X[.[.}.{.[.[.[.[.[./.[.i.p.s.s.i.i.a.a.r.r.a.a.r.e.e.e.e.e.e.f.e.6.8.6.6.6.*.=.*.$.@.+.+.#.#.! ,.! ! #.z k %.0.0.<.;.%.,.#.o.^ #.^ ^ ~ ^ ;.^ ~ ^ ^ ~ ;.^ } } ^ ;.h.;.;.;.{ ;.[ ;.>.;.;.g.2.!. XtXPXnXVXVXFXBXBXSXmXmXBXBXBXCXCXCXFXZXGXFXZXHXCXBXBXmXCXBXBXBXCXCXCXNXmXNXBXCXmXNXMXnXmXnXMXmXBXCXCXCXnXmXCXmXmXnXmXNXmXBXBXFXLXSXnXnXmXSXVXmXCXmXCXAXCXmXMXmXmXNXCXCXCXCXCXDXCXCXCXmXCXCXCXCXDXCXCXCXCXCXCXGXGXZXHXGXGXGXHXGXHXHXGXZXHXGXGXGXGXHXGX",
"JXJXJXJXJXJXJXJXJXJXJXJXJXJXJXJXJXJXJXJXJXJXJXJXJXJXJXJXJXJXJXJXJXJXJXJXJXJXJXJXJXJXJXJXJXJXJXJXJXJXJXT.F.F.D.F.J.J.J.F.H.F.D.D.J.H.J.H.H.J.H.J.P.L.J.H.J.P.J.J.J.J.J.T.>XT.P.T.T.T.Y.Y.Y.Y.>X-XY.Y.Y.Y.Y.Y.Y.R.Y.Y.Y.Y.Y.Y.Y.Y.;X;X;X;X;X;XT.T.;X-X8X1XY.1XY.IX;X;X;XY.1X1X1X1X1X1X1X1X1X1X1X1X3X3X3X1X1X1X3X3X3X1X3X<X<X;X1X2X:X:X;X;X3X;X3X;X3X3X3X:X-X:X-X-X1X1X1X4X0X4X3X3X3X1X3X1X1X1X4X1X3X6X3X3X0X:X0X0X:X0X:X0X0X0X0X0X0X8X0XqX0X0X8X0X0X0X0X0X0X8X9XUXV / #.#...%.@.q.6.X.-.-.=.4.=.e.=.=.e.e.1.t.r.e.r.e.r.r.r.t.r.r.s.a.a.p.p.p.p.s.s.s.s.[.s.+Xs.[.[.+X[.s.+Xs.|.{.{.|.{.+X|.{.|.{.}._._./.t.<.=.8.8.t.y.t.w.t.u.u.i.y.r.8.=.e.a.a.p./._.{.OXOXOXOX|.|.|.s.p.p.a.f.=.-.-.=.1.*.-.=.-.8.u.p._.{.[.).[.|.[.[.+X}.[.)./.[.[.).[./.i.i.).).).i.y.y.r.a.a.r.f.e.e.a.e.=.f.f.6.e.6.6.*.6.-.*.$.$.@.@.#.! ! ! ;.~ ! ^ h k 0.%.;.$.%.#.#.#.~ ;.^ ;.;.;.;.^ ;.;.~ ^ ~ ~ ^ ;.;.g.} ;.] ;.{ ;.>.;.;.>.g.{ >.M.!. XiXhXSXVXFXVXZXBXVXVXNXnXNXmXBXBXAXCXCXFXCXAXCXFXBXBXCXCXCXCXCXCXCXCXNXmXmXNXCXNXMXNXMXnXMXnXmXmXCXCXmXnXmXCXnXnXmXmXmXmXmXLXFXBXSXmXmXnXmXSXCXCXCXCXCXCXCXmXkXmXmXAXDXCXFXFXCXCXCXCXDXCXCXmXCXCXFXFXCXCXDXCXZXCXCXCXHXZXHXZXGXHXGXHXZXFXZXHXHXZXFXGX",
"JXJXJXJXJXJXJXJXJXJXJXJXJXJXJXJXJXJXJXJXJXJXJXJXJXJXJXJXHXJXJXJXJXJXJXJXJXJXJXJXJXJXJXJXJXJXJXJXJXJXKXF.F.F.D.L.J.J.F.F.H.H.H.F.H.H.H.J.D.J.J.H.J.J.J.J.J.L.P.J.T.J.J.>XT.J.R.P.P.P.T.J.P.T.Y.T.Y.Y.Y.Y.Y.Y.L.Y.Y.T.Y.Y.Y.Y.Y.Y.;X;X;X;X;X;X;X;X1X1X1X1X1X1X1XY.Y.Y.;XY.1X1X1X;X;X1X;X-X1X1X1X;X3X1X1X3X3X3X3X1X3X1X<X1X3X3X3X1X3X3X3X:X3X3X:X;X3X3X3X;X:X;X:X:X1X3X3X4X3X4X1X3X3X3X3X3X1X3X4X4X6X:X3X3X6X3X8X0X0X0X:X,X0X0X0X0X4X8X0XqX8X0X0X0X0X0X0X1X8X8XcXN.C ^ +.^ o.+.$.q.@.6.q.-.6.6.=.1.f.f.e.1.e.e.r.a.r.e.a.r.a.r.y.a.p.p.a.p.s.s.+Xs.a.+Xs.s.+X[.[.s.|.|.[.+X[.|.{.[.{.[.|.{.{.|.}.}.}.|._.].1.*.9.1.t.8.8.8.9.t.t.u.u.u.e.e.w.e.e.i.i.).|.&X&X&X&XOXOX|.|.+Xs.s.a.f.1.-.&.=.=.8.*.=.*.*.w./.[.p.{.{.{.[.{.[.[.|.[.[.[.[.[.[.)._./.i.i.i.i.i.y.a.a.y.r.e.r.e.a.e.e.8.e.8.8.8.6.*.*.6.*.%.*.&.@.o.#.#.! +.^ ^ ! k g z #.;.;.#.~ o.#.#.;.;.;.^ ^ ^ ;.^ ;.;.;.^ ~ ;.^ } ;.;.;.>.;.] ;.g.;.>.>.>.>.>.>.C.!. XxXhXVXSXVXFXAXCXNXmXNXNXNXCXNXNXBXNXCXBXBXAXCXCXCXCXNXBXBXBXCXCXmXAXmXmXmXCXMXMXNXnXnXmXnXnXCXCXmXNXmXnXmXNXmXMXmXMXmXmXmXmXFXFXLXBXmXmXmXBXAXCXCXCXmXCXAXCXmXmXmXCXCXFXCXDXCXCXCXCXCXCXmXCXCXCXCXCXCXCXCXmXZXCXCXGXCXZXZXHXHXHXHXGXGXZXCXZXZXCXGXGX",
"JXJXJXJXJXJXJXJXJXJXJXJXJXJXJXJXJXJXJXJXJXJXJXJXJXJXJXKXKXJXJXJXJXJXJXJXJXJXJXJXJXJXJXJXJXJXJXJXJXJXKXG.F.F.F.D.J.J.J.D.H.S.H.D.H.F.D.J.H.J.D.J.H.J.U.J.J.J.J.L.J.J.J.P.T.U.P.T.T.T.P.T.>XJ.T.=XY.L.Y.Y.R.Y.L.Y.IXY.Y.Y.Y.Y.Y.Y.T.;X;X;X;XY.;X;X1X1XY.IX1XY.1X1X;X;X;XY.;X;X1XY.1X;X1X1X;X1X1X;X2X1X3X<X<X1X1X2X3X1X3X<X3X1X1X3X;X3X3X;X:X;X;X:X:X3X;X2X:X:X;X;X1X<X3X3X3X3X3X1X1X1X1X4X3X4X8X4X3X8X3X8X8X3X6X0X:X0X0X0X6X0X0X0X8X0X0X0X9X0X0XqX0X4X0X0X0XW.qXM.V ^ ^ ^ o.@...*.@.*.*.*.=.6.f.e.=.8.f.e.f.e.e.e.e.e.w.r.e.a.r.a.p.p.p.p.s.p.p.a.s.s.+Xs.s.+X[.[.+X[.[.[.[.|.[.[.{.|.}.}.}.}.}.|.'.'._.d.1.-.1.1.1.4.t.t.t.t.t.t.p.a.8.1.4.t.a.t./.[.OX&X&X&X&X&XOXOX}.|.s.s.a.f.=.&.&.*.1.1.*.*.*.&.1.p.[./.{.[.{.{.{.[.[.{.[.+X[._.[.).).).i.i.i.i.i.p.a.u.y.y.y.w.r.t.e.1.1.8.8.8.8.8.=.=.=.=.*.-.*.$.+.o.+.o.#.:.#.! Q Q ~ ! ! O.#.#.#.^ ~ ^ #.;.;.^ ;.^ ^ ;.;.;.#.~ ^ ^ ;.} ;.;.] ;.;.>.;.;.;.>.[ ;.>.[ >.M.!.XXxXhXVXSXFXVXCXAXNXNXNXNXCXNXnXnXkXNXNXNXBXBXCXCXCXCXNXCXBXBXAXAXCXNXNXAXmXAXNXmXnXmXmXnXnXMXmXCXCXCXNXmXNXmXkXMXkXkXmXmXNXmXLXBXLXmXmXmXmXBXmXNXCXmXmXmXmXmXNXnXmXmXCXCXCXCXDXCXCXmXCXmXmXCXDXCXmXCXCXCXCXCXGXCXGXCXGXHXCXZXGXHXHXHXCXCXCXCXCXCXFXGX",
"JXJXJXJXJXJXJXJXJXJXJXJXJXJXJXJXJXJXJXJXJXJXJXJXJXJXJXKXHXJXJXJXJXJXJXJXJXJXJXJXJXJXJXJXJXJXJXJXJXJXKXG.F.F.F.D.J.J.H.F.H.H.H.H.J.H.F.D.H.F.H.H.J.J.U.J.U.J.U.U.J.J.J.>XP.J.P.T.-XY.T.T.T.P.T.T.Y.Y.Y.Y.Y.Y.Y.Y.Y.T.Y.Y.Y.Y.Y.Y.T.>X;X;XT.;XW.;X1X1X1X1XY.1X1XY.;XY.1X;X;X1X;X;X;X1X;X1X1X1X1X1X<X1X;X<X<X<X<X1X1X3X1X<X<X<X3X1X;X:X3X;X:X;X:X;X:X;X3X3X3X:X3X:X<X3X3X3X3X3X1X1X4X1X1X1X8X4X4X1X3X3X3X:X:X8X;X0X0X0X0X6X0X0X0X0X4X4X8X0X0X0X,X0X0X4X0X3X0X8XqXN.V Q ^ ! #.$.D 6.&.*.*.*.*.=.6.e.f.e.e.=.e.e.e.w.e.r.w.e.e.e.r.r.a.p.p.s.p.p.a.s.s.+Xs.s.s.[.[.s.).[.[.[.[.[.[.[.{.}.}.}.}.}.{.`.`.`._./.1.@.&.=.t.1.1.1.1.8.9.8.1.w.w.8.8.8.y.t./._.}.OX&X&XOX}.OX&XOX|.[.s.p.a.=.-.&.2.1.9.<.=.*.*.-.t./.[.{./.|.}.{.[.[.[.[.[.)._.[././.).i.u.i.p.p.y.y.y.r.r.a.a.r.e.e.e.1.w.=.e.8.=.=.6.6.*.*.%.$.@.o.+.+.^ ^ ;.#.~ Q ^ ^ #.#.^ ^ ~ ~ ^ } ;.;.;.^ ;.;.;.;.;.;.;.;.;.;.;.} ;.] ;.] >.>.[ g.;.;.;.;.>.>.;.>.C.!.yXgXhXVXVXFXZXNXCXNXAXCXNXNXNXNXkXNXNXNXNXBXAXCXCXCXNXmXCXNXCXCXCXCXmXNXNXmXNXmXnXNXmXnXnXnXCXmXNXmXCXNXmXmXmXMXkXMXMXmXNXNXmXBXBXLXBXmXNXBXFXmXmXNXmXmXMXmXmXmXmXmXCXCXFXCXCXCXCXCXmXCXCXCXCXCXCXCXCXCXmXCXFXFXHXHXZXCXGXZXFXHXGXGXZXCXCXCXZXZXGXGXGX",
"JXJXJXJXJXJXJXJXJXJXJXJXJXJXJXHXJXJXKXHXJXJXJXJXJXJXJXFXFXJXJXJXJXJXJXJXJXJXJXJXJXJXJXJXJXJXJXJXJXJXDXR.~.F.D.L.F.F.H.D.F.J.S.H.D.D.H.D.>XH.H.H.J.J.J.J.J.L.J.T.J.J.J.J.J.P.T.>XT.Y.>XY.P.T.T.>XY.R.Y.L.Y.Y.Y.Y.Y.Y.Y.Y.Y.Y.Y.1X;X;XY.;X-X-X-X-XY.Y.Y.7X1XY.1X1X;X;X1X-X-XY.;XY.;X1X;X1X1X;X;X1X-X-X;X-X;X:X;X;X3X1X<X<X1X3X1X<X2X;X:X3X:X:X-X-X;X3X:X3X;X;X;X:X1X<X<X1X1X1X3X1X1X4X1X4X0X0X8X4X8X6X3X3X6X:X0X8X:X6X0X,X0X0X0X0X0X8X8X8X0X0X0X0X0X3X0X0XqX8X9XG.V S ^ ! #.$.o.*.*.%.*.=.*.=.6.=.=.e.e.e.8.e.w.e.e.r.w.e.e.r.r.a.a.a.p.p.p.p.s.p.a.s.s.s.s.s.[.+Xi.[.[.[.|.|.{.[.{.[.|.|.}.}.}.{.|.'.`.u.1.O.&.*.&.&.2.1.9.9.8.8.8.1.1.8.8.=.8.i./._.{.OX|.OX}.}.&XOXOX|.[.s.p.a.1.-.$.&.1.1.*.2.=.*.O.9.(.{.[.[.}.}.|.{.[.[.[.)._.[._.).).).).i.i.i.i.y.a.a.r.e.a.e.t.e.r.e.8.e.1.8.8.=.=.<.=.*.*.-.$.$.o.+.+.#.! #.~ S Q ^ #.#.;.;.;.;.^ ;.;.;.;.^ ;.;.;.;.;.;.;.;.;.;.;.} ;.} ;.;.;.;.>.;.;.;.] ;.] ;.>.>.>.C.oXXXxXhXVXFXVXVXNXNXNXBXBXAXCXNXNXNXNXBXCXCXAXAXAXAXCXmXCXBXCXCXCXAXCXAXMXnXNXmXmXNXmXnXnXCXmXmXAXCXCXCXmXNXnXNXkXMXkXNXmXmXmXmXBXLXBXmXmXmXmXLXNXmXmXmXmXNXNXkXNXmXmXCXCXCXCXAXmXmXmXCXCXCXCXDXFXCXFXFXCXDXCXAXZXZXCXZXHXCXCXHXAXCXFXZXZXCXZXCXKXGXGXHX",
"JXJXJXJXJXJXJXJXJXJXJXJXJXJXJXJXJXKXHXKXJXJXJXJXJXJXJXFXFXJXJXJXJXJXJXJXJXJXJXJXJXJXJXJXJXJXJXJXHXKXMX~.R.D.R.D.F.F.H.J.F.J.J.D.H.J.F.J.D.F.J.J.J.J.P.P.J.P.P.P.J.J.J.J.J.R.>X-X-XT.>XY.T.P.T.T.Y.Y.Y.R.L.Y.Y.Y.Y.Y.Y.;XY.Y.Y.Y.>X;X;X;X;X;X;X;XY.1XY.Y.Y.7X7XIX;X1X1X;X;X1X;XY.1X1X;X;X;X;X;X;X;X-X;X;X<X;X;X;X3X;X;X<X;X2X3X3X:X3X:X3X3X3X;X:X;X:X3X3X:X;X:X:X<X1X<X3X<X1X1X3X4X1X1X4X0X0X0X3X8X6X3X3X8X8X6X8X0X:X0X0X0X0X6X,X6X6X0X0X0X0X0X0X0X6X0X0X0XqXqX,XU Z Q ^ +.+.$.$.%.@.*.6.=.=.e.f.=.=.f.8.e.e.e.e.e.e.w.r.r.r.a.r.a.a.a.p.s.p.s.+Xp.s.s.s.s.s.+X[.[.+X[.[.{.|.{.|.{.|.{.{.|.}.`.}.`.'._.u.*.@.3.*.-.3...5.x ..@.-.1.8.2.-.8.8.1.p.p./._._.|.}.}.OXOXOXOX|.).i.y.t.1.3.+.$.2.<.$.%.*.*.O.=.a.+X/.{.{.|.|.|.|.{.[.s.[.[._.).).).).i.i.i.u.i.y.t.r.r.a.w.w.t.t.e.e.8.e.8.=.1.=.*.*.*.*.@.+.@.+.+.#.+.#.#.Q S ~ #.} ;.;.;.;.;.;.} ;.;.;.;.;.>.;.;.;.;.;.;.;.;.;.;.;.] ~ ;.;.] ;.>.] ] ;.;.^ } ;.[ >.A.!.tXxXlXVXVXFXFXNXNXNXAXAXCXNXNXNXNXNXNXNXAXAXAXmXAXAXAXBXNXBXBXCXCXAXBXNXnXAXAXAXmXmXCXNXCXBXAXmXCXAXCXNXmXnXmXkXmXNXMXmXmXmXAXCXmXCXmXmXmXmXCXNXmXmXmXmXmXmXNXMXmXmXAXAXmXmXmXmXmXCXCXmXCXmXCXCXFXHXFXCXAXCXFXHXZXZXHXFXZXCXZXCXCXZXZXFXCXZXHXGXGXHXGX",
"JXJXJXJXJXJXJXJXJXJXJXJXJXJXKXJXHXFXFXFXJXJXJXJXJXJXJXFXFXJXJXJXJXJXJXJXJXJXJXJXJXJXJXJXJXJXJXJXKXKXmXS.F.D.D.D.D.D.J.F.J.D.D.D.H.H.H.H.H.H.J.J.J.P.J.J.J.J.J.P.J.J.J.J.J.T.T.Y.T.-XT.T.T.T.>X-XY.Y.Y.Y.Y.Y.Y.Y.Y.Y.Y.Y.Y.Y.Y.Y.T.T.;X;X;X;X;X;XY.7X1XIX1X1XY.Y.1X1XY.-X-XY.Y.;X1XY.;X;X1X1X-X1X<X-X:X<X<X1X<X<X1X<X:X-X;X;X;X;X3X3X3X8X3X3X3X:X:X;X;X:X:X;X;X:X3X<X1X1X3X<X3X<X8X4X4X0X0X0X0X3X3X8X3X:X:X3X8X:X:X0X0X0X0X0X0X0X0X,X0X6X0X9X0X0XqX5X0X0X8X8X0X,X| F / #.! o.<.$.*.&.*.=.=.=.=.4.=.=.e.6.=.e.w.e.f.e.w.a.a.r.p.p.a.a.p.p.a.p.p.s.s.s.s.s.+X[.[.s.[.[.s.[.[.|.[.[.}.}.}.|.}.`.|.}._.'.].u.8.@.O.@.O.......X...x c x $.*.$.1.8.9.t.u.p.^.^.+X).{.{.{.{.{.[.).i.y.t.1.@.O.O.$.<.%.&.&.&.O.*.p.`.+X[.+X{.|.{.{.[.[.s.).[._.)./.).).u.i.a.i.a.a.p.y.a.t.r.w.t.w.e.1.8.8.8.=.8.6.*.*.*.*.@.@.X...! +.! ;.#.~ ! #.;.#.#.;.;.;.>.>.;.{ ;.^ g.;.;.;.;.;.;.;.;.;.;.;.;.;.;.] ;.;.;.;.g.;.;.] ;.;._ ;.;.M.(.,XaXnXVXVXVXVXFXBXAXAXAXAXAXAXzXNXNXzXNXNXNXBXNXAXNXmXNXNXNXAXAXAXCXAXBXNXAXmXAXCXAXAXmXNXCXBXCXNXCXCXBXCXkXmXnXmXmXNXmXmXCXmXmXCXCXCXCXNXnXCXmXmXmXmXAXNXmXNXmXNXmXmXCXmXmXNXmXmXAXCXmXCXmXmXCXCXFXFXFXFXCXFXHXHXHXHXCXGXZXZXCXAXCXHXZXZXGXHXGXJXGXHXJX",
"JXJXJXJXJXJXJXJXJXJXJXJXJXJXKXKXFXFXmXFXHXJXJXJXJXJXJXLXmXJXJXJXJXJXJXJXJXJXJXJXJXJXJXJXJXJXJXJXJXKXMXF.~.R.R.D.D.D.F.H.F.F.D.D.F.H.H.H.D.J.J.H.U.J.P.J.P.J.P.R.J.>XP.J.P.T.-XT.T.=X>XT.P.T.T.-XY.Y.Y.Y.R.Y.Y.Y.T.Y.Y.Y.Y.;X-XY.T.-X;X;X;X;X;X;XY.IX1X1X1X1XY.4XY.1X;X;X;X1X1X;X;X;XY.1X-X1X1X-X<X<X;X1X<X3X3X<X<X<X-X-X;X:X:X;X;X3X3X6X3X3X3X3X;X:X:X-X-X=X-X-X1X<X3X<X1X1X1X3X8X4X0X4X4X0X8X5X6X3X8X;X8X;X:X8X0X:X,X0X0X6X0X:X0X:X0X,X0X,X,X6X0X0X0X0X8X,X:XyX7.V ~ #.! o.<.$.*.*.*.*.=.=.=.=.e.e.8.f.e.e.r.r.e.e.r.r.r.r.a.r.p.p.p.a.p.p.a.s.s.+X+Xs.s.+X[.[.[.[.[.[.[.[.[.|.}.}.}.|.|.[.}.`.`.'._.].u.&.O.3.=.&.&.2.y./.t.<.x x o.*.&.=.w.t.(.i./././././.{._._.).).).s.u.9.3.o.o.O.$.,.%.&.@.O.O.&./.{.{.{.[.|.|.|.+X[.s.+X).).)./.).).).i.i.i.i.u.a.t.r.r.t.e.1.w.w.8.8.=.8.6.1.1.q.*.&.*.-.@.@.o.+.+.#.! #.^ ~ ^ ;.;.^ ^ ;.;.:.>.;.} ;.} g.;.;.;.;.;.;.;.;.;.;.;.;.;.;.;.] ;.;.;.>.;.>.;.;.;._ ;.>.>.M.!.XXaXhXVXVXFXFXFXCXAXAXAXAXAXAXNXNXNXzXNXNXNXAXNXNXNXNXNXNXNXBXBXBXAXNXBXNXmXNXAXAXCXAXCXCXBXCXCXNXCXCXBXNXkXnXnXNXmXkXmXCXCXmXCXCXCXDXCXmXNXmXCXmXmXmXCXmXAXmXmXmXmXCXmXmXNXmXCXmXCXCXmXDXCXCXCXAXCXFXHXFXFXHXAXGXHXGXGXFXZXCXCXBXCXZXFXCXGXZXHXJXGXHXHX",
"JXJXJXJXJXJXJXJXJXJXJXJXJXJXJXJXFXDXmXFXKXJXJXJXJXJXJXBXmXJXJXJXJXJXJXJXJXJXJXJXJXJXJXJXJXJXJXJXJXKXMX~.x.D.L.F.D.D.F.F.J.H.D.D.>XF.D.H.D.H.H.J.J.J.J.P.J.P.J.P.P.P.R.P.J.T.=XT.T.P.T.T.P.P.T.-XY.Y.Y.Y.Y.Y.Y.Y.;XY.Y.Y.Y.Y.Y.Y.T.T.T.;XT.;XT.;X1X1X1X7XY.IX7XIX;X;X;XY.;XY.;X-X1X1X1X-X;X;X;X;X1X3X3X1X3X1X3X3X;X;X-X:X;X<X;X:X:X;X3X8X4X3X3X3X;X:X-X-XP.Y.-X;X1X3X1X<X3X<X3X3X4X0X0X0X4X4X4X8X3X8X6X3X:X6X:X8X0X6X6X0X0X:X6X6X0X,X0X0X0X0X:X0X8X8X0XqX0X0X0XcXV.v Q ^ ! +.*.$.$.=.*.@.*.8.=.1.e.=.e.6.6.4.e.e.f.f.e.e.e.r.r.r.a.p.p.a.a.a.s.p.p.s.s.s.s.s.[.[.[.[.[.|.{.[.|.}.|.|.}.}.}.}.[.}._.'._.'./.1.@.O.-.&.4.t.t.u./.].=.c h O.O.2.u.w.t.t./.(././././._._.].).).i.u.1.O.o.o.! O.o.! ..o.O...-.{.+X{.`.[.+X{.+X+X[.[.[._.[.)././.).).i.).i.i.p.a.r.r.e.t.t.w.e.8.e.8.1.=.1.8.*.-.*.=.*.%.X.+.@.+.$.#.#.! #.! ~ ~ #.;.:.^ } ;.:.;.;.g.;.} ;.;.;.>.;.;.>.;.;.;.] ;.;.;.;.;.;.;.{ ;.>.] ] ;.;.;.} >.>.C.!.tXxXnXVXVXFXFXVXZXAXAXAXAXAXNXAXNXAXNXNXAXNXAXNXAXNXNXmXNXNXNXBXNXBXBXNXNXNXCXAXCXCXCXCXnXmXkXnXnXmXNXmXNXmXnXmXMXMXkXmXmXCXCXCXCXDXCXCXAXmXmXnXmXCXCXCXCXCXNXmXmXmXCXAXmXmXmXAXAXCXCXCXCXCXCXCXKXCXFXAXFXHXFXHXHXHXGXHXGXCXGXCXBXBXCXCXGXCXGXHXGXGXJXJX",
"JXJXJXJXJXJXJXJXJXKXJXJXJXKXKXKXDXSXSXDXKXKXJXJXJXJXJXmXMXHXJXJXJXJXJXJXJXJXJXJXJXJXJXJXJXJXJXJXKXJXbXF.F.F.R.J.J.D.F.J.J.F.D.D.c.F.H.H.J.H.J.J.J.J.P.J.J.P.P.J.P.P.J.P.=XT.Y.T.=XT.=XT.-XY.-X-XIXY.Y.Y.Y.Y.Y.Y.Y.Y.Y.Y.Y.Y.Y.Y.Y.Y.Y.Y.Y.7XY.IX7XY.IX7X7XY.Y.Y.;X1X;X1X;X8X;X;X;X;X1X;X;X-X;X;X:X;X;X6X:X0X:X,X6X:X:X:X;X:X;X;X3X8X3X3X;X3X3X3X3X;X3X;X;X:X;X3X8X;X3X6X3X;X;X;X8X4X8X0X8X3X3X8X3X8X:X8X:X;X0X:X0X:X0X0X:X:X0X0X8X3X0X8X8X8X,X0X0XqX0X0XqX,X0X,X7.v / ;.Q %.$.$.8.*.$.&.1.=.8.=.=.e.e.=.e.8.r.=.e.e.w.e.r.r.p.p.p.a.r.p.p.p.s.s.p.p.s.s.s.s.s.|.|.|.|.[.[.[.|.[.}.|.[.|.|.|.[.[._._._.|.y.t.8.&.O.-.=.1.4.u.t.1.=.&.D x ..&.1.1.w.t.i.t.u./.i.u.d.d._.).9.9.C.2.O.O.c : c x S D -.x ..t./.`.{.{.{._./.).)._._.).[.[.s.s.i./.s.p.).i.i.i.y.a.r.t.r.t.w.1.1.e.8.=.=.6.8.6.*.*.-.6.@.o.@.o.$.%.! #.^ Q ! ;./ ;.:.;.;.;.:.} :.;.;.;.:.;.;.>.;.;.>.;.;.[ ;.;.>.;.>.;.>.;.>.[ ;.>.;.;.>.} } } :.>.~.oXtXiXnXBXBXGXGXGXZXAXAXAXAXAXAXAXAXNXAXzXAXNXNXNXCXmXmXAXNXNXNXNXCXNXmXNXNXNXAXNXAXmXAXmXmXNXmXnXnXnXnXmXmXmXmXnXkXmXmXNXmXmXNXmXNXAXCXCXCXmXMXmXAXCXmXAXCXCXCXCXCXmXmXNXmXAXmXmXmXNXmXCXCXAXCXCXCXCXFXFXFXCXCXHXHXHXHXHXAXCXHXHXCXZXCXCXBXZXHXZXJXHXJXJX",
"JXJXJXJXKXJXJXKXKXJXKXJXKXKXKXDXSXSXSXSXKXKXJXJXKXJXJXMXMXJXJXHXJXJXJXJXJXJXJXJXJXJXJXJXJXJXJXJXJXJXxXB.F.R.R.J.J.J.J.F.F.D.H.D.H.H.F.H.H.J.J.H.J.J.J.P.R.P.J.P.P.J.P.R.T.-XY.-XT.-XY.Y.T.T.T.-XY.Y.Y.Y.Y.Y.Y.Y.Y.Y.Y.IXY.Y.Y.Y.IXY.Y.Y.Y.Y.Y.4X7X4XY.Y.IXY.4XY.;X1X;X1X;X;X;X8X;X8X;X;X;X;X;X;X;X;X;X,X:X:X;X;X:X8X;X8X:X:X;X8X3X3X8X3X3X3X8X3X8X8X3X3X;X;X;X;X3X3X8X8X8X8X3X3X3X8X8X6X8X:X3X8X8X:X8X:X0X:X;X0X0X0X0X:X0X0X0X0X8X8X8X8X6X8X0X;X0X0XqX0X0X0X0X,XIX| R Q F +.*.@.*.<.*.=.1.=.6.=.=.e.8.e.e.=.e.=.f.e.r.e.r.r.r.r.p.y.r.y.p.p.p.s.s.s.s.s.s.s.|.s.|.|.s.|.|.|.|.[.[.[.|.|.|.{._.|.[.s.s.)._.i.t.=.*.-.3.&.1.4.1.1.2.&.o.5...3.2.9.t.t.t.t.p.u.p.p.p.u.u.u.t.u.2.$.$.c c x O.+.o.....x $.[.{.i.+X}._._.)._.[.[.[._./.[.[.[.i.).i.+X/./.i.p.p.u.a.t.u.w.w.w.e.8.1.=.*.6.8.*.*.*.q.*.$.@.#.o.+.#.o.#.F G Q ^ #.;.:.;.:.:.;.;.} :.{ ;.;.>.>.;.>.>.>.>.>.;.;.>.;.>.;.;.>.;.>.;.>.;.>.>.>.:.>.>.>.V.Z.!.tXgXmXBXFXFXFXBXHXAXAXAXAXAXAXCXAXNXNXAXAXAXAXCXAXAXNXnXNXNXmXNXNXAXAXNXnXNXAXmXAXAXmXmXCXNXmXmXnXnXBXNXNXnXmXnXmXkXMXkXNXmXkXMXCXCXCXCXCXmXmXNXmXmXmXmXmXCXCXCXmXmXmXmXmXCXCXmXmXmXmXCXCXmXmXmXCXCXAXCXAXHXFXCXZXCXCXHXCXHXCXCXZXCXCXCXCXGXGXGXJXHXGXJX",
"JXJXJXKXKXJXJXJXKXJXKXKXKXDXDXDXSXSXMXSXDXKXKXJXKXKXHXMXvXHXJXHXJXJXJXJXJXJXJXJXJXJXJXJXJXJXJXJXKXJXcXS.F.F.R.L.J.J.J.F.J.D.D.v.H.H.H.J.H.J.J.H.>XJ.P.J.P.P.P.P.J.T.J.P.Y.T.=XT.-X=X-XT.Y.-XT.-XY.Y.Y.Y.Y.Y.Y.Y.Y.Y.Y.Y.Y.7X4XY.7XY.Y.Y.Y.Y.4X7XY.Y.4XY.4XY.Y.7X;X;X;X8X;X8X8XY.;X1X<X;X;X;X;XY.;X;X;X;X;X;X;X:X;X;X8X:X6X:X;X;X;X;X3X3X8X3X3X8X3X6X8X8X3X;X3X;X8X3X4X8X8X8X4X3X;X3X3X8X3X3X3X4X0X:X:X8X0X;X0X;X0X:XqX0XqX:X0X0X3X0X0X8X0X8X8X8X:X0X0X,X0X0XwX,X9XT A Q ! +.$.$.@.&.*.1.=.*.6.=.=.f.=.r.e.=.e.e.f.e.r.e.r.r.r.p.a.y.y.p.p.p.p.s.s.s.s.s.s.s.s.|.s.|.|.|.|.|.|.[.).|.|.|.[.[._.[.s.).).).[.[./.i.a.1.&.-.*.*.2.1.2.2.&.O.o.x o.1.1.8.9.t.t.t.t./.^.9.9.^.9.2.%.O.c : c 2.1.$.o.X.c X.(.}././.[.{.{.{.[.{.{.[.).).[.).).i.p.s.).).i.i.i.a.p.a.t.t.a.8.8.r.8.1.1.=.=.6.6.&.*.6.*.+.$.*.$.+.O.! #.#.F S Q Q ;.:.;.;.:.;.;.:.;.;.:.:.>.:.>.>.>.{ >.>.;.>.>.;.;.>.;.{ ;.{ ;.;.;.>.;.>.>.} :.>.m.V.E.oXpXgXnXBXBXBXBXBXZXAXCXCXAXNXAXAXAXNXNXBXNXAXAXAXAXAXNXNXAXNXAXNXNXNXNXNXmXAXNXNXCXNXmXNXNXmXNXnXmXmXNXmXmXnXmXBXMXNXmXNXkXmXmXNXCXCXCXCXAXmXNXmXmXmXmXmXNXmXAXCXmXNXNXNXCXmXCXCXAXCXAXmXmXAXmXNXmXCXCXCXFXAXHXCXCXHXCXHXCXHXHXCXZXCXCXAXZXFXGXHXGXJXJXJX",
"JXJXJXJXJXJXKXKXJXKXKXKXDXDXDXbXSXSXbXSXDXKXJXKXJXJXHXPXuXHXJXJXJXJXJXJXJXJXJXJXJXJXJXJXJXJXJXJXKXJXiX~.F.G.R.J.J.J.F.J.J.H.D.H.F.F.H.H.H.J.J.H.U.P.J.P.P.R.J.P.P.L.L.P.P.-XT.-XT.T.Y.Y.=XT.-X-XY.Y.Y.Y.Y.Y.Y.Y.Y.Y.Y.Y.Y.7XIXY.Y.7XIXY.IX7XY.IXIX4X7XIX7X7XIX7X;X;X;X;X;X;X;X8X8XW.1X;X;X;X;X;X;X:X;X:X;X8X;X;X8X:X8X;X,X;X;X;X;X;X3X8X3X3X3X3X3X8X8X3X3X3X;X:X;X;X6X8X6X8X3X3X:X3X8X3X3X;X3X8X8X0X8X:X;X:X0X0X0X0X0X0X0X0X0X0X0X8X8X0X0X0X0X0XqXwX0X0X0X0X0X:XyX} R / #.+.D @.O.$.&.*.=.*.6.e.=.6.*.e.e.e.e.e.f.e.e.e.r.r.p.r.p.y.p.p.p.p.p.s.s.s.s.s.s.s.s.s.|.|.|.|.[.|.|.[.{.|.}.[.).).).).r.).).).).i.i.[.^.i.w.2.-.=.1.1.2.1.1.2.$.5...@.2.<.9.t.t.9.9.t.u.u.9.0.<.,.$.D c c x 2.$.O...D O.1./.{./._.}.[.}.|.|.}.[.[._.).[.).+Xi./.s.)././.i.u.u.u.t.t.r.w.1.1.e.8.=.8.=.*.6.*.*.*.6.-.X.@.$.+.o.o.o.o.#.Q Q Q F ,.;.:.:.;.:.;.;.;.;.:.;.{ ;.;.>.;.>.>.;.>.>.;.>.{ ;.;.;.>.;.>.;.;.] >.>.>.>.>.>.m.C.!. XpXgXNXBXLXBXZXSXAXAXAXNXNXNXBXAXBXCXNXzXkXAXAXAXmXNXNXNXNXAXmXNXAXmXNXNXAXkXmXAXAXmXnXmXNXnXmXnXmXmXmXNXmXmXBXmXNXNXMXkXNXmXNXmXCXCXCXCXmXkXmXAXAXNXNXnXMXNXmXAXmXmXAXmXCXCXAXCXAXCXmXAXCXmXAXmXCXmXCXCXAXFXCXCXCXCXCXCXCXCXCXAXFXZXCXCXGXGXHXHXJXGXGXJX",
"JXJXJXKXJXJXKXJXKXKXKXKXDXDXDXbXMXSXvXMXDXKXJXKXKXJXJXuXuXHXKXJXJXJXJXJXJXJXJXJXJXJXJXJXJXJXJXJXJXKXcXS.F.D.R.F.J.J.F.J.J.J.H.H.v.H.D.H.H.H.J.>XJ.P.P.P.J.P.P.J.J.J.R.P.T.Y.-XY.T.P.Y.T.=XY.=XT.Y.Y.Y.Y.Y.Y.Y.Y.Y.Y.Y.Y.Y.Y.Y.Y.IX7X7XY.7XIXY.7X7X4XIX7X4XY.Y.IX;X;X;X;X1X;X8XY.8X;X;X;X;X;X;X;X6X:X;X0X;X8X;X:X;X;X;X;X:X0X:X;X;X:X3X3X3X;X:X3X;X8X3X3X;X;X-X-X-X:X;X;X3X3X3X;X3X8X8X3X3X3X6X8X:X0X:X:X0X0X:X0X:X0X0X0X:X0X0X0X4X0X8X0X0X0X0X8X:XwX0X0X0X0X0X,XcXV.I / ! ! D %.O.@.$.*.=.*.8.=.=.8.-.6.6.r.r.8.6.w.e.r.e.r.r.r.y.p.p.p.p.p.p.p.s.s.s.s.s.s.|.s.}.|.|.[.[.[.[.[.|.|.|.[.)._._.).8.s.).s.).p.t._.i.+X/.w.2.=.1.1.<.9.(.9.<.$.....O.2.1.0.0.1.9.9.9.9.9.,.$.$.5.: : 5.$.o.x ....$.w.w.u.[.+Xi.[.}.}.{.{.[.[.[.[.[.s.[.[.s.s.s.+Xs.i.y.y.y.y.r.r.w.8.w.w.w.8.e.8.=.q.=.*.*.*.*.@.@.$.o.@.o.O.#.! #.! ! ! Q ,.;.:.;.:.:.;.;.;.:.:.;.>.;.>.>.>.;.>.>.>.>.;.;.>.;.{ ;.;.;.;.;.;.[ >.;.>.>.:.>.V.C. XtXgXnXnXBXBXBXLXBXAXBXBXNXNXNXBXAXZXCXNXNXNXNXCXAXAXAXNXnXNXAXNXNXNXAXmXNXNXNXBXBXCXNXnXNXNXNXmXNXNXmXBXnXmXnXBXBXmXmXkXmXNXmXAXnXCXCXmXAXNXkXmXAXCXCXmXnXkXmXNXNXkXNXCXCXmXCXCXCXCXCXAXCXAXFXAXAXAXCXCXmXCXCXCXCXBXCXCXCXCXCXHXCXHXZXCXHXHXHXHXHXJXGXJXHX",
"JXKXJXKXKXKXKXKXKXKXDXDXDXbXbXSXvXMXvXvXSXKXJXJXKXJXJXuXiXFXHXHXJXJXJXJXJXJXJXJXJXJXJXJXJXJXJXJXKXKXcXN.F.F.L.L.R.J.J.J.F.J.J.H.v.F.H.D.D.>XH.J.J.J.J.J.P.J.J.T.P.P.P.>XP.Y.Y.P.P.T.Y.T.=XT.P.T.Y.Y.Y.Y.Y.Y.Y.Y.Y.Y.Y.Y.Y.Y.7XIXY.Y.Y.Y.Y.Y.Y.Y.Y.Y.Y.7XIXY.7XIX;X;X;X1X;X1X;X;X;X;X;X;X;XY.;X;X:X,X0X;X0X;X8X8X8X;X;X;X,X;X;X;X;X3X;X3X;X;X;X;X;X:X;X;X;X:X-X-X-X-X:X;X;X:X;X;X3X3X3X8X3X3X8X8X0X;X0X;X:X;X0X0X0X0X0X0X0X0X0X:X8X0X3X0X8X8X0X0X,XqXqXqX0X0XqX:XqXW.B Q Q F +.$.$.-.$.<.1.=.*.-.6.8.=.=.6.r.r.6.8.e.e.r.r.r.r.r.p.p.s.p.p.p.s.p.p.s.s.s.s.s.s.s.|.|.[.).[.[.[.[.|._._.).[.|.|.).d.s.s.s.[.).i./././././.1.&.&.2.2.1.2.9.9.2.O.D ..@.<.2.<.0.0.9.0.2.<.<.$.x c : x x ..D @.2.*.<.1.t.(.`.[.[._.{.}.}.[.)./._.[.).[.[.[.).s./.s.p.i.p.y.y.r.w.w.w.w.w.y.w.8.8.6.*.6.=.=.=.*.-.@.-.$.o.$.+.+.%.D #.! ^ ! / ;.;.:.:.;.:.;.:.:.:.;.[ >.2.>.>.>.>.>.>.>.>.>.>.>.>.;.;.;.] ;.] ;.;.;.>.{ :.>.m.B.Z. XyXiXhXmXBXBXLXZXBXAXAXAXNXNXBXAXAXAXAXAXAXCXAXAXAXAXmXAXAXmXAXAXmXmXNXNXzXNXNXNXBXmXAXNXmXNXmXmXNXnXBXBXBXBXBXBXBXmXNXmXnXNXNXmXmXCXAXAXmXmXNXmXCXCXAXCXCXmXkXmXmXMXNXCXCXAXCXFXAXCXCXCXCXFXHXHXFXCXAXAXCXCXCXCXCXCXAXCXCXZXZXZXGXGXAXGXHXHXHXHXHXGXJXGXJX",
"KXKXKXKXKXKXKXKXDXDXSXMXSXMXMXbXvXvXxXbXSXKXJXKXJXJXJXuXiXCXHXHXJXJXJXJXJXJXJXJXJXJXJXJXJXJXJXJXJXKXpXS.F.F.R.L.J.J.F.F.J.J.F.F.F.>XF.F.H.J.J.J.J.P.J.U.J.J.J.P.P.P.P.T.T.=XY.T.=XT.P.T.T.=XT.Y.Y.Y.Y.Y.Y.Y.Y.Y.Y.Y.Y.Y.Y.7X7XY.Y.Y.Y.Y.Y.Y.IX7XY.7XY.7X7XIX7XY.;XW.1X;X;X;X1XY.8X;X;X;X;X;X;X;X;X;X0X:X;X;X8X:X;X;X;X;X:X:X;X;X;X3X3X3X:X;X;X;X;X3X3X;X:X;X:X;X;X;X;X3X;X3X;X3X3X3X8X3X3X3X8X3X:X:X;X0X0X6X6X:X0X:X0X0X:X0X,X0X8X4X4X0X4X0X0X0X0X0XwX:X0X0XqX,X8XqXUXT Q F ! G $.$.$.*.8.=.=.-.8.=.=.=.8.8.w.6.f.e.r.r.r.r.r.r.p.p.p.p.a.p.s.p.p.s.s.s.s.s.s.|.|.[.|.).).[.[.[.).)._.).|.[.).).).|.s.s.[.).u.i./.i.i.(.t.*.&.*.<.2.1.1.9.1.%.o.D o.o.#.%.<.<.,.,.#.#.3.x : c c x o.3.,.1.8.9.u.1.i.[.i.+X|.{.[.|.|.{.)./.).[.i.).[.[.p.s.s.s.p.i.p.u.y.r.w.w.w.r.w.w.8.6.=.*.*.6.*.*.q.*.*.&.$.$.o.+.o.#.+.! #.! ! ^ ;.;.;.>.;.:.:.;.;.} :.;.:.>.>.>.>.>.>.>.>.>.;.>.>.>.>.>.;.;.] ;.;.;.>.;.;.m.>.7.V.C.!.tXtXgXnXBXBXVXSXZXLXAXCXAXAXCXAXAXAXAXAXAXAXAXAXCXAXAXmXAXNXAXmXNXnXNXNXNXCXkXNXBXAXAXAXNXmXBXNXmXNXBXBXCXCXBXBXBXBXNXNXNXAXmXCXmXnXmXmXCXmXNXmXNXCXAXmXCXCXAXBXnXmXNXmXAXCXmXCXCXFXCXCXCXCXFXAXAXHXFXFXCXCXCXGXGXGXCXBXCXGXCXHXHXHXHXHXHXHXHXHXHXHXJXJXGXJX",
"KXFXKXDXKXKXKXKXSXDXSXSXbXvXvXMXxXvXvXvXMXKXJXKXKXJXHXiXpXCXKXHXJXJXJXJXJXJXJXJXJXJXJXJXJXJXJXJXKXKXpXN.F.F.D.D.J.J.J.J.J.F.H.H.H.c.c.>XH.J.J.>XJ.J.J.J.P.U.J.J.T.P.P.P.P.T.>XP.Y.T.=X-X-XT.Y.Y.Y.Y.Y.Y.Y.L.Y.Y.Y.Y.Y.Y.Y.7XIXY.7XIXY.Y.4XY.Y.7XIX7XY.IX7XY.7X4X;X;X-X1X1X;X;X8X;X;X;X;X;XW.;X;X;X;X;X;X0X:X:X:X0X:X>X;X:X6X;X;X;X:X;X;X3X3X3X8X3X3X3X;X3X;X;X8X;X3X;X:X;X;X3X3X;X8X6X8X;X;X;X3X;X0X;X:X:X,X0X0X0X0X0X:X0X6X:X6X1X8X4X8X4X8X8X0X0X0X:XqX,X0X0X0XIXIXIXA Q ^ S $.$.$.$.*.<.6.6.-.*.=.=.8.w.=.e.e.8.e.r.r.r.r.r.r.r.s.s.p.a.p.p.s.p.s.p.s.s.s.s.s.[._._.).).[.[.)._.).).|.|.).d._.[._.s.i.i.t.t.a._./.u.w.w.8.2.&.w.9.1.1.t.9.2.<.D D D o.$.$.$.#.$.$.! c : : c x O.O.2.2.<.1.t.w.i./.[./.[.[.[.{.[.[.{.[.[.[.[.[.s.+X[.+Xp.s.i.p.s.s.y.y.r.t.r.w.r.8.w.w.6.*.=.*.*.=.*.@.-.%.&.@.@.@.! +.+.! ! o.Q ~ #.,.;.>.;.;.;.:.;.;.;.;.:.;.;.>.>.>.>.>.>.;.>.>.>.>.>.>.;.>.;.;.;.>.>.>.>.g.>.>.V.C.!.oXeXiXgXnXBXBXVXLXZXZXCXAXAXCXAXCXAXAXHXZXZXAXCXAXAXAXAXAXmXAXNXNXNXNXnXNXnXnXNXNXNXCXmXmXNXAXBXAXBXBXBXCXCXGXZXFXZXFXNXmXmXmXAXCXmXAXmXAXAXNXmXmXNXmXBXmXCXAXCXmXBXmXmXAXAXFXAXCXCXAXCXCXCXCXFXAXFXFXAXAXFXCXCXZXKXGXCXZXCXZXGXZXGXHXHXHXHXHXAXHXHXHXHXGXJXHX",
"FXDXDXDXDXDXDXDXSXbXvXvXvXvXvXvXxXxXxXvXvXKXJXKXKXHXHXpXpXnXFXJXJXJXJXJXJXJXKXKXKXKXJXJXJXJXJXJXKXJX9XF.F.R.R.K.J.F.J.J.J.H.H.H.H.H.H.J.J.J.J.J.J.U.J.P.J.J.T.P.L.L.P.L.T.P.Y.T.Y.Y.Y.Y.Y.Y.Y.Y.Y.Y.Y.Y.Y.Y.Y.Y.Y.Y.IX7XY.IX7X7XIX7X7X7X7X7XIXY.1XY.Y.1X1XIX1XY.1XW.;X;X;X;X;X;X8X;X;X;X;X;X;X;X6X:X:X8X:X;X,X6X;X;X;X;X,X;X:X:X;X3X8X3X3X4X8X3X3X3X3X3X3X8X8X8X8X3X;X3X3X3X;X;X;X8X3X3X3X;X3X;X;X0X0X;X6X,X0X0X:X0X0X0X;X,X6X0X8X4X3X4X8X0XqX8X0X;X0X0X,X0X0X8XqX8XpXU / Q S #.$.#.$.$.1.8.*.=.=.8.8.8.8.8.e.8.r.r.r.r.r.r.d.p.r.d.s.p.p.s.s.r.s.s.p.s.s.s.s.s.)._.[.s.s.[.|._.d.).`.).).).).).s.|.).d.[.s.r.r./.i./././.i.9.w.1.1.2.u.1.0.(.0.1.<.o.x k h x x k k : : x x o.x o.1.<.<.r.9.u.s.).y.).).).[.).|.[.[.[.s.[.)./.[.[.[.[.s.s.p.d.y.r.p.d.y.r.r.w.w.y.r.6.6.6.=.*.-.q.*.-.-.&.$.%.$.#.o.$.! $.#.+.! ~ x #.;.#.;.;.;.;.;.;.;.>.;.;.{ >.;.>.>.>.>.>.;.>.>.>.>.>.>.>.>.:.} :.} :.:.>.>.>.V.V.Z.!.%XtXgXnXVXLXZXVXFXFXZXAXAXAXCXAXBXZXZXGXZXAXGXAXCXZXZXCXCXCXAXCXAXBXNXBXNXNXNXNXCXNXNXAXkXNXNXNXNXmXAXZXZXZXZXGXGXZXZXBXVXBXFXFXZXZXNXmXAXAXCXCXCXCXCXBXZXBXZXFXBXBXBXCXZXZXFXGXBXBXZXCXCXAXCXCXCXZXHXGXBXGXFXGXBXGXFXGXZXBXZXBXZXGXGXFXGXJXJXHXHXHXHXGXHXJXJX",
"MXmXmXDXDXDXSXSXMXSXvXvXbXvXbXxXxXxXuXxXvXDXJXJXJXHXJXeXpXMXFXHXJXJXJXJXKXKXKXHXKXJXKXJXJXJXJXJXKXKXqXN.c.D.L.L.J.J.J.J.J.J.H.H.J.J.J.J.J.J.H.J.J.J.J.P.P.P.P.P.L.L.L.P.L.T.P.T.L.L.Y.Y.Y.Y.Y.L.Y.L.Y.Y.Y.Y.Y.Y.Y.Y.Y.Y.7XY.Y.Y.Y.1XY.IXY.IX7XY.IX1X1X1XY.Y.1X1X;X;X;X;X;X;X8X;X8X;X8X;X;X;X;X;X,X:X;X;X;X8X;X;X:X;X8X;X6X;X0X;X;X;X3X3X3X8X3X3X3X;X;X3X;X3X6X4X8X3X;X3X3X8X3X;X3X3X;X3X3X3X;X;X:X;X:X0X:X0X:X:X:X0X0X:X0X:X:X6X8X4X3X4X8XqX0X4X0X0X0X0X0X0X0X8X8X0X9X[ L ~ ! #.$.#.$.2.2.8.*.*.=.8.1.=.6.e.8.8.6.8.8.r.r.r.r.6.y.d.s.p.r.r.p.s.p.s.p.p.s.p.s.s.|.).i.).}._.p.y.r.i.s.s._.).i.d.[.[.p.r.s.y.t._._.).<.*.8.9.9.&.1.&.*.9.1.9.%.9.2.0.<.,.#.o.x x c c ..x 2.o.o.x %.9.8.t.u.r.p.u.i.y.).).i._.[.[.s.|.[.[.|.[.).i.s.s.[.s.p.s.s.a.p.p.s.y.u.r.r.8.r.8.6.8.6.q.*.6.*.-.$.*.&.&.-.$.*.%.o.o.#.#.+.S ~ x ~ ;.;.;.;.;.>.;.>.>.>.;.;.2.;.>.>.>.>.>.>.>.>.>.>.>.>.>.>.>.>.>.:.>.:.>.>.7.V.V.Z.Z. X%XiXgXnXnXVXFXVXZXZXZXCXCXAXAXZXBXZXZXGXZXZXZXZXCXZXZXAXAXBXCXAXBXBXVXVXCXNXBXNXBXBXAXAXAXNXNXNXNXNXAXAXZXGXGXGXZXZXFXBXBXBXZXGXFXZXFXmXNXmXAXCXCXCXNXZXFXFXZXZXZXBXVXAXCXHXGXBXCXBXGXAXCXCXCXBXCXCXAXGXFXBXGXGXGXGXGXGXZXBXGXGXGXBXGXGXGXGXGXHXHXHXHXJXGXHXHX",
"vXMXMXmXDXmXSXMXvXSXvXvXxXcXiXcXiXcXuXiXuXDXKXKXKXKXJXpXeXnXDXHXJXJXJXJXJXKXKXKXJXJXJXJXJXJXJXJXKXKXIXS.S.D.D.D.J.F.H.H.F.J.H.F.J.U.U.J.J.H.J.H.J.J.J.U.U.T.J.T.L.L.L.L.L.P.Y.Y.L.Y.Y.Y.Y.Y.L.Y.L.L.L.Y.Y.Y.Y.Y.Y.Y.Y.Y.Y.Y.4XY.1XY.7X7XY.7XIXY.Y.7X1X1X1X1X1X1X;X;X;X;X;X;X8X;X;X;X;X;XW.;X;X;X;X:X;X0X;X8X;X0X;X:X;X8X:X:X;X;X3X3X3X;X;X3X3X3X:X;X3X;X;X3X8X3X3X3X3X3X3X8X;X;X;X3X;X8X3X3X;X;X:X;X:X:X6X;X;X0X0X0X0X0X0X:X0X0X4X1X4X8X4X0X0X0X0X0X0X0X0X0X0X0X8X9X8XG.L Q ~ ! %.#.$.&.*.1.*.*.8.=.*.=.8.8.1.8.r.8.r.r.r.r.8.r.d.y.r.r.r.r.r.p.p.s.p.s.|.s.s.s.i.d.u.i.s.u.w.u.|._.).d.d.i.i.s.s.d.y.s._.r.8.u.9.8.u.8.8.u.*.*.9.2.<.<.<.o...1.#.2.9.^.^.9.2.2.#.,.9.$.! o.x x $.*.8.u.u.y.s.w.y.y.).s.p.[.).).s.[.[.|.|.[./.i.s.p.p.s.s.y.s.y.p.p.p.y.r.r.r.e.8.8.8.6.6.*.q.6.%.-.@.*.$.$.@.@.#.%.D $.o.#.#.S ~ S ~ ;.;.;.;.;.>.;.;.2.>.;.>.;.>.] ;.;.;.>.>.>.>.>.>.g.>.>.>.>.>.>.>.} >.>.>.V.V.C.E.Q.%XpXsXkXnXVXFXVXFXVXFXFXZXZXCXZXZXZXZXBXHXAXAXHXZXAXZXZXCXAXAXAXAXCXAXBXNXAXBXBXVXAXCXAXAXAXAXNXAXNXmXAXZXZXGXGXGXGXCXZXBXBXBXZXZXFXBXBXAXCXCXCXCXCXmXAXZXBXFXGXFXZXFXFXCXFXGXZXGXCXZXFXFXCXCXHXCXCXCXCXZXFXZXGXGXGXGXGXGXGXGXGXGXBXBXGXHXHXHXHXHXHXHXHXGXHXHXHX",
"uXPXMXbXMXmXmXMXvXvXvXvXuXiXpXiXpXpXcXcXiXDXKXJXJXJXJXeX%XMXCXJXJXJXJXKXHXKXKXFXKXKXKXJXJXJXJXJXKXKXIXS.F.F.D.D.F.D.F.F.F.F.H.F.J.J.J.J.J.H.D.J.H.J.J.J.J.J.P.P.L.D.L.L.L.T.Y.P.Y.L.L.Y.Y.L.Y.Y.L.L.Y.Y.Y.Y.Y.Y.Y.Y.Y.Y.7X7XIXY.1X1XY.IX4XY.Y.7X1XY.Y.1X1X1X1X1X;X;X;X;X;X8X;X;X;X8X;X;X<X;X;X;X;X;X;X:X;X:X;X:X;X0X:X8X:X8X8X;X8X:X8X:X;X3X3X;X8X;X;X3X8X:X3X8X8X3X3X3X3X3X3X3X3X:X3X3X3X;X3X3X6X,X;X;X:X0X0X:X:X0X0X0X0X0X;X0X8X4X1X4X0X0X4X4X0X8X0X0X0X0X0X8X0X-X9X9X{ j Q #.#.O.#.$.%.=.=.=.6.q.=.*.=.6.=.8.r.r.8.8.r.d.p.p.d.r.r.r.r.p.r.p.p.s.s.s.s.d.s.d.r._.).y.u.p.u.).y.u.w.r.y.u.i._.r.p.s.[._.8.=.8.8.).9.u.1.<.u.9.<.8.@.1.1.o.%.<.*.0.0.<.<.$.$.,.#.O.#.,.x O...$.9.9.t.t.r.u.y.r.y.y.s.s.d.).).s.s.|.s.s.[.[.).i.[.p.p.s.p.s.p.r.y.p.y.y.r.r.r.8.r.8.6.8.6.*.X.-.-.$.-.%.$.$.O.@.o.$.! +.#.#.#.! ~ ~ 3.;.#.;.;.;.>.>.>.>.>.;.;.>.;.>.>.;.;.>.>.>.>.>.>.>.>.>.>.>.>.>.>.>.>.>.V.V.C.Z.!. X%XaXuXkXVXSXVXZXVXFXFXZXCXZXZXZXGXZXZXZXAXGXZXZXZXZXZXCXAXAXCXCXZXZXZXBXBXNXNXBXBXBXAXAXmXAXNXAXmXAXAXAXZXZXZXGXGXZXZXZXBXBXBXBXGXGXGXBXCXNXmXAXCXCXAXFXZXBXZXBXZXBXZXBXZXZXFXGXZXCXGXGXHXHXHXAXGXGXZXCXZXFXZXGXFXGXGXJXGXGXGXZXGXBXGXFXHXGXHXHXHXJXHXHXHXJXGXHX",
"pXiXxXvXvXMXMXMXvXvXPXuXcXpXyXyXpXcXpXpXiXSXKXJXJXJXJXeXeXuXCXHXJXJXJXJXDXDXDXDXKXKXJXJXJXJXJXJXKXDX4Xl.F.F.D.H.D.H.S.v.S.H.H.c.H.D.D.H.J.H.H.D.D.D.H.J.J.P.P.P.L.L.L.L.L.L.Y.L.L.Y.L.Y.L.Y.Y.L.Y.L.Y.L.Y.Y.Y.Y.Y.Y.Y.Y.Y.7X7XY.Y.1XY.7X1XY.Y.Y.Y.1XY.1XY.1XY.1X;X;X;X;X;X8X;X8X;X;X;X;X;X;X;X;X:X:X;X;X;X:X:X;X;X,X6X:X8X:X;X;X3X3X;X;X;X;X;X;X;X3X3X3X3X3X4X8X3X8X3X3X3X8X8X;X3X3X;X;X3X1X3X3X:X;X0X:X0X:X0X0X0X6X,X0X:X0X;X0X8X4X8X8X4X0X0X0X8X8X8X0X8X6X8X0X4X2X8X9XE.l Q #.;.O.%.%.$.*.=.8.=.8.=.=.6.q.6.r.8.r.8.r.r.r.d.d.p.d.r.d.d.p.s.p.p.s.e.8.r.r.r.d.u.d.d.u.y.s.u.y.=.8.r.u.d.i.y.).).s.u.y.r.8.w.u._.8.i.t.9.9.8.8.<.<.$.u.9.*.9.$.*.<.<.<.,.$.%.2.%.+.@.$...D ..@.t.u.8.=.r.y.r.s.p.e.r.p.p.p.p.s.s.|.s.s.s.s.s.s.s.p.y.s.s.p.p.r.y.y.y.y.r.e.e.r.8.8.6.6.q.-.-.%.%.-.*.%.-.@.O.O.$.#.#.+.#.o.! Q ~ ;.;.;.3.~ ;.>.;.>.;.2.>.;.;.;.>.;.>.;.>.;.>.>.>.>.>.>.>.>.>.>.m.>.7.>.7.7.V.C.Z.Z.%X%XtXsXkXkXVXBXVXZXBXBXZXZXZXGXFXGXGXGXZXZXGXGXGXGXZXGXZXGXHXAXCXCXZXZXZXAXCXNXBXBXAXBXZXHXAXAXAXAXAXAXAXAXZXZXGXZXZXZXZXZXBXmXVXBXGXZXZXZXZXBXBXBXAXAXCXGXGXGXBXGXZXZXZXZXGXGXGXZXZXZXGXJXGXGXJXGXGXGXZXZXZXZXGXZXGXGXFXFXGXGXGXZXZXZXBXGXKXGXHXJXHXHXHXHXHXHXHXHX",
"pXpXpXuXuXvXvXvXxXvXxXcXyXeXpXqXyXyXpXpXiXSXJXJXKXKXJXeX%XuXmXHXJXJXJXJXDXDXDXDXKXKXKXJXJXJXJXJXKXDX;XS.F.D.D.J.J.J.>XF.F.H.J.H.D.D.D.H.H.J.J.H.H.H.J.J.J.J.J.J.L.R.L.L.L.L.Y.Y.Y.L.L.Y.Y.L.Y.Y.Y.Y.Y.Y.Y.Y.Y.Y.Y.Y.Y.Y.Y.IXIXY.1X7XIX7X1X7X1X7XY.1XY.1X;X;X1XY.;X;X;X;X;X;X;X;X8X8X;X;X;X;X;X;X6X,X;X;X;X:X,X;X;X;X:X0X;X;X;X;X;X;X:X;X;X-X-X;X3X3X8X3X8X8X4X8X0X8X0X3X8X3X3X8X8X;X3X3X3X1X3X;X6X:X:X;X:X;X0X;X:X0X6X0X0X:X0X:X4X8X4X4X0X0X4X5X0X6X8X6X8X8X8X0X4XqX8X9XE./ Q ! #.! %.&.@.&.*.*.&.6.8.*.6.6.6.8.8.8.8.r.9.r.e.8.8.r.s.d.r.r.r.d.p.p.e.r.d.r.d.r.).i.i.y.y.8.w.u.r.).).s.).d.u.d.d.i.r.6.1.y.i.).u.9.8.].u.8.0.@.u.9.u.t.<.@.*.@.%.8.<.2.&.O.o.o.$.$.o...S ..9.9.&.=.*.*.r.y.8.s.p.f.p.s.i.p.p.s.s.s.s.[.|.|.s.s.p.a.a.p.p.y.y.r.p.y.y.r.r.w.r.r.r.8.6.6.-.6.*.*.%.-.@.%.%.$.$.+.#.+.$.! #.o.Q x 5.;.;.;.[ ;.;.;.;.;.;.>.>.;.>.>.>.>.>.;.;.>.;.>.>.>.>.>.>.>.>.>.>.>.7.7.7.V.C.C.Z.!.%X%XpXgXkXkXBXBXLXVXGXZXBXZXZXCXZXZXZXZXGXZXGXGXGXGXGXGXGXGXAXHXAXAXCXAXZXBXAXAXAXAXCXZXZXZXAXVXAXVXAXAXAXAXZXZXZXGXZXZXZXZXBXNXBXBXBXZXGXBXBXBXBXNXAXBXBXBXBXZXZXBXBXZXFXZXCXGXGXGXZXZXZXGXGXGXGXGXGXGXZXGXZXFXLXZXGXFXFXGXGXGXZXZXZXZXGXGXHXHXHXHXJXHXJXHXHXJXHXHX",
"pXpXpXcXxXvXuXvXuXxXuXpXpXeX9XeXeXyXyXcXpXvXKXJXJXHXJXeXIXuXCXHXJXJXJXKXDXmXDXDXKXDXKXKXJXJXJXJXKXDXW.N.F.F.J.J.J.J.F.>XF.J.J.J.J.J.J.J.J.J.J.J.J.J.J.P.J.U.P.J.L.L.L.L.Y.L.Y.Y.Y.Y.Y.Y.Y.Y.Y.Y.Y.Y.Y.Y.Y.Y.Y.Y.Y.Y.Y.Y.Y.Y.7X7XY.IX1XY.Y.IXY.IX7XY.Y.1XY.1X1XY.;XY.Y.;X;X;X;X;X;X;X;X;X;X;X;X;X;X;X;X0X;X:X;X:X;X;X:X;X:X8X3X;X3X;X-X;X;X-X:X;X8X3X4X8X6X8X0X8X5X0X8X8X6X3X3X3X8X3X3X;X1X3X1X3X:X:X8X;X:X0X;X8X0X0X0X:X;X0X:X0X4X4X0X0X4X0X0X0X0X0X8X8X6X8X8X0X5X0X8X9XE.Q L ~ ! ! #.%.@.-.-.-.*.6.8.*.6.8.8.8.8.0.r.r.r.r.8.6.r.r.r.p.r.r.r.r.r.s.p.r.s.d.d.d.[.y.u.p.8.8.d.).8.u.r.0.r.i.i.p.r.r.w.8.w.u.).u./.8.u.9.q.8.9.9.9.u.9.<.*.@.8.9.*.t.9.w.8.<.&.&.@.X.D @.x X.*.u.8.6.8.6.r.r.6.r.p.e.r.s.p.p.y.s.p.s.s.s.s.s.s.s.p.a.a.s.y.r.y.y.s.r.w.r.r.8.r.r.6.e.6.q.-.q.q.*.-.@.-.-.&.$.$.$.@.o.! o.o.! x x ~ ;.3.;.;.;.] ;.;.;.;.>.>.;.;.>.>.>.g.>.>.;.>.g.>.;.;.{ >.>.>.>.>.>.>.V.7.C.Z.Z.IX%X%XaXiXgXkXNXBXVXVXBXBXZXBXBXCXBXZXZXBXZXZXZXZXZXGXGXGXGXZXZXAXAXAXBXBXZXAXZXCXCXAXCXAXZXZXAXZXAXBXAXAXAXCXAXGXZXGXGXGXZXZXBXVXBXBXBXFXZXGXZXZXZXBXBXBXVXBXBXZXZXZXBXZXBXZXZXZXZXGXGXZXFXZXGXGXGXGXZXBXGXCXGXZXZXBXZXGXZXGXGXZXZXZXZXZXFXFXGXHXHXHXHXHXJXHXHXJXHXHXHX",
"pXiXpXuXuXuXvXvXcXuXiXiXqX9X9X9XyX9XyXyXpXvXKXKXJXJXHXeX%XiXmXJXJXJXJXKXmXDXbXDXDXDXKXJXJXJXJXJXDXDXY.z.D.F.H.J.>X>XJ.F.H.D.J.H.P.P.P.T.P.P.J.U.J.J.J.J.P.J.P.T.L.Y.L.L.L.Y.Y.L.Y.Y.Y.L.L.Y.Y.Y.Y.Y.Y.L.Y.Y.Y.Y.Y.Y.Y.Y.Y.Y.Y.Y.1XY.1X4XY.7X1XY.1XY.Y.IX1X;X;X;XT.;X;XY.;XY.;X;X;X8X8X;X;X;X;X;X;X:X;X:X;X;X:X;X;X;X8X;X3X;X;X;X;X;X>X-X>X-X;X;X3X3X3X8X0X8X6X8X0X0X0X3X8X;X3X;X3X3X8X:X1X1X3X1X;X;X:X;X;X:X0X:X0X:X0X0X0X0X:X0X4X5X0X4X0X0X0X0X0X0X0X4X8X4X0X0X5X-XqXqXA.q l ~ #.x o.$.+.&.*.-.-.q.6.*.6.8.q.6.r.r.r.w.9.r.r.8.d.6.6.d.s.r.r.p.p.s.r.r.r.r.p.r.u.8.8.8.8.y.).=.9.y.r.8.9.y.9.6.r.9.r.u.i.i.u.8.u.w.u.9.8.8.9.6.9.^.$.=.u.$.9.<.2.t.w.9.9.1.1.0.*.o.-.....-.8.=.y.*.=.-.-.6.r.d.p.r.s.s.r.s.p.s.s.d.p.p.s.s.s.s.s.a.p.s.y.r.r.p.y.e.6.e.r.r.r.8.6.8.8.-.X.X.-.X.q.@.@.$.*.$.@.o.#.$.S +.+.! ~ k O.;.] ;.;.;.3.;.] ;.;.>.;.>.>.>.g.2.2.>.>.>.>.>.>.>.;.;.>.>.>.>.>.>.>.V.V.~.Z.Z.oX%X%XpXsXgXkXNXZXZXBXBXVXBXAXBXBXAXBXBXBXGXGXGXGXGXGXGXGXGXGXGXGXHXAXBXAXBXCXAXCXAXAXAXCXZXZXZXAXAXAXAXAXAXCXAXZXZXZXGXZXZXZXBXZXBXBXBXZXZXGXZXGXGXZXZXFXBXBXVXFXZXZXZXBXBXBXBXZXGXGXGXGXZXBXGXGXGXZXZXBXZXBXZXZXZXZXZXGXBXZXGXZXBXVXGXZXGXFXGXHXHXHXJXJXHXHXJXHXJXHXHX",
"uXcXuXuXvXxXcXuXcXuXiXpXyX9X9XeX9XeX9XeXyXvXKXKXJXJXJX9XQ.iXmXHXJXJXJXKXSXvXMXbXDXDXDXKXJXJXJXKXKXbXW.F.D.D.H.D.H.F.H.F.F.H.F.H.J.J.U.P.T.P.P.T.L.P.P.P.L.K.L.I.L.L.L.L.T.L.T.T.P.Y.P.P.R.T.T.P.Y.Y.Y.Y.Y.Y.Y.Y.4XY.Y.Y.Y.Y.Y.Y.4XY.IX7X7XY.1XY.;X;X>X;X;X;X,X1X;X;XY.;X;X;X1X1X1X1X;X1X1X1X;XY.;X;X;X3X:X:X:X;X0X;X;X;X;X0X;X;X:X;X;X>X-X-X-X;X;X;X3X3X3X8X8X8X4X8X4X0X3X3X3X1X4X1X3X1X3X3X3X3X0X:X:X;X:X:X0X0X0X0X0X0X:X0X6X0X6X8X0X6X0X3X0X0X0X0X0X0X4X8X0X0X0X5X8XyXA.i L ~ S #.,.o.+.$.@.-.*.*.8.*.6.@.8.*.*.6.y.9.6.q.r.d.r.r.p.r.p.r.p.r.p.6.e.p.6.p.p.r._.6.6.6.8.r.8.r.u.r.9.d.d.d.u.r.y.8.-.9.u.d.8.8.9.q.-.6.d.0.*.9.u._.$.^.6.%.u.<.9.9.d.*.$.u.@.8.6.@.8.@.*.-.6.@.@.6.p.r.=.@.e.6.y.s.p.u.s.s.y.r.s.s.s.s.e.p.d.|.s.r.r.r.d.f.f.r.r.r.r.r.f.r.w.w.8.6.q.*.X.*.*.$.*.@.+.@.%.$.+.O.o.o.! ! ! ! Q l #.;.:.:.} ;.;.;.;.:.>.:.;.;.:.>.>.7.>.>.>.;.>.>.;.;.;.>.;.>.>.>.;.>.7.C.C.!.oX X%X%XsXsXuXgXkXzXAXCXAXCXAXNXAXVXAXAXCXAXAXZXAXCXCXFXCXCXAXFXHXAXFXLXVXVXVXVXVXVXZXZXZXVXBXZXGXFXZXZXZXBXVXBXZXGXZXZXVXZXFXFXFXZXZXZXVXFXZXVXFXZXZXVXZXGXFXZXZXZXZXZXZXSXVXVXZXZXFXGXGXGXZXZXBXLXVXZXZXZXZXFXVXVXmXVXBXBXZXFXGXGXZXZXBXZXGXZXZXHXHXJXHXHXJXJXHXHXHXHXHXHX",
"uXuXcXuXuXxXuXiXpXiXyXpXyXeXyX9X9XeX9XeX9XuXKXKXKXJXJX9X%XiXMXHXKXJXKXDXSXvXvXvXmXDXDXKXKXJXJXKXJXbXR.F.F.x.L.H.J.H.J.F.H.D.H.H.K.J.J.J.P.P.P.U.P.P.P.L.K.P.K.I.L.L.L.L.L.I.T.Y.Y.T.T.P.>XP.T.=XY.Y.Y.L.Y.Y.Y.Y.Y.Y.Y.Y.Y.Y.Y.Y.IXY.1XY.Y.Y.Y.1X;X;XY.;X;X;X;X;X;X;X;X;X;X;X1X1X1X1X;XY.1X;X;X;X;X;X;X;X,X:X;X:X;X;X:X0X;X:X;X;X;X;X-X-XY.-X:X;X:X;X;X;X3X8X3X4X3X3X3X3X3X1X1X<X<X3X1X1X1X<X1X2X:X;X;X6X;X:X:X;X:X0X:X0X:X0X6X,X8X8X0X0X3X0X0X0X0X0X8X0X8X4X8X4X0X3X;XqXA.9  .L Q ~ ^ o.%.$.+.@.8.q.*.6.q.6.6.=.8.8.8.r.8.8.9.u.r.r.r.r.r.r.r.p.p.6.6.q.6.s.q.q.8.r.q.6.6.q.r.q.d.0.r.r.8.0.d.d.w.q.8.].9.9.p.9.8.9.8.9.q.@.u._.q._.u.^.0.t.u.<.9.).0.8.*.8.8.9.e.6.8.%.-.-.6.*.-.q.*.6.=.6.-.w.=.8.p.i.r.8.p.y.r.s.s.s.r.d.r.r.r.s.r.r.r.r.r.r.d.r.r.r.f.w.r.6.r.6.*.6.@.X.@.@.*.+.@.&.*.+.O.$.o.o.D Q ! ! Q S } ;.:.;.;.:.:.;.;.;.;.>.;.;.;.>.,.>.>.,.>.,.>.;.>.;.;.;.>.>.>.;.>.m.C.A.!.!.Q. X%X#XiXdXgXkXkXAXAXAXAXNXNXAXAXAXCXZXZXAXZXZXCXCXAXAXAXHXHXAXCXCXZXZXFXZXSXVXSXSXZXZXFXZXZXZXZXFXZXCXGXZXBXVXBXZXFXVXFXZXZXZXFXZXVXFXFXVXFXVXFXZXZXFXZXGXZXGXFXZXZXZXZXVXVXFXVXZXZXGXGXGXGXVXBXVXLXZXZXZXFXVXVXFXVXVXVXBXBXZXZXGXZXZXZXZXZXZXZXGXHXHXHXHXHXHXKXHXHXHXHXHX",
"uXiXxXuXxXiXcXiXyXyXeXeX9XeXeXeX9XeXeXyXyXuXKXJXJXJXJX%XIXiXvXHXKXJXKXDXMXvXbXvXbXDXDXDXKXJXJXKXKXbXT.S.F.F.J.H.H.H.H.c.c.D.D.H.H.J.K.J.J.P.J.P.L.P.P.L.K.L.I.L.L.P.L.L.P.I.Y.Y.P.Y.T.Y.T.Y.Y.T.Y.Y.Y.L.Y.Y.Y.Y.Y.Y.Y.Y.Y.Y.Y.Y.7XIXY.Y.Y.Y.IXY.;X;X;X;X;X;X;X;X;X;X;XY.;XY.1X1X;XY.;XY.Y.;XY.Y.;X;X;X;X;X;X;X;X;X,X:X;X;X:X;X:X3X;X;X;X-X;X;X;X;X:X;X;X:X3X3X;X3X3X<X1X3X<X<X<X1X1X1X1X<X2X1X1X0X0X;X:X;X:X;X:X6X:X:X0X0X:X0X0X8X4X8X0X4X8X0X0X4X8X4X3X3X8X4X3X0X3X;XyXM.9  .Z S Q Q o.%.$.@.&.%.*.q.*.*.=.*.6.r.8.8.8.8.9.y.r.r.r.r.r.r.r.r.p.6.r.6.r.r.6.6.r.-.8.s.8.@.q.8.u._.q.q.r.0.6.d.d.8.8.8.).9.6.8.9._.u.9.u.6.6.d.q.0.^.].u.u.9.q.9._./.u.r.6.r.9.u.9.q.8.6.q.X.%.X.8.-.X...*.6.q.r.i.8.r.p.8.r._.r.d.d.r.8.f.r.r.f.r.s.d.r.r.r.r.f.r.r.6.6.8.r.r.6.6.6.6.6.%.@.@.@.$.@.$.<.%.O.O.$.o.+.o.D ! ~ S ~ ;.:.:.:.:.:.:.} ;.>.:.;.;.;.;.>.>.7.>.2.>.>.,.>.;.>.>.>.>.>.>.>.7.C.A.Z.!.Q. XXX#XiXsXfXgXkXAXkXAXAXAXNXAXNXNXAXZXZXZXHXZXCXBXVXCXCXCXAXAXFXCXCXZXZXFXVXZXZXVXVXVXFXZXFXZXLXZXZXBXZXZXBXNXmXBXZXFXZXFXVXZXFXZXFXZXFXZXZXZXZXFXZXFXFXZXZXFXZXZXZXZXFXFXVXLXZXFXFXZXZXFXZXZXLXBXBXZXVXGXFXFXZXFXZXVXmXBXBXBXZXZXZXGXVXZXZXZXGXGXGXHXHXJXHXHXHXHXHXHXAXHXHX",
"cXuXcXuXuXcXiXpXyXeXeXeX9X9X9XeXyXeX9XeX9XuXKXJXKXJXJX9XQ.pXvXKXKXKXDXDXbXvXuXbXMXbXDXKXKXKXJXKXKXbXT.F.D.D.L.H.J.J.S.D.S.H.H.v.F.J.H.J.J.J.U.J.K.L.K.L.K.K.K.I.P.L.L.P.L.I.Y.Y.Y.Y.P.-X=X=XT.Y.Y.Y.Y.Y.Y.Y.Y.Y.IXY.Y.Y.Y.Y.Y.Y.7X7XY.Y.Y.Y.1X7XT.;XT.;X;X;X;X;X;X;X;X;X;X1XY.1X1X1X;X1X1X;X1X;X8X;X:X8X:X;X;X;X;X:X:X:X;X:X:X,X;X3X:X;X:X;X;X;X;X;X:X;X;X;X;X;X:X1X3X3X3X3X1X1X2X<X1X1X1X1X1X3X0X:X,X6X;X;X0X0X6X,X0X:X;X0X0X:X0X0X0X8X8X0X3X3X8X4X8X1X3X3X3X1X0X0X;XqXk.9 C Z Z ~ x ! $.%.%.$.@.*.6.@.*.@.*.6.6.8.9.6.6.r.d.8.r.r.p.p.s.r.r.r.6.s.e.d.6.q.s.q.8.8.d.6.8.s.d.d.d.d.d.6.q.d.d.@.8.t.q.t.r.6.q.9.9.6.|.r.*.d.9.8.u.u.u.u.`.u.=._.u.8.0.8.*.8.q.8.6.q.8.q.6.-.6.X.D 8.X.6.@.@.6.6.w.8.w.y.6.6.r.d.r.r.d.d.f.q.6.r.r.r.d.r.f.r.r.r.f.r.r.6.r.r.r.6.q.6.f.q.*.*.6.@.O.%.*.#.O.O.#.+.+.#.! ! o.Q Q ,.:.;.;.:.:.:.:.:.:.:.:.;.;.{ >.>.>.>.>.>.>.>.>.;.>.>.>.>.>.>.C.V.C.C.Z.oX XXXtXyXpXsXkXkXzXkXzXAXAXNXAXNXNXAXNXAXZXZXAXHXZXAXBXNXCXAXHXAXHXAXCXAXFXZXVXLXVXZXZXFXVXZXZXGXZXVXZXZXZXZXFXBXBXNXBXZXFXVXZXFXZXVXZXVXVXVXFXVXZXFXVXFXZXZXFXFXZXFXFXZXZXFXGXZXZXVXVXFXZXZXFXZXVXBXBXBXZXZXFXZXVXZXFXVXBXBXVXBXBXBXBXZXZXGXZXGXGXGXHXHXHXHXHXJXHXHXHXHXHXHXHXHX",
"iXiXcXiXiXiXpXyXyXeX9X9X9X%X9X9XeX9XIXeXpXiXKXKXKXJXHX%XQ.pXPXFXHXKXKXSXxXxXxXxXbXMXSXDXKXKXKXKXDXbXR.S.F.F.K.D.H.F.H.S.S.H.H.D.H.H.H.J.J.J.H.J.K.D.L.K.H.H.K.K.L.L.L.P.P.I.I.I.Y.I.I.I.Y.I.Y.P.Y.Y.Y.Y.Y.Y.Y.Y.7XY.Y.Y.Y.Y.IX7XY.1XY.1X1XY.1XY.T.-X;X;X;X;X;X-X1X1X;X-XY.;X;X1X1X1X;XY.1X;X;X;X:X;X,X:X:X:X;X:X;X;X0X;X;X:X;X;X;X3X;X;X3X3X3X;X:X;X:X;X;X3X3X3X1X1X1X3X3X3X1X3X3X3X1X2X1X2X3X3X0X0X:X0X0X0X0X0X0X0X:X0X0X:X0X0X8X0X5X0X0X0X8X3X8X3X3X8X3X1X3X1X;X0X;X,Xh.q L l L ! S F #.@.$.o.$.<.%.*.6.$.8.=.*.6.9.9.8.0.r.r.d.r.r.r.r.r.p.d.s.6.6.d.6.X.6.6.9.d.6.8.d.d.d.d.r.u.q.8.d.6.q.6.d.d.8.y.r.r.r.y.8.8.}.9.*.u.9.u.8._.u.9.).t.8.r.8.y.*.d.0.*.d.0.9.0.9.8.0.6.q.6...x d.@.*.6.@.-.*.6.8.r.u.9.r.d.r.d.p.y.r.6.8.r.f.f.f.r.r.6.q.r.r.f.r.r.r.e.f.6.e.*.6.q.q.@.&.%.o.$.$.o.o.o.o.o.D +.! F ! S ! >.;.;.;.;.:.>.>.>.:.:.:.:.,.;.;.>.>.>.,.>.>.>.;.>.>.>.m.7.7.C.C.Z.Z.Z. X,XXXtXyXsXdXkXkXkXkXkXVXVXBXAXVXNXNXNXNXNXBXAXZXZXZXZXAXBXCXAXHXAXAXHXCXCXVXVXZXVXZXFXVXVXFXZXZXFXZXBXZXZXZXGXGXBXVXBXZXZXZXVXFXVXZXVXZXLXZXVXFXZXZXZXZXVXZXZXZXFXFXZXZXZXFXZXGXFXZXZXFXVXZXFXGXZXZXVXVXBXVXZXVXFXFXZXVXSXBXBXNXBXVXBXBXBXZXGXZXGXGXHXHXHXJXHXJXHXHXHXHXHXHXHXHXHX",
"pXcXpXiXcXpXpXyXyXeX9X9X,XQ.9X,X9XeXeXeX9XiXDXHXJXKXHXIXQ.tXuXDXKXKXKXMXxXxXcXxXvXbXbXDXKXKXKXKXDXcXR.S.c.D.D.D.H.H.F.>XH.H.D.D.H.F.D.H.J.H.H.H.D.K.H.H.x.K.K.K.L.L.K.P.I.L.P.I.I.I.I.I.P.Y.I.-XL.Y.Y.Y.Y.Y.Y.Y.Y.Y.Y.Y.Y.7XY.Y.IX1XY.Y.1XY.Y.1X;XT.;X;X;X;X;XW.1X1XY.;X;X;XY.1X1X1X;X<X1X1X1X;X;X;X;X;X;X:X;X;X:X;X;X:X;X;X;X;X;X3X3X3X:X;X3X;X3X3X;X3X;X;X3X3X3X3X8X4X3X4X4X3X3X3X3X1X1X1X3X3X;X:X0X;X,X6X0X0X0XqXqX:X0X0X;X:X8X5X8X0X0X0X8X3X3X3X0X3X8X1X3X1X;X0X;X,X_ q L l Q S k F #.+.o.+.$.6.%.8.$.*.8.6.6.*.6.r.9.6.q.r.r.r.d.r.r.r.r.p.r.r.6.X.q.q.6.6.8.u.0.r.d.q.6.r.6.d.8.q.6.6.q.d.d.9.u.s.q.r.}.u.y.|.).y.p.y.u.1.8.'./.9.8.6.8.9.u.y.q.u.8.6.r.u.d.9.y.8.8.9.6.6.6.-.X.%.@.-.8.8.6.q.%.-.8.8.q.6.r.r.r.6.6.6.r.6.r.f.f.r.r.6.r.r.r.r.r.6.e.8.f.r.8.=.=.*.-.@.%.-.$.@.@.@.o.o.o.o.! +.#.S S Q ^ ,.;.} ;.;.:.>.>.>.:.:.>.;.>.>.>.>.,.>.>.>.>.:.>.,.>.2.>.2.V.C.A.(.!.!. X XtXtXsXgXkXkXkXzXVXNXVXAXAXNXNXNXNXNXNXNXVXBXAXAXZXZXAXCXAXCXHXCXCXHXAXHXFXZXVXFXVXZXZXZXVXFXFXVXBXZXBXZXGXGXGXGXBXBXVXFXZXZXVXFXLXFXVXVXVXFXVXZXZXFXFXVXZXFXZXFXZXZXFXVXFXGXZXZXZXVXLXZXZXFXFXGXGXBXZXZXFXZXFXVXVXVXVXVXNXNXBXnXBXBXBXBXGXGXGXGXGXGXHXHXHXHXHXHXHXHXHXHXHXHXHXHX",
"pXcXpXpXcXpXyXyXeX9X9X,XIXeX9X9XeX9X9XeXeXcXFXJXJXJXHXQ.Q.eXuXDXKXKXKXvXxXcXcXxXvXvXvXSXDXKXKXKXSXwXR.c.F.x.D.x.D.D.F.c.v.H.H.F.F.D.D.J.H.J.H.H.H.K.K.K.L.K.K.I.U.K.K.K.K.L.I.I.I.I.I.I.I.P.I.I.Y.Y.Y.Y.Y.Y.Y.Y.Y.Y.Y.Y.Y.Y.Y.Y.Y.Y.Y.1X1XY.IX1X;X;X;X;X;X;X;X;X1XY.;XY.;X1X1X1X1X;X;X1XY.1X1XY.;X;X:X;X;X;X;X;X0X,X:X;X;X;X:X;X3X;X3X3X8X;X3X3X3X;X;X;X3X3X3X3X4X4X8X4X8X4X8X3X3X1X2X<X3X1X3X3X:X0X0X0X:X0X0X0XqX:X0X0X;X0X0X0X0X4X8X0X0X0X4X3X0X0X8X3X8X3X3X1X;X0X>X,X_ q L Z Z Z x S ! $.+.$.%.@.*.0...<.*.8.6.*.6.r.8.6.6.r.f.r.r.d.p.p.r.r.s.6.X.q.d.8.r.r.d.0.d.r.d.d.q.d.d.d.8.r.0.q.q.d.r.u.u.d.6.d.}.u.8._.u._._.u._.i./.[.)./.<.8.9.i.u.8.9.6.q.8.*.r.8.8.0.8.9.u.8.q.6.*.8.-.@.X.*.r.6.6.8.q.6.q.6.8.X.6.s.r.8.%.q.r.r.r.r.r.r.r.r.r.r.r.6.q.6.6.6.6.q.6.*.*.@.&.$.@.*.+.+.$.$.+.o.o.#.! +.F Z ~ #.;.;.;.;.:.>.>.>.,.>.>.;.;.;.>.>.:.:.:.>.>.,.>.;.>.>.>.V.C.C.C.!.!.oX X XtXtXtXiXgXlXkXNXNXAXNXVXAXAXAXNXAXNXNXNXNXVXVXBXBXAXZXAXCXHXAXAXCXCXZXCXHXFXZXFXVXVXFXZXZXZXFXZXVXBXVXZXBXZXGXGXBXBXNXBXZXVXFXVXZXZXZXZXVXFXVXFXFXZXFXZXFXFXZXFXZXZXFXVXLXZXVXVXFXVXFXZXZXGXFXFXFXZXZXZXGXGXZXZXZXVXVXVXSXVXBXBXBXBXBXZXZXGXGXFXGXHXHXHXHXHXHXJXHXHXJXHXHXHXHXJXHX",
"pXyXpXyXyXyXyXyXeXeX9X9X9X%X9X9X9X9XIXeXeXpXFXJXKXJXAXIX!.eXuXmXDXKXDXvXxXiXcXxXcXvXvXvXDXDXKXDXMXcX~.z.F.D.D.x.D.D.F.>XS.c.c.D.D.H.D.D.J.J.H.H.K.H.K.K.K.K.K.K.U.U.U.K.K.K.K.P.I.Y.I.P.U.P.P.I.L.L.Y.L.Y.Y.Y.L.Y.Y.Y.Y.Y.Y.Y.Y.Y.Y.Y.1X1X1X1XY.-X;X;X;X8X;X;X;X;X1X;X;XY.1X1X1X1X;XY.Y.;X1X;XY.;X;X:X0X;X;X;X:X0X6X6X,X:X;X;X:X:X;X;X;X;X3X;X3X;X3X3X;X;X3X3X8X8X4X4X8X4X8X4X3X3X<X1X1X1X1X<X1X;X0X:X0X:X0X:X6X0X0X:X;X0X:X:X0X4X8X0X0X0X0X3X3X3X0X0X0X3X3X1X3X;X>XR.yX' 0 C C Q F S z S #.+.#.8.G 6.@.+.8.0.8.@.q.r.8.6.8.d.p.r.r.r.r.r.r.r.p.s.6.r.6.q.r.0.r.q.d.u.0.d.r.d.d.0.0.r.r.d.d.r.d.9.}.d.0.^.'._.d.'.^.i.d.u.u./._.8.9.i./.6.^.y.8.r._.r.p.r.8.9.d.u.u.8.8.0.u.8.*.q.6.q.X.o.q.D X.6.q.6.8.6.9.d.8.p.q.q.8.r.-.6.d.r.r.6.f.r.0.r.f.r.f.f.r.r.6.6.6.8.*.$.6.&.$.@.$.#.+.+.+.#.#.+.! +.! ! S k ! :.:.;.;.:.:.,.:.:.>.>.>.;.;.;.>.,.>.>.>.,.:.>.>.>.>.>.V.V.C.C.Z.!.oX X XtXtXpXiXgXhXkXkXNXNXNXAXZXZXAXNXAXAXAXNXAXNXBXZXVXZXBXZXZXAXAXAXCXCXCXAXAXZXGXZXFXFXFXZXFXVXFXVXFXZXBXBXBXZXGXBXGXBXBXNXBXBXFXZXFXVXFXZXFXVXVXFXZXZXFXVXZXVXVXZXZXZXZXFXVXVXMXVXVXVXZXFXGXGXGXFXGXGXFXGXFXFXGXGXZXZXLXSXVXVXBXZXBXZXZXGXGXGXGXKXKXGXHXHXHXJXHXHXHXHXHXHXJXHXJXJXHXJX",
"yXyXeXeXyXpXyXyX9X9X9X9XQ.9XQ.9X9X9X9X9XeXcXSXJXKXJXHXW.Q.eXuXMXSXKXSXxXcXpXyXxXcXxXvXMXSXDXKXDXbXcXT.F.D.D.D.D.D.D.R.D.F.H.D.D.D.H.H.J.H.H.H.F.>XJ.H.>XK.L.I.I.U.U.L.U.L.L.U.U.L.I.K.I.P.K.I.I.L.Y.Y.L.Y.Y.Y.Y.Y.Y.Y.Y.Y.Y.Y.Y.Y.Y.Y.;XT.;X;X;X;X;X8X;X;X;X;X;X;XY.;XY.-X;X;X1X;X;X;X;X1X1X1X;X;X;X>X;X,X:X;X;X:X:X0X;X0X,X6X:X;X;X-X;X;X3X3X3X;X3X;X3X3X3X8X0X3X8X4X0X8X4X4X1X8X8X3X3X<X1X1X3X:X0X;X;X;X:X,X0X0X0X0X:X0X0X0X0X0X4X0X0X0X3X0X3X0X4X8X4X8X3X3X3X1XY.1XIXI a L x Z Q k F k #.! O.%...%.*.@.$.8.8.*.<.8.=.6.d.d.p.r.r.r.d.r.f.r.d.6.6.9.6.9.6.8.q.r.d.u.q.d.d.u.0.r.9.9.u.u.d.d.u.d.]._.].].`._.^.u.`.].d.{._.u.^./.(./.a.*.1.).).u.d.u.)._.i./.i._./.u.^.u.^.9.8.%.%.$.*.q.8.6.%.8.0.q.6.8.%.6.9.6.8.8.0.0.6.q.r.r.r.f.6.q.r.r.f.e.r.r.r.6.6.6.q.8.=.$.@.@.*.$.+.+.<.S %.+.! o.+.O.D o.L x ;.2.;.:.:.;.>.;.;.>.;.,.;.;.;.>.>.,.>.>.>.,.>.:.>.>.2.>.7.C.C.Z.Z.Q.%XXX%XtXtXiXgXPXgXzXnXVXAXAXAXAXAXAXAXVXNXNXNXVXVXGXZXZXZXZXZXZXZXGXBXZXZXZXZXZXHXGXZXZXVXFXZXZXZXBXVXZXBXNXBXGXGXGXVXGXBXVXZXLXVXGXZXZXVXLXZXFXGXZXFXVXZXGXGXGXZXZXFXZXGXZXFXVXVXVXVXVXSXVXVXSXZXFXZXZXZXGXFXGXGXFXGXGXGXBXGXBXBXBXBXZXZXZXGXGXGXGXJXHXHXHXHXHXHXHXJXHXHXHXHXHXJXHXHXHXHX",
"eXeXqXeXeXyXeXeXeX9X9XIX9XQ.9XQ.Q.,X,X%XeXpXMXJXKXJXKX!.W.%XiXMXSXDXMXxXcXyXyXcXxXcXxXvXSXDXDXDXSXqXE.F.R.K.K.L.L.L.J.J.J.H.c.D.D.H.H.J.H.H.H.H.J.H.H.v.K.L.K.L.U.U.K.K.U.U.P.U.K.I.L.I.P.I.I.I.Y.L.Y.Y.Y.Y.Y.Y.Y.Y.Y.1X1XY.Y.Y.;XY.;XY.;X;X;X;X;X;X;X;X;X;X;X;X1X;X;XY.Y.Y.;X;X;X;XY.1X1X1X1XY.;X;X;X;X6X;X;X:X;X:X;X;X;X:X;X;X;X;X-X:X;X3X3X3X:X;X3X;X1X1X3X0X0X4X4X1X3X4X8X4X4X4X3X1X1X<X2X1X0X:X,X:X;X0X6X:X:X0X:X0X:X0X:X0X0X0X8X0X4X0X0X0X3X8X8X3X3X3X3X;X1XY.W.IXE p Z L S F Z ! x ! ! ;.+.+.%.%.*.%.&.8.8.8.=.*.8.y.8.q.r.r.r.d.r.r.r.d.6.8.8.9.8.d.8.0.d.u.u.r.0.r.0.d.0.9.d.d.u.u.u.u.u.d.].d.^._.`._.`.'._._.{.+X^./.[././.p.w.t.i.4.8.r.w.u._.)._.`._.].u.u.u.u.8.0.w.6.8.%.&.*.0.*.@.r.9.9.*.q.q.6.r.8.q.6.6.8.6.8.q.q.f.X.6.f.d.f.8.r.r.e.r.8.6.q.8.1.&.@.@.%.@.@.*.$.D o.,.o.o.Q ~ ~ ~ 5.;.;.;.;.;.;.;.;.;.;.;.>.>.:.;.;.;.>.>.>.>.>.;.>.>.>.>.>.>.V.C.Z.Z.oX%X%XeXtXpXsXgXhXkXkXkXnXNXAXAXAXAXAXZXCXVXVXVXVXAXZXZXZXVXZXVXBXVXZXBXBXVXZXZXZXCXAXZXZXZXVXVXFXFXVXZXBXZXBXBXBXBXGXGXGXGXGXLXZXZXZXGXFXZXFXZXGXZXZXFXZXFXFXGXGXFXFXFXVXFXZXZXVXZXFXZXVXSXVXSXVXVXZXZXGXGXGXGXGXFXFXFXGXGXFXGXVXZXZXZXZXZXZXGXGXGXGXGXGXHXHXHXHXHXJXHXHXHXHXHXHXHXHXHXHXHXHX",
"eXeXeXeXyXyXeX9X9X9XQ.9X9XQ.Q.9XQ.9X,X9X9XpXMXJXKXKXKX!.W.%XiXkXSXSXMXxXiXyXcXcXcXcXxXbXvXSXDXSXvXyXR.F.R.L.K.L.L.L.L.L.J.D.v.F.F.H.J.J.J.H.J.J.J.K.H.H.K.L.U.P.K.K.L.L.L.P.P.P.I.I.L.I.L.I.I.I.Y.Y.L.Y.L.Y.Y.Y.Y.Y.Y.Y.Y.1XY.Y.W.Y.Y.Y.Y.Y.T.;X;X;X;X;X;X;X;X;X;X;X-XY.Y.-XY.;X-X;X;X1X1X1X;X-X>X;X;X:X:X8X;X0X;X;X;X0X:X;X0X:X;X:X;X3X3X3X;X3X3X3X3X;X1X1X1X3X4X4X1X1X1X3X4X4X4X4X1X<X1X<X1X1X:X:X6X:X:X:X:X:X;X:X8X;X0X;X:X0X0X8X4X8X8X8X8X3X3X8X3X3X3X1X;X;X1XR.T.IXE i k L S S L ! Q Q ~ O.+.@.%.*.*.$.$.8.=.*.*.q.8.r.8.6.q.r.r.q.d.s.r.6.6.6.8.r.r.d.r.d.0.d.d.0.8.u.d.8.u.^._.].u.r.9.8.d.]._.].].`.}.'.'.}.`.[.OX{.+XOX{./.(./.u./.(.e.8.9.9.u.u.u.u.i.`._.u./.t.t.8.9.*.&.0.8.q.*.0.$.@.8.q.8.q.8.q.%.q.8.e.8.6.6.r.8.6.q.6.6.q.r.r.f.8.8.8.r.r.q.6.6.8.<.&.$.@.@.@.+.%.#.#.o.,.D ! F S D S L ;.;.;.;.;.;.;.;.} ;.;.;.>.:.>.;.;.:.>.:.;.>.>.>.>.>.>.>.V.C.Z.Z.oX%X%X#XtXtXsXgXgXnXnXNXkXzXVXAXZXZXZXZXZXAXBXAXAXAXZXZXZXZXVXVXBXBXVXNXBXVXZXZXZXZXZXHXZXVXVXSXVXFXFXVXZXZXGXBXGXGXGXGXGXGXBXZXZXZXZXZXZXZXZXFXGXGXFXZXZXZXZXZXZXZXFXZXZXFXVXFXVXFXZXFXZXFXFXVXVXVXZXZXGXZXZXZXZXZXZXZXGXZXGXGXBXGXZXZXZXZXZXZXGXGXGXGXJXGXHXHXHXHXHXHXHXHXHXHXHXHXHXHXJXHXHXJX",
"9XeX9XeX9XeXeX9X%X%XIXQ.Q.Q.Q.Q.IXQ.Q.,X9XyXSXJXJXJXHXE.!.9XpXvXSXSXvXcXyXyXyXyXyXxXcXxXvXSXSXSXvXqXR.F.F.L.D.K.L.L.L.R.J.D.D.v.H.H.H.J.J.H.H.J.K.K.H.U.K.K.P.U.I.P.L.U.L.P.P.P.I.I.I.Y.Y.I.I.I.L.Y.Y.Y.Y.Y.L.Y.Y.Y.Y.1XY.Y.<XY.<XY.Y.T.>XT.;X;X;X;X;X;X;X;XT.;XY.;X;XY.Y.-X1X1X1X;XY.;X;X;X;X;XT.;X;X;X:X:X;X:X8X;X;X:X,X;X;X;X:X;X;X;X;X3X;X;X;X;X3X;X;X;X3X1X3X3X3X1X3X3X0X0X1X3X3X1X1X1X3X3X0X0X;X6X;X;X0X:X:X0X:X0X;X:X0X0X0X4X0X0X3X3X3X8X3X1X1X1X;X>X-XY.1XL.W.W.K j C x Z k k x S x S ! %.+.%.%.@.%.<.1.@.-.*.6.8.8.y.d.r.r.r.r.r.r.r.q.8.q.r.8.d.d.u.d.d.d.q.d.d.q.0.r.^.u.t.9.u.C.].d.u.d.].].^.^.+X`.+X_.]._.}.+X{.OX}.+X[./.(.(.+Xa.8.t.w.u.^./._._._.).^./.u.u.9.t.u.q.8.*.@.-.u.u.q.0.0.8.d.8.8.d.q.6.r.9.q.6.9.8.f.q.=.f.r.q.r.r.r.8.8.r.w.w.6.6.6.%.*.@.%.+.+.$.o.o.#.o.! ! F ! ~ ~ L ~ 3.;.^ ;.;.;.;.;.;.;.;.;.;.>.;.;.>.>.:.>.>.,.;.>.:.,.,.>.>.V.Z.Z.oX%X#XpXaXiXgXgXnXnXNXBXNXVXBXAXZXZXAXZXAXZXAXAXAXVXZXZXZXZXVXVXVXVXNXNXNXBXVXBXZXZXZXZXVXFXFXVXFXVXZXFXBXZXGXGXGXBXGXGXZXZXZXBXBXVXSXZXZXFXZXZXGXGXZXZXFXFXZXZXFXZXVXZXZXZXFXZXFXVXZXZXZXFXGXZXZXLXBXZXGXGXZXGXBXZXZXZXGXGXZXZXGXBXGXGXGXZXFXGXGXGXGXGXGXKXHXHXHXJXHXHXHXHXJXHXJXHXHXHXHXJXJXHX",
"eX9X9X9X9XeX9X%X,XQ.Q.Q.W.Q.Q.IXQ.%XQ.9X9XyXMXJXJXKXCXE.!.%XpXvXSXSXxXiXcXyXqXyXcXxXxXxXvXSXSXSXbXqXR.S.F.J.D.H.J.J.J.F.J.D.v.D.H.H.H.J.H.D.H.H.K.J.H.K.L.P.P.P.P.L.P.L.J.P.R.P.T.I.P.Y.Y.I.Y.P.Y.L.Y.Y.L.Y.L.Y.Y.Y.Y.Y.Y.;XY.1X-XY.-XT.>XY.T.;XT.;X;X>XY.;XT.;X;X;XY.;X;X;X1X1X1X;XY.;X;X;XY.Y.;X>X-X;X;X:X,X0X:X;X;X:X6X:X;X8X;X-X;X;X;X3X;X-X;X;X;X:X<X<X1X3X3X3X1X4X3X8X4X0X8X4X1X1X1X2X<X4X;X0X:X8X;X0X0X;X0X0X0X:X:X0X;X0X0X8X0X4X8X3X0X3X3X3X3X3X;X;X-X-XY.T.W.G.s l L k Z S Z k Z Z ~ x #.+.%.$.+.*.q.*.*.*.&.6.8.u.r.9.w.r.r.r.r.r.f.f.r.q.r.8.d.d.r.d.9.d.q.@.q.q.8.q.2.1.9.0.9.2.C.2.0.0.2.4.2.C.1.4.u.t.4.(.(.(.(.+X}.{.{.+X+X+X(.+Xt.^.u.(._./.`._.{./.p./.i.^.t.t.8.8.u.^.<.8.<.*.8.0.0.0.u.0.u.d.r.6.6.0.q.=.0.8.6.q.6.6.6.6.f.r.8.r.8.8.8.w.8.=.<.$.<.@.$.+.@.@.#.! o.D ! +.Q ! ~ S ~ ;.~ ;.;.;.;.;.;.;.;.;.;.} ;.:.>.>.>.;.>.;.;.>.;.>.;.>.>.>.V.C.!.oX%X%X#XaXiXsXkXkXnXNXVXNXVXAXBXZXAXZXAXZXAXAXAXBXAXZXAXZXGXGXVXBXZXVXVXNXNXNXBXBXVXGXBXGXFXVXLXVXZXVXFXVXBXGXGXZXZXZXAXCXBXZXLXVXBXVXVXVXVXFXFXGXGXGXZXFXGXGXGXGXZXZXVXZXFXZXZXZXVXZXZXFXGXGXFXZXFXVXVXZXZXZXZXGXGXGXZXGXGXZXZXGXLXZXZXZXGXGXGXGXGXKXGXJXHXHXHXHXHXHXHXHXHXHXJXHXHXHXHXHXHXJXJXJX",
"eX9X%X9X9X9XeX9XQ.9XQ.Q.W.Q.Q.Q.Q.Q.Q.Q.9XpXMXJXJXHXFXE.!.9XpXuXvXSXvXiXyX,XyXyXyXcXcXiXxXSXvXbXxX9XR.c.F.H.x.D.D.D.D.D.D.D.D.D.F.J.J.J.H.H.H.H.H.K.H.U.U.K.P.P.I.Y.T.P.P.U.P.P.P.T.Y.Y.Y.Y.L.Y.Y.Y.Y.L.Y.Y.Y.Y.Y.Y.Y.Y.Y.;X;XY.Y.-XT.;X-X;X;X;XT.;X;XT.;XT.;X;X1X1X1X;X1XY.Y.1X1X1X;X;X1XY.;X;X;X;X;X;X;X;X:X:X,X;X;X;X:X:X;X;X-X-X>X;X;X;X;X-X;X:X;X1X1X1X1X0X1X1X3X3X8X4X3X3X1X3X3X<X3X1X3X3X:X:X0X:X:X0X:X0X0X0X0X0X0X;X:X0X0X0X0X0X0X0X0X4X8X8X8X3X;X;X-XY.P.R.Y.B.i l Z Z k ! ! S x Z ~ ~ F %.$.! %.*.$.*.<.=.*.6.8.8.r.9.r.r.d.s.d.r.r.r.r.8.8.d.r.d.0.r.0.6.*.*.q...X.X.$.,.2.2.2.2.2.3.&.&.2.2.2.2.2.4.2.2.2.4.4.2.4.4.(.(.+X{.OXOX+X+X/.{./.(._._.{.`.{.{.(./.u.).(./.t.t.8.u.=.8.=.0.0.r.0.0.q.d.0.0.9.0.9.u.8.6.*.6.6.6.6.-.q.6.r.6.8.r.r.8.8.r.8.=.*.*.*.$.&.+.+.+.#.o.#.! ! D ! Q D k ,.,.;.;.3.} ;.;.;.:.;.;.;.;.>.;.:.:.:.,.;.>.>.;.:.;.>.;.;.>.,.C.!. X%XpXsXdXfXdXkXkXnXnXNXNXAXVXAXAXAXZXZXAXAXAXAXZXAXAXVXAXVXVXBXVXVXZXVXVXNXBXVXNXBXBXZXZXZXFXZXZXZXZXVXFXFXZXZXGXZXCXCXAXGXZXZXBXVXLXLXZXFXVXVXFXFXGXGXZXZXGXGXGXFXZXFXFXVXZXZXLXVXSXZXVXVXZXZXFXZXVXFXVXZXFXZXFXFXFXGXZXGXGXGXZXGXZXGXGXGXGXGXGXKXGXGXJXHXHXHXHXHXJXHXJXHXHXHXHXHXHXJXHXHXHXHXHX",
"IX%X9X9X9X9XQ.9XQ.,XW.W.W.W.Q.Q.Q.Q.Q.Q.Q.yXMXJXJXKXCXE.!.%XpXuXvXSXvXiXyXyXyXyXyXyXiXcXxXvXvXvXbXqXG.S.H.H.D.H.R.D.D.D.F.D.D.D.H.H.D.D.F.H.D.H.H.J.H.H.K.L.P.P.T.P.P.T.P.T.R.P.P.T.T.Y.T.T.Y.I.Y.L.Y.Y.Y.Y.Y.Y.Y.1XY.1XY.-XY.-XT.-X-X-X;X;XT.T.;X;XT.;XT.;X;X;X1X1X;X1X1X;XY.;X1X1X1XY.;XY.1X1X;X;X;X;X;X;X;X;X:X:X;X;X:X;X;X:X-X-X;X;X6X3X3X;X;X;X3X;X1X1X1X8X3X4X1X4X1X3X3X3X4X3X3X3X3X3X<X1X0X:X,X0X0X;X0X0X0X0X0X:X:X6X:X:X0X0X0X8X0X5X0X8X8X3X3X3X3X;X=XT.P.L.W.B.i l L S S Q Q S k x S ~ F #.+.+.*.%.+.=.*.*.=.=.6.8.r.r.r.d.d.d.s.d.d.w.8.r.8.d.0.d.0.d.6.8.9.8.8.q.@.@.D 5.5.3.O.$.3.2.3.3.O.5.3.5.3.3.3.3.2.3.3.2.2.4.2.4.4.(.+XOXOXOX+XOX+X{.{.{.}.}.+X/.a.(.t./.y./.u.t.8.9.9.9.9._.0.0.d.].q.u.u.d.8.0.d.d.d.8.8.6.6.6.6.*.q.6.f.q.8.8.e.8.8.8.8.=.*.<.&.%.$.@.@.+.$.#.,.! Q x Q x x ~ >.;.;.O.;.;.;.;.;.;.;.;.;.:.:.>.>.>.:.;.>.:.:.:.;.>.;.>.>.;.V.A.oX X#XaXdXfXkXkXkXkXkXNXNXCXAXAXZXAXZXZXAXZXVXVXZXZXAXZXVXVXVXVXNXVXBXZXZXVXVXNXNXNXNXVXVXGXGXFXZXZXZXZXFXVXZXZXZXBXAXBXAXmXZXZXVXZXZXSXVXVXZXVXZXFXZXFXZXZXFXGXGXGXZXZXZXFXFXZXZXVXSXVXVXVXFXZXZXZXZXVXVXFXZXZXGXZXFXZXZXZXZXGXZXGXGXFXFXKXGXGXGXGXGXJXGXGXHXKXHXHXHXJXHXHXHXJXHXJXJXHXJXHXHXJXJXHX",
"9XQ.Q.IXQ.9XQ.Q.Q.Q.Q.W.W.W.Q.W.W.Q.W.,X9XyXMXJXJXKXDX~.E.IXpXuXSXSXvXcXyX,X,XyXcXcXyXiXxXvXvXvXcX,XJ.S.F.H.H.H.D.H.D.F.c.F.D.H.H.D.D.D.D.D.H.H.J.H.U.H.L.U.P.P.P.P.T.P.P.P.T.Y.J.P.P.Y.Y.Y.Y.P.L.Y.L.Y.L.Y.Y.Y.1XY.1XY.-XY.<XY.T.-XT.;X;X;X;X;X;X;X;XT.-X;X;X;X-X;XY.;X-X;X1X1X1X1X1X1X1X;X1XY.;X>X;X;X;X;X:X:X;X:X;X;X;X;X;X;X:X;X;X3X3X8X3X3X3X3X3X3X1X1X1X1X3X1X3X3X3X1X1X1X1X3X1X3X3X1X1X3X;X;X6X6X0X0X0X:X0X0X;X0X,X6X0X8X4X8X8X4X8X3X3X8X3X3X3X;X-X>XP.Y.Y.J.;XA.i z k S S S x Z z z z L ! F +.%.$.+.@.<.8.*.@.&.6.9.u.8.r.r.d.r.r.s.d.q.0.r.r.8.d.8.d.u.d.9.u.u.i._.u.`.&.o.D x x x x x o.x x 5.x 5.x 5.O.5.3.3.3.3.3.3.3.3.3.4.4.4.+XOXOXOX}.{.+X/.(.t.1.t.1.t.t.t.w.t.9.t.u.9.^.8.<.9.d.q.0.0.0.q.9.r.d.u.q.6.9.d.0.6.6.q.6.6.6.q.6.f.r.6.8.8.8.6.*.1.@.&.&.%.O.%.+.+.#.+.D +.S #.D z k ;.#.#.~ ^ ;.;.3.;.;.:.;.} ;.} :.>.:.;.>.;.;.>.:.;.>.;.;.>.,.>.>.C.oXXX#XdXkXkXkXkXkXzXNXNXBXNXVXVXVXAXVXZXAXZXAXZXZXZXZXAXBXVXVXVXNXNXVXVXVXZXBXNXNXNXNXNXBXZXGXZXGXZXFXFXFXVXBXZXBXBXBXBXNXNXZXLXLXVXVXVXVXSXVXFXVXVXVXGXGXFXZXZXGXZXFXVXZXZXFXVXFXVXVXVXnXSXVXVXFXGXFXFXZXFXZXFXGXZXZXZXBXBXZXZXFXZXGXFXGXKXFXGXGXGXGXGXGXJXHXHXHXHXJXHXHXJXHXJXHXHXHXJXHXJXHXHXHXJX",
",X,XQ.,XQ.,XQ.,XW.W.W.W.!.W.W.W.W.W.Q.Q.9X9XMXJXKXKXDXG.E.Q.pXvXMXbXxXyXyX9X9X9XyXyXcXyXiXxXvXvXbXIXF.F.D.D.x.D.D.D.F.F.x.x.x.K.D.D.K.D.D.x.x.K.K.K.K.K.K.K.K.K.P.P.L.P.Y.Y.Y.-XP.Y.Y.P.Y.=XT.Y.P.P.T.Y.Y.P.Y.=X;X;X-XY.Y.Y.Y.-XY.Y.Y.Y.Y.1X;X;X;X-X-X-X;X1X1X1XY.Y.;X;X-X-XY.-XY.1XY.;X;XY.;X-X;X-X;X;X1X1X1X1X1X1X;X;X;X;X;X;X;X1X1X1X1X;X1X;X1X1X1X1X1X1X1X1X0X4X3X1X1X3X1X1X<X;X1X3X3X<X;X;X;X;X1X3X3X0X8X3X0X8X8X4X8X:X8X3X1X3X3X4X8X:X;X;X;X;X;X-XY.Y.P.P.U.P.8Xk.y A ~ k x ! ! x ~ S k x A ! ! ,.! *.$.q.*.*.&.@.8.8.t.t.u.r.d.r.d.s.8.8.9.q.6.d.%.d.r.d.r.d.d.r.d.d.d.d.d.u.0.<.O.o.5.D 5.~ 5.5.5.5.3.5.5.5.5.5.5.5.3.3.3.3.3.3.3.4.4.4.(.(.4.4.4.4.4.4.3.2.2.4.3.4.2.4.4.2.9.9.C.2.C.9.<.9.^.9.0.9.9.9.q.r.d.q.q.r.q.d.6.q.6.q.-.f.6.6.6.r.8.8.6.6.q.*.<.2.+.O.@.o.o.+.+.F ! S Q ! x Q ;.;.;.#.~ #.;.;.;.;.;.} ;.;.;.} :.>.>.>.,.;.:.:.,.:.>.>.>.>.>.V.C.Z. XtXiXgXkXlXzXVXzXNXNXAXNXAXVXNXAXkXAXAXAXzXAXAXZXZXGXZXZXAXnXNXVXVXNXAXNXAXzXNXNXNXNXNXAXNXCXAXCXCXHXAXCXnXAXAXCXCXNXNXmXmXAXBXNXmXNXNXAXAXAXFXCXAXCXAXAXAXVXZXFXGXGXVXSXVXSXVXSXVXZXLXVXVXZXBXZXZXFXGXGXGXZXGXGXZXGXBXBXZXGXZXGXGXGXHXHXGXAXHXGXHXHXHXHXHXHXHXJXHXHXJXHXHXHXHXHXHXHXHXHXHXHXHXJXHX",
"Q.,XW.Q.Q.,XW.Q.Q.W.!.W.E.W.E.W.W.W.W.Q.Q.yXvXJXKXJXvX~.E.IXyXvXMXvXxXcX9X,X9XyXyXcXpXcXcXxXxXbXcXIXF.F.D.D.D.x.D.D.x.D.x.b.K.K.K.K.x.D.K.K.K.K.x.x.K.K.K.K.I.I.P.P.L.P.P.Y.P.Y.Y.Y.-XP.Y.P.P.Y.P.P.P.P.P.Y.P.Y.-X-X-X1X-X-X-XY.Y.Y.Y.;X1X;X;X;X;X-XY.Y.Y.Y.;X;X;X;X;X;XT.Y.-XY.;X1XY.;XY.;XY.;X-X-X-X-XY.1X1XY.1X1X;X;X;X;X;X;XY.;XY.1X;X1X;X;X1X1X1X1X1X1X1X8X3X3X1X<X3X3X3X1X<X;X<X<X1X1X2X;X3X;X3X3X3X3X0X0X0X0X0X8X8X3X3X3X3X3X3X3X6X6X;X;X;X:X;X-XY.Y.I.P.U.U.W.h.a A S ! D ! ~ x S x x z ^ F ! $.+.%...*.&.*.@.&.1.w.9.8.0.6.r.r.r.d.6.8.6.6.e.6.6.r.u.0.6.r.d.d.d.d.s.|.d._.t.1.2.2.2.$.3.2.2.3.2.2.3.3.4.3.3.5.3.5.5.3.3.3.3.4.3.3.3.3.4.3.3.3.3.3.3.3.3.3.3.3.3.3.3.2.2.2.,.2.2.2.1.1.C.C.,.,.%.%.q.*.q.q.w.8.w.r.6.6.6.6.6.-.q.6.6.6.8.r.8.8.8.6.q.*.&.$.$.$.%.$.+.$.+.! ! ! L ~ L Q ;.;.;.#.#.~ ~ ;.;.^ ;.;.;.;.;.} ,.>.>.>.:.:.;.>.>.>.>.>.>.>.>.7.C.!.%XtXsXfXhXnXNXNXNXNXNXNXVXAXAXzXkXAXAXAXAXAXZXAXZXZXZXZXZXZXVXVXVXBXAXNXAXNXBXNXNXNXNXNXNXAXCXAXCXAXCXBXNXNXAXCXAXCXCXCXAXNXBXBXNXNXNXBXCXCXAXAXCXAXCXNXCXAXZXFXFXZXGXVXZXVXSXVXVXZXVXBXSXVXBXBXZXZXGXGXGXGXBXGXGXBXZXBXVXBXZXGXGXGXHXGXHXHXHXHXHXHXHXHXHXJXHXJXJXHXHXJXHXJXHXHXJXHXJXHXHXHXJXHXHXHX",
"W.Q.W.Q.W.Q.Q.W.W.!.E.W.W.E.E.W.W.W.W.Q.Q.9XvXJXKXJXSX~.E.IXpXxXvXvXxXyXyX9X9X9XyXyXyXcXcXxXxXxXcXIXF.F.x.D.D.K.D.D.D.c.D.x.x.K.D.K.D.K.K.K.x.K.K.D.K.K.K.K.I.K.L.L.L.L.P.T.P.T.=XY.Y.Y.Y.P.Y.P.P.Y.Y.P.Y.P.Y.Y.<XY.-XY.Y.I.Y.-X-X-X;XY.-X;X-X;XY.-XY.;X-X;XY.;X;X;X;X;X;XT.Y.-XY.;XY.Y.-XY.Y.;XY.-X-X-X1X1X1XY.1X1X;XY.;X;X;X;XY.Y.;XY.Y.;X;X;X1X1X1X1X1XY.;X1X1X<X1X<X3X3X3X4X3X;X3X;X;X2X1X2X3X;X3X3X3X0X8X0X0X5X8X4X8X3X3X4X4X3X3X3X0X,X;X;X,X:X:X>XP.P.U.U.I.L.;X' M Z Z o.! ! o.Q ! D S g S F S #.G S +.$.$.-.&.8.1.w.8.6.r.q.r.r.d.r.8.d.r.8.d.q.d.r.d.d.r.d.d.d.d.|.s.d.]./.t.t.(.9.1.2.(.2.(.(.2.4.4.4.3.4.3.4.3.3.5.5.5.5.5.3.3.3.3.3.3.3.3.3.3.3.3.3.3.3.3.3.3.3.5.5.O.O.O.3.3.,.2.2.2.&.$.O.@.%.@.G q.X.q.r.q.q.r.q.6.6.6.-.*.6.8.6.r.r.8.8.8.8.8.*.&.$.o.$.$.$.+.#.+.! S Q z x ~ ~ ;.;.#.^ ;.~ #.;.;.;.;.;.;.;.} } :.>.>.>.:.:.:.>.>.>.>.>.>.>.7.7.Z.oX XtXgXhXnXnXNXNXzXVXNXVXAXVXNXNXNXkXAXAXzXAXAXZXZXZXZXZXZXZXZXBXVXBXBXNXNXAXAXAXAXAXAXNXAXBXAXCXCXNXNXCXBXCXCXCXCXAXCXCXNXCXAXBXAXAXAXCXCXAXHXCXAXCXNXNXmXNXZXFXZXZXZXZXLXVXVXLXVXZXSXVXVXVXBXGXBXGXGXGXGXGXZXZXZXBXZXBXBXBXGXGXGXGXZXHXGXHXHXHXHXHXHXHXHXHXJXHXHXJXHXHXJXHXHXHXJXHXHXHXHXHXHXHXHXHX",
",X!.Q.W.W.!.W.W.!.W.W.E.W.E.W.W.W.E.W.Q.Q.9XvXJXKXJXMXB.G.IXeXuXvXxXcXyX9X,X,X9XeXyXyXyXiXxXxXxXcXY.F.S.c.D.x.K.D.D.D.x.F.x.x.x.K.x.K.K.K.K.K.K.K.K.K.L.K.K.K.L.U.L.L.L.U.T.P.P.Y.Y.P.Y.T.Y.P.P.P.P.-XY.P.Y.P.P.Y.1XY.<X-XY.Y.Y.T.-XY.;X;XY.;X;X;X;XY.Y.;X;X;X;XY.;X;X;X-X-XY.Y.Y.;XY.;XY.;X-XY.-XY.Y.1XY.1X1X-X;X-X;X;X;X;X;X;XY.;XY.1X1X1X;X;X;X1X1X1XY.1XY.1X1X1X<X1X3X3X3X3X3X3X<X<X;X;X<X1X;X3X;X3X3X8X0X0X0X8X8X3X8X3X8X3X3X3X3X3X;X;X0X8X:X0X;XT.L.P.P.L.U.D.IX_ j Z k ! D ! o.x ~ S x g j G S ! F F *.@.-.%.=.w.=.9.8.6.r.6.8.u.y.r.d.s.d.r.9.8.r.d.d.d.|.s.d.r.d._.d.r.).(.u././.t.2.2.2.2.2.2.(.4.2.(.4.4.4.4.4.4.4.4.3.3.5.5.5.5.3.3.3.3.5.3.5.3.5.5.5.5.5.5.5.5.5.5.5.5.S 5.! 5.~ 5.#.O...x D o.X.F -.q.X.6.6.q.6.f.*.q.6.-.6.8.e.6.8.8.6.8.*.*.1.*.,.$.O.O.+.+.o.+.! ! S F g k #.;.#.o.^ #.~ #.^ #.;.;.;.;.;.;.:.;.:.:.,.:.:.:.:.;.;.>.>.:.>.,.7.C.Z.!.tXpXgXkXzXNXNXNXNXNXAXVXVXAXzXzXzXzXzXkXNXzXAXZXZXZXZXZXZXVXZXVXNXNXzXNXNXBXAXAXAXAXNXAXNXNXAXmXNXNXBXNXCXNXnXCXCXCXAXCXNXNXBXNXAXCXAXCXAXAXCXAXAXNXAXnXNXzXVXZXGXVXVXLXVXZXBXVXLXVXBXVXVXSXVXGXGXGXGXGXFXGXZXGXFXZXVXBXGXGXGXGXGXGXZXGXHXZXHXGXHXHXHXJXHXJXHXJXHXHXJXHXHXHXHXHXHXHXHXJXHXHXHXHXHXHX",
"!.W.W.!.W.W.W.W.W.W.G.E.E.E.W.E.!.W.W.W.Q.eXvXJXKXHXPX~.E.Q.eXuXvXxXcXyX9X,X,X,X9XyXyXyXcXxXxXcXqXIXS.z.F.F.x.D.F.F.x.F.x.x.D.K.x.D.K.K.D.K.K.x.K.K.K.K.K.L.L.L.L.L.L.L.U.P.P.P.Y.P.Y.P.P.Y.P.Y.-XP.-XY.Y.Y.P.Y.Y.Y.-XY.Y.-XI.-X-X-X;X;XY.-XY.Y.;X;X;XY.1X1X;X;X-X;X;X;X;XY.;X-X1XY.1X;XY.;X;X;XY.<X-X1X1X1X1X1X8XY.;X;X8X;X1X;X1X1X1X1X1X;X1X1XY.;X;X;XY.1X1X1X3X4X1X1X1X3X3X1X3X3X<X<X<X1X2X3X;X3X;X;X;X8X8X0X4X8X3X8X3X3X;X3X:X3X3X;X;X;X8X:X8X8X;XT.L.L.P.P.Y.F.9X( q L x x ! D ~ D S S ! S Z k S F S ,...+.%.-.6.8.6.q.w.8.6.8.8.y.y.d.d.d.r.0.r.s.r.d.d.d.s.d.s.d.r.r.r.d.y._./.u.u.t.t.2.2.4.2.2.4.(.4.4.4.(.4.4.4.4.(.4.4.4.4.3.3.5.5.5.5.5.5.5.5.5.5.5.3.5.5.5.5.5.5.5.5.x x x c x z c c c x &.q.q.*.*.q.6.*.6.f.q.q.6.*.*.6.*.6.r.8.8.6.8.8.8.*.*.<.$.%.@.o.+.o.#.#.+.F G S S z ~ ;.o.#.~ #.^ ;.#.#.;.;.;.;.;.;.;.;.;.;.;.;.2.>.;.:.;.;.{ :.>.>.>.7.V.Z.!.@XsXgXkXVXVXVXNXNXVXVXAXNXAXzXzXNXzXkXzXAXAXAXZXAXAXAXCXAXAXVXVXNXNXkXVXNXNXAXAXNXAXNXNXNXAXCXNXCXCXCXAXVXNXzXCXNXAXAXCXNXNXNXNXAXCXAXAXCXBXNXAXBXNXNXNXmXmXFXZXZXVXVXSXLXVXVXVXVXVXZXZXLXVXGXGXGXGXKXKXGXGXGXZXGXGXBXGXGXGXGXGXGXGXCXHXZXHXHXHXHXHXHXJXHXHXHXJXJXHXHXHXJXHXHXHXHXHXJXHXHXHXHXHXHXHX",
"W.W.!.W.W.W.!.!.E.E.E.E.E.E.E.W.W.E.W.W.Q.9XvXJXKXHXvXN.~.W.eXiXxXxXcXeX9X,X,X,X,X9XyXyXpXcXcXxXpXY.S.c.c.D.D.L.D.x.D.x.D.x.x.x.x.K.D.K.K.K.K.K.K.D.K.D.D.K.K.L.U.L.L.J.L.P.P.L.P.P.P.Y.P.-XY.=XP.Y.-XY.Y.Y.=XP.Y.-X-XY.Y.Y.-XY.-X;X;X;X;X;X;X;X;X;X1X1X1X;X;XY.Y.-XY.;X1XY.;X1X1X;X;X-X1X1X1X;X<X;X1X1X1X1X-X1X;X;X8X;X8X;XIX;X1X1X1X1X1X1X;X1X;XY.1X1X;X1X1X1X4X4X4X0X4X8X8X3X3X1X3X1X1X1X1X1X;X;X:X3X3X;X6X8X4X3X3X:X3X3X8X;X3X;X<X;X3X;X;X:X1X1XY.Y.P.Y.T.T.T.J.,XE q x Q h D o.#.~ o.! ~ S S 3 z ! ! $.D +.*.%.*.%.*.*.e.w.6.u.r.d.d.r.d.8.6.8.d.d.r.d.|.d.d.d.d.r.r.d.r.d.y.s.u.u.t.t.^.(.(.4.2.(.2.4.(.(.4.4.4.4.4.(.(.4.4.4.4.4.4.4.4.4.4.4.4.4.4.4.4.4.4.4.4.4.4.4.3.3.3.3.3.3.3.5.3.O.O.O.2.2.0.8.e.r.6.e.6.6.r.q.X.q.-.q.8.6.8.r.r.r.6.6.8.9.q.*.*.@.#.o.+.#.+.o.! F S A x k k ! ;.~ ~ ^ ^ #.;.;.;.~ ;.;.^ ;.;.:.:.;.;.;.>.>.;.>.;.} ;.} ;.>.>.2.V.V.Z.Q.tXuXkXlXNXVXVXNXVXNXVXNXVXNXAXAXAXNXAXAXCXAXAXZXZXZXAXCXAXAXAXVXVXNXNXzXNXzXNXAXNXNXNXNXNXzXNXNXNXAXAXAXBXmXNXNXCXAXAXBXCXNXNXBXBXAXNXCXBXNXNXNXNXNXNXAXAXAXFXVXFXVXVXVXVXBXnXVXLXLXVXGXGXZXGXGXGXGXGXGXGXFXFXFXGXGXGXGXGXGXGXGXGXZXHXZXHXGXHXHXHXHXHXHXHXJXHXHXHXHXJXHXHXHXJXHXHXJXHXHXHXHXHXHXHXHX",
"W.E.W.!.W.!.W.E.!.E.E.E.E.E.G.E.E.W.E.W.W.9XPXJXKXKXvXN.~.!.9XiXxXiXcX9X,X,X,X,X9XyXyXyXyXxXiXcXpXY.F.S.x.D.H.H.D.x.F.D.x.D.b.K.x.x.x.K.K.K.K.K.K.D.K.K.K.K.K.K.P.P.J.U.P.P.P.P.P.P.P.P.Y.P.Y.Y.Y.-X-XY.P.Y.Y.Y.Y.-XY.-XY.Y.Y.Y.Y.;X1X1XY.Y.Y.;X1X1X1X1X1X1X;X-X-XY.1X;X;X;X;X1X1X;X;XY.;XY.-X1XY.<X;X;XY.1XY.1X1X;X;X8X8X1X1X<X8X1X1X1X1X1X1X1X;X1X1X1X1X1X1X8X4X8X4X8X0X4X4X3X3X1X3X1X3X<X<X1X3X;X3X;X3X3X3X3X3X3X8X3X8X;X3X3X3X1X1X3X;X;X;X;X1XY.Y.T.L.T.P.T.T.R.W.L l x ! x x D o.5.o.~ D x k z z +.#.D +.$.%.-.$.-.6.*.6.6.r.r.r.d.d.9.r.6.q.r.8.6.6.8.d.d.s.d.r.r.d.r.r.r.y.r.w.u.u.1.u./.(.(.4.2.4.4.4.4.(.(.4.4.4.4.4.(.(.4.4.4.4.(.(.(.4.4.4.4.4.4.4.4.4.(.4.4.4.3.4.3.2.2.3.3.3.3.2.3.O.&.1.4.r.d.r.8.6.r.w.6.f.r.6.q.6.6.6.8.8.p.r.r.8.8.8.8.=.%.<.o.$.+.+.#.! ! ! S S k A z Q ~ #.^ ;.#.;.;.3.;.;.;.;.;.;.;.:.:.;.;.;.>.;.>.;.>.;.;.;.;.;.;.;.>.m.C.Z.@XtXgXkXlXNXNXNXzXzXNXzXNXVXNXAXAXAXAXAXNXAXAXAXAXAXAXBXAXAXkXVXVXVXVXNXNXNXNXzXnXNXNXNXNXNXNXBXNXNXAXNXBXNXNXmXmXAXCXAXAXAXCXBXBXBXNXAXCXAXNXnXNXCXNXNXNXNXAXVXZXVXZXLXSXVXVXSXnXVXLXLXZXZXLXBXGXGXGXGXGXZXGXGXGXKXGXGXGXGXGXGXGXZXZXZXHXGXHXHXJXHXHXJXHXHXJXHXHXHXHXHXHXHXHXHXHXHXHXHXHXHXJXHXHXHXHX",
"W.W.W.E.W.E.W.E.E.>XE.G.G.G.W.E.W.E.W.E.W.9XPXJXKXJXvX~.~.W.eXcXxXcXpXyX,XW.Q.,X,X9XqXyXyXcXcXyXqXW.F.c.D.D.D.H.D.F.D.D.x.x.K.K.K.K.D.x.K.K.D.K.K.K.b.K.K.v.K.K.L.L.L.L.L.T.P.L.P.T.Y.P.P.T.P.P.P.Y.Y.-X-XY.Y.P.Y.Y.-XY.-XI.-X-X-X;X8X1X;XY.;X;X;X;XY.;X;X;XY.-X;X;X1X1X-X;XY.;XY.1XY.;X;XY.;X;X1X1X-X-X-X-XY.-XY.;X;X1X;X8X1XY.1X1X1X1X1X1X1X1X1X1X1X1X1X1X1X8X3X3X1X4X4X4X3X1X3X3X3X3X3X1X1X<X3X3X3X3X3X3X8X3X8X8X3X3X;X3X3X3X3X3X3X3X3X3X;X;XY.;XY.T.L.P.T.T.L.W.B.K l L Q D D o.~ z ~ D D ! x g z S ^ ! o.G %.%.@.q.8.f.q.q.u.0.q.r.r.8.8.8.r.s.q.r.r.d.u.|.d.d.d.d.r.r.r.d.r.d.y.w.9.t.t.8.(.(.(.(.4.4.4.4.4.(.(.(.(.(.4.(.(.(.(.(.(.(.4.4.4.4.(.(.4.4.4.4.(.4.4.4.4.4.4.4.4.4.2.2.2.3.2.3.2.*.2.9.r.q.6.r.r.f.r.q.6.r.6.X.q.=.6.8.8.y.8.8.8.6.<.8.<.<.*.G #.+.#.#.F ! ! F S k F k ^ ! ^ #.;.#.;.;.;.;.;.;.;.;.;.;.;.;.;.;.;.;.>.;.;.;.;.{ >.;.:.;.>.>.2.C.Z.%XaXgXkXkXNXzXVXNXnXNXNXzXNXVXNXNXNXAXnXNXNXAXAXAXAXAXAXBXAXkXBXAXAXBXAXBXNXAXNXNXNXnXzXzXNXNXNXNXnXkXNXmXNXVXzXNXNXAXAXmXCXNXAXBXAXAXNXNXCXBXNXCXNXNXnXmXAXAXVXFXFXVXVXVXVXSXVXVXVXZXZXZXZXVXGXVXBXBXZXZXZXZXFXGXKXGXGXZXBXZXGXZXGXCXZXGXHXHXHXHXHXHXHXHXHXHXJXHXHXJXHXHXHXHXHXHXHXHXJXHXHXHXHXHXHXHX",
"E.E.W.E.W.!.E.!.W.E.E.E.E.E.E.W.G.W.E.W.W.9XvXJXJXJXiXN.~.W.eXpXiXcXyX9X,X,X,X,XQ.9X9XeXeXcXcXpXpXT.S.c.F.D.D.H.L.D.F.F.x.x.x.x.x.D.K.x.K.x.K.K.K.K.H.H.K.K.K.I.L.P.L.P.P.P.P.Y.P.Y.Y.-XY.-XY.P.-XI.Y.Y.P.-XY.-XY.-X-XY.-XY.Y.<X;X;X;X;X8X;X1X;X1X1XY.1X1X1X;XY.;X1X1X;XY.Y.;X1X;X;XY.;XY.1X1X1X-X1X1X-X1XY.Y.;X1X1X8XY.;XY.Y.;X1X;X1X1X1X1X;XY.1X8X1X1X1X1X-X;X1X1X3X3X1X1X<X3X3X3X<X3X1X3X1X<X;X3X3X8X3X3X3X;X3X8X3X8X3X0X3X8X1X4X1X1X8X1X1X1XY.8X;XR.T.;XT.R.T.N.!.l j ~ x ! D o.! ! ! ! x ! L g c ;.z x ;.3.D $.@.%.-.8.6.0.6.*.8.r.q.6.d.r.r.6.q.d.p.r.s.d.s.d.r.s.r.f.r.r.r.u.d.r.9.8.8.9.2.4.t.(.(.t.1.9.(.2.(.4.(.(.(.(.(.(.(.(.(.(.2.(.(.(.(.(.(.4.(.4.(.4.(.4.4.4.3.4.3.4.2.2.3.O.2.4.&.2.2.1.4.e.=.-.q.6.r.f.6.6.f.q.*.8.8.8.8.r.w.6.w.6.*.=.<.%.@.#.o.#.#.o.~ ! F Q x z S ~ 3.~ ~ #.#.#.;.;.;.#.;.;.;.;.;.;.;.;.;.;.;.;.>.;.;.;.;.;.>.>.>.;.;.>.7.C.!. XtXkXkXNXzXzXkXNXNXNXVXkXzXkXkXzXnXNXNXAXAXAXAXAXNXNXNXNXAXAXAXNXAXAXAXAXAXAXAXNXzXnXNXAXAXNXVXVXNXNXnXnXnXnXNXNXnXNXNXNXBXVXCXAXZXAXAXBXNXBXBXNXnXBXNXBXNXNXnXVXBXZXGXZXSXVXnXVXLXZXVXZXVXGXGXBXZXZXBXVXSXZXGXGXGXGXGXGXGXGXGXGXGXGXHXGXGXHXHXHXHXHXHXJXHXHXHXHXHXHXHXHXHXHXHXHXHXHXHXHXHXHXHXHXHXHX",
"E.E.E.E.E.>X!.E.E.E.G.G.G.G.G.E.E.E.E.W.W.Q.vXKXKXKXpXM.~.W.eXpXcXxXyXeX,X,XW.,X,X,X9X9X9XpXyXcXqXW.S.z.F.F.x.H.D.L.D.x.F.D.x.x.x.K.D.K.x.K.K.K.v.K.K.H.K.K.K.P.P.P.P.L.P.P.P.P.P.P.P.Y.Y.P.=XY.Y.I.Y.Y.I.Y.-XY.Y.Y.Y.Y.Y.Y.-X<X-XY.Y.;X-X;X;X;X;X;X;X;X1XY.;XY.-X;X1X1X1X;X;X1X1XY.1X;XY.1XY.;X1X1X1X-X<X1X1XY.8X1X;X;X;X;X;XT.;X1X1X1X1X;X1X;X1X1X1X1X;X;X;X;X<X3X3X3X3X<X1X3X;X-X<X1X1X3X3X<X3X;X:X3X;X3X3X3X8X3X3X8X3X4X8X3X1X1X8X8X1X1X1X1X8XY.Y.T.T.R.T.R.T.B.eXC l F ! D 5.o...D o.o.! ! x ~ 3 z D ~ #.#.G G +...*.q.8.6.q.q.8.8.q.q.r.r.q.r.r.r.d.r.d.r.p.d.p.s.d.r.r.r.r.r.r.r.r.r.8.r.9.(.t.t.t.t.t.(.t.1.4.(.4.+X(.+XXX(.+X(.(.C.(.(.(.(.+X(.(.(.(.4.4.4.4.(.4.4.3.4.4.4.2.3.4.2.4.2.1.=.=.*.=.=.8.6.6.6.e.6.6.r.r.q.6.8.r.9.y.r.w.8.8.q.<.0.*.$.+.$.#.$.! ,.Q ^ ^ A l ~ ;.~ ~ ~ ;.;.^ ;.#.;.;.;.;.;.;.#.;.#.;.^ ;.;.;.;.;.;.>.;.;.;.>.;.;.>.:.>.V.C.oX XtXkXkXzXNXNXzXNXAXNXNXkXzXNXzXNXkXNXNXNXBXAXNXAXNXAXNXNXzXAXnXNXNXAXAXAXNXNXNXNXAXkXNXkXNXNXNXNXNXNXNXnXNXNXVXBXVXBXNXBXAXBXAXCXZXZXCXAXNXNXNXNXNXmXNXNXmXCXSXVXBXZXZXGXVXBXnXSXZXZXLXVXVXLXZXBXVXBXZXnXVXZXGXJXGXGXGXGXGXGXGXGXGXGXGXHXGXHXHXHXHXHXHXHXHXHXHXHXHXHXHXJXHXHXHXHXHXHXHXHXHXHXHXHXHXHX",
"G.E.W.W.E.W.E.W.E.G.E.G.G.G.E.E.E.G.W.E.E.Q.xXKXJXKXpXN.~.W.IXpXiXyXcX9X,XW.,XW.,X9X9X9XyXyXyXyX9XW.F.c.x.x.D.K.D.D.F.D.x.x.x.x.x.K.x.x.D.K.K.K.K.K.K.K.K.K.L.K.L.L.P.P.T.P.P.Y.Y.P.Y.Y.Y.=XY.Y.Y.-XY.-XY.P.-XY.Y.-X-X-X-XY.-XY.Y.Y.-X;X;XY.Y.;X;X-X;XY.;X1XY.-XY.Y.1X1X1XY.;XY.Y.1X;XY.1X1XY.1X1X1X1X1X1X1X;X;X1X1XY.;X;X;X;X;X1X1X;X1X1X1X;X;X1X1X1X1X1X;X-X;X<X1X3X3X3X1X<X1X-X-X<X<X3X3X3X1X;X;X;X;X;X3X3X;X3X3X3X3X;X3X;X3X1X1X1X1X1X1XY.Y.Y.Y.T.Y.T.F.R.W.S.W.Q.l Q S o.x Z ~ D S Q o.! x z S g g S Z S S ..+.+.%.*.6.8.6.-.-.q.X.X.6.w.%.q.p.r.6.6.f.r.d.8.p.r.p.d.p.r.r.w.w.0.r.r.r.8.8.9.9.4.t.t.t.(.u.(./.4.(.(.+X(.+XtX+XnXaX X(.+X(.(.(.(.(.4.(.4.(.a.(.4.(.4.4.3.4.4.2.4.3.2.4.2.1.&.-.&.=.6.8.6.6.8.e.6.8.6.r.r.6.*.8.r.r.r.r.r.8.=.6.q.<.*.$.@.+.#.! S o.o.S ^ Z z ~ ;.;.~ ^ ;.~ ;.;.;.#.;.;.;.;.#.;.;.;.#.;.#.;.;.;.;.;.2.;.>.;.;.;.;.>.,.>.C.C.Q.%XpXlXkXNXNXNXzXNXVXVXzXNXNXzXNXNXAXAXNXAXAXAXzXAXAXNXAXzXNXzXNXNXAXNXmXNXAXNXkXNXNXNXAXkXzXkXNXnXNXNXnXNXBXZXCXAXAXVXBXVXAXAXAXCXCXZXZXAXCXNXNXNXmXNXNXNXAXNXVXVXBXZXZXZXBXBXVXVXZXZXVXSXZXLXBXnXNXBXZXSXVXZXGXGXGXGXGXGXGXHXGXGXGXGXHXHXHXGXHXHXHXHXJXHXHXHXHXHXHXJXHXJXHXJXHXHXHXHXHXHXHXHXHXHXHXHX",
"E.E.G.E.G.E.E.G.E.E.G.E.G.E.G.E.E.E.E.E.W.Q.cXKXKXKXyXN.~.!.eXyXcXiXyX9X,XW.W.,X,X9X9X9XqXyXyXcXqXT.F.S.F.x.x.L.D.D.D.D.D.x.D.x.K.x.K.D.x.D.K.K.K.L.K.K.K.K.K.L.L.P.L.P.P.P.Y.P.P.Y.P.Y.Y.Y.Y.Y.-XY.-XY.-XY.P.Y.Y.-X-X-XY.Y.Y.-X-X-X;X-XY.;X;XY.Y.;X;X;X;XY.;XY.;X;X1X1X1X1X;X;X;X1X1X;X1XY.;XY.<X-X1X-X1X-X1X1X;X1X1X1X;X;X;X;XY.;XY.1X;X;X1X1X1X1X1X1X1X1X;X1X1X1X3X1X3X<X3X1X-X-X1X3X3X3X3X<X;X;X3X3X8X3X3X8X8X3X1X1X;X3X3X3XY.1X1X1XY.1XY.Y.T.R.T.T.R.R.R.T.m.PX~.3 ! ! ! D S 5.! x ! o.o.! S S z x x z x x S D D +.G X.@.q.8.6.q.r.r.w.6.d.6.d.8.r.r.6.6.-.r.p.d.d.r.r.s.f.w.r.r.r.r.0.8.6.2.0.9.9.9.t.9.t.9.t.(.9.(.9.2.(.(.+XjX+X X(.&XOX+X(.+X(.4.(.4.(.(.4.(.4.4.4.4.3.4.3.2.4.2.2.&.2.1.2.*.*.*.6.6.w.6.6.r.r.r.r.r.q.6.8.8.r.u.8.8.8.6.=.<.*.*.%.#.+.! O.S S ~ ~ g ~ ~ ~ ~ ~ ;.;.#.;.#.^ ^ ;.;.;.;.;.;.;.;.;.;.;.;.;.;.;.;.;.>.;.;.;.;.;.;.>.>.>.C.Z.oX@XaXkXzXzXNXNXNXzXVXVXVXNXNXNXNXMXAXNXAXNXNXAXzXNXNXNXzXNXkXNXNXNXzXNXAXNXNXNXNXzXzXNXkXAXkXNXNXNXnXNXVXVXVXBXZXZXBXNXNXNXBXAXAXAXZXGXZXCXAXBXNXNXNXNXBXNXNXNXSXVXVXSXZXZXVXmXVXSXBXBXLXVXVXVXBXnXnXGXFXZXVXZXGXGXGXGXGXHXGXHXGXGXHXGXGXGXHXHXHXHXHXGXHXHXHXJXHXHXHXHXHXHXHXJXJXJXHXHXHXHXHXHXHXHXHXHX",
"E.G.E.E.E.E.E.E.E.E.G.G.G.G.G.E.E.G.W.R.W.Q.uXKXKXKXeXM.~.W.IXyXcXpXyX9X,X,XW.,X,X9X,X9XeXyXpXiXIXR.F.S.F.D.D.L.D.D.D.D.D.b.K.b.D.x.x.K.K.K.K.K.L.K.L.L.K.L.K.L.L.P.J.P.P.P.Y.Y.P.Y.P.Y.Y.Y.Y.=X-XY.-XY.-XY.Y.Y.Y.-X-X-XY.Y.Y.Y.Y.1X;X-X;X;XY.;XY.1X1X1X;X;X;X;XY.;X1X1X1X;X;X;X1X1X1X1X;X;X1XY.1XY.<X<X<X;XY.1X;X;X;X;X;X;X;X;X1X;XY.1X1X1X1X1X8X1X4X8X1X1X1X1X3X1X3X1X3X4X3X1X-X<X3X3X3X3X3X3X;X;X3X;X3X8X6X8X8X3X3X3X1X1X1X8XY.1XY.1XY.Y.Y.Y.L.T.R.T.T.T.R.G.A.KXm.3 ~ ~ ~ D 5.5.S ~ ! o.o.! o.~ z z z x S ~ o.! +.o.@.+.q.8.q.8.8.8.f.r.f.6.d.6.6.f.q.q.f.r.r.s.d.r.r.d.d.r.w.r.r.r.r.9.9.9.<.1.9.8.1.9.1.1.9.1.t.t.9.4.(.9.(.2.(.2.(.(.+X`.+X(.(.(.(.(.4.(.4.a.4.1.4.2.4.&.3.4.2.t.1.2.2.<.8.q.=.q.*.=.6.8.6.8.r.8.8.e.8.8.q.8.e.e.8.8.6.8.8.*.*.&.%.%.#.o.! #.! ~ ~ ~ : ~ ;.~ ~ ~ ~ ^ ;.;.^ ^ #.^ ;.;.;.^ ;.;.;.;.;.;.;.;.;.;.;.;.;.;.>.;.;.;.;.2.>.V.C.!.$XtXdXkXzXNXAXzXNXNXNXNXNXAXVXNXkXAXCXNXNXBXNXNXzXNXAXkXAXzXzXzXNXNXNXzXkXAXNXzXkXNXAXkXAXNXkXAXNXNXlXNXBXVXVXZXZXAXVXNXmXkXNXNXBXCXAXAXZXCXAXNXnXBXNXBXNXBXBXNXVXSXVXVXBXVXBXVXVXVXVXSXVXSXnXVXNXnXVXBXZXGXFXBXZXZXZXGXGXGXGXHXGXHXGXGXHXHXHXHXHXHXHXHXHXHXHXHXHXKXFXHXHXHXJXHXHXJXHXHXHXHXKXHXHXHXHXHX",
"G.G.G.E.E.>XE.E.E.G.G.G.G.E.G.E.E.E.E.E.W.Q.uXKXKXFXeXM.~.W.9XpXpXyX9X9XW.W.W.Q.W.,X,X9XqXyXyXqXeXR.F.F.x.D.D.D.L.L.D.D.D.K.b.b.K.K.K.D.x.D.x.K.K.K.K.P.U.L.P.L.U.L.L.P.P.P.T.P.Y.P.Y.P.P.Y.Y.T.P.-XY.-XY.Y.P.I.-XY.-XY.-XY.-X-X1XY.1X;X1X;X;X;X;X1X1X1X;X;XY.;XY.Y.;X1X1X;X-X1X1X1X1X1X1X1X1X1XY.1XY.<X1XY.1XY.;X;X8X;X8X;X3X,XY.Y.1X1X1X4X1X1X1X8X8X1X8X1X1X8X3X1X3X4X3X4X4X3X3X1X1X3X4X3X1X;X3X3X3X8X8X3X3X3X3X8X8X3X8X1X1X1XY.1X1XY.1XY.Y.1XT.Y.T.R.R.R.F.S.eXvX} q #.~ 3.x ~ x D #.O.o.o.o.o.#.D S g Z x S F ! ! ..@.%.&.&.8.q.q.9.d.f.q.6.G X.6.d.f.6.r.r.6.d.r.r.r.r.r.r.8.r.r.0.8.8.9.8.8.0.8.<.1.1.9.9.1.1.2.(.2.9.4.9.(.(.2.2.C.(.(.9.(.4.(.(.4.4.4.4.4.4.4.4.4.4.4.1.4.4.<.4.1.*.<.-.@.*.*.6.=.=.6.*.r.8.e.6.6.8.y.r.6.8.6.8.0.6.6.8.6.6.q.%.$.+.+.#.o.~ ~ D x g Z Z L ~ ^ } ^ ;.;.~ ;.^ ^ ^ ;.^ ^ ;.#.;.;.;.;.;.;.;.;.;.] 3.;.;.;.;.;.;.;.>.>.V.(.!.%XtXfXkXkXNXNXNXNXNXzXNXVXNXNXVXzXnXzXNXNXNXNXNXzXnXkXzXkXzXkXzXzXNXNXNXAXkXkXAXAXkXzXNXzXkXkXzXNXnXnXNXNXNXZXZXZXBXVXnXzXNXNXNXNXCXnXCXBXNXNXnXNXNXNXNXBXNXNXNXVXnXVXnXmXVXVXmXSXSXVXVXVXVXVXVXNXnXmXBXZXZXZXZXZXZXZXZXGXGXGXGXHXGXHXHXGXGXGXGXHXHXCXHXHXHXHXHXHXHXHXHXHXJXHXJXHXHXHXHXHXHXHXHXHXHXHXHX",
"A.G.G.E.G.E.E.E.E.E.E.G.G.G.E.G.E.G.E.E.!.IXcXDXKXDX%Xm.~.W.IXeXcXyXeX,XW.W.W.W.,X,X,X9X9XpXeXcXIXY.F.c.D.D.D.D.D.D.D.x.D.D.D.K.K.x.K.x.x.K.K.K.K.K.K.P.P.U.L.U.P.L.P.L.P.T.P.Y.P.P.Y.Y.P.Y.Y.Y.Y.Y.-XY.-XY.Y.I.Y.Y.Y.-X-XY.Y.Y.1X;X1X1X;X;XY.;X;X;X1X;X;XY.;X-X;X;X1X1X1XY.1X1X1XY.;X1X1X1X1X1XY.1X1X<X<X1X;X;X-X1X;X8X8X1X1X;X1X;X1X1X8X1X1X8X4X8X1X1X1X4X3X1X1X<X1X3X3X8X3X1X3X3X1X3X3X3X3X;X3X:X3X3X3X8X8X3X3X3X3X3X3X1X1X;X;X;X1XY.Y.Y.Y.Y.T.Y.Y.R.R.R.F.G.yXiXE z ~ o.;.5.x x x D S ! ! D ~ ~ #.#.z k S Z k ! G +.$.q.@.*.*.8.r.8.-.X.-.6.6.r.f.f.-.q.f.f.q.d.w.r.r.f.d.r.q.r.r.0.8.9.0.6.8.0.8.<.2.1.9.9.<.<.$.2.$.$.3.$.3.2.2.4.2.2.(.4.4.4.4.4.4.4.(.4.4.1.4.4.4.4.4.4.1.2.&.2.<.2.%.$.&.*.6.*.*.6.8.8.8.r.8.8.6.8.8.8.8.6.=.=.6.6.*.8.8.*.*.$.+.o.+.%.o.O.D ! z L S L q l L ~ ~ ;.^ ;.^ ;.^ ^ ~ ^ ;.;.;.;.;.;.;.;.;.;.;.;.;.;.;.;.;.;.;.;.;.;.2.C.Z. X%XpXfXkXzXNXNXNXVXzXNXNXNXNXNXzXmXNXnXmXzXNXzXNXNXNXzXAXzXzXkXNXzXAXNXkXNXNXzXAXkXAXnXnXkXkXNXAXNXNXNXVXNXNXNXBXZXVXVXBXzXNXNXNXNXnXnXNXzXmXNXmXBXNXNXBXmXNXBXNXVXVXSXnXSXVXSXVXVXVXVXVXBXVXSXVXnXBXZXBXZXZXZXZXZXZXZXFXGXGXGXGXGXGXHXGXGXGXGXHXHXAXHXHXHXHXHXFXHXFXFXHXHXHXHXJXHXHXHXHXHXHXKXHXHXHXHXHX",
"A.G.G.G.E.G.E.E.E.E.G.E.G.E.G.E.E.E.G.E.!.IXiXDXDXSXIXk.N.E.%XeXyXyX9X,X,XW.W.W.,X,X,X9X9XyXeXeXIXR.S.c.D.K.K.D.D.K.D.D.D.K.b.K.x.K.D.K.x.D.x.K.K.K.K.U.P.P.P.L.P.P.P.P.P.P.P.P.P.Y.P.-X-XY.-XP.P.Y.I.Y.-X-XY.Y.I.I.-XY.Y.Y.1X<X;X;XY.1X;X-X;XY.Y.;X;X;X;XY.Y.;XY.;XY.;X;X1X1X1X;X;XY.1X1XY.1X1X1XY.1X1X1X1X1X1X1X1X8X1X8X3X;X;XY.1X1X1X1X8X8X8X1X1X1X8X3X1X1X1X1X1X1X1X4X4X4X1X1X<X1X1X3X3X3X3X3X8X3X8X:X3X3X;X1X3X0X8X8X3X;X;XY.Y.;XY.Y.Y.Y.Y.Y.T.L.T.R.R.G.R.iXkXl z ~ o.S 5.O.~ S 5.S o.3.O.S x Z x x z g S k #.%.! *.%.q.p.*.q.0.8.q.=.q.q.q.d.r.-.6.r.d.r.r.r.r.r.r.r.d.r.r.r.d.r.r.y.9.<.8.8.8.1.0.1.0.1.<.2.2.O.2.o.3.O.;.5.~ 2.O.3.2.;.3.2.3.4.4.4.4.4.2.1.1.1.2.=.1.2.=.&.<.1.<.1.@.*.&.8.9.8.q.8.8.8.8.6.e.8.8.6.6.*.r.6.*.*.6.*.*.6.8.%.+...+.! o.#.S ! ^ z Z ~ 3 q @ X X * 2 j C ^ ^ ^ ^ ^ ^ ^ ^ ;.;.;.;.;.;.;.;.#.;.^ ;.;.;.>.2.;.;.;.;.>.>.C.Z. X#XsXkXfXkXzXNXzXVXzXkXzXVXNXAXzXzXNXNXzXNXnXnXNXNXzXNXkXkXzXzXNXNXAXkXAXnXzXNXkXAXkXzXzXAXAXkXNXNXNXNXVXnXnXVXVXZXZXZXVXNXAXNXBXNXNXNXNXkXNXNXzXNXNXNXNXNXNXNXBXBXSXVXVXVXVXVXVXVXSXVXLXVXLXBXBXVXBXZXFXBXZXZXGXGXGXGXGXGXGXGXGXJXGXGXZXHXGXGXGXHXAXHXHXHXHXHXHXAXFXAXHXHXHXHXHXHXHXHXFXKXHXHXHXHXHXHXHX",
"E.A.E.E.E.!.E.E.E.>XE.E.>XE.A.!.G.E.E.G.E.,XiXSXDXSX,Xm.B.E.Q.9XyXeX9X,XQ.W.W.Q.!.,X,X,X9XyXyXyX,X>XS.S.F.D.D.L.D.D.F.D.L.L.D.D.K.K.K.K.D.K.K.K.K.L.L.L.K.K.I.L.L.L.L.L.L.L.Y.I.P.T.Y.Y.=XT.Y.P.P.Y.P.Y.Y.Y.-XY.-X-X-XY.-X-XY.-XY.;X;XY.1X;XY.1X;XY.1XY.Y.Y.-X-X;X-X;X;X1X1X1X1X1X1X1X1XY.;X;X;X1X;X;XY.8X1X1X1X1X1X1X1X1X1X1X1XY.1X1X8X8X1X8X1X1X1X8X1X1X1X1X1X4X1X1X1X4X1X8X1X1X1X1X3X1X3X4X3X8X:X:X:X;X;X;X;X0X0X;X;X8X;X-XT.;XT.;XT.D.I.1XL.J.;XR.E.R.R.F.9XuXeXz Z ~ o...! 5.o.S o.o.! o.$.o.#.! Q x g 4 x L S S o.F $.&.G +.%.6.q.6.q.-.X.*.s.6.q.-.r.9.r.8.6.8.d.r.r.d.r.r.r.r.d.r.6.r.q.8.r.6.0.q.6.d.8.%.9.%.^.9.<.,...+.q.9.S 9.+.+.+.D O.o.O.o.o.<.O.$.,.&.2.@.2.&.$.&.1.$.&.<.&.&.*.=.*.6.0.8.6.0.8.q.6.6.6.r.8.6.8.6.r.6.6.*.X.=.8.*.*.+.F ! D ! #.;.^ Z Q j q y X o X   X   X   o 3 l ~ } :.} } } ;.;.;.;.;.;.;.;.;.^ ;.] ;.;.^ ;.;.;.;.>.7.C.Z.$XrXdXfXfXzXkXzXzXlXlXzXzXVXzXzXzXzXNXNXkXzXVXzXAXNXzXzXNXVXNXNXNXzXkXAXzXzXkXzXkXzXzXNXzXNXAXzXAXVXVXVXNXNXNXBXVXGXZXZXZXBXVXVXVXnXnXNXNXnXNXNXVXNXNXBXNXnXNXVXBXNXVXAXBXZXZXVXBXVXAXAXZXAXZXZXVXVXFXVXFXVXFXGXFXGXGXKXKXHXHXHXHXHXGXGXGXGXGXGXGXGXGXGXGXHXHXHXGXJXHXHXHXHXHXHXHXHXFXHXFXHXHXHXHXHXHXHXHX",
"A.E.G.G.>XE.!.W.!.!.E.E.E.E.!.A.E.G.E.E.G.,XyXSXSXSX,Xk.N.E.IXeXyXeX,X,X!.W.W.W.,X,X,X,X,XeX,XyX>XG.c.S.x.D.D.L.D.L.D.D.D.D.H.H.D.K.D.K.x.K.K.L.K.K.K.K.I.K.K.I.I.L.I.L.L.Y.Y.L.>XT.Y.Y.Y.Y.>XY.Y.Y.Y.-X-XP.Y.Y.-X-XY.-XY.-X-X-X1XY.1X1X1X;X;X;X1X1X1X1XY.-X-X;X;X1X1X1X1X1X1X1X1X1X;X1X1X1X;X;X1X1X1X1X1X1X8X1X1X1X8X1X1X1X1X1X1X1X1X1X1X1X1X1X1X8X1X1X1X1X1X8X1X4X1X1X1X4X4X4X1X3X4X1X3X1X1X1X8X;X;X8X:X0X;X:X;X:X;X;X;X;X;XT.;XR.T.>X>XT.P.D.T.T.F.T.W._ N.pXuX Xz L S o.D D D ~ D o.~ 5.o.o.! o.O.! z z z : Q k Q ! ! o.@.+.X.%.+.X.%.q.6.6.u.8.6.6.8.r.6.8.6.8.r.r.f.d.d.e.r.r.r.r.r.q.r.f.q.6.0.r.%.@.9.u.6.%.8.0.%.q.%.+.%.<.%.$.9.%.q.%.o.9.,.o.C.2.o.,.<.2.$.%.O.%.&.9.$.%.&.1.<.2.$.<.<.=.q.6.6.8.6.8.6.8.6.q.8.8.8.8.8.6.6.6.@.q.q.q.%.%.@.F +.+.o.F S :.C j L u @ @ X X         X . X o 2 l R / ^ ^ ^ ' ^ ;.;.O.~ ;.;.;.^ 3.;.] 3.;.^ #.;.,.0.C.oX$XrXdXfXfXkXzXzXzXzXzXkXzXzXzXzXzXzXzXzXzXzXzXzXVXzXkXzXzXzXzXzXlXkXAXAXzXzXzXkXzXzXzXNXzXzXkXkXzXNXVXBXNXNXNXVXVXZXZXZXZXVXVXNXNXlXNXNXNXNXnXNXNXNXNXNXNXNXNXNXVXNXBXBXAXZXZXBXZXBXVXBXZXVXBXZXBXFXVXFXVXVXFXFXFXGXGXGXGXHXGXHXHXHXGXHXGXGXGXGXGXGXGXHXJXHXGXHXGXHXGXHXHXHXFXFXHXHXHXHXHXHXFXHXHXHXHXHXHX",
"A.E.E.G.!.W.W.W.,X!.>X!.A.E.A.E.G.E.E.G.G.,XyXSXSXMX,Xk.B.E.Q.9XyXeX9X,XW.W.!.W.!.,X!.,X,XyX9XeX,XR.S.z.x.F.D.L.L.D.L.R.K.D.H.x.b.K.K.D.K.K.K.K.K.K.K.K.K.K.L.K.I.L.Y.L.L.L.L.Y.T.Y.T.Y.Y.Y.=XT.Y.-XY.-X-X-XY.-XY.Y.-XY.Y.<X-X-X1X1X;X1X1X1X1X;X1X;X1X;X;XY.;X1X1X1X1X1X1X1X1X1X;X1X1X1X;X;X;X;X1X1XY.1X1X1X1X8X1X8X1X1X4X1X8X1X1X1X1X1X1X1X1X1X1X1X1X1X1X1X8X4X1X8X4X1X4X8X4X8X4X4X3X3X3X1X1X3X8X:X;X8X0X8X6X8X8X6X;X;X;X;X;XT.;X;XT.T.L.T.Y.Y.J.J.T.8Xm H qXeXiXZ.l Q D D D ! ..! D ! O.x D o.O.S ! %.! z z z Z k ^ F F G ..q.%.q.X.X.X.@.-.q.6.*.6.6.r.9.r.d.r.r.r.r.f.6.6.r.r.r.f.w.r.r.6.w.q.6.r.r.%.X.6.9.*.%.q.0...$.*.G %.+.F %.%.! %.@.%.0.%.%.<.9.#.2.$.9.%.<.<.<.o.<.*.<.8.=.9.+.t.*.<.=.6.6.6.6.6.8.6.8.6.6.6.r.r.8.r.-.6.=.-.6.6.*.%.$.%.o.+.+.+.F ~ Q C ~ q 2 ;   X     X   X X . @ @ ; ; q l R } ;.] ;.;.;.;.;.;.;.~ ;.^ ^ 3.;.;.#.;.,.7.C.Z.oX%XdXdXfXzXzXzXzXzXkXlXzXzXzXzXzXkXzXzXzXNXzXNXVXzXzXzXzXNXzXzXlXlXkXzXzXkXzXkXzXzXkXkXzXzXkXzXzXkXnXVXVXVXNXVXVXVXVXBXVXZXVXNXVXnXnXnXVXNXNXNXnXNXNXNXNXNXNXNXNXBXZXBXZXZXAXVXBXBXBXNXVXBXVXZXZXAXFXVXFXVXFXVXGXFXJXGXGXGXKXGXGXJXGXGXGXGXGXGXGXGXGXGXGXGXGXJXGXHXHXHXHXHXHXHXHXHXHXHXHXFXKXHXHXHXHXHXHXHX",
"G.A.G.E.A.!.,X,X,X!.E.A.!.E.>XA.E.G.G.E.E.!.yXSXSXMXQ.m.N.E.Q.9XeX9X,XQ.W.E.!.!.!.,X,X,X,XeX9X,X;XR.N.z.x.x.x.D.D.D.D.D.D.L.v.x.K.x.D.K.x.K.K.K.K.K.K.K.K.K.K.L.K.L.L.Y.Y.Y.Y.Y.-X=XP.T.T.P.T.Y.P.P.Y.Y.Y.Y.-XY.I.Y.Y.-X-XY.1X<X1XY.1X1X1XY.1X;X;X;X;XY.Y.-XY.Y.;X;X1X1X1X1X1X1X1X1X1X;X1X;X;X;X1X1X1X1X;X1X1X1X1X1X1X8X8X1X1X1X1X1X1X1X1X1X;X1X1X1X1X1X1X1X1X8X4X4X1X4X1X4X1X4X3X1X3X3X1X<X3X1X;X:X:X:X8X0X8X0X;X6X,X;X;XW.;X;X;X;X;XR.L.Y.Y.T.J.R.,Xm X k.yXuXgXV.z Q ! ! x 5.! 5.~ 5.#.x o.o.o.O.D S ~ ! z g g k ! S ! G F ..q.@.q.q.o.@.*.X.@.6.*.*.6.6.r.8.r.r.6.r.r.6.q.r.r.f.r.w.f.r.6.w.8.w.w.6.-.q.6.q.$.8.*.%.o.+.<.D %.$.G *...+.$.@.%.o.o.%.D 9.&.<.<.].9.,.9.9.$.*.0.%.8.q.*.<.q.8.8.6.q.6.q.6.q.8.q.6.8.8.6.8.r.6.8.6.*.6.q.6.0.@.%.+.+.+.! S ! ^ Q S q A ; ; -   .           X X % 2 y y u 2 u u ~ ;.;.;.;.;.;.#.;.;.^ ;.^ _ ^ ;.;.;.,.V.Z.Z.%X$XaXkXzXfXzXhXzXhXlXlXlXzXkXzXlXzXkXzXzXzXNXzXzXzXzXzXzXzXzXNXzXkXAXAXkXzXkXzXkXkXAXzXAXkXzXkXkXzXlXNXnXnXNXnXNXNXVXVXVXVXNXNXkXnXnXnXNXVXNXNXNXnXnXNXAXNXNXBXAXBXAXVXZXAXAXBXVXNXNXNXVXBXZXBXZXZXVXFXZXFXFXFXGXFXGXGXGXGXGXGXGXGXGXGXHXGXHXGXGXGXGXGXHXHXHXGXGXHXHXHXGXHXHXHXHXHXHXFXHXFXHXHXHXHXHXHXHXHX",
"A.A.>XE.!.!.,XW.,X!.>XE.A.A.A.!.G.G.G.G.G.W.yXMXvXxXW.g.B.E.W.%XyXyX,XW.E.W.E.W.W.,XW.W.,XeX9X9X,XF.z.z.F.F.x.D.D.F.F.D.D.D.x.x.D.D.x.K.b.D.D.D.K.K.K.D.K.K.L.L.L.L.Y.L.L.Y.Y.L.=XT.T.P.P.P.R.P.P.P.P.Y.Y.-X-XY.Y.Y.-XY.Y.<X1X1X1X1X;X;X;X;X-X-X;XY.Y.-XY.;X;X;XY.1X1X1X;X;X1X;X1X1X1X1X1X1X1X;X;X1X1X;X;X1X1X1X1X1X1X8X1X1X8X1X1X1X1X1X;X;X;X;X1X1X1X1X1X1X1X8X4X1X1X1X4X1X1X1X1X3X3X1X3X<X3X3X:X3X;X3X3X8X8X8X8X;X;X;XT.Y.;X;X1XY.L.Y.1X1XR.D.;X;Xd   f A.iXxXxX7.l ~ 5.~ S ! o.D D ! O.! o.3.o.@.D F #.! z z j A z Z F G F F q.@.%.%.q.8.q.X.@.*.=.*.=.r.6.X.6.r.r.w.d.r.f.w.r.6.r.r.r.r.q.r.w.8.6.q.6.6.6.q.*.*.0.+.@.8.*.%.q.q.%.@.+.%.$.%.X.+.@.*.$.q...%.+.9.q.+.0.q.+.$.q.6.+.q.q.q.e.q.q.6.6.q.1.=.*.8.8.6.6.8.6.6.8.8.8.y.=.q.6.%.*.*.%.G +.! ! S S ! k Q : o 2 q o   X     X   X   . % 1 e j l a u 3 q L ;.;.;.~ ;.;.~ ;.^ ^ 3.~ ;.^ ;.2.V.C.Z.].%X$XdXgXkXzXhXlXzXkXhXhXzXzXlXlXlXlXNXzXzXNXVXzXVXAXzXzXkXNXlXVXhXlXkXkXzXfXkXkXzXzXNXzXzXNXzXkXzXkXlXNXzXnXlXlXlXnXNXVXVXNXlXlXVXhXkXNXBXVXNXNXNXNXNXNXNXVXAXNXBXVXVXBXBXVXBXVXNXNXBXVXVXAXZXZXZXZXZXFXZXZXVXFXFXFXGXGXGXGXGXGXGXGXGXGXGXGXGXHXGXJXGXGXGXGXHXGXGXHXHXHXHXHXHXHXHXHXFXHXHXFXHXHXHXHXHXHXHXHX",
"A.E.A.E.E.E.!.W.!.!.E.A.A.A.A.A.G.E.G.A.G.W.yXxXxXxXE.g.N.G.Q.9X,X,X,XW.E.G.E.E.E.W.W.,X,X,X9X9X,XR.S.z.c.c.x.x.x.D.c.D.D.D.x.x.K.b.K.b.D.D.b.b.K.b.K.K.K.K.K.K.L.L.L.L.L.L.Y.L.T.P.P.P.T.P.P.P.P.P.P.Y.Y.Y.Y.-XY.I.Y.Y.;X-X-X1XY.;X;X;X-X;XY.-X1X1X;X;X;X1X1X1X1X1XY.;XY.;XY.;X1X1X1X1X1X;X1X1X1X1X1X1X1X1X;X1X1X1X1X1X1X1X4X1X1X8X1X1X;X;X;X1X1X1X1XY.1X1X1X1X4X1X<X1X1X1X4X1X;X1X1X3X1X3X4X4X3X3X3X;X3X1X3X1X;X;X;X;X-XW.T.Y.Y.L.L.Y.Y.R.T.8X;Xm = < f yXeXnXPX>.l ~ ~ 5.x D o.! 5.D O.o.o.#.@.@.$.o.D #.;.x k k g Z S S F #.X.%.o...6.8.@.*.-.&.r.8.8.d.X.*.8.r.w.r.r.r.r.r.6.r.r.r.r.r.6.w.r.6.w.0.6.6.*.q.*.8.8.X.q.0.q.8.=.q.*.G X.+.X.@.o.%.%.@.8.@.X.%.+.*.q.q.9.q.$.q.8.%.q.@.6.6.q.6.8.=.=.=.6.=.=.8.8.6.8.8.q.6.r.8.r.e.0.=.*.$.+.%.$...#.G #.#.S A ^ q - - ; ; ;   X       X   . + 1 2 e r t a N C q q  .} :.} ~ ;.3._ ~ 3.~ ;.;.;.;.>.7.C.Z.%X$X#XdXkXkXfXhXlXhXzXzXlXzXkXzXzXlXlXzXzXzXzXzXVXVXzXNXzXzXNXVXVXVXhXkXzXzXzXkXzXkXzXzXNXNXzXkXzXzXzXNXNXNXlXnXkXkXlXNXNXNXNXnXlXnXNXzXzXNXVXNXnXNXzXNXAXAXAXAXNXVXVXBXVXNXBXNXNXNXNXBXVXBXAXZXZXZXZXFXZXFXZXGXFXZXFXGXGXGXGXGXGXGXGXJXGXHXHXGXGXGXGXHXGXHXGXGXGXHXGXHXHXGXHXHXHXHXHXHXHXHXHXKXFXHXHXHXHXHXHX",
"A.A.A.A.A.>X!.!.E.A.E.A.A.A.E.A.E.A.A.G.E.!.eXxXxXpXE.{ N.E.!.9XyX,X,XE.E.E.>XE.W.W.W.,X,X,X,X9X;XR.z.c.F.F.x.D.F.c.c.F.x.D.D.x.D.K.b.K.D.b.b.K.K.K.K.D.K.K.K.L.I.L.L.L.Y.L.Y.Y.T.Y.T.=X>XP.T.P.T.P.Y.P.P.-XY.P.-XI.Y.-XY.-X-X;X1X;X1X;X;X;XY.-X8X1X;X;X;X1X1X1X1XY.1X;X1XY.1XY.1X8X1X1X1X1X;X1X1XY.1X1X1X1X1XY.1X;X;X1X1X1X1X1X1X8X1X1X1X1X1X1X1X8X1X1X1X1X1X8X1X1X1X1X4X1X4X1X;X<X1X3X3X1X3X8X3X;X:X;X;X;X1XY.;X;X;X-XY.T.T.Y.P.L.Y.T.L.R.IXIX) = f * W Q.tXSXnX>. .D ! ! x 5.D D ! o.o.O.D O.&.D ..@.o.S ! +.g g j F Q S F %.G +.+.o.*.$.+.*.<.r.i.6.w.=.@.8.d.e.6.f.6.w.r.d.r.6.f.r.r.r.r.w.r.6.r.r.r.6.6.r.8.8.6.*.6.q.6.*.8.*.&.@.&.X.@.@.$.@.*.*.8.$.-.@.@.%.+.%.@.@.&.9.q.6.q.6.6.q.q.q.=.6.=.8.8.=.6.=.8.8.8.6.q.8.u.8.8.q.8.*.$.*.+.$.#.^ +.F #.;.S z ~ u - q q ;   X           . . # + , e t 9 8 q s l q 3 L ^ ;.;.^ ;.~ ] ^ ^ ~ #.;.:.>.C.C.Z.%X#XaXdXfXzXzXhXhXzXlXlXzXlXzXjXzXlXlXlXlXkXzXzXNXzXNXNXzXzXzXVXlXnXhXzXzXzXkXzXkXzXkXzXNXzXNXNXzXzXAXVXVXNXzXlXkXlXnXVXVXVXVXNXVXlXnXkXNXVXNXNXNXNXNXNXVXAXVXVXNXNXNXVXBXNXVXNXVXVXBXVXVXAXZXZXZXGXZXFXFXFXZXFXZXVXFXGXGXGXGXGXGXGXGXGXHXGXGXGXHXGXGXGXJXGXGXGXGXGXJXGXHXHXHXHXHXHXHXHXHXFXHXHXKXHXHXHXHXHXHX",
"A.A.A.E.E.G.A.E.!.A.A.A.A.E.A.A.A.G.A.A.G.W.eXxXxXyXE.g.B.G.Q.,XyX,X,XW.E.G.E.E.!.W.!.,X,X,X9X9X,XJ.S.S.F.x.x.D.F.c.x.D.D.D.K.x.D.K.K.D.K.K.K.K.K.K.K.K.K.K.L.K.L.Y.L.L.L.Y.L.Y.Y.Y.-XT.Y.Y.P.P.Y.I.-XY.-XP.P.Y.-XY.Y.Y.1X-X-X;X1X1X1X1X;X;X;X-X1XY.Y.Y.;X1X;XY.1X1X1X1X1X;X;X;X1X1X1X1X1X1X1X1X;X;X;X1X1X1X1XY.;X1X1X1X8X1X8X1X1X1X1X1X1X1X1X1X1X1X8X1X1X1X4X1X1X8X1X1X1X4X8X1X;X3X3X3X1X3X1X3X3X;X;X-X;X;X-XY.;X;X;XT.Y.T.T.T.L.L.L.D.R.8XT.` . = f f ' Q.xXVXVX;.S ~ ! O.5.D ! 5.o.o.o.@.o.O.O.@.o.o.#.o.S S F g g : z S S ^ #.S ! *.$.&.q.@.&.u.@...8.X.r.r.q.6.r.e.6.r.r.q.8.r.q.q.r.r.r.8.r.r.r.q.6.r.q.6.9.*.r.q.6.6.q.6.6.$.+.=.q.X.q.q.*.8.&.u.8.q.*.*.*.q.@.6.@.q.%.8.%.-.q.@.y.X.f.f.=.=.8.6.8.*.8.8.q.6.r.6.-.6.8.%.*.*.%.q.@.%.0.! +.F ! A ^ ! z Z j j ; q 6 l *   X         . + # , , , 1 0 9 i s C  .q 3 l ~ } ^ ~ ;.~ 3.#.~ ;.;.>.2.7.C.Z.%XtXsXdXdXzXfXhXhXzXhXzXzXzXlXzXzXzXlXkXlXlXlXlXzXzXNXzXzXzXzXVXlXhXhXfXkXkXzXzXfXfXzXkXzXNXzXzXzXzXzXzXNXzXNXnXlXlXlXlXVXVXVXVXNXlXlXkXkXkXzXkXlXNXlXNXNXVXAXNXzXNXlXBXNXNXNXBXBXBXAXZXBXZXZXGXZXGXZXFXGXVXFXFXVXFXFXGXGXGXGXJXGXJXGXJXGXJXGXHXGXGXGXGXJXHXHXGXGXGXHXHXHXHXHXHXHXHXHXHXHXHXFXHXHXHXHXHXHXHXHX",
"A.A.A.A.A.A.A.E.A.A.A.A.A.A.A.A.A.A.G.G.G.!.eXcXxXyXE.UXN.E.Q.,XeX,X,XW.G.G.>XE.W.E.W.W.Q.,X,X9XIXD.F.l.b.D.D.K.F.F.D.D.D.v.H.x.D.K.K.D.K.D.D.K.K.K.K.L.K.L.K.L.L.L.L.Y.T.-X-X=XT.=XY.-XT.-XY.T.Y.I.-XY.Y.I.Y.I.Y.-X-X-X-X-X-X1X1X1X1X1X1X1X;X;X-X;XY.1XY.1X1X1X;X1X;X;X;X1X;X1X1X1X1X1X1X1X1X1XY.1X1X1X1X1X1X1X1X1X1X8X1X1X1X1X1X1X1X1X1X1X1X8X1X1X1X1X1X1X1X8X3X8X8X;X6X8X0X0X3X3X3X;X;X;X3X3X;X;XY.-X1X1XIX1X8XY.Y.Y.Y.R.L.Y.P.D.L.R.F.IXl.O = < e 8 g. XiXVXFX>.z o.! ! o.x D o.5.~ O.#.O.3.O.@.@.D O.+.! ,.! k h z S z A Z S S %.q.+.<.9.<.t.*.@.@.q.a.r.@.r.r.f.d.r.f.q.r.8.r.q.6.d.r.r.d.f.r.r.r.r.6.q.f.6.q.6.6.q.6.r.q.9.6.8.d.-.X.q.6.q.6.8.6.d.8.r.*.=.8.*.%.q.6.q.-.6.6.q.6.6.6.6.q.e.-.6.6.6.8.8.r.6.6.1.8.8.$.*.8.*.$.*.*.+.%.o.+.! #.#.#.Q x z L 2 ; 3 * q L   X       X X X . % 7 = , 7 5 1 e e s a j u q J / } ;.;.^ ~ 3.~ ;.2.7.V.C.Z. XXXtXgXfXzXfXzXzXzXhXzXlXlXzXzXzXzXlXhXkXlXlXlXlXlXzXzXlXhXlXlXlXlXlXlXkXlXlXkXlXlXlXlXzXzXzXkXzXzXzXzXhXVXVXVXlXnXlXNXVXVXVXVXVXlXVXVXzXkXlXkXzXNXNXzXNXNXNXNXVXVXzXlXNXnXnXnXNXBXVXAXBXZXZXGXZXGXGXZXFXFXVXVXFXFXFXVXGXGXGXGXJXGXGXKXGXGXHXGXGXGXGXGXHXJXGXGXGXGXGXHXHXHXGXHXHXHXHXHXHXHXHXHXAXHXHXHXGXHXHXGX",
"A.A.A.A.A.A.A.A.>XA.A.A.A.A.A.A.A.A.A.G.E.!.eXuXiXyXE.{ M.~.!.,X,X,X,XE.G.G.E.E.E.W.W.W.>X,X,X,XIXF.F.F.b.b.K.K.v.x.D.D.v.D.H.v.K.b.b.K.K.K.K.K.K.K.K.K.K.K.K.I.L.Y.L.Y.-XT.T.Y.T.-X-XT.=XT.T.-XY.-XY.-X-XY.-XY.Y.Y.Y.-XY.-XY.1XY.;X1X1X;X;X-XY.;XY.1X;X1X1X;X1XY.1XY.;XY.1XY.;X1X1X1X1X1X1X1X1X1X1X1X8X1X1X1X1X1X1X1X1X1X1X1X8X1X1X1X1X1X1X1X1X4X8X8X1X1X1X8X1X;X:X:X8X8X8X6X0X8X3X8X:X3X;X3X;X;X;X1X-X;X1X1X1X;X1XY.R.R.Y.T.R.F.Y.R.F.9Xc.< = < 7 t n g. XiXFXFX>.L ~ x 5.o...5.o.o...#.3.O.$.*.-.O.D o.o.x ! Q g g Z 4 k Z z k G %.+.$.$.o.$.8.@.@.&.6.6.y.8.r.r.f.r.r.q.f.f.q.r.f.6.r.r.r.f.d.r.r.r.d.r.r.6.8.6.6.6.q.8.r.6.6.q.8.0.%.-.6.6.6.q.*.8.8.6.6.q.6.8.6.6.w.0.6.6.6.6.6.6.6.6.6.6.*.=.q.6.y.8.6.r.8.9.8.8.8.8.0.*.<.2.%.@.$.#.F ! ~ ! Q ;.j l q Z ; @ q @ q W .         . . = * 6 , 7 , , > 7 < e 9 p N s q q Q } ~ ;.] 3.] ;.;.>.2.C.C.oX X@XaXsXdXfXfXzXzXfXzXhXlXlXlXlXzXzXhXhXfXlXfXlXlXlXzXNXlXhXlXlXlXlXlXlXhXzXkXzXlXlXkXlXzXkXhXkXzXAXzXkXVXVXVXlXVXVXVXVXVXVXVXVXnXVXlXNXzXkXlXzXzXAXNXzXzXNXzXNXVXVXAXNXnXNXNXNXNXVXZXZXZXAXZXZXZXZXZXZXVXFXFXFXFXVXFXVXZXGXGXKXGXJXGXGXHXHXHXGXGXGXJXGXHXGXHXGXGXGXGXGXHXGXHXHXHXGXHXHXHXHXFXHXHXHXHXHXHXHXHXHX",
"A.M.M.A.A.A.A.A.E.A.A.A.A.A.A.A.A.B.A.A.A.!.eXcXpX9XE.{ M.~.W.Q.,X,XW.E.G.G.G.E.G.!.W.E.,X,X,X,XIXD.F.b.D.D.b.K.H.D.D.D.D.v.x.v.K.K.K.D.b.K.D.K.K.K.K.K.K.K.K.K.L.L.Y.Y.P.=XP.Y.Y.Y.T.-XY.-XT.-X-XY.-XY.Y.Y.-X1XI.Y.-XY.-XY.-X-XY.-X;XY.Y.Y.Y.Y.Y.;XY.1X;X;X1X;X1X;XY.1X1X;XY.1X1X1X1X1X1X1X1X;X1X1X1X1X1X1X1X1X1X1X1X1X1X1X1X1X1X1X1X1X1X1X8X1X4X1X1X1X1X1X1X1X8X;X;X;X8X8X8X0X3X8X3X:X8X;X;X:XY.;XY.Y.Y.1X1X1XT.T.Y.Y.T.R.R.Y.L.J.R.qXk.< = = f p i R m.Q.iXSXFXC.L ! ! x 5.! D o...! O.$.O.o.@.@.o.o.O.$.! ! o.! x g z j j z F ! +.! #.+.o.*.o.o.@.*.8.q.6.8.q.r.q.r.f.f.r.r.q.r.r.r.d.r.r.r.r.r.r.r.r.r.r.f.r.r.r.8.e.r.9.8.8.8.r.q.6.q.6.q.6.6.@.6.8.q.6.6.8.8.8.6.w.w.6.f.6.e.6.8.f.6.f.f.6.6.8.6.6.9.y.8.8.r.0.6.=.q.8.*.$.$.O.o.+.#.F ! Q ! ~ L l j : ; - * q ; l L *   X     . + # f 0 $ n 1 O , 7 , 7 0 r N N q 0 j ^ ;.;.^ ~ 3.;.;.2.C.C.oX.X@XtXsXgXfXfXzXzXzXzXhXzXlXhXhXVXhXhXlXhXlXlXlXlXzXzXzXzXlXVXlXhXlXlXlXlXzXzXlXlXzXkXkXlXAXzXzXzXzXzXAXlXVXzXhXVXlXVXlXzXVXVXVXzXlXlXlXlXzXkXzXNXzXVXzXzXzXzXzXNXAXAXVXAXNXNXnXVXNXVXZXZXZXZXZXZXZXZXAXZXFXFXVXFXVXFXVXFXVXGXGXGXGXGXGXKXJXGXGXGXHXGXGXGXGXJXGXGXGXGXGXGXGXGXGXHXGXHXHXGXHXHXHXHXHXHXHXHXGXHXHXHX",
"M.A.A.M.A.A.M.A.A.A.A.M.M.A.A.A.A.A.A.A.G.E.,XpXcX9XG.{ M.~.W.IX,X,XW.E.G.G.G.G.G.E.>XW.E.,X,X,XIXD.l.F.b.b.b.x.x.D.F.x.D.H.v.v.K.D.K.b.K.K.K.K.D.K.K.K.K.K.K.L.L.L.Y.L.T.P.T.P.Y.T.=XT.-XT.-X-X-XY.-XY.Y.I.Y.Y.Y.-X-XY.Y.I.Y.1X;X;X1X;X;XY.;X;X;X;X;X;X;XY.Y.;XY.;X;X;X1XY.;X1XY.1X8X1X;X;X1XY.1X1X;X1X1X8X1X8X1X1X1X8X1X1X1X8X1X1X8X1X8X1X1X8X1X8X1X1X1X8X1X8X8X:X:X;X6X8X0X0X8X3X8X8X8X8X;X;X;XY.;X1X1X1XY.1XY.Y.R.D.T.8XY.c.T.W.R._ 5 5 + 1 r  .s ' V.,XxXVXVXC.~ o.x o.o.! D O.O.o.O.&.O.o.$.%.@.@.o.$.o.%.#.! Q z g g Z k A k Q q.,.o.G +.@.*.8.q.9.8.0.8.r.r.r.r.d.q.r.q.f.r.r.d.d.r.d.d.d.d.s.d.d.d.d.r.d.s.d.d.s.s.r.6.|.d.u.d.r.8.9.8.6.q.*.8.8.8.6.8.8.8.6.6.8.w.f.6.e.r.6.6.f.q.f.f.6.6.8.8.6.8.d.9.8.8.8.q.-.+.%.*.<.#.$.,.! o.^ S Q z ;.C ^ 3 ; X ; ; q 0 i E & X       . . # & 0 , n e $ 7 5 , 7 8 w p n l 9 0 K ;.~ ^ ;.>.;.>.M.C.C.oXXXtXaXsXsXzXzXfXzXhXhXhXfXhXlXhXhXhXzXzXzXzXzXlXlXlXlXlXzXlXVXzXVXlXlXlXlXlXzXlXzXlXlXlXlXzXzXkXzXzXzXzXzXzXzXVXzXzXzXVXlXzXVXVXzXlXlXlXhXzXzXVXVXVXzXVXzXAXAXAXNXVXAXzXAXnXlXnXNXBXBXVXZXZXZXZXAXAXAXVXZXVXFXFXFXFXVXFXVXVXGXGXGXGXJXGXGXGXHXGXGXGXGXGXJXGXGXGXGXGXGXGXGXGXGXHXGXGXHXHXHXHXHXAXHXHXHXHXHXHXHXHXHX",
"A.A.M.A.A.M.A.M.A.A.A.M.A.A.C.M.B.A.A.A.G.E.Q.yXpX9XB.{ M.~.W.Q.9X,X!.G.G.G.G.G.E.E.W.>X!.,X,X,XY.D.F.b.x.b.x.D.x.D.D.x.x.v.v.v.K.D.K.K.D.K.K.K.K.K.K.K.I.K.L.L.L.L.L.T.P.T.Y.T.T.=XT.-XT.=X=XT.Y.Y.-XI.I.I.Y.Y.Y.1X-X-X-XY.1X-X;X1X1X1X-X;XY.;X-XY.1X;XY.;X;XY.1X;XY.;XY.1X;XY.;XY.8X1X1XY.1X;X1X;X;X1X1X1X8X1X1X;X1X1X;X1X1X3X1X8X1X8X1X1X8X1X8X1X1X1X1X1X1X1X8X;X:X8X8X0X0X8X0X;X:X0X;X;X;X;XY.1XY.Y.1XY.1XY.Y.R.L.T.T.J.R.W.T.~.H 5 5 $ 1 & s N l { M.Q.xXSXFX X~ ~ D D o.5.! O.O.O.O.$.&.O.$.2.+.$.O.$.O.O.x Q ! ! z z g 4 A k Q #.! G +.%.%.<.8.*.0.8.8.r.f.r.q.d.d.f.r.r.r.d.r.q.f.d.d.r.d.d.d.s.|.s.d.[.s.d.d.s.[.d.y.u.d.d.0.d.9.d.u.d.6.8.6.0.d.8.u.8.w.8.8.6.6.8.q.r.r.e.6.r.6.6.f.q.6.8.6.8.y.8.*.9.8.8.6.q.%.@.%.%.<.o.#.$.x D o.Q ! z x / ~ l o ; ; 0 0 q l ' f X   .   . + * & 6 f 0 9 f 7 8 7 , 8 w w a  .s 3 0 ( ;.;.;.>.>.2.M.C.Z. X#XaXdXdXfXfXhXhXhXjXfXfXfXhXhXhXhXhXhXhXzXlXzXlXlXhXlXlXhXzXzXzXlXlXlXlXlXzXzXlXlXlXlXkXlXzXkXlXzXNXzXzXzXzXVXzXzXzXzXVXzXVXzXVXzXzXlXVXzXzXNXVXzXzXzXVXAXAXVXAXVXzXVXzXzXNXNXNXNXVXAXZXZXZXZXZXAXVXBXBXVXFXVXFXVXVXFXFXVXGXZXGXGXGXGXFXFXGXGXGXGXGXGXGXGXGXGXGXGXZXGXGXGXGXGXGXGXGXHXGXHXHXHXHXHXHXHXHXHXHXHXHXHX",
"M.M.A.M.M.A.A.C.M.A.M.A.M.A.A.A.A.A.A.A.G.G.Q.yXeXIXB.{ N.~.!.Q.,X,X,X>XG.A.G.G.E.>XG.W.W.,XW.,XR.~.l.c.D.x.D.D.D.D.D.D.D.v.K.x.K.K.K.K.K.K.K.K.K.K.K.I.I.K.K.I.L.Y.P.L.P.Y.Y.Y.Y.-X-X-X-XT.P.T.-XY.Y.-XY.Y.-X1X1XY.<X-XY.-XY.1X;X;X;XY.Y.Y.;X1X1X;X;X1X1X1X1X;X;X1X;X1X;X1X;X;X;X1X1X1X1X;X1X;XY.;X;XY.;XY.;X1X;X1X1X1X;X3X1X1X1X1X1X1X1X8X1X1X8X1X8X1X1X4X1X8X:X8X;X;X:X0X8X0X;X8X0X;X0X:X;X:XY.Y.Y.Y.Y.Y.Y.Y.R.L.R.Y.T.T.T.Y.n.5 5 d = + & 9 K l W >.N.Q.xXSXVXtX;.O.o.o.5.o.o.O.O.O.O.$.&.$.O.#.O.$.$.$.#.o.O.;.~ x Z g 3 j 3 ! #.! #.! ! +.%.$.%.*.%.@.%.6.q.f.q.r.r.r.d.d.s.d.r.r.d.d.s.d.r.d.d.d.s._.s.s.|.d.d.s.s.d.d.[.u.|.u.d.8.d.d.d.u.9.d.d.s.d.s.u.d.r.r.r.6.r.r.6.r.r.6.6.r.f.r.q.6.d.r.6.q.6.8.6.q.q.*.*.*.%.%.@.$.,.! o.o.Q Q ~ ~ l l l 0 j o - @ l 0 9 L m.d       . = * % f 0 d * 0 9 , > 8 , > 9 w a l  .0 f L ~ ;.;.;.>.>.(.Z.Z. XXXaXdXdXdXhXhXhXhXfXzXhXhXzXhXVXjXzXhXVXVXlXlXhXlXhXhXhXhXzXzXVXlXlXlXlXlXlXzXzXkXlXlXfXlXzXlXlXlXzXzXzXNXzXVXVXzXVXVXzXVXzXzXzXzXzXzXzXVXzXAXVXzXzXzXzXAXVXzXzXzXzXVXVXzXVXVXAXBXAXZXZXZXGXZXZXZXZXVXVXBXVXFXVXFXFXVXFXFXGXZXZXGXGXGXFXFXGXGXGXGXGXGXGXGXGXGXGXGXGXGXGXGXGXGXGXGXHXGXGXHXHXAXCXHXHXHXHXHXJXGXGXHX",
"M.C.M.M.M.A.A.A.A.A.A.M.M.A.M.A.S.B.B.A.B.G.Q.eXeXQ.N.{ N.~.!.W.,X,X,XE.G.A.G.G.G.G.E.G.E.>X,X,XY.D.F.F.x.D.x.x.x.D.D.D.H.x.x.v.D.D.K.D.K.K.K.K.K.K.K.I.K.I.K.K.L.L.L.P.P.Y.Y.Y.T.-XT.T.Y.-XT.Y.Y.Y.-X-X7XY.-XY.Y.-X1XY.Y.-X-X-X;X1X1XY.;XY.;XY.;X;XY.1X1X1X1X1X1X1X1X1X1X1X1X1X1X1X1X1X1XY.1X1X1X1X;X1X1X1X1X1X;X1X1X1X;X;X;X6X1X1X1X1X1X8X1X1X1X4X1X1X1X1X1X1X;X0X8X;X6X0X0X0X0X;X6X0X;X;X;X;XY.Y.Y.Y.Y.Y.Y.T.R.Y.L.z.U.0Xv.H = d e < O + t p N i | k.M.!.xXMXSXjX;.;.#.o.O...o.o.$.$.O.O.$.@.$.O.O.$.,.O.#.D x x #.;.! Z Z 4 g S Z k k S #.#.@.@.%.9.$.X.@.q.r.r.r.r.r.r.r.r.s.d.r.d.d.d.|.s.d.d.d.|.|.|.s.d._.y.d.d.d.r.d._.d.'.].|.0.d.d._.d._.d.s.s.d.s.d.s.r.d.d.r.f.r.w.8.r.6.8.r.f.r.r.r.d.d.8.*.6.d.6.8.6.*.q.*.@.%.$.<.<.o.#.#.! Z ~ ~ l L o o ; @ * 2 i q i >.m.q   .   = f f 0 0 0 q f 0 9 & & 7 , < 1 w a s s q f q ~ >.;.>.2.M.(.].oXXX#XaXaXdXfXfXhXhXhXhXhXhXhXzXhXhXhXhXhXzXhXVXlXlXlXhXlXlXhXlXlXlXlXlXlXlXlXlXlXlXlXlXfXfXkXkXlXlXlXzXzXzXAXNXzXzXNXzXlXNXlXlXlXzXzXlXzXzXVXVXNXzXzXzXzXNXAXzXzXVXVXAXVXAXVXVXAXZXZXZXZXZXZXZXZXGXZXZXZXZXVXVXVXVXVXVXFXFXVXFXGXGXGXGXFXGXFXGXGXGXGXZXZXGXGXGXGXGXGXGXGXGXGXGXZXGXGXGXGXHXGXHXGXHXHXCXHXHXHXJXGXGXGX",
"M.M.M.A.A.M.A.A.A.M.M.M.A.M.A.A.B.B.A.A.B.G.W.eX9X!.B.[ M.~.E.IX,X,X,XG.E.G.G.G.G.G.E.W.W.,X,XW.R.~.l.b.D.K.K.H.H.x.D.x.H.x.K.x.K.K.K.K.K.D.K.K.K.K.K.K.I.L.K.K.L.L.L.L.T.Y.Y.-XT.=XY.-X-XT.-XY.I.Y.-XY.Y.Y.Y.Y.-XY.-XY.-XI.Y.Y.1X1X1X;X-X;XY.1X1X1X1X1X1X1X1X1X1X1X1X1X1X1X1X1X1X1X1X8X1X1X1X1XY.1X1X1X1X1XY.;X1X1X1X1X;X;X3X6X1X1X1X1X1X1X1X1X1X1X1X8X8X1X1X1X0X;X8X;X,X;X0X0X:X0X0X,X:X;X;X:X1XY.1X1XY.Y.Y.L.L.x.R.IX>Xj.m = 5 d < . , , 2 N s i } m.B.!.cXMXVXxX>.3.o.5.o.5.O.O.&.&.o.O.O.O.o.O.$.#.O.o.$.o.o.o.! D Z Z k k A 3 4 A k F ,.$.D #.*.0...@.q.8.q.r.f.r.r.d.d.r.d.s.d.r.f.d.|.s._._.d.]._.d.d.8.d.d.s.s.u.r.d.t.]._.d.}.d.d.9.|.d.d.d.s.d.r.d.s.d.r.d.d.d.r.d.r.r.r.6.w.q.f.r.r.8.p.8.d.y.*.q.9.9.0.*.q.%.G @.0.! o.D ;.o.Q x h L z l : o o o q l q q L E.m.f X . = f f 9 0 0 9 0 0 9 0 & & 2 < 7 $ 6 a b s q f : L ;.;.;.M.C.C.oXoX.X#XaXdXsXfXhXhXhXhXhXhXhXzXhXhXhXzXhXhXhXhXzXzXlXlXlXhXlXlXlXhXlXlXlXlXlXlXzXzXzXkXlXlXfXfXfXlXlXlXkXzXzXzXlXlXhXlXlXhXlXlXlXlXzXzXlXlXzXzXzXzXNXzXNXNXNXzXVXzXzXzXzXVXzXAXBXZXBXAXZXZXZXZXZXZXZXZXZXZXBXVXVXVXVXFXVXFXZXGXZXGXGXGXFXZXFXZXGXGXGXGXGXZXZXZXHXGXGXGXGXGXGXGXGXGXGXGXGXZXZXHXHXGXHXCXHXHXHXHXGXJXGXGX",
"M.A.A.M.M.A.M.A.A.M.M.M.A.M.M.A.M.A.A.M.A.>X,X,X9XW.m.g.m.G.!.W.,X,X,X!.W.R.G.A.A.G.E.R.W.W.8XW.Y.D.F.b.b.D.D.b.D.D.b.D.D.D.D.D.K.K.L.K.K.K.K.K.K.K.K.I.I.L.L.I.P.P.P.P.P.P.P.-XY.P.Y.=XY.-X-X-XY.I.Y.Y.Y.I.Y.Y.Y.Y.Y.Y.Y.Y.Y.Y.Y.-X;X1X1XY.1X-X1X1X1X1X1X1X;X1X;X1X1X1X1X1X1X1X1X1X;XY.1X1X;X;X;X1X;X;X;X;X;X;X:X;X;X;X,X:X:X,X;X1X1X1X8X1X8X1X8X1X1X1X8X1X1X1X;X8X;X8X8X;X1X;X8X;X;X8X;X;X;X;X-XI.7X<XY.I.T.R.D.R.W.F.) 5 5 5 i < , + % 2 y b  . .M.>.A.!.yXhXVXVXA.O.;.^ 5.O.@.@.@.@.$.@.O.&.O.*...O.$.O.$.#.o.o.o.! ! S S S 3 q Q ~ S ! ,.F q.....%.%.@.6.9.d.q.r.r.r.d.f.r.r.q.r.d.d.d.d.d.|.d.|.&X|.d.d.8.q.p.|.s.u.i.i.i.d.[.d._.|.d.r._.d.r.r.u._.8.u.d.d.r.r.d.r.d.r.d.s.d.f.r.6.r.6.e.r.r.0.w.8.9.q.6.q.6.0.0.6.$.+.$.%.o.#.A S V L Z a q - 3 - @ - q u a 2 V. XV.f     . & 0 i a 7 8 f * ; 0 r 1 % % 1 , > i b v w 2 ; 2 :.>.7.7.C.].oXoXXXaXdXfXfXhXjXfXzXfXzXhXfXfXhXzXzXzXjXlXhXzXzXhXVXhXzXhXhXhXhXhXVXhXlXlXlXzXzXlXhXlXhXhXzXhXlXlXlXhXlXhXzXhXhXlXlXlXkXfXzXzXzXlXzXVXVXVXVXzXzXzXAXzXzXzXzXAXVXVXVXzXVXhXzXVXZXVXBXZXZXZXZXZXVXZXZXZXZXZXVXVXVXAXBXZXZXZXZXZXGXGXGXGXFXFXFXFXFXZXFXZXFXVXFXVXGXGXFXGXFXFXFXGXGXGXHXCXZXZXHXZXHXHXHXHXHXCXAXFXHXHXGXGX",
"M.M.M.M.A.M.M.A.M.A.A.M.M.A.C.A.M.A.A.M.A.A.,X,XIX!.M.{ k.~.E.W.,X,X!.E.G.G.G.G.G.R.E.E.G.W.W.W.R.~.b.l.D.D.D.b.b.D.D.D.D.D.D.D.D.K.K.K.K.K.K.K.K.K.K.K.K.K.K.K.P.P.P.T.T.P.Y.P.Y.Y.P.Y.Y.P.Y.Y.I.Y.Y.P.Y.Y.I.Y.Y.Y.Y.Y.I.-XY.-X-X-X1X1X;X;X;X;X;X1X1X1X;X1X;X;X;XY.1X1X1X1X1X8X1X1X1X;X1X1X1X1X1X1X8X;X;X:X;X;X;X;X;X;X:X6X;X;X1X1X1X1X1X1X1X1X1X8X1X1X1X1X1X1X;X8X1X;X;X8X8X;X8X;X8X;X;X;X;X;XY.1X-XK.Y.Y.L.T.R.Y.F.E < = 0 d 7 $ $ % 1 e N N  .W g.M.A.E.yXyXSXVX(.;.3.O.5.O.@.@.@.$.&.@.O.O.O.<.+.O.$.+.$.$.D 0.,.o.D $.+.F k g 3 k z S x #.%.F +.*...q.9.%.q.f.r.r.r.d.s.d.d.d.d.r.r.r.d.|.d.d.d.s.s.|.|.d.s.|._.|.).t.)._.r.d.d.0.r._.0.s._.d.d.y._.d.r.8.s.r.r.d.f.r.r.s.r.r.d.r.6.e.r.d.r.r.d.q.6.q.q.6.8.q.*.*.%.%.%.%.+.! %.q.q./ l j J l - @ @ : 3 q q u r Q.!.m.0     # 0 w i p w a q f $ $ > 7 1 1 1 1 2 t b v e 2 1 2 T 7.7.C.Z.Z.oX.X#XdXsXdXfXfXfXzXhXhXhXhXhXhXfXhXhXzXlXfXfXhXhXhXhXhXhXhXVXhXhXzXzXhXlXzXhXlXzXlXzXhXhXhXhXzXlXlXlXhXlXlXzXzXhXlXlXkXlXlXlXlXzXzXVXzXVXzXVXzXzXzXAXzXzXAXzXzXzXVXzXzXVXVXVXzXVXVXZXVXVXZXZXZXVXZXZXZXVXFXZXZXBXAXZXZXZXZXZXGXGXGXGXGXFXZXZXFXGXFXZXFXFXZXFXFXGXFXFXGXGXFXGXFXGXGXZXHXHXCXZXHXHXAXHXAXHXHXHXCXHXHXHXHX",
"M.M.M.A.M.A.A.M.A.M.M.A.M.M.A.M.A.A.A.A.A.A.!.,XW.R.k.h.M.~.E.W.,X!.>X!.G.G.G.A.G.G.G.E.W.W.W.W.R.D.l.F.D.D.D.b.b.D.D.b.D.D.D.D.x.K.K.K.K.K.x.K.K.K.K.K.K.K.K.K.L.P.P.P.U.P.P.Y.P.P.P.Y.P.Y.-XY.P.I.Y.Y.Y.Y.-XY.Y.<X1XY.-X-X-X1XY.;X1X1X1X1X1X-X;XY.;X;XY.Y.;X-X;XY.1X1X1XY.;X1X;XY.Y.1X1X1X1X1X8X1X8X;X6X,X;X0X;X:X;X:X;X;X0X0X1X1X1X1X1X1X1X8X1X1X;X;XY.1X;X1X;X;X;X3X3X;X1X1X;X;X8X;X;X;X>X;X1XK.L.Y.K.R.L.R.9Xn.n < = d 5 f f = $ , 8 v K K  .~ M.g.A.A.yXjXVXVXXX;.;.o.~ 3.-.$.-.$.*.&.@.o.@.$.@.@.%.&.&.$.o.$.@.+.o.D D ! k j : z k g k ! D o.o.o.X.q.6.*.r.f.q.r.r.q.d.r.s.d.d.r.f.r.d.d.s.|.|.d.d.u.r.d.|.[.8.d.y.8.)._.r.d.|.u.8.|.9.s.d._.s.d.s.d.r.8.d.s.r.r.r.d.r.d.d.r.r.r.q.r.p.r.r.d.s.6.8.6.0.d.8.*.%.%.$.$.@.+.G F #.^ / R C l q q @ - - q z l l 8 / kXE.>.i     = 9 9 w s t b s i f # + % > > 1 1 2 t v v e 2 2 2 u 7.C.C.Z.oXXXOXaXaXdXfXfXfXhXhXhXfXfXfXfXhXfXhXzXhXhXhXfXfXhXhXhXhXzXhXhXhXhXhXhXhXzXhXlXlXlXlXlXhXzXhXzXzXlXlXlXlXhXlXlXzXlXlXzXzXzXzXlXlXVXzXzXVXVXVXzXzXzXAXAXAXAXzXAXVXVXVXVXVXVXVXVXVXBXVXVXVXVXZXZXZXVXVXZXVXZXVXZXVXAXVXVXAXZXZXZXZXGXGXGXGXFXFXZXFXFXGXGXGXGXGXGXGXGXGXFXGXZXZXZXGXGXGXGXGXFXGXHXHXHXHXGXHXHXKXFXHXHXGXHXAX",
"M.M.M.M.M.M.M.A.M.A.M.M.A.M.M.A.A.M.M.A.A.A.E.,XW.~.k.[ k.G.R.W.,X>X!.G.G.A.A.G.G.G.E.G.R.W.W.W.R.F.l.b.D.D.D.b.D.D.D.D.D.b.K.b.K.K.K.D.D.K.K.D.K.D.D.K.K.K.K.L.L.P.P.P.T.P.P.Y.P.T.Y.P.Y.P.P.Y.T.I.Y.Y.-X-XY.-X<X1XY.<XY.-X-X1X;X;X;X1X1X1XY.1X1X1XY.;XY.;X;X;X1X1X1X1X1X;X1X1X;X;X;X-X1X1X1X1X1X1X3X3X:X:X;X;X0X;X;X8X0X;X;X:X1X1X1X1X1X1X1X8X1X1X1X1XY.;X;X1X1X;X;X8X1X;X8X;X;X1X;X;X;X;X;X;XT.4XY.R.Y.T.R.8Xn.m < < d 5 6 7 f $ $ , r B K l  .] g.M.A.E.,XsXSXVXhX;.2.o.O.3.@.&.@.@.$.&.@.@.&.O.$.O.$.<.$.%.O.+.+.o.%.D ! o.F 3 Q g z k Q ! S ! F G *.q.%.8.q.q.q.f.r.d.r.d.r.6.f.d.d.d.d.d.d.d.d._.s.r.r.d._.|.p.d././.[.i.d.d.d._.u.u.d.s.d.d._.d.d.8.d.d.r.r.r.r.d.d.r.d.|.s.p.d.r.s.r.r.d.d.r.f.u.r.8.r.q.*.%.$.%.%.+.F G S Q 3 A y A y o - o - ; z Z z l 2 !.eXZ.{  .X   o 1 0 9 s v v i s i 0 $ + % > , & 2 r v v r 1 2 2 2 { Z.Z.oXoX#XXXaXdXdXdXfXfXhXhXhXhXjXfXhXhXjXzXhXzXzXlXhXjXhXhXzXhXhXhXhXhXhXzXhXhXhXhXhXhXlXhXlXlXzXzXzXzXlXlXhXlXhXhXhXhXlXzXzXzXzXzXzXzXVXVXzXlXzXzXVXzXzXAXzXAXzXzXzXzXVXzXVXVXhXVXVXVXZXVXVXNXVXVXZXZXGXZXZXZXZXZXZXFXAXBXZXZXZXZXZXZXGXGXGXGXFXVXFXFXGXFXFXGXFXGXGXGXKXGXFXGXVXZXZXFXHXGXHXGXHXGXHXGXHXHXHXHXHXHXHXHXAXHXHXHX",
"M.M.M.M.M.M.C.M.A.M.M.M.M.A.A.M.M.A.A.M.A.A.>X,XE.S.UX{ k.G.E.W.Q.W.E.G.A.A.G.A.G.G.E.R.E.W.W.T.R.D.F.b.F.F.D.D.D.b.K.D.D.D.D.D.x.K.K.x.x.K.x.K.K.K.K.K.K.L.L.L.P.Y.P.Y.T.P.P.P.P.P.Y.P.P.Y.P.P.Y.I.Y.I.Y.-X-XY.<XY.;X-XY.<XY.1X;X;X1X;X;X1X;X;X;X1X;XY.;XY.Y.1X1X1X1X1X1X1X;X1X;XY.;X;X1X1X1X8X;X;X6X,X8X;X8X;X6X:X;X;X;X8X:X8X8X1X1X1X;X1X8X8X1X1X1X1XY.1X8X1X1X3X3X8X3X3X3X3X3X3X3X1X;X;X;X;X1XR.T.R.R.8XR.` 5 < < 5 f f f f & # # 1 q  .K s  .>.g.M.A.E.,XyXvXGXFX2.;.3.3.;.O.&.&.@.@.-.@.&.@...-.@.O.$.+.<.@.+.! ,.%.@.D ! Q Q j g 4 g ! Z A S +.%.%.<.0.*.q.X.d.f.q.r.r.r.6.r.9.s.d.6.d.|.d.8.s.|.s.d.|.[.d._.}.)._.|.).8.d.d.d.s.9.d._.d.d.u.u.u._.d.u.d.r.d.r.r.d.r.r.d.r.|.r.s.s.r.6.s.r.r.6.6.6.e.8.q.8.6.%.+.$.%.%.! ! A ! A ~ 2 : : o - : 3 z z z l ; L kXQ.B.} W *   X ; 7 2 v n y i s s p 7 & % 0 1 > 8 t v y e 1 1 2 ; Z Z.!.Z..X#XaXaXdXfXfXfXhXzXhXhXfXjXfXfXhXhXhXlXlXhXzXhXhXhXhXhXlXhXVXzXhXhXhXhXhXfXhXhXhXhXzXhXzXzXzXzXzXlXlXhXjXlXhXlXlXzXzXVXNXzXzXNXzXVXzXlXlXlXnXzXzXzXzXzXzXzXzXAXAXzXzXVXzXVXVXVXVXVXZXVXVXBXVXZXZXZXGXZXZXFXZXZXZXAXAXAXAXAXZXZXZXZXGXGXGXGXBXZXFXFXFXFXZXFXFXFXGXGXGXGXGXVXZXFXFXHXGXGXHXZXGXHXHXHXGXHXHXGXHXHXHXGXGXGXGX",
"M.M.M.M.M.M.A.M.M.A.M.M.M.M.M.M.M.M.A.A.A.A.A.!.E.N.UX{ M.~.E.W.,X!.E.G.G.A.A.G.G.G.E.E.R.E.E.T.~.F.l.b.F.D.D.D.D.K.x.x.D.D.b.K.K.K.K.K.K.x.K.K.K.K.K.K.K.K.I.L.T.P.P.Y.P.Y.Y.Y.Y.Y.P.-XY.P.-XY.P.I.Y.-X-XY.Y.-X-XY.Y.Y.Y.Y.Y.1X;X;X;X;XY.Y.Y.;X1X1X1X1X;X;X1X1X1X1X1X1X1X1X1X1X;X;XY.1X1X1X1X1X;X:X6X;X:X:X;X8X,X:X8X:X;X:X8X;X1X1X1X1X1X;X1X1X8X1X1X1X;X;X1X8X3X8X3X8X3X8X3X3X3X3X1X<X;X>X-X;XR.Y.R.T.Y.l.H 5 < < , < f 7 6 # = # $ 7 j l K s  .m.g.M.A.E.!.yXxXFXVXXX~ 2.3.3.3.=.=.&.&.@.@.$.@...o.O.$.&.$.$.$.o...&.<.o.D ! #.! F : z Z j k z S ! #.,.<.%.O.q.f.q.d.f.q.f.q.r.p.r.[.d.6.d.d.d.6.|.d.d.p.OXd.s.d._.s.)._.u.y.s.d.|.u.6._._._.s.u.u.u._.r.u.d.d.s.d.r.r.r.r.q.r.s.r.r.d.6.q.r.r.r.q.6.q.6.6.q.q.q.%.+.+.$.+.F ! Q Q Q l j - o - - ; z z z Z z ; B.xX XV.( E i     1 7 , 2 u r b s s s p 8 > & 2 1 e y v v e e 7 ; % 2 7. X$X$XXXaXsXdXfXjXhXhXzXjXhXfXfXhXhXhXhXfXhXhXhXhXhXfXhXhXhXhXhXhXhXhXhXhXfXfXhXhXhXlXhXhXlXzXhXzXzXzXlXlXlXlXlXlXlXzXlXzXzXzXzXkXlXzXVXzXhXlXlXlXlXzXzXAXzXAXAXzXzXzXVXzXzXVXVXVXzXVXVXVXZXVXVXGXZXGXGXGXGXZXZXVXVXZXAXAXVXZXZXZXZXZXGXZXGXGXZXGXFXGXZXZXZXFXZXFXZXZXGXGXGXGXFXZXFXFXHXHXGXGXGXGXHXGXHXHXHXHXHXHXGXHXGXHXGXHX",
"M.M.M.M.M.M.M.M.M.M.M.M.M.C.M.A.A.M.M.A.A.A.E.W.G.N.h.{ k.~.G.W.,XW.!.A.G.A.A.A.G.E.G.E.G.W.W.E.L.F.b.l.b.F.D.D.D.D.x.K.D.K.K.D.x.D.K.D.K.D.K.D.K.K.K.I.I.I.I.I.P.Y.Y.I.P.P.P.Y.Y.Y.-XY.P.-XP.Y.Y.Y.-XY.Y.-X-XI.Y.<XY.Y.-XY.Y.1XY.;X;XY.-X-X;XY.1X1X1X1X;XY.;X1X1X8X8X1X1X1X;X1X;XY.;X1X1X8X1X1X;X:X0X;X;X;X;X0X:X;X;X;X;X;X:X8X1X1X8X1X;X;X;X8X8X1XY.1X;X8X;X8X8X8X8X3X8X3X3X3X1X1X;X-XY.Y.Y.T.D.R.IXT._ 5 < 5 5 , 5 7 < $ & & # = > 8  . . . ._ M.g.M.A.!.(.yXxXZXSXlX2.;.;.3.3.&.*.&.&.@.O.@.$...o.o.@.<.%.o.+.$.<.o.$.$.<.D ! ~ S z A : 4 : M S A F #.$.! O.q.q.X.f.r.q.r.6.q.6.e.y.d.s.s.d.r.q.u.u.y.d.OXd.|._.].d.)._.`._._.|.|.d.8._.d.d.d.d.d.d./.9.u.d.d.d.r.r.r.f.d.q.s.d.r.d.r.r.6.8.r.d.q.6.6.q.6.6.*.%.$.%.%.+.F S L ~ A u o 3 o o - : 3 c x l S z I iXeXQ.>.( ] W $ . 7 w 1 1 9 9 s s s s s i 7 $ 1 8 e v v t e 1 7 % ; 2 R Z.@X%XaXaXjXjXfXfXjXlXzXhXhXhXhXhXhXhXhXfXfXjXhXhXhXhXhXhXjXzXhXhXzXhXhXfXfXfXfXhXhXhXhXhXhXzXlXlXjXzXzXzXzXzXlXlXzXzXlXzXlXlXlXkXlXlXVXlXlXlXlXzXlXzXzXAXAXzXzXzXzXzXVXVXVXVXVXVXVXVXZXVXZXVXZXZXZXZXGXGXGXZXZXZXFXZXAXGXAXZXZXZXAXGXZXGXGXGXZXGXZXGXZXFXFXZXFXZXGXZXZXGXGXGXFXZXFXFXGXGXGXGXGXGXGXHXGXHXGXGXHXHXGXHXGXHXGXGX",
"M.M.M.M.M.M.M.A.M.A.M.M.M.M.M.A.M.A.A.A.A.A.A.!.G.N.{ { k.B.G.W.W.W.E.E.A.G.A.A.G.G.E.R.G.W.G.T.D.F.l.F.F.b.D.D.K.b.D.D.D.D.D.K.K.K.K.K.K.K.D.K.K.K.I.I.I.L.I.I.P.P.Y.P.Y.P.P.P.P.-XP.Y.Y.Y.-XP.Y.-XY.Y.-XY.-XY.Y.Y.1X<X<X-X<XY.Y.;X;X-XY.Y.Y.;XY.;X1X1X1X;X;XY.1X1X1X1XY.;X1XY.1X1XY.Y.1X1X1X1X;X;X;X:X;X;X;X:X;X;X:X;X;X8X6X:X8X8X1X1X8X;X;X;X1X1X;X;XY.;X1X8X8X5X5X8X4X3X8X;X3X1X;XY.Y.P.T.T.IXR.[ 5 < < 5 1 $ = , < 1 1 & . $ % 7 w z  . . .;.g.g.M.A.E.>X,XxXPXGXVXC.} 2.3.&.&.3.-.*.@.O.@.D O.&.@.o.@.&.O.%.@.+.<.o.$.$.! O.o.^ ,.4 j j j ^ j A ! ! ! o.$.G X.f.6.r.w.q.X.6.6.s.8.6.s.d.|.d.6.d.y.|.u.d.r.u._.d.)._.u._.9.u.|.d.d.r.8.d.d.|.[._.d.[.).d.u.q.f.r.r.r.r.r.f.d.f.d.d.q.6.9.6.w.8.6.q.6.q.q.X.*.+.$.,.,.! F ! Q Z C 3 o o o - - c z z L S l ; V.MX XE.{ ' } ' i = 8 s 9 r u 0 & r s p s s d 0 1 1 2 t v t e 2 2 % 2 e - >.#X@XaXdXdXhXhXfXhXhXfXzXhXhXhXzXhXzXhXhXfXhXhXzXhXhXhXhXhXhXhXhXhXhXhXjXdXhXdXjXhXlXhXlXlXhXlXlXlXlXzXlXlXjXlXlXjXzXlXNXlXlXlXlXlXlXzXNXlXlXlXNXlXlXAXzXzXAXAXzXAXAXVXzXAXVXZXVXZXZXVXZXVXGXGXZXZXGXZXZXFXVXZXZXZXZXAXGXAXZXZXGXGXAXGXGXGXGXFXFXGXGXGXGXGXFXZXGXZXZXZXGXFXFXGXZXFXGXHXGXGXGXGXGXGXGXGXHXHXZXCXHXHXHXGXGXGXGX",
"M.M.M.M.M.M.M.A.M.M.M.M.M.M.M.M.M.M.A.M.A.A.A.E.A.M.] [ m.N.E.!.W.!.E.G.A.A.G.G.G.E.E.G.G.E.E.R.D.~.b.~.D.D.D.D.b.b.b.D.D.D.D.D.x.D.K.D.K.K.K.K.v.K.K.I.P.P.K.K.L.P.L.P.P.P.P.L.P.T.Y.-XP.Y.Y.Y.Y.-X-XY.-X-XY.I.;X<X<X-XY.-X<X<X1X1X1X;X;XY.Y.Y.;X-X;X1X1X1X1X1X;XY.1X1X1X1X1X1X8X1X1X1X1X1X1X1X:X:X6X;X;X;X;X;X;X:X0X;X0X;X;X,X;X1X;XY.;X;X;X;XY.1X8X1X8XY.1X8X1X8XqX0X8X1X;X1X8X1XY.Y.Y.Y.;XIXl.H = < 5 5 < < & < > > % $ + + = 6 7 p I P b K M.M.g.M.A.,X!.,XyXxXZXGXsX;.2.$.2.3.&.3.@.-.O.X.O.O...@.@.*.&.@.@.<.D +.$.D <.@.D #.S S L Z g L l 3 Q z S ! ;.@.@.q.9.9.q.X.%.r.y.u.6._.8.s.).d.8.u.u.6._.8.9.p.].d._.u.d.'.d.r.0.|.u.d.d._.u.|.|.d._.]._.d.u.|.d.f.|.d.6.r.d.d.6.9.r.9.6.r.f.6.6.*.-.@.*.q.q.$.%.+.+.%.#.,.q.^ l L L q @ o - - z z 5.^ L  .z  .uXyXeXA.>.] ] ' ( f q  . .f i q i d 9 r s b p 8 e 1 r l a r e 8 9 % % 9 ; j  X%XaX#XhXhXfXVXaXzXhXhXhXlXzXlXlXhXhXhXhXzXhXzXlXlXzXhXhXfXhXhXhXhXhXfXhXhXfXhXhXjXzXhXhXhXhXzXhXzXhXzXzXhXzXzXlXzXNXzXVXzXzXzXzXzXzXzXlXlXhXlXVXVXzXzXzXzXAXAXAXAXZXVXVXVXZXGXGXZXFXZXZXZXVXZXVXZXGXZXVXZXZXZXZXVXZXAXGXAXGXAXGXHXGXFXFXZXZXFXFXGXGXGXFXZXFXFXZXZXFXZXZXFXFXFXGXGXGXZXGXZXZXGXGXGXFXGXGXGXGXHXGXGXGXHXGXGX",
"M.>.g.M.M.M.A.M.M.M.M.M.M.M.A.M.M.A.A.S.A.A.E.>XA.M.g.[ m.N.G.W.W.W.E.G.A.A.G.G.G.E.G.G.G.R.G.R.D.b.l.l.b.b.D.D.b.D.D.b.D.D.b.D.x.K.K.K.K.D.x.K.K.K.L.I.L.K.P.K.L.L.P.L.L.P.P.T.P.P.P.Y.Y.P.Y.Y.-XY.Y.-XY.-XY.Y.-X;X1X-X-X-XY.1X1X1X1X1X;XY.;X-X;X;XY.;X;X1X1X1X1X1X1X1X1X1X1X1X1X1X1X1X1X1X1X1X,X:X;X:X:X;X;X8X:X;X;X;X:X;X:X0X8X1X8XY.;X8X;X8X8X8X;X1X1X8X1X8X0X1X1X1X8X8X8X;XT.8XIXY.IXqXl.m 5 & & 5 5 = = f > & % % % $ $ $ $ 7 w a v t w E (.M.g.M.A.!.!.!.yXiXSXZXBX].! 2.,.3.3.*.1.e.@.X.@.-.&.&.@.$.$.O.%.&.O.$.O.D $.,.#.O.o.o.S S Z z k l z S S k #.<.*.$.%.6.6.X.q.d.q.6.r.y.8.u.y.u.9.y.6.u.d.d.d.'._.|.}._._._.^.].d._._.|.'.u._._.'.8.u._.s._._.u.r.d.d.r.q.r.r.q.8.u.u.9.6.8.q.-.%.*.6.q.$.*.@.! #.#.! F S / #.~ ;.l : @ o o - : z L ~ S x 5.q C.nXiX!.B.g.{ g.} M. .f f d 0 0 i d r 9 8 9 w i i e 8 r N v t e 2 f 7 * 6 9 0 / tX#XaXaXhXzXaXzXfXhXhXhXhXhXhXhXhXhXhXhXhXzXjXlXhXlXhXhXhXfXhXhXhXhXhXhXhXhXhXlXhXhXzXhXzXhXhXzXhXzXhXhXzXzXzXzXzXVXzXzXVXVXzXVXzXzXzXlXlXzXhXhXlXzXzXzXAXAXzXzXzXZXVXVXVXZXZXZXVXZXZXZXZXZXZXFXFXZXVXFXVXZXZXZXFXZXAXGXHXHXGXAXGXGXZXFXFXFXFXFXFXGXFXFXFXZXFXFXFXFXFXZXVXFXVXZXGXGXGXGXGXGXGXGXGXFXGXKXKXHXGXHXHXGXGXGXGX",
"g.M.M.M.M.M.M.M.A.M.M.M.M.M.M.M.M.A.M.A.M.A.A.A.A.M.] h.k.A.A.W.W.W.E.G.A.A.A.G.G.R.G.G.G.G.R.G.D.b.b.b.F.b.b.D.D.b.D.D.b.D.D.D.K.x.K.D.x.K.D.K.K.K.L.K.L.K.L.U.P.L.U.U.L.P.P.P.L.P.P.Y.Y.Y.-X-XY.-X-XI.-XY.-XY.Y.1X-XY.-XY.-X-X1X1X1X1X;XY.Y.-X1X;X;X;X;X1X1X1X1X1X8X1X1X1X1X1X1X1X1X1X1XY.1X;X;X;X;X;X:X:X;X;X:X0X;X;X;X;X6X:X1X;X1X8X;X8X8X8X8X8X8X8X8X8X8X8X8X8XIX1XIX1XIX8XW.F.T.qX8Xj.d = = 5 5 8 7 f f & f % $ % % = + $ > w i w 8 1 > [ A.M.M.>.A.!.!.,X,XyXvXVXHXhX#.<.<.&.&.2.1.=.@.&.*.&.-.X.@.-.&.@.%.O.@.$.$.$.O.$.O.$.! ~ ~ x ~ 3 g z j k k k ^ ,.#.+.@.q.q.-.q.8.d.8.d.6.8.i.).i.8.s.u.d.0.p.u.d.d._.'._.d.9.9._._.u._._.|.8.d.9.d._././.|./.0.d.r.d.d.d.r.r.d.f.r.8.6.6.8.6.q.q.X.*.*.8.%.*.%.<.+.F Q :.L k Z C l : o o o o : z x 5.~ x L z z xXnXpXE.m.g.>.g.] M.]  . .f i f f ; 0 8 0 8 8 8 7 e 8 y N v t 8 2 f f $ % 0 0 2 Z.dX#XdXdXlXjXhXhXhXhXhXhXhXhXfXfXhXzXhXzXlXlXhXhXhXhXhXhXhXhXhXhXhXfXhXhXhXlXlXlXhXzXhXzXzXhXzXzXzXzXzXzXzXVXzXzXzXVXVXVXVXVXVXAXzXzXlXzXzXzXzXzXzXzXzXzXAXzXAXzXVXVXVXZXZXZXZXZXVXFXFXZXZXZXZXVXZXZXVXZXVXZXZXZXAXZXZXZXAXGXAXGXFXZXZXZXZXFXFXZXGXFXZXVXZXFXZXFXFXVXVXZXVXFXFXFXGXGXGXZXGXGXGXGXGXGXGXGXGXHXHXHXGXGXGXGX",
"M.M.g.M.M.M.M.A.M.M.M.M.M.M.M.M.M.M.M.M.M.A.>XA.A.g.] ] k.A.G.!.W.!.G.A.A.A.A.A.G.G.G.~.G.G.G.G.b.~.l.b.b.~.D.D.b.b.D.b.D.D.D.D.x.D.x.K.K.x.D.K.K.K.K.I.K.K.P.U.L.P.L.T.P.P.T.P.P.P.P.P.P.-X-X-X-X-XY.Y.I.Y.Y.-X<X1XY.<XY.Y.-X-X1X1X1X1X;X;X1X;X1X1X1XY.Y.Y.;X1X8X1X1X1X1X1X1X1X1X1XY.1X1X;X1X1X;X;X;X;X6X,X:X;X;X:X6X,X;X;X:X,X;X8X8XY.;X;X8X;X;XY.8X8X8X8X1X1X8X8XqX0XIX;XY.IX8X9XIXN.P = = d d d 5 $ & 5 > # & = % % $ O O + 9 w 8 w 1 8 8 m.A.A.M.M.A.!.!.,X,XyXxXGXGXVXoX! ,.<.&.&.-.=.@.*.&.-.@...O.$.<.&.&.@.<.@.@.<.$.$.o.$.o.D o.D ~ S j l x z S #.^ #.F +.%.*.q.0.6.0.8.8.d.q.u.u.t.*.q.r.d.d.8.9.d.r._._.`.|._.^.u.].`._.d.d.d._.|.u._.^._._.u.d.d.d.d.d.r.d.d.r.d.d.w.q.*.6.q.8.6.8.6.%...q.$.+.! #.%.~ A ! :.A L ^ o o - - - : c k L L L 5.L ; C.gXyXeXE.k.M.M.g.g.g.M.]  .f f f d 6 0 7 7 0 8 2 > e 8 y N v y e 1 6 % f & ; r ; Z %X#XrXdXdXhXaXlXfXhXjXfXhXhXjXfXzXhXhXhXfXlXjXhXhXhXhXhXhXhXhXhXjXfXfXfXhXhXhXhXzXhXzXhXhXzXzXzXzXzXzXzXzXzXAXVXzXVXzXzXzXVXzXzXVXzXVXNXzXVXVXzXzXzXzXzXzXzXAXAXGXVXVXVXVXZXZXVXZXZXVXZXZXVXZXVXVXVXZXVXFXZXZXZXZXZXZXGXGXZXGXGXZXFXFXFXFXVXFXFXFXZXZXFXGXGXFXGXFXVXFXVXFXVXFXGXGXGXGXGXGXGXFXGXGXGXGXJXHXHXGXGXZXGXGXGX",
"g.M.M.M.M.M.M.M.M.M.M.M.M.M.M.M.M.M.M.>XM.M.>XA.M.g.] ] m.B.G.!.W.W.E.A.A.A.A.A.R.R.~.R.~.L.L.~.~.b.l.b.F.b.b.D.b.b.x.x.K.D.D.D.x.x.K.x.x.K.K.x.K.K.L.K.K.K.L.P.P.P.P.P.Y.Y.P.Y.P.Y.-XY.P.Y.Y.-XY.Y.-XP.Y.-XY.-XY.Y.<XY.Y.-XY.-X1X1X1X1X1X;X1X1X1X1X;XY.;X1X1X1X1X1X1XY.;X;X;X-X1X;X1XY.1X1X;X1X;X:X;X:X0X;X:X0X0X:X6X:X;X;X;X;X1X,X;X8X8X;X8X;X;X8X8X8X8X8X1X8XqX1X;XIX8XqX9XY.N.n.W 5 < d d , < % f = * * * f $ % * % = = $ 5 w w 8 e e 8 B ~.A.A.M.M.A.!.!.!.Q.eXyXVXVXVXAX:.$.2.&.&.&.4.-.-...&.1.$.@.O.$.@.*.<.<.@.o...@.%.o.O.3.D O.#.D ~ z g x h Q F A A ! ! +.+.0.9.q.X.q.6.8.8.u.8.8.*.d.8.8._.u.6.d.s.`._.`.`._.d.d.d._._.d.u.]._.[._.].u.u.d.9.[._.d.d.d.0.6.d.r.q.r.9.9.q.*.%.8.8.6.q.%.o.q.$.,.! F #.~ x l ^ l >.l o o - o - q l  .5.5. .S z ~ xXtX,X,XA.g.M.M.>.g.M.M.g.]  .f f f 6 6 f 6 > > 6 7 8 0 a N v y e 2 5 $ 6 & 1 e e , / #X#XdXdXdXjXdXhXhXhXfXhXfXhXhXjXlXlXlXlXhXhXhXhXhXhXhXhXhXhXhXdXfXfXfXhXhXhXhXzXhXlXlXzXzXzXzXzXzXzXzXzXVXzXVXzXVXzXzXVXzXzXVXVXzXzXVXVXVXVXVXAXzXAXVXAXAXAXVXZXVXZXVXZXZXZXZXVXVXZXZXVXFXZXZXVXVXZXVXGXGXZXZXZXGXZXZXZXGXZXGXFXFXZXFXFXGXGXGXFXZXVXFXFXGXGXFXZXZXZXFXZXZXGXGXZXGXGXZXGXGXGXGXJXGXGXGXGXJXGXHXGXZXGXGX",
"g.M.g.M.g.M.M.M.M.M.M.M.g.M.M.M.M.z.M.A.M.A.A.A.M.g.] ] m.M.A.E.W.W.G.A.A.A.N.A.~.~.E.~.~.Z.~.D.b.l.b.~.F.D.F.D.D.x.D.K.D.K.K.D.K.x.K.K.K.D.x.K.H.K.K.K.K.K.L.U.P.P.P.T.P.Y.Y.Y.Y.-XY.P.Y.P.P.-XY.I.Y.Y.P.Y.-XY.Y.1XY.-XY.Y.Y.-X;X;X1X1X1XY.Y.1X1X;X1XY.-X;X1X1X1XY.;XY.-XY.-X;XY.;X1X1X;X1X1X1X,X:X;X;X;X;X;X;X;X;X:X,X:X;X0X:X;X;X;XY.;X8X,X8X1X8X;X1X1X1X8XqXIX8XqXqX8Xx.] ) d 5 < 5 5 5 < 6 f * f f f = * * # # * = . $ 1 w 8 w u e e e | E.A.A.A.A.A.A.!.,X,XQ.yXiXFXFXAX$X#.;.1.*.*.*.=.*.O.@.*.-.-.@.&.&.<.<.$.<.$...O.$.$.x ,.O.~ O.o.D ^ k z L ^ g A F F F F +.q.q.X.+.q.8.q.9.u.0.8.8._.9.6._.9.8.0.0.u.d.d.].].9.^.].0.u.u.u._.9.d._.r.).d.u.y._.9.s.9.r.9.q.q.d.q.q.6.9.6.q.%.8.*.@.*.q.%.*.#.<.#.! k L 7.C j R   @ - o - : q l 5.5.L ~ 5.q  .XXxXxX,X(.M.g.M.M.M.g.A.M.M.A.M.]  . .$ # $ 6 > $ > w 8 9 a N v r e 8 & f % $ e @ 2 4 e Z.kX#XdXsXlXsXhXhXhXfXfXfXhXfXlXhXhXhXhXhXlXdXfXfXfXjXhXhXhXhXhXhXfXhXhXhXhXhXzXzXhXzXzXhXzXzXAXzXzXzXzXzXzXVXzXVXVXzXzXVXVXVXzXzXVXzXzXzXzXVXVXVXVXVXAXAXAXAXZXZXZXZXZXVXZXZXVXZXZXVXZXVXVXZXFXZXVXZXFXZXGXZXVXZXZXZXZXVXZXZXZXFXZXFXZXFXGXGXFXFXFXZXZXGXGXFXZXZXFXVXZXZXZXGXGXZXZXGXZXZXGXGXGXGXJXGXGXGXHXGXGXGXGXGX",
"M.M.g.M.M.M.M.M.M.M.M.M.M.M.M.M.M.M.M.M.M.A.A.A.A.g.h.] g.N.A.E.E.G.G.A.N.A.N.A.~.F.~.R.R.~.~.~.b.b.l.b.D.b.b.D.b.D.x.K.K.D.D.D.x.L.K.K.D.v.K.D.v.K.K.L.K.K.K.P.L.L.L.P.P.Y.P.-XY.Y.P.T.P.P.P.Y.P.Y.Y.I.-X-XY.-XY.-XY.Y.Y.Y.Y.-X;X1X1X1X;X;XY.;X1X1X;X1X1X1X1X1X1XY.1X1XY.Y.1X1X1X1X;XY.Y.Y.1XY.6X:X:X;X;X:X6X8X;X;X;X;X;X;X:X;X;X;X8X8X1X8X1X8X8X1X1X1XIX4X1X1XqX4XS.[ ) d 5 5 d d 8 5 f 6 1 $ f f = = * = = = = * = . = 1 e d 7 w t e e 8 UXE.(.>XA.A.A.A.!.!.,X,XyXyXvXGXVXHXC.$.1.1.*.X.-.=.-.@.3.@.-.&.&.*.&.$.@.8.9.$.O.$.<.o.$.;...#.#.o.! x k k k - M S k A G %.q.q.q.6.%.*.%.8.d.u.q.=.&.6.8.d.u.u.u.8.9.d.d.].d.9.].`.8.9.u.^.d.0.d._._.d._._.q.s.d.9.6.u.r.q.0.d.r.6.-.8.q.&.@.6.=.@.,.*.$.+.D o.o.Q S :.~ / - o o X - @ 0 l x z L ~ 5.~ L z M.hXtXtX,XA.M.M.M.M.M.M.A.A.M.M.>X>XA.M.s 6 $ 6 1 % & 9 8 e a M v e 8 1 & 7 $ , 1 $ 2 u 2 A $X$XaXjXdXfXjXhXhXfXfXfXfXhXdXlXhXhXlXfXfXjXfXfXfXfXfXhXhXhXhXhXhXhXlXhXlXlXhXhXzXhXhXzXhXzXzXzXzXzXzXzXzXzXVXVXzXVXVXVXVXzXhXlXlXzXVXVXzXzXVXVXVXVXAXVXAXZXZXZXGXVXVXZXFXVXZXVXVXVXVXZXVXFXVXVXZXZXGXZXZXZXZXZXZXZXZXZXZXZXZXFXFXZXFXFXGXGXGXFXFXZXFXZXFXZXGXZXGXVXVXZXZXGXZXGXZXGXZXGXZXFXGXGXJXGXJXGXGXGXZXGXGXGX",
"g.g.M.g.g.g.M.>.M.>.M.g.M.g.M.g.g.M.M.M.A.A.A.A.M.g.] g.m.N.A.E.W.E.A.A.N.M.A.N.~.~.~.~.~.R.D.~.~.~.l.b.b.D.D.b.D.b.x.D.D.D.D.D.K.x.K.K.D.K.x.K.K.K.K.K.L.K.K.K.J.L.L.P.P.P.P.P.P.Y.P.L.U.L.P.Y.P.Y.Y.-X-XY.-XY.Y.-XY.-XI.Y.-XY.Y.;X;XY.Y.;X;X;X;X1X1X1X1X1X8X1X1X;XY.Y.1X1X1X1X1XY.;X;X1X;X;X;X:X8X;X;X,X6X;X;X:X0X;X;X0X;X0X;X;X1XY.8X8X8X8X8XIXY.Y.IX8X8XIXR.` H d < < 5 d 8 < f f & $ $ % % . f f * = f * * * % * * , 8 d , 8 w r 8 t e B.E.A.A.A.A.A.!.A.W. X,XeXyXyXSXFXGXlX%.#.&.4.-.-.-.=.1.*.1.&.&.@.2.&.O.&.<.*.&.@.%.&.$.o.O.O.#.o.O.o.#.#.h - A A h A S F G +.+.+.@.@.q.8.6.0.9.*.r.6.8.d.d.s.q.u.d.9.d.u.d.d.9.d.d.y.9.8.d.*.u._.d.'.'.d.u.u.|.u.d.8.d.r.8.r.6.0.6.@.=.*.*.-.q.q.q.*.+.o.+.! Q ~ ^ l L j 3 2 X @ @ ; ; c x L S 5.~ L 5.z ' hXgXjX,XA.M.M.A.M.g.M.M.A.A.M.A.,XA.A.!.N.W & = ; $ & 9 e u v v t r 8 > > < $ , + 2 , , v $ / dXaX#XdXdXlXhXfXhXfXjXfXhXdXhXhXlXlXhXfXdXfXjXdXfXfXfXhXjXzXhXlXhXhXhXlXjXzXzXhXlXhXzXzXhXzXzXzXzXzXVXAXzXVXVXVXVXVXzXzXVXVXlXVXVXVXzXzXVXVXzXVXzXVXVXVXVXZXVXZXZXBXVXVXZXVXVXVXFXFXVXZXVXZXVXVXZXZXGXZXVXZXVXGXZXZXZXVXFXVXZXFXZXFXFXGXGXGXGXZXFXZXFXFXZXZXGXZXZXBXBXZXZXGXZXVXGXZXGXFXZXGXGXGXJXGXHXGXGXGXGXGXZX",
"M.g.g.M.M.g.g.M.M.M.g.S.g.S.g.M.k.M.N.M.N.B.S.B.l.UX[ h.k.N.B.E.E.E.A.A.M.A.M.N.N.A.A.A.A.G.G.G.F.c.S.c.F.x.x.x.D.x.D.D.D.D.D.D.K.K.K.K.x.K.D.K.K.K.K.K.K.K.K.L.K.I.K.I.K.I.I.I.P.P.I.P.I.U.P.P.I.=XP.I.-X-XP.Y.T.-X>X-X-X>X-X-X4XY.1XY.1X1X1X1XY.1X1X1X1X1X4X1X7XY.Y.Y.Y.1XY.7X4X7X1X1XIXY.IXY.1XIX1X1X1X1X1X1X-X;X;X1X1X3X1X4X1X1X8X8X1XY.Y.1XW.8X8XIXF.{ H d 5 5 d 8 7 5 6 f & & % % = f % f f * = * = * = * + = . & 6 0 6 6 8 e t r 8 b B.E.A.E.E.A.A.E.E.!.,XeX9X9XyXxXSXFXGX#X! $.1.1.=.2.8.*.O.@.&.&.-.&.@.@.*.1.*.&.*.&.o.@.@...o.@.$.! O.#.x h 4 g #.k l Q ~ k #.#.%.+.,.*.<.8.8.8.8.@.q.u.u.u.d.r.d.u.8.q.u._.9.d.s.d.8.r./.u.q.u.*.9.u.9.p._.8.9.d.8.r.r.0.8.6.0.6.*.6.*.-.6.q.-.%.%.$.%.+.^ +.A j Q / ^ ; X o * o ; - 3 x Z x Z o.S #.q ' tXnXxXyXW.A.M.M.A.M.M.M.M.A.M.M.M.!.,XA.A.E.A.( 0 f f *  .w t v v a w 2 7 > & & < & % > 1 2 r 2 V.aX#XaXlXdXfXfXdXhXfXdXzXdXdXjXzXhXhXhXhXfXfXfXhXlXhXhXzXzXzXzXlXhXlXzXzXzXVXzXzXlXlXzXzXlXzXzXzXzXzXzXzXzXVXVXzXVXzXzXzXzXzXVXVXVXzXzXzXzXzXzXVXzXVXVXAXAXZXZXZXZXVXBXVXBXVXBXZXVXVXFXVXFXFXZXFXZXFXVXFXZXZXZXZXZXVXAXVXGXZXZXVXAXZXGXGXZXGXZXZXAXZXAXZXZXAXZXZXZXZXAXZXGXVXVXZXZXZXZXZXGXAXAXHXAXHXAXGXVXFXFXVX",
"M.M.g.k.g.g.M.g.g.g.M.g.M.g.M.g.M.M.M.M.N.N.~.~.m.{ [ h.k.M.A.E.W.G.A.A.N.M.N.N.N.A.N.A.A.G.G.F.F.c.S.c.c.D.D.x.x.D.x.x.K.D.K.D.K.K.x.K.K.D.x.K.K.K.K.D.K.K.I.K.I.K.I.I.I.I.I.I.=XP.I.U.P.=X=XP.-X=X-X-X-X-X-X=X=XT.-X;X-X-X;X-X1X1X1X1X1X1X1XY.<XY.<X1X1X<X1X<XY.Y.Y.Y.Y.1XY.7X7XIXY.1X7X7X7X1X<X1X1X1X1X1X1X1X8X8X8X8X-X1X1X1X1X1X1X;XY.IX8XIX8XR.k.) m d 5 5 8 0 5 0 0 f f f $ & f % * * = % * * * = = * * * * . # 0 8 > , 8 e e t t 9 K A.!.W.E.E.E.E.!.!.W. X,X,X9XyXxXMXSXJXJXZ.#.2.<.w.*.*.=.-.1.=.&.-.*.-.-.2.1.*.*.&.&.o.O.@.@.@.O.O.$.%.#.o.! h : x k ~ l k Z ~ ~ #.+.$.$.@.0.@.1.@.-.e.w.1.e.y.u.i.u.-.e.).u.6.u.d.u.8.u.9.6.8.y.6.[.d.8.r.d.8.9.9.8.u.0.8.d.6.*.8.8.*.$.@.&.*.%.q.q.F ,.F F / S Q l K q o X o o ; ; g c x x k o.z ~ z ^ XXVXnXxXyXE.A.M.M.M.M.M.M.M.M.(.A.A.,X,X,XA.N.A.g._ f = f 0 r a a v t 9 0 1 > & & $ % < > > 1 1 3 M !.#XaXaXgXgXdXdXdXzXfXjXjXzXhXhXhXhXlXhXfXhXhXfXhXlXhXhXlXlXlXlXlXzXzXzXzXzXnXzXlXlXlXzXzXzXzXzXzXzXzXzXzXzXzXVXVXVXVXzXzXVXzXVXzXzXVXzXzXzXzXVXVXVXVXVXVXZXVXAXZXVXVXVXVXVXVXVXFXVXVXVXVXVXFXFXVXVXVXZXVXZXVXZXAXAXZXBXZXBXZXZXZXZXZXGXGXZXZXZXZXAXAXZXZXZXZXZXZXZXZXZXVXZXZXZXVXZXVXZXZXZXGXGXHXGXGXGXFXVXFXFX",
"g.g.g.k.k.g.M.M.M.g.M.g.g.M.g.M.M.M.M.k.M.N.S.S.k.UX] [ k.M.~.G.G.G.A.M.A.M.M.M.N.S.N.A.A.A.A.S.F.S.c.x.D.D.D.x.D.D.D.D.D.D.D.D.K.D.K.x.D.D.K.x.K.K.K.K.K.K.K.I.I.I.I.K.I.I.I.I.Y.P.P.I.P.Y.Y.P.I.-X=X-X-X=X-XY.-X-X-X-X-X-X-X;XY.1XY.1X1X4X1XY.Y.Y.Y.<X1X1X1XY.IX7XY.4X4XY.IX7X1XY.4XY.7X7X4XY.1XY.Y.1X1X1X1X1X;XY.T.Y.8X0X8X;X8XY.T.;XqX8XR.N.` W d < < 5 8 d 6 6 8 0 f & % * % % f * = % * % * = = * * * = = # # f 0 7 & 1 e w 8 r t 9 K E.E.!.E.E.E.E.E.!.!.!.,X9XyXyXyXxXSXJXVXGXC.#.9.1.1.*.=.1.8.1.&.&.&.&.-.&.1.*.&.*.*.&.-.-.-.@.D D O.$.D ! o.D k k z Z z g Z x ~ ! +.,.%.! $...@.*.1.9.9.=.8.u.9.9.y.6.u.u.8.6._.d.6.6.q.y.u.u.8.u.0.d.8.9.d.8.r.6.8.r.r.d.6.-.*.8.@.@.-.$.%.@.$.6.q.%.o.^ S ! Q Q } j X o @ - @ q g c k Z z ~ ~ ;.Z ~  XVXVXxXyXE.A.A.M.A.M.M.M.A.A.M.A.A.M.!.,X,X,X,XG.E.A.B.m.' 0 v v v v u 8 1 1 & f & % % & f ; 1 2 2 2 R %XsX$XdXfXfXaXfXzXhXhXzXjXzXhXhXhXfXfXhXhXlXlXzXhXzXhXlXhXlXlXzXlXzXlXzXlXnXzXnXzXzXNXVXVXVXVXzXzXzXVXzXzXzXzXzXVXVXVXVXzXzXVXVXVXzXzXVXzXVXzXVXVXAXAXZXVXVXZXZXVXVXVXVXVXVXZXFXVXFXVXFXVXFXVXFXVXFXZXZXZXZXZXZXAXVXVXBXVXVXZXZXZXZXGXGXGXGXZXZXZXZXZXGXGXZXZXZXGXZXZXGXVXZXZXZXVXBXZXZXZXGXAXAXGXZXZXFXFXFXVX",
"M.g.g.k.k.g.g.g.S.g.g.g.M.g.S.g.M.M.M.M.l.N.N.S.l.{ ] { UXM.B.~.G.G.A.A.M.M.M.M.N.N.N.S.S.A.G.S.S.c.S.c.D.D.x.D.x.x.D.D.D.D.D.D.x.K.x.K.K.K.K.K.K.K.K.K.K.K.K.K.L.K.I.I.K.I.K.I.=XI.=XI.=X=X=X-XI.I.P.=X-X-X-XI.-X-X;X;X-X;X;X>X1XY.1X4X1X7X1X1XY.<X1X1X<X1X1X<X4X7X7X7XIXY.Y.1XY.Y.Y.1X1XY.Y.1XY.1X1XY.1X1XY.7X8X8X8X8XY.T.T.IXIX8XqXIXF.` H e < 5 5 d d 9 5 f f 6 5 f f f = * % $ = # * * = * = + * * = + * * # 6 8 & % 2 8 1 w 8 e n 9 Y E.!.E.E.!.!.E.E.!.E.!.Q.,XyXyXyXxXxXSXGXVXVXC.#.2.0.=.8.*.=.=.*.=.-.-.@.-.2.*.*.&.*.$.@.@.$.@.o.O.+.O.! D #.$.#.#.S g Z : z Q x g ;.#.%.G %.+.! <.%.*.6.*.9.r.8.8.w.r.u.8.6.r._.r.6.r.8.9.y.*.8.d.6.9.8.r.8.8.u.*.9.r.q.q.6.q.*.8.*.@.%.*.%.+.+.,.%.S ! ^ x A V 3 t q o @ - - 3 z z S S S ~ D ~ Z ^ tXVXnXxXyX,XA.A.A.M.A.M.M.M.A.M.A.A.M.A.,X,X,X,X,X,XyX,XeXuXUXf N v v y r 8 1 1 % % f $ & & > f 1 8 ; u 2 } aXrX&XdXfXfXhXfXdXzXhXhXzXhXhXhXfXfXfXhXlXhXlXlXzXhXhXhXzXzXzXlXlXlXlXlXlXlXlXlXlXlXzXVXzXVXVXzXzXVXVXzXzXzXzXVXVXzXzXVXzXVXzXVXNXzXzXVXzXVXVXVXZXAXZXZXVXVXVXVXVXVXVXZXVXVXVXVXVXVXVXFXVXFXVXZXVXZXZXZXZXZXZXZXZXZXZXZXZXZXZXZXZXGXZXZXZXZXZXBXAXZXAXGXZXGXZXAXZXZXVXGXVXZXVXZXAXVXZXZXAXGXGXAXGXZXFXVXVXVX",
"g.g.g.g.g.g.g.M.g.M.g.g.g.S.M.M.g.M.g.M.m.V.N.N.m.{ ' [ k.M.B.G.G.A.A.M.M.k.M.M.S.N.N.N.A.A.S.S.c.c.F.c.F.F.x.D.x.b.b.D.D.D.x.D.x.D.K.x.x.K.K.K.K.K.K.K.K.K.K.K.U.I.I.K.I.I.U.I.>XP.P.=XP.-XP.-XI.P.=X-XI.*X-XI.-X-X;X-X-X-X-X;XY.1X7X4X1X1X1XY.1X<X1X1X1X1X1X1XIX7X4XY.1XY.1XY.1XY.1XY.7X7XY.Y.<XY.7X1XY.1XY.IX;XY.T.W.W.8XqXqX,XR.h.W e < 5 d 8 5 9 0 f & f & f f f f f & % f * < * # f * # * * * = + + = # # % 0 7 % % 8 9 1 e e e p 9 E E.!.!.!.W.!.W.!.!.!.,X,X,X,XeXyXyXxXxXGXGXVXhX2.,.<.0.8.=.*.*.*.*.=.-.@.-.=.=.&.=.=.@.@.+.$.&.@.@.%.$.$.O.#.#.#.2.#.~ : g ~ z 3 k Q ! #.F #.G o.O.o...%.*.q.8.8.8.8.8.9.=.8.8.9.6.8.6.u.0.0.*.u.t.=.8.8.9.8.9.d.6.9.9.q.8.6.0.6.8.*.$.$.#.O.+.! +.! ! ,.z ^ Q l 3 o ; X o - : k x Q ! D 5.~ ~ L ~ XXhXjXjXyXyX!.A.A.A.A.(.A.A.M.A.A.A.M.A.A.,X,X,XXXyX,XyX!.,XpXJ 1 b v a r 8 0 6 1 f % % f % & & & 1 % 2 2 2 u C.sX#XaXdXkXhXfXfXhXhXhXhXhXhXfXfXfXfXhXlXhXlXlXhXkXlXlXlXzXlXlXhXlXkXhXkXlXkXlXlXlXzXVXzXzXzXzXAXzXVXVXzXzXNXNXVXVXAXVXzXVXVXAXVXNXzXVXVXzXVXAXAXAXVXZXVXVXVXZXVXZXVXZXVXVXFXVXVXFXFXVXFXVXVXVXFXFXZXZXZXZXZXZXZXZXZXZXZXGXZXZXZXVXZXZXZXZXZXZXZXZXZXGXZXGXGXAXZXZXVXZXVXZXVXZXZXVXZXZXZXAXGXGXGXZXFXZXGXZX",
"g.g.>.g.g.g.g.M.M.g.g.S.S.g.M.M.M.M.N.g.l.M.N.N.UXh.` [ UXM.B.G.E.A.A.M.M.M.M.k.M.N.N.N.N.A.A.S.z.S.z.F.F.x.D.x.x.D.D.D.D.D.D.D.K.x.x.K.K.x.K.D.D.K.L.K.I.K.I.K.U.K.I.I.K.K.K.I.P.P.P.P.=XP.=X-X=XP.P.-X<X-X-X-X-X-X;X>X=X-X-X;XY.1X1X1X4X1X1XY.Y.1X<X1X1X1XY.1XY.Y.7XIX4X7X1X1X1X1X1X1X7XIXY.1X7X1X1X1X1X1XIXY.;XW.IX0XqXIXS.k.W  .5 < e d 8 < 5 7 f f & & f 8 % % * * % $ # # * * * * = % * = = # * = O # # & 0 & & & 1 6 8 9 8 w e p 9 ' Q.!.!.W.Q.!.!.!.W.!. XQ.,XXX9XyXxXyXxXgXJXVXVXdX;.o.*.9.9.8.1.-.&.-.-.@.-.=.*.2.2.&.*.@.@.*.&.o...O.$.,.O.O.o.D 3.;.5.~ x 3 k h z z S Z ! Z F ;.#.%.+.%.$.%.6.8.0.8.q.9.6.8.8.8.8.8.=.9.8.r.*.u.8.$.8.8.r.8.8.i.8.9.6.e.9.*.%.*.=.o.<.$.o.! G ! +.S ;.~ q l Z o - @ X - - : h Q x ! x x ~ S k ~ aXZXhXxXyXyX!.A.>XA.A.A.M.A.M.A.M.M.A.M.>X(.tXXXyXyXyX,X,XW.pXQ.1 8 v v r e 7 6 > & f % % f % % & & , % 2 % r 2 v !.dXsXaXgXhXhXdXfXhXfXfXhXfXfXkXfXhXkXhXzXhXlXhXhXhXlXlXlXlXlXlXhXlXlXlXzXlXlXlXlXzXlXVXzXNXzXzXAXVXVXNXNXNXVXNXVXVXVXVXVXVXVXVXNXVXVXzXVXVXVXZXVXVXVXZXZXZXZXZXZXZXVXVXVXVXVXVXFXFXVXVXVXVXFXZXVXZXZXZXZXGXZXZXZXZXGXZXGXZXZXZXBXVXVXAXZXZXZXZXZXAXZXZXGXGXGXZXZXZXVXVXZXZXZXZXZXZXZXZXGXZXGXGXGXZXZXZXGX",
"g.g.g.g.g.g.g.M.g.M.g.M.M.M.S.g.M.M.g.M.m.N.~.l.UXh.' [ k.m.B.~.G.A.A.M.M.M.k.M.M.M.N.N.N.A.A.N.S.z.S.c.x.D.D.x.D.D.x.D.D.D.D.D.x.D.K.D.D.K.K.K.D.K.K.K.K.L.K.K.K.I.I.K.U.K.K.K.P.U.P.P.U.P.P.=X=XI.=X-X;X:X-X-X-X-X;X-X-XY.Y.-XY.7X1XIX1XY.1XY.1XY.1X1X1X<X7XY.Y.7XY.7XY.IXIXY.1X1X1XY.7XY.IXY.1X1X<X1X1X8X8X8X1X9X0XE.n.H d 5 < f 6 0 0 5 f 6 f f f 6 6 & > & # * = * = = * . = * * = * * = * = * # + + # $ > 6 & & 6 0 6 0 e 8 y w p 9 } Q.!.!.!.W.!.W.!.!.!.Q.Q.,XeXeXyXyXcXyXnXxXJXVXZXtXo.%.9.9.8.1.=.=.=.-.3.*.*.&.&.*.-.$.O.@.*.$.@.o.@.$.$.O.#.O.O.o.$.o.;.! g z k k g j k ! ! ;.#.^ #.@.%.@.*.%.$.<.0.6.9.*.8.9.w.8.<.y.*.8.8...6.8.<.q.q.8.8.8.9.8.8.&.6.%.*.%.@.+.%.$.#.! ! D ! ! L ~ ~ ^ : 0 @ @ o o : 3 j x ! D x ~ x ;.~ Z XXVXnXxXxXyX,XA.!.A.A.A.A.A.A.(.M.A.M.(.M.A.A.tXyXyXyX,X,XyXyXuX{ & C b y r 8 7 2 > & % * f % & % & & 1 2 1 1 , u @ |  XsXdXdXhXhXfXfXfXfXfXfXkXkXhXkXhXhXhXhXkXlXhXlXlXlXlXlXlXlXlXhXhXzXzXzXlXlXlXlXlXlXzXzXzXNXzXAXVXCXVXVXBXAXNXNXAXBXAXVXVXBXVXVXAXzXVXVXzXVXVXVXVXZXVXZXGXZXZXVXVXVXVXZXVXVXFXVXVXVXVXVXFXVXZXVXZXZXZXZXZXZXBXZXZXZXZXGXAXZXVXVXBXZXZXZXZXAXVXVXAXZXZXGXGXAXZXZXZXVXZXZXZXZXZXZXZXZXZXZXZXZXZXGXGXGXGXGX",
"g.g.[ g.g.g.g.g.M.g.g.g.g.g.M.M.M.M.S.g.m.l.N.V.l.[ ' [ k.M.B.G.G.G.A.M.k.M.k.M.g.M.M.M.N.S.A.S.S.c.c.F.D.D.H.x.b.x.x.x.D.x.D.D.K.x.x.x.K.x.x.K.D.K.K.K.L.K.K.K.U.K.K.I.K.K.I.K.U.U.U.U.U.P.P.>XI.I.I.*X=X-X=XI.-X:X-X-XY.I.-X<XY.Y.4X4X4XY.1X<X1X<X1X<X1XY.Y.Y.Y.Y.Y.4X4X7X7X7X1X1X1X1XY.Y.7X1XY.Y.Y.1X1X4XIXIXR.l.H d 5 5 5 5 0 0 6 6 f > > f f ; & & & & , , % % * = # * = * * = = * = * + = o + = + O # & 6 $ > 6 > > 8 8 7 1 v r p 9 { ,XQ.!.Q.,XQ.,X,XQ.Q.!.,XXX,X,XyXyXyXxXxXiXnXJXGXKX X%.q.<.<.9.1.4.-.1.=.4.=.-.&.=.@.@.2.1.&.$.&.@.o.o.o.2.;.3.;.o.O.O.o.D x x h z z 3 / A ;.! Q Q ! G +.+.%.%.G @.0.<.q.*.9.8.<.*.$.<.$.<.@.$.q.&.q.*.*.-.0.<.*.q.8.%.8.*.@.+.$.o.+.D ! ! ^ S k Q Q ' ~ q q X @ o @ : 4 g k S x o.! D ~ x L XXVXxXxXxXyX,XE.,X>XA.!.A.A.A.A.A.M.A.A.M.A.A.A.yXyXyX,XyX9XxXeXpXI 1 n N v r e 8 7 > > f & * ; & * * % , @ 2 1 , 2 y , V. XfXaXaXhXlXhXhXhXhXfXhXkXkXlXhXkXhXhXfXhXhXhXhXhXhXlXlXlXlXlXzXzXzXVXNXlXlXlXlXlXNXzXzXzXAXAXNXVXVXBXBXVXNXNXZXAXCXAXBXVXBXAXAXzXzXVXVXVXAXVXVXVXZXZXGXGXZXVXVXVXVXVXVXFXVXFXVXVXVXVXVXVXFXZXZXVXZXZXZXZXAXVXAXAXBXVXAXVXBXAXBXZXBXZXVXBXVXVXBXAXZXAXGXGXZXZXZXZXZXZXZXAXZXAXZXZXAXZXZXZXZXGXGXGXGXGX",
"g.g.g.g.g.g.g.g.g.g.g.g.g.S.g.S.g.M.g.M.g.M.S.g.n.] ' ] UXl.B.E.G.A.A.M.M.g.M.g.M.g.M.M.N.A.S.S.~.l.b.b.D.D.D.b.b.b.b.D.D.D.D.D.K.x.K.K.x.D.x.D.x.K.K.K.I.L.K.K.K.U.U.P.J.U.J.U.U.U.U.U.U.U.U.U.U.I.U.7XI.I.*X-XY.Y.7XY.7XY.I.Y.Y.4X4X1X1X1X1XY.Y.<X1X1X<XY.Y.1XY.7XY.7X1X4XY.Y.1X1X1XY.1X1X7XY.1XY.1XIXqXY.l.| d 5 5 5 5 1 f > f & f > 6 & & & & > 1 1 & $ % $ f * . = * = = * = * = * * * = + + # + . $ 6 0 > 1 1 1 1 , 2 e u r t r t w { Q.Q.Q.Q.Q.Q.!.,X!.,XQ. XXXyX,X,XyXyXxXyXxXxXVXFXGXGX.X$.%.9.0.9.9.=.&.-.1.1.3.-.1.&.$.&.2.&.O.$.$.O.3.O.O.$.O.O.o.O.O.#.! S #.S : : - ~ z S Q ~ Z x +.D #.%.,.o.#.O.$.8.$.$.<.$.&.O.o...$.@.*.G *.*.%.$.0.9.8.$.*.<.X.%.+.F %.+.F ,.S ! Q ! k x l q ( z ; o o o o - ; Z x D x ~ ~ 5.5. .~ XXhXhXxXjXyXyXW.>XE.E.>X!.A.A.A.A.A.A.M.A.A.A.A.>XyXyX,XyXyXyXyXyXyXw i K b b v w 6 & & f ; & ; f ; f f * % , & & & 1 7 8 2 Z.sXsXsXgXdXlXfXfXzXkXfXkXzXhXfXfXhXhXhXlXhXlXfXhXlXlXlXzXzXzXzXhXVXzXhXzXVXhXzXzXAXzXzXNXkXAXAXNXNXNXNXAXNXAXZXZXZXZXZXZXZXVXVXVXzXVXzXVXAXVXVXAXAXZXZXZXZXGXVXVXFXVXVXFXVXFXVXVXVXVXFXFXVXVXVXZXAXZXZXZXZXZXZXZXBXVXBXVXBXZXVXBXZXZXVXBXBXNXBXBXZXZXZXZXZXAXZXVXZXZXZXVXZXZXZXZXZXZXZXZXVXGXVXZXZXZX",
"g.g.g.>.g.g.g.g.g.M.g.M.g.g.g.S.M.g.g.M.S.M.M.S.UX[ ' [ UXV.B.G.G.A.A.M.k.M.g.M.g.M.M.M.N.N.A.S.b.F.l.b.D.D.D.D.b.D.D.D.D.D.D.D.D.x.K.x.K.K.K.D.K.K.K.K.L.L.K.K.U.U.U.P.P.U.>XU.U.P.P.P.P.U.P.P.U.I.I.I.7X*X-XI.7XY.Y.7XY.Y.-XY.Y.Y.1X1X4XY.Y.4X1X-X1X<X1X1X1X<XY.7XY.4XY.7XY.7XY.1XY.1X1X1X7XY.1XIX4Xx.` m e < 5 5 < 5 5 1 f & f f > > > 1 & & > > > > , = $ $ $ * * * # * * # * * * * = # . = + + + $ > > > > 1 1 , 1 1 2 e e r v t t r { Q.Q.Q.Q.Q.Q.,X,X,X X!.Q.,X,XyXyXyXyXyXyXxXxXMXVXFXGXVX.X! $.^.0.2.1.=.3.-.=.-.@.=.8.&.@.*.*.&.&.$.o.,.$.$.$.O.2.O.O.3.$.3.$.O.#.x 3 : x z : z z ~ ! ;.! o.~ o.$.! $.! %.%.$.+.%.O.#...F %...@.%.%.<.*.o.*.<.<.<.$.+.%.o.%.:.S #.S #.#.^ L Z Q L Q z z 3 o o @ ; - : x S L ~ x ^ 5.~ L 2.XXnXhXgXxXyXyX,X!.E.E.A.A.E.(.A.A.A.A.M.A.A.A.A.!.!.yXyXyXxXxXcXyXxXQ.8 b B b v a w 7 > & f f & * * & ; * & ; , > > > > 7 7 q l tXsXsXkXzXsXhXzXfXfXfXkXzXkXkXhXfXhXhXhXlXhXhXlXhXlXlXzXzXkXhXVXhXVXzXhXhXVXzXzXzXzXzXzXNXzXBXNXAXBXBXVXNXBXBXZXVXBXVXVXVXVXAXVXAXVXVXVXVXAXVXAXZXVXBXVXVXVXVXVXVXVXVXVXVXVXVXVXVXVXFXVXVXFXVXZXZXZXAXZXZXZXZXZXAXAXVXVXAXBXVXBXZXAXVXBXNXNXAXZXZXZXGXZXZXGXZXZXZXZXZXZXZXZXZXZXZXGXZXZXZXZXZXZXZXZX",
"g.g.{ g.g.g.g.g.g.g.g.g.g.g.S.g.g.g.g.g.g.g.M.g.n.' ' [ UXm.~.G.A.A.A.M.M.g.M.g.g.S.M.M.N.A.A.S.b.l.b.~.b.D.D.D.D.b.D.D.D.D.D.D.D.K.K.K.K.K.K.K.K.K.L.I.I.I.K.K.L.U.I.P.U.P.U.P.P.P.P.P.P.P.P.P.I.I.*X7XI.<X*X*XY.7XY.7XY.7XY.-X1X7X1X1XIXY.1XY.<X1XY.1X1X4X1X1XY.7X4X4XY.7XY.7X1XT.T.T.IXIX4X4XF.n.B 5 < < < 5 5 < & > 6 > , & > > > > > < , & > , < % % $ $ $ = # = # % f = # = * = # . = + . + O $ 1 7 > & 1 , , , 1 1 7 e e t y p t i m.Q.Q.,XQ.,X,XQ. X,X X,X,X,XXX,XyXyXyXyXxXxXxXxXPXVXGXHXAX#X;.#.C.9.1.t.1.&.*.=.3.-.@.&.&.*.<.$.@.&.&.3.O.O.3.3.2.O.O.O.O.$.+.$.#.! x c g g o g 3 L ! g ! ~ o.~ o.#.;.! #.#.o.! %.D +.+.+.%.#.+.0.%.,.,.@.%.0.#.+.%.$.F #.%.0.+.F :.S Q ~ L q z L L - o o o o - : g z ~ ~ z ~ L 3.3.z >.XXnXnXxXxXyXyX,XW.>X>XA.>X!.>XA.A.A.A.A.M.A.A.A.!.!.E.yXyXyXxXxXxXyXMX{ % b C v v t w 7 f & & * % & & & % ; f 1 1 1 > & > 1 7 0 ; / gXsXgXfXzXfXkXzXdXkXzXkXfXlXfXhXlXhXlXlXlXfXhXlXlXlXlXhXlXhXhXhXhXhXzXVXzXAXkXzXkXzXkXzXzXVXVXNXVXNXNXVXNXVXVXVXVXVXNXVXVXVXAXVXAXVXAXVXAXVXVXVXVXVXBXVXVXVXVXVXVXVXVXFXVXFXVXFXFXVXFXVXFXZXVXZXZXVXAXBXZXZXZXZXZXZXBXZXVXVXBXZXAXAXVXVXVXVXZXZXZXZXZXZXGXGXGXBXZXVXZXZXZXZXZXZXZXZXZXZXZXVXVXZXZX",
"[ g.{ { g.g.g.g.g.g.z.g.g.g.g.g.g.M.g.g.N.M.S.g.UX' ' ` h.l.B.~.A.A.M.M.M.g.g.M.M.g.g.M.N.N.S.S.~.l.l.b.F.D.D.D.b.b.D.D.b.F.b.b.x.x.K.K.K.x.K.K.K.K.L.I.K.L.I.L.L.U.P.P.P.P.=XP.=XU.=XP.P.P.=XP.U.I.I.*X*X*X*X-XI.I.Y.7X-X-X-X-XY.1X1X1X7X4XY.1X1X-XY.-X1X<X1XY.4XY.Y.Y.Y.IX4XIXT.Y.qXqXIXc.` P e 5 < < e e < < & & < f > > & & < > % , , % , > > , % % & % = # * # * = * # f * # * * = * + . * O + % 0 6 > > 1 , ; , 1 2 e e v y r v d s V.9XQ. X,X,X XeX,X9X,X,XXX,XeX,XyXyXyXyXyXiXiXiXxXSXFXGXAXAXjX,.#.^.9.1.e.1.-.*.=.-.-.&.*.2.*.3.@.$.2.O.o.o.O.O.$.3.,.O.$.O.O.$.2.$.,.! x z c : g g z z Q z x Q Q O.~ ! #.#.! #.,.! ! #.%.! #.#.+.+.! #.,.#.,.,.F ;.+.^ #.#.Q ^ S Q A Z C j Z q 3 @ @ o o ; - : 3 Z S ~ x x ~ ;.~ L C.tXnXhXxXhXxX,X,XW.W.E.E.!.!.E.!.A.A.A.A.A.A.A.A.(.>XE.>XyXyXxXxXyXyXiXyXH w I K v a u 9 7 f f % f % % & & & & * 1 1 ; > & > 5 7 9 9 q >.mXgXrXkXhXfXfXfXfXgXhXfXkXhXlXhXlXlXlXhXlXlXlXlXzXzXhXlXhXVXVXhXzXhXzXhXkXzXzXzXNXAXAXAXVXVXVXNXNXNXVXVXVXVXVXVXVXnXlXNXVXzXVXVXAXVXVXVXVXVXVXVXVXNXVXVXVXVXVXFXVXVXVXVXVXVXVXVXFXVXFXVXZXVXZXZXZXZXZXZXZXZXGXZXZXZXBXVXZXZXVXZXZXBXBXVXVXVXAXZXZXGXGXZXZXBXVXBXVXZXZXZXZXZXZXGXZXZXZXZXZXZXZXVX",
"g.[ g.g.g.[ g.g.g.g.g.g.g.g.g.g.S.g.g.g.g.g.S.g.UX` ' [ { M.B.B.A.A.M.M.g.m.M.g.g.g.g.S.N.A.A.M.l.l.b.l.D.D.b.D.b.D.D.D.F.b.F.D.x.x.K.D.x.K.K.K.L.K.K.K.I.K.K.K.K.U.P.U.P.U.P.P.U.P.P.P.=XP.P.U.v.U.=X7XI.7XI.I.I.I.7XY.Y.7XY.7X1X7X1X1X7XY.1X1XY.1X1XY.-XY.Y.1X4XIX7X7XY.IXY.Y.8XT.l.` W m 5 < 5 > < , < < , e & & > & & & % % & > & & & > 1 0 % $ % % % % * = = # * = + * # * * = * = * * . = + & 1 > 1 1 1 , , , 2 e 2 e e v y r n t a B. XQ.,X,X,X,X,X%X9XeXyXXX,X,XXXyXyX,XtXyXiXiXiXuXMXmXHXCXZXHXdX0.<.9.(.9.1.1.=.*.*.4.&.-.@.&.=.&.&.3.1.O...O.o.O.@.&.<.@.@.*.O.$.2.&.2.,.#.! : 4 : c x : c k S l S ~ x ! #.~ ;.;.#.k #.#.! F ~ ~ ;.#.^ #.^ #.,.! ! S ^ ^ A Z / S V R Z C l j o o o @ - @ - - q x ~ L D o.~ ,.~ ~ (.gXnXVXxXxXtXyX!.,X!.!.>X!.!.!.>X(.A.A.A.M.A.A.>X(.>X>XA.!.xXxXxXyXyX9XyXm.0  .Y a v t w 8 8 6 f $ % $ % & % & & f & f & & & f 5 1 7 e 9 2 Z.AXaXsXfXfXfXfXhXhXfXkXzXhXfXlXzXlXlXhXhXlXzXlXlXhXhXhXlXlXlXlXhXhXhXVXzXzXzXzXzXNXNXNXVXzXzXVXzXzXVXVXVXVXzXlXlXlXlXlXzXVXzXVXVXVXVXVXVXAXZXVXZXVXVXZXFXVXFXVXVXFXVXVXVXVXVXVXVXVXVXFXZXZXZXZXZXBXZXZXZXZXZXGXZXZXZXVXBXZXBXZXZXBXVXZXBXBXVXZXGXGXGXZXZXAXAXBXZXZXGXZXZXZXZXVXZXZXZXZXVXZXAXVX",
"] >.] [ [ g.g.g.g.g.g.g.g.g.g.g.g.g.g.g.g.S.S.g.{ ' | ] g.m.N.G.A.A.M.M.m.g.g.g.g.S.M.M.N.N.S.M.l.b.l.b.l.b.F.b.b.b.b.b.b.F.F.D.x.x.D.K.K.K.K.L.K.K.K.K.K.L.K.K.K.U.U.U.P.U.U.P.P.U.U.P.P.U.U.U.*X*Xv.v.I.I.I.I.I.I.Y.7XY.I.I.Y.Y.Y.1X1X7X1XY.1X-X;X1XY.Y.Y.Y.Y.Y.Y.Y.IXIX4XD.F.) W d 5 < 5 5 5 , , , , , , , , > f 6 & ; & & & & 1 6 6 > > f 6 # $ % & % # * * * = + * * = * = * * * f = . . * > 7 7 > % , 1 , , 2 1 e e e e e y r v i b ~.eXQ. X,X,X%X%X,X,X%X,X,XyX,XyXyXyXyXyXyXyXiXuXiXuXPXSXKXJXNXVXzXC.<.9.9.w.1.=.*.*.*.2.2.&.&.1.2.&.&.1.2.@.<.2.$.O.O.*.@.@.$.@.O.@.2.$.2.&.o.x k c 4 3 o q z z z S Z L ^ ~ L ^ x ^ ~ ! Q ;.S ! q.,.q.! F ^ S #.~ Z ~ F ^ j A Q A } j 1 3 u o o o - o - * ; g z L 5.5.O.~ #.~ ~ XXxXMXnXnXxXxXXX,X,X!.!.!.,X!.>X!.A.>XA.A.A.A.A.A.A.>XA.,X!.!.yXyXyXyX,X,XyX .f f K s a r w 7 0 f f & % < & % % % & ; & ; & & & > f 6 1 7 8 0 e E.sXzXfXfXfXkXkXfXhXzXhXlXlXhXzXhXlXlXhXfXlXzXzXhXhXfXhXhXlXhXlXVXhXVXzXkXkXkXzXzXNXVXzXVXzXVXzXVXVXzXVXzXzXlXlXVXlXlXVXzXVXAXAXzXVXVXVXVXAXVXVXZXVXZXVXVXVXFXFXVXVXFXFXFXVXVXVXFXVXVXZXZXZXZXZXBXAXZXAXZXZXZXZXZXAXVXZXVXBXVXBXAXZXBXBXVXNXBXZXZXGXZXBXBXBXBXZXBXZXGXZXZXVXGXVXVXZXZXAXVXZXVX",
"[ g.[ g.] g.g.g.g.g.g.g.g.g.g.h.g.g.g.g.g.M.g.g.[ ` _ ] g.k.N.~.A.M.M.M.g.k.k.M.M.g.S.M.M.N.A.S.l.b.b.b.b.F.F.b.b.b.D.D.D.D.D.D.x.K.D.K.K.K.K.K.K.K.K.D.K.D.K.K.K.H.U.U.J.J.U.U.U.P.P.=XP.=XU.U.v.*XI.I.I.I.I.I.I.I.7XI.I.I.I.I.Y.Y.1XY.1X1X4X4X;X1X1XY.-XY.-X1XqXqX7Xb.n.` M < 5 < 5 5 7 5 1 & , 1 , 1 , $ , , ; 6 f & & f & ; ; 1 1 ; & % % & # * % * * * = * * = = * = * * * = % * * = * * f 1 2 1 , % , , , 7 2 7 e e e e e t e b p s ~.eXQ.,X,X X9X,X9X9X9XyX,X,XyXyXyXyXtXpXyXpXiXiXpXuXMXSXDXnXJXGXzXjX`.<.%.1.w.1.e.8.*.&.1.2.3.&.&.&.*.&.2.&.0.<.&.$.o.$.6.-.O.2.3.O.2.3.o.$.o.;.#.Q k z z o o : z Q z L x l x L j k / z A F Z S 7./ ! F Q G Q z k k S ^ z Z 2 3 e M @ o   o o @ o o @ @ 3 Z x 5.S 5.^ ;.3.z ;.sXhXxXnXvXxXxXyX,X,X,X!.!.!.!.>X!.>X>XA.A.A.M.A.A.A.,X!.A.,X,X>XyXyX9XyXyXxXA.i s f i K t r w 7 6 1 f & % $ = & f % & % ; f > f > f > 6 7 , e 8 1 e C.fXfXfXdXhXhXhXkXlXzXhXhXlXhXlXhXlXlXfXlXlXhXlXhXhXlXlXzXzXVXhXVXVXkXzXzXzXnXzXVXzXzXzXzXzXzXzXzXVXlXzXVXVXVXVXVXVXVXzXVXVXVXVXAXVXAXAXZXZXZXVXZXVXVXVXFXVXVXFXVXVXVXVXVXVXVXFXFXVXZXZXGXZXGXZXAXVXVXZXZXZXZXAXAXVXBXVXBXVXVXAXVXBXAXVXNXBXAXGXZXVXBXVXVXZXVXZXZXZXVXZXZXZXZXZXZXZXVXVXVXVX",
"[ ] g.[ g.g.g.g.g.g.h.g.g.h.g.h.g.g.h.g.g.g.M.g.h.' ) ] UXm.N.B.A.M.M.M.k.g.g.k.g.M.g.S.N.S.N.S.l.l.l.~.D.D.b.F.b.D.b.D.D.D.D.D.x.K.K.D.K.K.K.L.K.K.D.b.x.K.v.K.U.U.P.U.U.U.H.U.J.U.U.P.P.U.P.U.v.*XU.I.*X*XI.*XI.I.I.I.I.I.I.Y.Y.Y.Y.Y.1XY.1X1X1X;XY.Y.;X1X8X1Xl.n.) m e < < e 5 7 5 1 f f & $ 1 , , - , , , $ ; f 6 & % & 1 1 & > 1 & % # * * * % % * * + . * * * f % * * = = * = + + = * f 0 1 % % 1 1 , , 2 , 7 1 2 2 e t v t e B a s E.eXQ.,X9X,X9X9X%X9XeXeXyXyXXXyXyXyXyXpXyXpXiXiXpXxXMXvXbXKXKXZXHXZXzX].$.$.9.1.=.1.1.3.2.-.@.&.*.3.O.@.2.3.@.O.@.2.$.%.*.&.@.@.O.O.&.2.3.2.$.<.<.%.,.^ x c : : : o 3 3 @ 3 Q ~ j : ~ Z F j A M Q Q Q A Q u :.z z L - A 2 - M j @ - @ @ X o @ o : - 3 : z S ~ ~ ~ ~ O.~ l 2.sXnXhXhXxXvXyXyXyX,X,X,X,X>X,X!.,X!.!.A.A.A.A.A.>X(.>XA.,X,X!.!.,XxXxXxXxXxXSXW 0  .i % i w w 8 7 > f f 1 % < % % % % % & ; & 6 1 f > 1 > > 8 1 2 u e e %XkXfXfXkXhXfXhXlXlXhXlXhXhXlXhXkXhXlXlXfXlXhXkXzXjXlXhXzXhXzXzXzXNXzXzXkXzXNXzXVXzXzXzXzXzXVXzXVXVXVXVXVXVXVXVXVXVXAXVXzXzXVXVXVXVXAXAXZXZXZXZXZXVXVXVXFXFXFXVXVXFXVXVXVXVXVXVXVXVXZXGXGXGXZXZXVXVXZXZXZXZXZXZXAXAXVXNXNXBXZXBXVXVXNXNXNXVXZXVXNXCXVXAXVXZXZXZXZXZXZXZXZXZXVXZXAXVXVXVXVX",
"g.g.] g.g.g.] g.g.g.g.g.g.] g.g.g.g.g.h.{ g.M.g.g._ _ h.{ M.N.G.A.N.M.k.m.g.g.g.k.k.k.N.M.N.N.S.b.b.l.D.x.x.D.D.x.D.D.D.x.D.D.D.K.x.K.K.x.K.L.L.L.L.D.D.D.D.v.x.U.U.J.U.U.K.U.U.U.U.I.U.I.v.I.K.7X*XU.=XI.I.I.I.*XI.I.L.L.I.I.7XK.I.-X7X<X1XY.Y.Y.1XIX4XT.l.' H e , , , 5 f 5 5 f > f & & & & & & & & ; & & & & & & & & , & % % & & f & % # # % % % * # # + # # = * + = = # * = . * + . = 0 9 f 1 & > & 1 1 1 6 1 1 8 8 3 e e e i s s i L A.yX,X,X,X,XyX,XXXyX,X,X,XyXyXyXyXyXyXyXxXxXyXyXxXsXxXPXMXmXLXGXGXKXGXGX.X2.,.2.9.0.<.1.1.1.&.-.*.&.O.-.-.*.*.O.&.2.&.@.2.2.O.O.&.2.O.3.&.2.&.O.o.O.$.O.#.S k z g : : : - o 3 3 0 3 Z Z l L g ^ L l z  .~ 2 L L j L 3 l q o - o @ - o o o @ o : g : x S S 5.~ #.o.^ ~ ~ !.VXVXxXnXhXxXxXyX,X,X,X,X,XW.,X,X>X,XA.>XA.A.A.A.A.>X,X,X!.!.W.,X!.yXnXVXFXnXJXE.% 9 i r 8 6 s w 2 1 1 > & & % % < % & & & % ; > > > > 1 1 1 6 6 1 7 8 8 q u tXBXgXtXkXfXdXlXzXhXnXhXlXfXkXfXhXhXkXhXhXkXkXhXlXnXlXlXnXlXVXVXhXnXlXnXVXVXVXVXlXlXnXlXVXVXVXFXVXVXVXVXVXVXVXVXFXVXVXVXVXVXVXVXVXFXVXZXZXZXVXVXVXVXVXVXVXVXFXVXFXVXVXVXVXVXVXVXZXVXAXAXZXZXZXZXZXVXAXVXVXAXVXAXAXAXAXVXVXAXVXVXVXVXVXVXAXVXAXNXNXVXVXNXAXAXVXAXAXZXVXZXZXZXVXVXVXVXVXVX",
"] [ g.] ] ] g.g.g.g.g.g.] g.] g.h.g.h.g.g.g.k.g.h.( ( _ UXm.B.~.A.M.M.k.m.k.k.m.k.M.k.k.M.N.N.l.l.b.b.b.x.D.D.x.D.D.x.F.x.b.D.b.x.K.x.x.D.x.D.K.D.L.L.K.H.H.v.K.L.J.U.U.U.L.U.U.I.*Xv.U.*X*X7X7X7XI.=X:X7XY.Y.I.I.Y.7XY.Y.I.L.K.-XY.Y.K.Y.1XqXIXIXR.n.| m d 5 < e e 7 , f 6 ; f f & & & & f & f & & % & & & , ; & 1 & & > > 1 > & % % & % % # $ % % $ $ # # # # * = . * # # = * * . + % f f 6 f f 6 > & & 1 1 6 2 0 8 8 e e e v 9 l i i  .A.eX X,XyXXX,XyX,XyXXXyXyXyXtXtXyXyXaXyXyXtXxXxXyXxXyXPXPXMXSXKXGXKXKXZXGXjXC.,.0.9.2.1.1.1.1.1.=.=.=.3.-.&.*.&.3.$.&.$.&.&.$.O.&.%.3.....o.$.2.2.2.%.o.3.O.! o.! h c z g : - @ o o @ : q q :  .z z f q j ; ; f f ; - @ @ o @ o @ - - : - - g c h S S S 5.~ #.;.~ ~ >.aXnXnXxXnXnXxXyXyXyXyX,X,X,X,XW.,X>X(.>X>X(.!.A.(.>X!.A.(.>X!.,XW.,XE.yXxXxXPXSXiXK i r 9 8 i 8 p r 7 1 > > & % % % % % , % % 1 , , ; 1 > 1 1 1 1 1 ; f 2 0 9 q L tXZXuXfXkXkXgXfXhXVXhXfXlXlXlXnXkXlXlXnXlXlXlXlXlXhXlXlXVXhXVXVXhXlXhXhXlXlXVXlXnXVXVXVXVXVXVXVXVXVXVXFXVXFXVXVXVXVXVXVXVXVXVXVXVXVXFXVXZXVXVXVXVXVXFXVXVXVXVXFXVXFXVXVXVXFXVXVXZXAXZXZXZXAXAXZXZXZXVXVXVXVXVXZXVXVXVXVXVXVXVXVXVXVXAXVXVXzXNXNXzXzXAXzXVXAXVXVXZXZXAXZXZXVXVXVXVXlXVX",
"] g.] ] g.g.] g.[ g.[ g.g.;.g.g.g.g.g.h.g.g.k.g.g.' _ ] k.M.N.~.A.M.M.k.k.g.k.g.k.m.m.M.M.N.N.N.b.l.l.D.D.x.x.x.b.x.x.D.b.b.b.D.v.K.x.K.D.D.K.L.L.D.D.L.K.H.K.K.H.U.U.K.U.U.U.P.7XU.I.U.v.U.L.K.U.U.P.I.7XY.7XY.P.L.I.I.Y.Y.Y.Y.R.Y.;X:XIXR.l.n.H m e < < 5 d r 5 , , , & & & % > & & & & & & & & % & % & & % & & 1 1 & ; > 1 1 f % # # f % $ # % $ $ # # # + $ # + # * # # + # + # % 6 0 > % f & & & > & 1 1 1 1 1 2 e e e e t i i i i ~ !.yX,XyXXXyX,X,XyX,XyX,XyXeXyXyXyXyXyXiXyXxXyXyXxXxXyXxXuXPXSXSXKXGXKXJXGXGXlXOX0.%.8.t.1.&.<.4.*.&.4.*.=.-.-.<.$.O.&.$.&.&.$.$.2.2.<.2.&.&.&.<.2.%.&.2.&.,.o.$.,.D S Z z z : 3 : ; ; : - o o : o o o - @ o o o - o o o o - @ o - : 3 ; z 3 x S S D D ;.x ~ 3.~ ;.!.hXnXVXhXgXxXxXxXxXyX9X,X,X,X,X,X,X,X(.!.!.>X>X(.>X>X>X,X!.!.!.,X!.,X,X!.xXVXSXxXFXm.o s 9 0 8 a 8 w r 9 1 & 1 > % % % % % % & % & & & & , > 1 1 6 > > > > 1 6 0 9 8 Y C.kXkXfXkXgXVXfXjXzXVXlXlXlXlXhXVXhXlXnXlXlXnXhXhXnXhXnXnXhXhXnXhXnXlXlXlXVXVXVXVXVXVXVXVXVXVXVXVXFXFXVXVXVXVXVXVXVXVXVXVXVXVXVXVXVXVXVXVXlXVXVXVXVXVXFXVXVXVXVXVXVXVXFXVXFXVXAXZXZXZXAXZXVXVXAXVXVXVXVXVXVXVXVXzXVXVXVXzXNXzXVXVXVXVXVXNXNXzXVXzXAXzXAXAXAXZXZXVXAXVXVXZXVXVXVXVXVX",
"] ] ] g.] ] g.g.g.[ g.] ] ] g.g.g.g.g.h.g.m.k.g.] _ ( ] { l.B.B.A.M.m.k.m.g.g.g.k.k.k.m.N.l.l.N.l.l.b.b.b.x.x.b.x.b.b.b.b.D.b.b.x.x.x.x.K.x.K.D.D.L.L.D.J.K.K.H.U.U.U.K.U.U.U.U.U.U.I.I.*X*XI.I.<X-X=XI.Y.L.L.L.I.L.L.L.L.L.Y.Y.8X>XG.l.h.) m 5 5 5 5 e 8 f = * , , , 7 & & % & & & & % & & & & & % , & & & , , & & & & & & & , & $ # $ & & % # $ $ $ $ $ # # + + # # # # # + # . & 6 & > 6 ; & 6 > > & > 1 6 6 7 2 8 8 e e u e i s  .l _ ,XyX,X,XyX,XyXXX,XyXeXyXeXeXyXyXyXiXyXxXyXiXiXxXaXxXxXxXiXxXvXSXSXKXJXFXJXGXGXzX$XC.<.2.(.(.<.1.t.4.=.1.1.&.O.$.&.@.@.2.2.2.<.&.&.@.O.O.$.2.2.2.&.&.&.%.O.3.O.$.3.~ 3.o.o.D L x Z g z z g : : 3 - - : o - o - o - : o - o 3 - 3 j z g c L x S #.D ~ o.;.2.#.L >.sXVXhXxXnXxXxXxXyXXXyX9X9X,X,X,X,X,X,X,X>X,X!.!.A.>XA.>X(.,X>X!.,X,X,X,X,X,XSXVXVXFXxXa t 8 9 0 w i 7 0 9 w 0 & 1 1 % % % % , & % , & & & & & > 1 1 1 6 6 7 1 6 6 0 9 u q 2 E %XNXkXkXdXhXVXlXfXfXlXzXlXhXhXzXhXhXlXlXhXnXhXhXlXlXlXVXnXhXlXlXnXnXlXlXVXVXVXVXVXVXVXVXFXVXVXVXVXFXVXVXVXVXVXVXVXVXVXVXVXVXVXVXVXVXVXVXVXVXVXVXVXVXFXFXVXVXVXVXVXVXVXVXVXZXVXAXVXVXVXVXVXVXVXVXVXzXVXAXVXVXVXVXAXVXNXNXzXzXNXzXVXzXNXzXVXzXVXzXAXzXzXAXVXVXVXVXVXVXVXVXVXVXhXVX",
"g.] [ [ [ g.g.g.g.g.g.] g.g.g.g.g.g.h.g.g.m.k.g.] _ ( ] h.m.N.G.A.N.g.g.k.g.g.k.k.m.k.M.M.N.l.l.l.l.b.b.b.F.b.b.x.b.b.b.D.x.x.x.x.x.K.H.D.D.D.L.L.L.K.H.L.K.J.U.H.=Xv.U.U.U.U.U.U.U.P.P.Y.L.Y.T.U.L.T.L.Y.Y.I.L.D.D.I.I.Y.I.K.D.g.j.H d 5 5 5 5 5 5 f & f & 6 f , , 1 > , , & & & & & & & & f & & & ; , > > ; & ; > 1 > > & % + % $ $ $ & $ $ % $ $ # $ # # # # + # # # # + # # % 6 6 & % 1 6 & > > > > > 1 6 7 e e e e e e r t r p a s } yXyXXXyXXX,XyXXX,XyX,XeXXXyXyXyXyXyXxXyXxXxXyXyXyXxXgXpXxXxXxXxXSXSXVXJXJXHXBXAXHXfXoX,.2.2.2.2.2.2.=.1.*.=.=.-.*.-.O.O.&.&.2.2.2.O.D ....o.O.@.3.&.@.3.$.&.&.2.;.O.2.#.o.~ #.! D k k c z g : : g g : - : : : 3 : 3 3 - : l g k x S z ~ S o.;.! o.+.#.o.~ ;.oXVXVXgXnXhXxXxXyXxXyXyX,XyXyX,X,X,XyX,X,X,X,X,X!.!.!.!.!.>X!.!.,X,X,X,X!.,XW.,XSXFXLXJXB.> J 1 r 7 w 9 7 1 9 w 8 > > > & % % % % & % & % $ & & > 1 1 1 1 1 5 7 7 6 6 7 8 r 1 0 0 u 7.gXBXlXfXdXgXlXkXfXzXhXhXhXhXlXhXhXlXhXnXhXhXnXlXlXlXhXnXVXhXlXVXlXVXlXVXnXlXVXVXVXVXVXVXnXVXVXVXVXVXVXVXVXVXVXVXlXlXVXVXVXVXVXVXVXVXVXVXVXVXVXFXZXVXVXVXVXVXVXVXVXVXAXVXAXAXVXVXVXVXVXVXVXVXzXVXVXzXVXVXVXVXAXVXVXzXNXzXNXzXzXNXzXNXzXAXVXVXVXzXVXVXVXVXVXVXVXVXVXnXnXlXlXVX",
"g.] [ [ ] ] ] >.] ] g.g.g.] g.g.g.g.h.g.g.k.k.g.] _ ( ' g.M.N.B.A.M.k.M.k.g.g.g.g.k.k.M.M.N.N.N.l.b.l.F.b.D.D.b.b.b.b.b.b.x.D.x.x.x.D.H.K.D.L.D.K.L.L.L.J.U.U.U.U.v.=Xv.U.K.U.U.I.P.L.L.L.R.L.L.T.Y.Y.1XIXY.Y.Y.IXL.b.z.UXT P M 5 f f f 5 0 d 0 e 5 f & * & f f 7 , > , & > > > & & & & & & f & & 1 > > > > > 1 1 > 1 1 > % $ + $ $ $ % $ $ $ & $ # # # # # + # + # $ # # # $ % 7 & & 6 f $ & 7 1 > > > 1 1 6 7 8 8 8 8 2 e e e i t i a { xXyXyX,XyXyXyXyX,XyXyXyXyXXXyXyXyXaXyXxXyXxXsXxXxXyXxXxXiXiXcXxXSXSXSXJXFXFXJXHXAXAXAXaX(.>.2.9.2.2.t.4.-.&.4.*.-.*.&.O.O.@.&.2.1.=.@.&.&.3.O.o.O.O.-.o.3.&.O.O.3.O.O.O.o.O.5.O.D ! o.D ! Q x x S L x x z x g z x z x k k Q S x ! o.o.3.~ ;.3.#.O.! #.;.C.sXGXhXnXFXxXxXxXyXyXyXyXyXyX,X,XyXyX,X,X,X,X,X,X!.,X>X,X>X>X,X,X,X,X,X,X,X,X,XE.,XSXMXmXMXW i r 0 r 8 0 8 8 1 7 9 8 1 & & 1 % > & & & & % & & & & & > 1 1 1 > 1 6 1 1 1 7 7 ; u y 0 $ # R Z.lXkXkXlXzXzXlXdXhXhXhXhXhXhXhXhXhXhXnXhXlXlXlXVXVXhXVXVXVXlXlXVXVXlXlXVXlXVXVXVXVXVXVXVXVXVXVXVXVXVXVXVXlXVXVXVXVXVXVXVXVXVXVXVXVXVXVXVXVXVXVXVXZXVXVXVXFXVXVXFXVXVXVXVXAXVXVXVXVXVXAXzXVXVXVXVXVXVXVXVXVXAXVXNXzXNXzXVXzXNXNXzXzXzXzXVXzXAXVXVXVXVXhXVXVXVXVXlXVXlXVXlX",
"] ] [ [ ] ] g.] g.g.g.] ] g.] g.g.h.h.h.g.m.k.g.] _ ( ' { m.N.B.A.N.M.g.g.g.g.g.g.k.k.k.M.N.N.N.b.l.D.b.D.D.D.b.K.b.b.K.K.b.b.D.x.x.D.D.D.K.K.K.L.L.K.K.U.U.U.U.=Xv.v.=XL.U.U.L.L.R.P.T.R.Y.Y.T.Y.R.R.D.l.n.h.` U P m m m m < m d 0 0 d 0 f f % , 1 7 6 f ; & % , , , , > 1 > > > > > > & & > > & & & 1 > , 1 & 1 1 > > % $ $ + $ # $ $ $ $ $ % # # # # # # # # . # # # # % & 6 6 % & 6 7 % & 6 > f > > 1 6 0 7 2 8 1 8 8 e e u i r p s >.nXyX,XXXyXyX,XtXyX,XyXyXeXyXeXyXyXgXxXsXxXxXxXxXyXxXxXxXiXxXxXxXSXSXSXSXKXKXKXHXHXHXHXGXhXoX2.,.(.t.&.1.1.=.=.=.-.=.e.2.&.3.&.-.2.2.&.3.*.2.1.&.3.3.@.O.3...5.O.o.O.O.$.$.3.o.3.o.O.$.,.O.#.#.#.! D D ~ D o.D ..O.! ! ! +.! o.! O.,.3.O.3.#.O.;.#.#.7.tXVXBXnXVXxXtXxXyXxXxXyXyXyXyXyXyXyXyX,X,XyX,X,X,X,X,X,X,X,X,X,X,X,X,X,X,X,X,X,X9X,XeXSXxXSXE.9 K 1 i i 9 0 7 8 6 0 8 9 7 & & > > > % , % & % & & & & > & 1 > 1 > > 5 1 > 6 > 7 w 6 7 8 1 1 2 % /  XAXlXsXkXzXfXhXhXhXfXjXlXhXhXhXhXnXnXnXnXlXlXVXVXVXlXVXVXVXVXlXVXnXhXhXlXVXVXVXVXVXVXVXVXlXVXVXVXnXVXlXVXVXVXVXVXVXVXVXVXVXVXVXVXVXVXVXVXFXVXZXVXZXVXVXVXZXVXzXVXAXzXVXVXzXVXVXVXzXVXzXzXVXzXVXVXzXzXVXzXAXNXzXzXzXzXzXzXzXNXzXVXzXNXzXNXVXNXVXVXVXnXVXVXVXnXVXlXnXVX",
"] g.[ ] g.] ] g.g.] g.] g.] g.] g.h.] h.g.g.g.g.] ( ( ] g.M.N.B.S.S.M.g.g.g.g.g.g.k.k.k.m.l.N.z.l.b.b.F.D.b.b.D.K.b.b.b.b.b.K.b.x.D.D.K.K.D.L.D.K.K.K.K.H.U.U.U.U.U.U.U.L.K.L.R.L.R.T.T.R.S.n.n._ ) H m m d 5 e m < e < < 5 e < f f f f f f & 6 1 > & & ; f ; f , , , , 1 1 > & 1 f 1 > f > > > & & & & , > & & > > % % $ $ $ $ $ # # $ $ $ $ * $ # # # + # # $ . # # $ $ & 0 9 & f 6 1 f 6 > % 6 1 6 1 > 0 0 8 8 8 e e e r t y a i a s m.nXxXyXyX,XyXyX,XyXyXyXyXyXeXyXyXyXyXxXxXyXyXxXxXgXxXxXxXiXxXxXxXxXxXnXSXKXKXKXJXJXJXHXGXZXVX#XC.,.2.2.2.1.4.*.6.*.3.=.=.&.&.=.2.&.-.2.&.-.O.@.&.2.&.@.1.2.x 3.2.O.3.,.o.3.o.O.O.#.O.%.$.o.$.O.$.#.$.o.;.3.o.#.,.O.2.o.! o.o.$.$.;.3.#.;.O.#.,.! #.oXfXVXMXVXkXiXnXMXyXyXyXyXyXyXyXyXyXyX,X,XyXyX,XyXyX,X,X,X,X,X,X,X,XXX,X,X,X,X,X(.,XyX!.9XmXuXDX] 9 a i r 9 9 8 7 6 7 6 0 9 7 $ $ 1 % % & % % % % % & & & & & > > > , > > 1 > f 6 6 & 9 r 8 2 % % 2 % y 7.kXAXgXsXzXkXlXhXhXlXlXjXhXhXnXhXhXlXhXlXnXVXhXVXlXVXlXVXlXVXVXnXhXhXVXVXlXVXVXVXlXlXVXVXlXVXVXVXVXVXVXVXVXVXVXVXVXVXVXVXVXVXVXVXVXVXVXVXVXZXVXVXVXVXVXVXVXzXVXzXVXVXVXVXVXzXVXVXVXVXVXzXVXzXzXzXzXzXzXzXzXNXVXzXNXzXNXzXNXVXzXNXzXVXzXzXVXVXVXVXhXVXVXVXVXVXVXVXVX",
"] g.] ] ] ] g.] ] ] g.] ] ] g.] h.] h.[ g.g.g.g.] ( _ ] { m.N.B.A.M.M.g.g.g.g.g.g.k.k.k.M.N.N.N.l.b.b.b.D.D.D.b.b.x.D.x.D.x.x.c.F.D.D.x.x.F.L.K.D.K.K.L.U.x.x.P.=XK.H.J.L.T.T.T.L.z.[ ) H m m < 5 5 5 5 d 5 d 5 < e 7 7 7 5 > 7 6 6 f 1 & ; > & & 1 > > > 6 > > , 1 , 1 1 1 1 1 1 1 1 & > & & & 1 1 & & 1 1 & 1 1 $ $ , $ + + > + # # # # % # . . $ $ + . + # # + O + > 2 , , 1 6 > 1 & & > 1 1 6 > 6 1 0 7 8 8 8 8 8 e e e t e a n w I B.PXuXpXXXyXyXyXeXyXyX,XyXyXyXyXyXyXyXxXxXyXgXxXxXxXxXgXxXhXxXxXxXxXxXxXMXSXFXKXKXJXJXJXJXJXGXVXfX.X2.! 9.2.2.2.=.4.=.=.&.3.&.2.-.1.2.=.2.-.3.-.-.=.=.1.1.O.$.2.=.&.2.&.&.@.&.@.3.$.&.&.$.o.5.! @.&.$.O.O.O.&.$.$.$.O.o.o.O.@.O.O.O.O.3.~ ~ ~ #.Z.lXAXkXVXnXMXxXxXyXiXyXyXyXcXyXcXyXyXyXyXyXyXyXyXyXyX,X,X,X,X,X,X,X,X,X,XXX,X,X,X,X,X,X,X>XjXyXDXQ.9 a 0 i i w 0 w 0 8 1 7 1 r 9 % > & & % % % % & & 1 & & % 1 % 1 % 1 & & f & > > 5 0 8 1 1 7 2 $ $ 1 2 % 1 Q !.zXNXdXkXlXfXfXhXjXjXlXhXhXlXnXnXnXhXhXhXnXVXnXlXlXnXlXVXlXlXlXlXlXlXVXlXVXlXVXlXVXVXVXVXVXVXVXVXVXlXlXVXlXlXVXVXVXVXlXVXVXVXVXVXVXVXVXVXVXVXVXVXVXVXVXzXVXzXVXVXVXzXzXzXzXVXzXAXzXzXzXzXAXzXNXzXzXNXzXzXAXzXzXzXNXNXzXzXNXlXVXlXVXVXVXVXlXVXVXVXVXVXVXVXVXVXVX",
"] ] ] g.] ] ] ] ] g.] g.g.] g.] ] h.] h.g.g.g.h.] ( ( ] { M.B.A.A.N.k.k.g.g.h.g.{ k.k.k.k.M.N.N.b.l.~.D.b.D.D.D.x.x.D.D.x.b.x.~.c.F.L.R.L.L.D.D.L.L.x.z.H.P.U.K.x.J.T.;XR.l.[ ` m d 5 < < 5 5 5 d 5 5 5 5 8 5 0 5 e 7 7 1 7 1 , ; 1 & > & f > > & > > > > > > > 1 1 1 , 1 1 1 1 > 1 1 > 1 1 > 1 > 1 1 & 1 & 1 1 , $ + % $ + + % $ % $ + # $ $ # # + + + # # # + + $ , > , 1 2 , > > 1 & 1 1 1 1 & 6 f 6 7 7 7 8 e 8 8 8 e e u t t t t K ~.MXxXuXyXyXyXyXyXXXXXyXXXyXyXyXyXyXyXaXxXxXyXxXxXxXxXxXxXxXxXxXxXgXhXxXMXSXSXFXKXKXJXJXKXKXHXGXAXlXXX].D 2.2.4.&.3.=.=.1.=.2.=.2.=.=.*.3.-.*.1.*.-.2.4.&.O.&.*.O.@.*.2.<.&.&.2.&.&.<.$.o.o.o.o.O.O.$.$.O.D O.2.<.$.O.&.3.$.&.$.#.O.O.~ ;.o.V.jXAXkXgXAXnXvXPXxXiXxXyXiXxXyXxXcXyXyXyXyXyXyXyXyXyXyXyXyXyXyX,XyXyX,XyX,X,X,X,X,X,X>X,X,X,X(.jXgXvX} i i r i u 9 9 0 8 0 > 0 > 8 9 1 & > % > % % % & & & & & % 1 1 % % 1 < & & < > f 1 1 8 7 8 w 8 1 & > @ e e @ e 7.#XAXkXaXdXlXzXzXzXlXhXnXhXnXhXnXhXnXhXlXlXVXnXlXnXnXlXVXVXlXVXVXVXlXVXlXVXlXlXlXlXVXlXlXVXlXVXVXVXVXVXVXlXVXVXlXVXVXVXVXVXVXVXVXVXVXVXVXVXVXVXVXVXVXVXzXVXVXVXzXzXlXzXzXzXzXzXzXzXzXzXzXNXzXzXzXNXzXAXzXzXAXAXzXzXNXNXlXNXVXlXVXlXVXVXVXVXVXVXVXVXVXVXnXVXVX",
"g.] ] ] ] ] ] g.g.] g.] g.] ] ] h.] ] h.h.g.g.h.` | ) ' { k.B.B.A.M.g.g.g.h.g.g.UXk.k.k.k.l.N.z.V.b.l.D.D.D.D.D.x.D.D.l.c.R.R.F.F.c.z.l.F.D.D.Y.l.K.L.L.K.D.D.R.8XT.l.` H m < < < < < < < 5 < < 5 7 0 0 6 6 7 7 e , e , 1 ; 1 1 & & > % & % > > & , > > > , > > 1 1 1 1 1 1 1 , 1 1 1 1 1 1 1 1 1 & > > & 1 1 1 % $ + + $ $ + + $ $ # + # $ $ # % + O $ $ + O # $ 1 7 > , 1 1 , > > 1 1 1 1 1 1 f > 6 7 8 8 8 7 2 1 2 e e e e t p w s K E.MXuXMXyXyXaXyXyXyXeXeXyXyXyXtXyXyXyXxXyXxXgXxXxXxXxXhXxXnXnXxXxXxXxXxXvXMXMXFXKXJXGXJXKXKXJXJXJXHXVXdXXX#.2.(.2.2.2.2.2.4.=.=.=.3.3.=.4.2.&.=.4.4.4.3.O.@.2.&.X.O.=.=.2.2.&.*.&.2.&.@.-.$.&.&.@.@.3.&.@.$.2.2.3.$.$.2.3.#.3.#.$.O.Q x 2.aXVXnXhXJXKXgXxXxXxXiXxXyXxXyXxXyXyXxXyXyXyXyXyXxXyXyXyXyXyXyXyX,XyX,XyX,XyX,XXX,X,X,X,X(.,X,XQ.yXxXhXeX8  .d i w w d w 8 0 7 1 1 1 1 w 8 # > , & , % & % & % 1 1 % & & 1 1 1 & & & & > > > 1 7 6 8 w w 1 & % % + 1 2 1 @ T ~.AXzXlXlXdXdXzXdXnXhXnXhXnXhXhXlXnXlXVXnXVXlXlXnXlXlXVXVXVXlXVXlXlXlXlXlXlXVXlXlXlXlXVXVXVXVXVXlXzXlXlXlXhXVXVXVXlXzXzXzXVXVXVXVXVXVXlXVXlXVXVXlXVXzXzXVXzXzXzXzXlXlXzXzXzXzXzXzXzXzXzXzXzXzXkXzXzXAXAXzXzXzXzXzXzXzXVXhXlXVXVXVXVXVXVXVXVXZXVXVXVXVXVXVX",
"] ] ] ] ] ] ] g.] ] ] ] ] ] g.] ] h.] ] [ g.g.] _ ( _ ] { k.B.B.N.M.k.g.g.g.h.g.{ h.k.k.k.N.N.N.l.b.b.D.D.b.b.D.D.b.b.F.~.R.n.[ ` T H ) | j.l.~.R.F.F.F.R.T.F.z.) I d < < < < 5 5 5 7 5 5 5 5 7 f 7 f 6 0 f 1 f , , , , & ; 1 1 1 < > & > > > > & 1 > < > > > > 1 1 1 1 1 1 1 1 1 > > 1 1 1 1 1 & , & & 1 & & 1 & & $ @ $ & & # + + # # # # # + # # $ $ + . + > > 7 2 1 , 1 1 1 & > 1 1 1 1 1 1 & & 6 7 7 8 8 8 1 e 2 e e u r t a p N b B.mXiXDXxXxXyXyXyX,XeXyXyXyXyXyXyXtXyXyXxXyXxXxXxXxXhXxXnXnXnXxXhXhXxXhXxXxXMXmXSXFXFXFXKXJXKXKXJXHXGXVXhXlX0.#.9.2.&.&.-.&.=.3.2.=.1.3.=.=.2.4.=.3.=.=.3.&.2.-.3.&.-.X.*.&.&.&.&.&.&.O.&.&.$.3.&.&.&.-.&.&.1.2.2.2.$.o.#.2.2.o.x S ,..XSXnXVXVXMXuXPXSXxXxXxXiXyXyXxXxXxXxXxXcXxXyXxXxXgXyXxXyXyXyXxXyXyXyXyXyXyX,XyXyXyX,X,X,X,X,X,XyX!.yXxXxXg.8 l 0 i 9 w u r 7 0 7 1 > 1 & 9 9 + ; % & ; , % & % & % % 1 % % , % & f & f & & f > > > > 7 w 8 0 & $ 1 $ @ 1 2 % 1 3 } gXAXtXfXzXfXlXhXhXhXlXlXnXnXhXlXlXlXnXlXnXlXlXlXlXlXVXlXVXlXVXVXlXVXlXlXlXlXVXVXlXlXVXVXVXVXlXlXlXlXhXlXlXlXlXVXzXzXVXzXzXzXVXVXVXVXlXzXVXlXVXVXzXVXzXzXVXzXzXlXzXzXzXlXzXAXzXVXzXzXzXkXlXzXkXzXAXkXzXzXzXzXzXlXlXlXlXNXVXlXVXVXVXVXVXVXVXVXVXVXnXVXnX",
"] ] ] ] ] ] ] ] ] ] ] ] ] ] ] g.] [ [ h.[ [ { [ ' ( ( ' { m.N.B.N.m.g.g.g.g.[ g.UXk.k.k.l.7.V.~.l.l.F.b.b.b.~.D.F.c.b.D.c.) m m e 5 5 m m m ) ) l.~.Y.R.S.n.H d < , , < < < , < = & < f > f f 6 6 f 1 > > & & & & & & % & & f & > , > , > > 1 1 > > > > > 1 > > 1 1 1 , 7 , , 1 1 1 1 1 1 1 & 1 > > > > > > > > > & $ + # & & # $ # # # # # # # O # % + + # , 7 2 > % > 2 , , , 1 1 , 2 2 1 1 > f 6 6 6 7 8 8 9 e 8 8 e e t y y y N v N 7.MXiXmXxXxXyXyXyXXXeXyXeXyXyXyXyXyXyXyXyXgXyXxXxXxXhXnXMXMXnXnXSXnXnXxXSXxXSXnXMXSXFXFXKXJXJXJXKXJXJXJXZXsXzX`.#.,.2.2.*.3.3.&.-.=.3.=.3.=.=.=.=.3.=.=.-.-.=.=.=.3.=.3.&.-.-.*.3.-.&.&.O.O.O.3.-.&.-.2.2.O.$.&.2.$.2.2.,.#.L ~ 2. XlXAXVXSXSXMXMXMXxXiXiXxXxXiXiXxXxXxXxXcXxXxXxXxXxXxXxXyXxXxXyXyXxXyXyXyXyXyXyXyXyXyXyX,X,X,X!.,X,X,X!.xXMX,X . .i i i w 9 r r 8 0 7 1 > 1 & 7 r $ 1 & & & % & & % & & & & % % % , & & f ; f f > ; f 6 6 6 7 0 0 1 $ = & % + $ q 8 % 6 l !.ZXhXsXnXgXnXhXnXlXlXnXlXlXlXnXnXnXnXlXhXnXlXlXlXlXVXlXVXlXlXlXVXlXlXVXlXlXVXlXlXVXVXVXlXhXlXlXlXlXlXVXlXlXzXVXVXlXlXzXzXzXlXVXlXVXlXzXzXzXzXzXzXzXzXVXVXzXzXzXzXzXzXhXzXzXzXAXzXzXzXkXzXzXzXzXzXzXzXzXkXzXlXlXlXlXVXlXVXVXVXVXVXVXVXVXVXVXVXVXVXVX",
"] ] ] ] ( ] ] ] ] ] g.;.] ] ] ] ] j.] ] [ k.{ [ ' ) ) ] h.m.N.N.N.m.g.g.[ [ [ g.h.UXk.k.m.l.l.l.F.b.l.F.F.D.b.D.F.L.~.n.V e < e y v b b m m 5 e | l.N.T d 5 < 5 < < $ $ , < 1 , 6 6 6 6 > > ; & > > > > & & & % & & & & & & f & > > , > > , f > 1 > > 6 1 > 6 6 1 1 1 2 , , 2 , 2 1 2 1 1 & , ; > > > > > > 1 > 1 1 $ + # % % # 6 & # + . . # # O + O . $ 7 8 7 7 % % > , , , 1 1 1 1 1 > 1 1 > 6 6 6 6 7 8 8 w 2 8 e e r r y y r n p I [ MXiXMXSXxXxXyXyXyXyXyXyXXXyXyXyXyXtXyXyXyXyXxXxXxXnXxXSXSXSXSXSXSXSXnXnXMXMXMXvXSXVXSXKXKXJXJXJXJXKXJXJXVXlXAXXX,.2.2.4.1.-.-.&.3.=.=.4.=.-.3.=.4.=.3.=.=.=.3.3.4.3.=.2.&.2.-.&.3.&.&.&.&.&.&.&.&.2.1.1.&.&.2.&.&.$.&.~ #.2.oXiXVXZXnXSXMXvXMXMXMXxXxXiXiXiXiXiXxXxXxXxXxXxXxXxXxXxXxXxXxXxXxXxXxXyXyXyXyXyXyXyXyXyXyX,X,X,X!.(.,X,X,X,XxXnXg.q  .i s i w 9 w 9 9 7 0 6 & > > 1 9 2 , > & & % % % , > & $ & % ; , & > & f 6 f 1 f f & 7 7 7 7 0 9 2 % $ # & f 1 $ % 2 ; ; l V.gXnXgXhXnXhXnXlXnXlXnXnXVXVXlXlXlXnXnXhXlXlXlXhXhXlXlXVXVXlXlXlXlXlXlXlXlXVXlXVXlXlXlXlXlXlXlXlXlXzXzXlXVXzXzXlXlXVXVXhXlXlXlXlXlXlXlXVXVXzXhXVXzXzXzXzXzXzXzXzXzXzXzXzXAXzXzXzXzXzXlXzXlXlXzXzXzXzXzXzXkXlXlXlXhXVXVXVXVXnXlXVXVXVXVXVXVXVXSXVX",
"] ] ] ] ] ] ] ] ] ] ] ] ] ] ] ] ] ] [ ] h.g.[ [ ' _ | ] [ k.N.N.N.m.g.h.[ g.g.g.UXUXl.UXm.l.l.F.l.F.b.F.b.F.D.D.l.~.n.m < < m m u y v v y y e e 1 m m , < 7 5 , , , , , , , $ + % ; & ; 1 1 1 6 & , < & & , & , > < < & < > < > > > > > > > ; f 6 1 6 6 7 6 1 7 1 1 1 2 7 2 1 1 7 7 8 1 1 1 1 2 0 1 6 > 1 1 1 1 1 1 , % * $ $ $ 6 & $ # # # . $ + + + $ f 8 8 > 1 > , 1 7 1 1 7 1 1 1 1 1 1 1 1 6 7 0 8 8 8 8 8 8 8 e e r u t y t t a ' m.iXvXMXSXxXxXyXyXyXyXtXyXtXyXyXtXyXyXtXyXyXiXgXxXxXxXxXSXxXSXSXSXSXSXSXnXSXSXxXSXnXSXVXFXFXJXKXKXKXKXKXKXJXAXtXVXjXC.$.1.=.=.=.=.=.3.3.3.=.4.4.3.3.-.-.3.=.3.=.3.3.=.4.=.-.=.2.3.3.&.3.&.*.2.&.&.3.3.*.3.$.&.2.2.2.$.x C. XfXVXVXBXSXDXSXSXMXxXcXxXPXxXiXxXxXxXxXxXxXxXxXxXxXxXxXxXxXxXxXxXxXxXxXxXyXxXyXyXyXyXyXyXyXyX,X,X!.>X>X,X,X!.,XnX,XW  .l q i i u 9 9 9 w 7 1 6 & 1 1 & 7 t & 1 % $ % % , > > & & & & & & > > f 6 ; 0 6 f f f 0 0 7 6 0 d 0 % f 6 f # = % & & & w ; @ ( XXVXVXlXnXhXnXlXnXlXnXnXlXlXnXnXlXnXlXlXlXlXlXlXlXlXVXlXlXlXlXlXlXlXlXlXVXlXlXVXlXlXhXlXlXzXzXVXzXzXVXlXVXzXVXlXlXVXlXzXzXlXlXlXlXlXlXzXhXzXhXzXzXzXzXzXzXzXzXzXlXzXzXzXzXkXzXlXzXlXkXkXzXzXzXzXkXlXlXkXlXlXkXlXVXnXVXVXVXnXlXnXVXVXVXVXVXVXVX",
"] ] ] _ ] ] ] ] ] g.] ] ] ] ] ] ] ] ] ] { h.n.[ ' | ) ] h.m.N.N.N.k.g.g.[ [ [ g.{ UXUXUXn.V.V.UXF.b.l.b.F.D.F.F.Y.` m 5 e e e e u M v y u m m 7 7 5 , 1 5 % % 1 $ , % % , , 1 , % & % % & ; & & % % , & & > < , % > > > > > 5 > 6 > 6 > > 7 1 1 6 f 6 6 7 8 1 1 7 2 1 1 , 7 2 7 7 7 1 1 8 8 1 2 7 7 7 6 2 1 6 1 0 1 2 1 % $ # # # # $ % % $ . # # = $ 6 7 > > > > 2 8 1 , 2 7 2 2 , 1 , 1 1 1 2 6 0 7 8 8 8 7 8 8 8 e e e r u t a i C { ~.pXMXvXSXVXnXxXyXxXyXyXyXyXyXyXyXyXyXyXyXyXyXyXxXxXxXxXvXxXSXSXSXSXSXSXSXVXSXSXSXMXSXSXBXBXFXKXKXKXKXJXKXKXJXHXfXlXzX.X&.2.1.4.=.3.=.=.=.=.-.=.=.4.=.-.3.=.=.3.=.3.=.3.3.3.3.3.&.&.2.3.2.3.3.3.&.2.2.2.2.2.2.,.~ ! 0.aXjXnXVXnXSXBXSXMXMXxXxXxXMXxXxXxXxXxXxXnXvXMXSXxXvXvXSXxXxXxXxXxXxXxXxXxXxXyXxXyXyXxXyXyXyXyXyXyXyX!.,X,X,X,XXX,XyXVXM.q L  .i i d i r 9 9 r 8 1 2 1 & 7 % 1 s % & & % $ % % > > ; 1 1 > & 1 > 1 ; f f f 6 1 6 6 0 0 6 6 9 d 0 & & % $ $ % > ; % & * 6 2 ;  .A.VXlXlXnXhXhXnXlXlXnXhXlXhXnXnXnXVXhXlXlXlXlXVXlXVXlXlXlXlXlXlXVXVXlXhXlXVXlXlXVXlXVXzXzXVXVXVXlXVXlXlXlXlXlXlXlXlXVXVXVXlXlXVXlXlXzXzXhXzXhXhXzXhXhXhXzXzXlXzXzXzXzXkXzXzXhXlXzXzXlXkXzXzXzXzXkXlXlXzXzXkXlXlXVXlXVXlXVXVXVXVXVXVXnXVXnXnX",
"] ] ( ] ] ] ] ] ] ] ] ] ] ] ] ] ] ] ] ] ] g.g.] ] ( ( ] g.M.M.A.N.M.g.g.h.h.h.h.;.h.[ g.k.l.l.l.D.z.H.S.D.S.S.R.` r < e d e t t b t t a a 9 0 6 6 > > > & % % $ & & > 1 & & & f > 1 ; f f % & & % & , % % > > % % , > > > > > > 1 > 6 6 6 > 6 6 f 1 7 7 7 6 f f 1 1 8 1 8 1 8 8 8 7 0 8 8 9 8 8 8 2 1 1 e 1 e 2 8 0 0 6 1 & % = . = > 1 + o # % + & 1 < , , 5 7 5 5 5 9 f 1 8 2 2 2 , 1 6 0 5 6 1 0 8 7 7 8 8 5 e e e e e e y y y y P UXIXpXPXMXDXSXSXcXiXiXiXyXyXyXtXyXyXyXyXtXyXyXyXyXxXxXxXxXxXhXMXSXVXSXSXVXSXDXFXSXSXSXSXSXSXSXSXKXKXKXJXJXKXHXJXJXHXPXgXAXaX<.,.9.4.1.4.2.3.3.f.3.=.3.=.=.4.f.3.f.3.=.3.=.=.-.3.=.=.-.3.*.3.3.3.-.3.3.&.&.2.2.#.;.C.dXzXgXmXCXCXmXCXmXMXvXMXvXvXvXxXxXxXxXvXvXvXbXSXSXSXxXSXvXvXvXvXxXvXxXxXxXxXxXxXxXxXyXyXyXyXyXyXyXyXyX,X,XG.,X,XyX9XQ.yXuX| n b e e e u u 9 9 8 8 7 0 > & & 1 1 1 7 w % 1 % # > & % 1 > > & & 1 & & & & > 6 6 6 > & 1 0 7 9 8 9 9 0 & % % & % $ $ % % 1 % $ > 0 > s } kXgXmXkXgXgXVXgXhXNXzXlXhXhXVXhXnXnXlXlXNXlXlXzXnXNXlXlXnXlXVXVXnXlXlXVXVXlXlXlXlXVXlXVXVXlXVXhXhXlXlXlXVXhXVXVXlXlXVXlXlXVXlXVXlXlXlXlXlXlXlXVXhXlXlXlXlXlXlXVXhXhXhXlXhXhXVXlXzXzXVXVXhXzXlXlXlXNXlXNXVXVXVXNXVXlXNXNXVXBXVXBXVXVXSXVX",
"] ] ] ] ] ( ] ] ] ] ] ] ] ] ] ] ] ] ] ] ] g.g.] ] ( ~ ] g.M.A.M.N.k.g.h.g.] g.h.g.g.g.g.g.l.k.l.n.v.l.z.S.J.R.( d 5 r n n d d r n a i i w 7 > > > > & & % & & & & f f & & & & f & f f > & & & & % & & & & , > , > > > > > > 1 1 6 > 1 f 1 6 6 6 6 7 7 0 7 7 7 7 8 1 8 8 8 8 8 8 8 8 8 8 9 9 9 q 8 8 e 2 1 e 8 8 8 7 7 7 6 6 & % % = $ + * w 0 O $ < 1 5 5 , 6 6 0 5 f f 8 r q 2 ; 2 2 e 6 0 7 8 a 2 ; 8 9 5 5 d m 5 5 m e e e y y y V UXIXeXxXbXSXDXSXbXxXxXxXpXxXyXxXyXyXyXyXyXyXyXtXyXyXyXxXxXxXxXMXSXSXSXVXSXFXFXFXSXFXFXFXSXSXSXFXDXKXKXJXJXJXJXKXJXJXFXmXMXAX#XC.;.<.t.t.4.f.f.3.f.=.=.4.4.3.3.f.3.4.3.=.3.3.-.-.3.3.-.3.3.3.=.3.3.2.2.,.2.S ! V.fXZXsXuXFXCXmXDXCXmXMXMXMXPXvXuXuXxXxXvXvXSXvXSXSXSXSXbXSXvXvXSXvXSXSXvXxXxXxXxXxXxXxXxXxXxXxXyXyXyXyX,X,X,X,X>XE.,XpXQ.!.mXG.v t b e e e w 9 9 8 8 0 6 0 1 & & 1 1 > 7 9 & > & % & % % 1 > > 1 > & 1 1 & > > > > 1 > 1 1 1 0 7 7 8 8 8 1 % % % % % % % & + % , 2 1 % & 9 J %XAXuXNXBXnXNXlXnXlXlXVXVXVXhXhXhXnXlXnXnXzXnXzXkXNXnXlXVXVXVXVXVXVXlXlXnXlXnXnXlXVXlXVXlXVXnXlXlXlXlXhXlXhXVXlXlXlXlXlXhXhXhXVXlXlXlXlXlXlXlXlXhXhXlXhXVXlXlXhXlXVXhXVXhXhXVXVXzXhXhXVXhXlXlXlXkXlXlXhXVXhXNXNXNXlXnXVXBXVXVXVXVXnXVX",
"] _ ] ] ] ] ( ] ] ] ] ] ] ] ] ] ] ] ] ] ] g.g.g.] ( ( ] g.2.M.A.N.M.} h.] } g.;.g.g.g.g.l.k.l.M.z.z.c.z.F.F.` d 6 e n t e t n r i a i 9 2 1 1 & , & % & & & > > & & > & & & & & & > > > & & & & % & & > > > > > 1 1 > > > > > 1 > 1 1 6 6 6 6 6 7 7 7 8 8 8 7 7 1 8 7 e 8 8 e 9 9 9 w 9 r 9 9 e e e 8 8 e 8 e e 9 8 8 8 7 8 6 & , + + $ O ; 8 # % , 5 7 5 1 , 5 7 5 6 9 e ; - ; : : 4 - ; - ; ; - 3 q 2 2 w d f e d e e e e y y n v P UXyXyXcXvXSXDXDXbXxXxXxXpXxXyXyXyXyXyXyXyXyXyXyXyXyXxXxXgXhXnXnXnXSXSXSXFXFXFXKXFXFXFXFXFXLXLXDXFXKXKXKXJXJXJXJXHXJXJXKXnXgXGXVX].;.$.1.t.4.4.4.4.4.3.-.3.3.f.f.4.f.3.4.3.=.3.3.4.=.2.3.X.3.X.O.3.3.2.<.S 0.tXZXgXrXBXHXDXDXCXCXMXMXMXMXvXxXPXvXvXvXvXvXSXSXSXSXSXSXvXSXSXSXSXvXSXvXvXvXSXnXxXxXxXxXxXyXxXxXyXyXyXyXyXyX,X,X,X,XG.yXyXW.IXvX' v n b n e r u 9 0 9 7 7 6 1 1 1 > 1 & 1 1 7 1 & 1 1 & @ & & > 1 & 1 > 1 ; > 1 ; 1 1 & > 6 1 6 0 8 7 8 9 9 8 & & % % % & & & @ & % $ , 1 % % 0 9 V.GXVXsXnXlXVXVXhXhXhXhXjXfXnXhXnXhXlXzXlXlXnXnXlXnXlXVXnXVXlXVXlXVXVXnXlXlXlXlXlXlXlXlXVXhXlXhXlXlXVXhXlXlXhXhXlXlXlXlXhXhXlXlXlXlXlXlXlXhXlXlXlXlXhXhXhXVXVXlXlXhXhXlXlXlXVXzXnXlXhXlXlXhXhXhXhXnXlXnXnXlXVXNXNXNXSXVXVXSXVXnXnXSX",
"] ] ] ( ] ( ] ] ] ] ] ] ] ] ] _ ] ] ] ] ] g.] ] ( ( ( ] g.M.M.M.M.k.g.h.h.] h.h.g.g.g.g.g.k.g.l.z.l.c.S.F.[ < 0 m t r e e n n r i s a 9 & & & & 1 > > & & & & & & & & & & & & & & > 6 > > & & & & & ; f > > 1 > 1 1 1 > > 1 1 1 6 6 6 6 6 6 6 0 7 0 8 8 8 7 7 0 8 2 e 7 e 8 9 w 9 9 r r 9 9 r r e e u e e e 8 e 0 8 8 8 9 8 0 7 > O % 1 O $ 0 ; > > > 5 > > 7 , 6 0 0 0 2 - 4 k A S ! ! ~ ~ x j 3 : 3 q q 1 0 w e 5 e e t t t y v n T m.pXyXyXvXbXKXDXSXPXxXxXxXyXxXgXxXxXaXyXyXyXyXtXyXaXyXyXxXxXxXxXnXSXSXFXSXFXFXFXKXKXFXFXFXFXKXKXFXKXKXKXJXKXJXJXHXKXJXJXKXFXgXVXGXXX,.#.<.4.a.a.a.4.4.=.4.3.4.3.4.=.3.3.2.3.=.3.=.3.3.3.2.3.=.2.2.$.! ,.dXZXhXaXgXGXFXmXmXDXmXmXMXMXMXvXMXvXvXMXMXvXvXbXSXSXSXSXSXSXSXSXSXSXSXSXSXvXSXvXvXxXxXxXxXxXxXxXxXxXyXyXyXyX,X,X,XW.W.,X,XcX9X,X9X~.P V m v v r e w w 9 0 8 7 7 6 1 1 1 > 1 1 2 6 8 % & 1 & $ , & 1 > > > > > > > 1 & 1 1 > 1 > 6 0 8 8 9 8 8 9 9 1 & % & & % % $ $ 1 $ + $ 1 2 6 9 8 2 / pXZXgXVXnXlXVXVXlXfXhXVXhXhXhXhXhXlXlXlXlXhXhXVXlXVXVXlXVXlXVXlXhXVXhXVXlXVXnXVXVXnXhXlXlXVXlXlXlXlXlXlXhXlXlXlXlXlXhXhXhXlXlXlXlXhXlXhXhXhXlXhXVXhXhXlXhXhXhXVXlXlXlXlXzXzXlXlXhXlXkXlXhXhXVXhXhXVXlXVXlXlXNXNXVXVXVXVXnXVXVXnX",
"] ] ] ] ( ] ] ] ] ] ] _ ( ] ] ] ] ] ] ] ] g.g.] ( ( ( ] g.M.M.M.M.M.g.h.} h.] ] g.g.g.g.g.g.l.l.l.S.l.F.n.d 5 d m e e t v v v v a s p 8 & & 1 & 1 1 1 & & & & % & % & & > & , % > > > > > & & > 1 > 1 > > > 1 1 1 1 6 1 1 1 1 1 6 6 6 7 6 7 7 0 8 0 8 8 8 0 8 8 7 7 e 7 2 e e e 9 9 q r w 9 w r u t e u u e e 9 9 9 9 9 d 8 7 7 7 , , , % v  .% > 5 , 5 5 8 1 2 ; i 3 @ q Z ~ #.0.0.2.,.$.%.<.2.+.Z g 3 4 2 3 9 e 7 e e e v t t t b | B.gXpXeXvXSXDXKXSXvXxXPXvXxXxXyXyXiXsXyXtXgXyXyXyXaXyXyXxXxXnXxXSXSXSXSXFXFXFXFXKXKXKXKXKXKXKXKXKXKXKXJXKXKXJXJXJXJXHXJXJXJXKXuXkXGXdXC.0.=.*.=.e.4.t.4.4.4.4.f.4.4.4.*.-.4.4.=.3.2.2.1.2.&.$.#.! ,.#XAXlXtXPXGXGXFXDXmXmXmXmXmXMXMXMXvXvXvXvXMXmXSXSXSXDXSXSXSXSXSXSXbXSXSXSXSXbXvXvXvXvXxXxXxXxXxXxXxXxXyXyXyXyXyX,X,X,X>X,XW.yXiX9XyXG.W H P d r r r e r 9 8 8 7 7 6 1 1 6 1 1 > 1 1 6 t & % > % % 1 % > , > & > > 1 1 & 1 1 1 1 1 > 1 > 7 8 9 8 1 6 7 1 & $ & & $ % & $ 1 $ $ , % $ & 2 0 6 ; C !.VXVXgXhXhXnXlXVXhXlXhXhXnXVXlXhXlXlXhXnXhXlXnXlXlXVXlXVXhXVXVXVXhXVXlXlXVXlXVXlXlXVXVXlXlXVXlXVXlXlXlXlXlXlXlXlXhXhXhXlXlXlXlXlXlXhXlXhXlXhXlXlXhXlXhXlXlXhXhXhXhXlXVXlXhXhXlXlXlXlXkXlXhXhXnXVXVXlXVXVXnXSXVXVXVXnXnXVXVXVX",
"] ] ] ( ] ( ] ( ] ] ] ] ] ] ] ] ] ] ] ] ] ] g.] ] ( ( ] ] M.M.M.M.k.g.g.h.h.} g.g.g.g.g.g.g.g.l.l.l.F.l.d 5 n e e v v t v v e M i i 9 0 > & > 1 1 > ; 1 > & > > & & & & & > & % & > 1 > & & > f 1 > > 1 6 6 1 6 > 1 1 0 7 7 0 1 6 6 6 0 7 7 7 7 8 8 8 8 8 8 8 8 2 e e e e e e e q r r r r e e w e e r t r e q 8 9 0 0 9 0 8 0 7 6 6 , , 1 a i $ 7 > > > 8 1 2 2 q : : z o.%.<.1.<.<.t.1.2.2.2.1.<.<.#.k 2 4 3 q 3 e e e e e e t r n ' ~.vXiXyXuXSXSXFXLXmXPXPXMXxXxXxXgXxXyXxXxXsXyXyXtXgXyXsXyXxXxXxXSXnXSXSXSXFXKXKXKXJXKXKXJXKXKXJXKXJXKXKXJXJXJXJXJXJXJXHXKXSXJXKXuXuXAXzXOXa.e.1.1.2.2.4.1.4.4.=.4.2.2.2.2.2.3.&.2.2.2.$.o.! ;.C.aXAXzXaXsXZXZXFXKXFXDXDXMXMXmXMXmXMXmXMXMXMXMXMXDXSXDXSXDXSXSXDXKXSXSXSXSXSXvXSXvXvXvXvXvXxXxXxXxXxXxXyXyXyXyXyXyX,X,X,X,X,X,X,XyXyXyXQ.W K P v e p 9 e r 9 8 8 7 0 1 1 1 7 1 1 > > 6 1 > r 0 > % % > 1 & & & & & , > 1 > & & 1 1 1 1 > > 6 7 9 9 8 0 0 8 2 , & > 1 $ $ % % & % & & $ o & $ ; 9 9 ; 2 { @XVXVXnXgXhXhXhXhXhXhXhXhXhXlXhXnXlXhXnXlXVXnXVXnXhXhXnXlXhXVXlXVXlXVXlXlXlXlXVXlXlXVXlXVXhXVXVXlXlXlXVXlXlXlXhXhXlXlXhXlXhXlXhXhXhXlXhXlXhXhXhXhXhXhXhXhXhXhXhXhXhXhXVXhXhXhXkXlXhXlXVXnXVXVXlXVXnXVXlXVXVXnXVXSXSXVXVXVX",
"] ( ] ] ( ] ] ( ] ( ] ( ] ] ] ( ] ] ] ] ] g.g.g.] ( ( _ [ M.M.A.M.M.{ ] g.] ] { g.h.g.g.g.S.g.M.N.n.l.H < d d w u v v t e e e M i 9 6 & 1 1 & & , & & & & , 1 & & & % & & > , % & > 1 1 > & 6 & 1 1 1 6 6 1 1 0 1 1 1 1 7 8 7 0 0 6 7 7 7 0 7 8 8 8 8 8 8 8 8 9 e 2 e e e e e y r w r 9 r r r q e u u e r e e 8 9 9 8 8 8 8 8 7 > e e 7 6 ; & 6 5 7 > 8 7 2 8 3 3 : z ,.0.2.<.0.8.w.t.4.2.4.1.4.9.0.q.,.F g : q u u u u e v e t p N } ~.MXiXpXeXMXmXFXKXLXMXnXvXxXhXxXxXxXyXiXyXyXyXyXyXyXyXxXxXxXxXxXPXxXSXSXSXFXFXFXKXKXJXJXJXJXJXJXKXKXJXJXKXJXJXHXKXJXJXJXJXJXMXKXJXMXkXAXVX$XoXC.<.3.,.2.,.%.$.3.-.%.<.,.0.0.C.].C.<.,.C.oXhXhXVXGXkXfXNXGXBXJXJXSXvXSXSXSXMXMXmXMXSXMXMXMXvXDXDXDXDXDXDXKXDXDXSXDXSXSXSXSXSXSXvXvXxXvXxXxXxXxXxXxXxXyXyXyXyXyXyX,XyX,X,X>X,X,X,XyXyXcXN.s W b n n r t r r 8 8 7 7 6 1 1 > 1 7 1 > 1 6 1 > 7 9 0 % % > & & 1 & & & & > > 1 & 1 1 1 1 1 > 1 7 7 w r 8 8 9 i 8 > > 1 1 % & & 1 1 $ $ % $ $ 1 0 % * 0 9 ; f C !.tXVXVXhXnXVXhXhXhXhXhXlXlXhXhXlXlXnXhXhXlXVXlXVXhXnXhXVXhXhXVXlXlXlXlXlXlXVXlXlXlXlXlXlXVXlXlXVXlXlXlXhXhXhXhXlXhXhXlXhXlXhXlXlXhXhXhXhXlXhXhXhXhXhXgXfXfXhXhXhXVXlXkXkXhXnXhXkXkXlXhXhXlXNXVXlXVXVXVXVXnXnXnXVXVXnXVX",
"] ] ] ( ] ] ( ] ] ( ] ] ] ( ] ] ( ] ( ] ] g.] ] _ ( ( ] g.g.M.M.M.k.g.h.g.h.[ ] h.g.g.g.g.g.z.M.l.~.) < e e r n e v e u M M t v i 0 % & 1 & % & > % & $ & % % & & % % & > & , @ f > > f > > & 6 1 1 > 6 6 1 1 6 7 1 1 > 0 8 8 8 6 6 7 7 8 8 7 8 8 8 8 0 8 0 8 7 e e u e e e e e r r r r u r r 9 r e e e 9 e 9 8 9 0 8 8 8 d 9 8 , H b > ; 0 6 9 e 7 7 8 8 8 3 q : x ,.0.,.0.t.t.u.4.1.1.4.e.4.=.*.*.*.<.%.! k : 3 4 u e u e t u a K { !.uXuXtX%XnXNXGXJXGXnXnXhXxXgXxXgXxXxXiXiXyXxXyXxXxXyXyXxXiXiXPXxXxXxXSXVXSXFXFXFXKXKXKXKXJXJXKXJXJXKXJXJXJXJXJXKXFXJXJXJXJXJXJXJXHXHXCXlXAXNXtX].C.9.C.].oX$XjXjXzXzXVXVXzXhXhXhXhXVXZXJXNXhXpX%XeXiXnXFXJXKXFXSXKXKXDXSXmXmXmXMXMXvXSXMXDXDXDXDXKXDXDXKXKXDXDXDXSXSXSXvXSXvXSXxXvXvXvXxXxXxXxXxXyXyXyXyXyXyXyX,X,X,X,X,XyX9XyXyXpXpX{ E Y a v v 7 a 9 r 9 9 7 7 7 0 1 1 1 0 1 > > 6 1 & & r 8 % & & & 1 1 & & > > > 1 2 > > 1 1 & > 1 1 1 0 8 9 8 8 r s 9 6 > 1 2 1 % 1 $ 1 & $ 1 , $ + $ % ; & ; 0 0 ; f } tXnXnXgXhXnXlXhXVXlXlXlXhXhXhXhXhXlXlXnXhXVXhXVXhXhXhXhXhXhXhXhXhXlXlXlXlXlXlXlXnXVXVXlXVXlXVXlXnXnXhXhXhXPXlXhXlXhXhXhXhXhXhXlXlXhXhXhXhXhXhXhXhXjXfXgXhXgXlXkXhXhXhXlXhXhXhXlXlXVXVXVXVXVXVXlXVXVXnXVXnXVXVXnXVXVX",
"] ] ( ] ] ( ] ] ] ] ] ( ] ( ] ( ] _ ] _ h.;.g.h.] ( ( ( [ g.M.M.M.k.g.g.g.h.g.[ [ g.g.[ k.k.g.M.~.T 5 e e e e v e v e v y v v u , > 1 , & % & 1 & & & & & ; , % % , 1 1 % % % 1 > > > 6 1 1 1 1 0 1 7 7 7 7 7 7 0 6 6 7 0 7 7 7 8 2 8 8 2 e e e 8 0 2 8 2 2 8 w e e e e e u y y e y y y y u e e r t t e e r 9 9 9 8 9 9 8 0 7 $ i K s f q 0 f 0 e 5 1 8 e 3 3 3 k ,.2.2.9.9.t.u.8.8.8.r.y.p.r.6.1.*.*.&.$.$.! Q h 4 ; q M j u u s l } @XZXZXNXfXZXZXVXNXhXkXVXGXKXZXPXxXxXxXyXxXxXyXyXyXyXyXxXxXyXiXxXxXnXxXnXSXMXVXSXVXGXGXFXJXKXJXJXKXJXJXJXJXJXJXJXJXJXJXJXJXJXJXJXJXFXJXCXCXkXHXAXzXHXHXVXGXAXzXnXCXzXsXiXnXgXnXnXBXBXgX XE.Q.!. X,XM.>.E.GXJXFXFXSXFXFXDXKXDXmXMXmXMXMXMXMXDXKXSXSXKXDXDXDXDXDXSXSXSXSXSXSXSXxXxXvXxXxXxXxXxXxXxXyXyXyXyXyX9X9X9X,X,X,X,XyXyX,XxXxXyXyX_ W K N a a p r w r 8 0 1 0 1 0 > > 1 1 7 1 6 > 7 6 , 7 w w 1 % & 1 & & & & 1 & 1 1 & 1 1 6 > 6 6 7 7 0 0 w 9 9 7 0 0 1 > 1 1 % 1 1 > & & % % & % % # * % % & ; f 6 q * l C.nXVXnXhXhXVXVXVXhXfXhXnXhXhXhXhXhXhXzXzXhXhXhXnXlXhXlXlXlXlXlXlXVXlXlXVXlXhXhXlXVXVXVXlXhXhXnXhXhXhXhXnXhXhXhXhXhXhXlXVXVXlXhXhXhXhXhXhXhXhXhXgXgXhXhXlXhXlXhXlXhXhXhXhXhXhXhXVXhXVXVXVXVXVXVXVXVXnXnXVXnXnXVXnX",
"] ] ] ( ( ] ] ( ] ( ( ] ] ( ( ] _ ] _ ] _ ] h.' ] L ( ] >.g.A.M.M.k.g.g.g.h.] g.h.[ g.g.h.g.M.N.' m 5 m v e e v v e u u y v u e & > ; 1 & & & 1 & & & & % , & > , , 1 % % 1 1 % > > > > 1 7 1 1 6 0 7 7 0 7 0 7 6 7 7 7 0 7 7 7 8 8 8 2 e e 7 2 9 9 8 8 8 8 8 e e y e u e y e y e e y u t e t t r e e u r w q e r 9 9 9 9 7 7 9 , 9 0 f 0 9 0 d 8 e e 1 2 2 3 j +.2.t.1.9.u.t.y.8.r.u.r.w.8.8.8.=.1.=.*.<.%.$.! ! Z g g 3 q u A u ~ C. X.XZ.V.>.:.;.;.~ ~ ^ ;.>.V.%XnXVXPXgXgXxXxXxXxXxXxXxXyXyXxXxXxXxXxXxXnXSXMXSXSXSXFXFXGXKXJXKXJXJXJXJXJXJXJXJXJXJXJXJXJXJXJXnXHXHXHXHXmXJXiXiXuXuXpXkXBXmXMXkXMXkXMXCXCXmXZXPXpXQ.A.B.E.!.,XpX,XE.!.iX9XM.mXJXFXKXKXMXKXFXDXDXDXmXSXDXSXDXSXKXKXKXKXDXKXDXKXDXSXSXSXbXSXbXvXSXvXxXxXxXxXxXxXyXyXxXyXyXyXyXyX9X,X,X,XyXyXyXyXyXxXyXxX!.( L K b p p i r 9 8 0 8 7 1 1 1 1 > 1 7 7 7 > 6 1 6 > 2 8 8 0 % % 1 & & & 1 1 1 1 1 & 1 1 2 6 > 6 6 7 0 8 9 9 7 7 6 7 > > > 1 & ; 1 , & > % & % , & % % % % ; 1 ; ; ; 0 ; ; _  XNXnXlXfXhXlXVXlXhXhXnXlXlXVXlXhXhXzXVXhXlXhXlXlXlXlXlXlXlXlXlXVXVXlXlXhXnXVXVXVXlXlXnXnXhXhXhXhXhXhXhXhXhXhXhXhXlXlXhXlXhXhXhXhXhXhXhXhXhXgXgXhXhXhXnXhXlXlXhXnXPXhXhXhXnXlXVXlXnXVXVXnXVXVXnXVXVXnXVXnXVXnX",
"] ] ] ( ] ( ( ] ] ( ] ] ] ] ] ( ] _ _ ] h.g.g.h.( ( ( _ g.g.M.M.M.g.g.g.g.g.] [ { ] g.g.g.k.M.g.m 5 1 m e m t e y y t y v e e , & > 1 % % & & & , & & & , & > & 1 1 1 1 1 1 1 1 1 1 > 7 7 7 7 1 7 7 7 0 7 7 7 7 0 8 7 7 8 7 8 8 1 e e e 2 e e e 8 8 w 9 9 9 e w e u e y y y e e y t y e e e u y u t t e r e e 9 7 w 0 > 8 9 7 7 , > f 0 9 9 0 0 7 d e 8 2 3 3 S 2.9.t.9.t.(.t.u.w.u.d.u.8.0.8.8.8.w.8.8.1.8.<.%.%.#.Q Z j j l k L Q ~ L k S Q F Q ! #.#.#.^ ~ ~ ~ L :.!.hXnXgXyXyXyXxXyXyXyXyXxXyXxXxXgXxXnXnXxXMXMXSXSXFXFXFXFXJXJXJXJXJXJXJXKXJXJXJXJXJXJXJXJXGXJXZXJXHXHXHXE.[ m.~.W.uXMXxXiXuXuXiXyXeXtX9X!.E.N.N.B.G.Q.tXtXeXG.m.B.E.A.E.Q.!.JXLXJXmXFXKXmXDXFXFXCXDXDXDXKXSXKXDXKXKXKXDXDXDXDXSXSXSXSXvXSXvXxXxXxXxXxXxXxXyXxXyXyXyXyXyXyX9X9X9X9XyXyXyXyXyXxXxXyXnXm.E L K s r r i i 9 8 7 7 7 2 0 1 1 > 1 1 2 6 1 2 7 1 6 > 0 8 7 & % > 1 1 1 1 1 1 1 1 > 1 6 1 6 1 6 7 8 7 8 8 9 8 0 6 8 0 > & , 1 & 1 & & & & & & % % % % $ & & & % & f 2 0 0 ; s V.gXhXVXVXhXgXhXhXgXlXlXlXhXhXhXhXhXlXlXlXlXVXlXVXVXVXlXlXVXVXlXlXVXlXlXlXlXlXlXnXlXhXlXVXVXnXhXhXhXhXlXhXhXhXhXhXlXhXhXhXhXhXhXjXgXgXhXhXhXhXhXhXhXlXlXhXhXhXhXhXkXnXhXhXnXhXnXhXVXVXVXnXnXnXVXnXVXVXSXVXSX",
"( ( ] ] ( ] ( ] ] ] ] ( ( ] ( ] ] _ _ ] _ ] } _ ( W W ( h.>.M.M.m.g.g.h.] [ ] g.g.[ h.h.g.N.h.W 7 1 7 e 7 e v v u t e y v e , , > > & & & % & & > > 1 & 1 > > > , , 1 1 1 1 1 1 1 1 6 2 7 7 1 8 7 7 7 7 7 0 8 0 7 7 8 8 0 8 8 8 2 8 8 8 8 e e e 8 9 w r r r r t e e e e e u y y y t u e e t e y e e e t w q r r i r 2 9 K s 6 7 e 7 9 q 9 0 d 0 7 e 8 2 q 3 l #.9.1.1.8.t.t.9.t.u.u.u.r.9.9.9.8.1.e.e.8.8.8.<.<.+.$.+.G F ! ! #.! F ! ! #.#.o.! o.o.#.#.#.$.#.$.#.;.~ ^ C.tXlXVXgXgXxXyXxXxXxXiXiXyXxXxXxXxXxXnXxXSXnXSXSXSXFXVXKXKXJXJXJXJXJXJXJXJXJXJXJXJXJXJXJXBXCXGXHXFXE.UXvXmXuXiXMXuXyXiXiXtXeX XQ.!.~.~.C.B.B.Z.!.E.G.A.V.Q.eX%XiXJXKXnX' E JXFXmXJXFXFXFXKXKXKXKXKXKXKXKXDXKXDXDXDXDXDXSXSXSXSXvXSXvXbXxXxXxXxXxXxXcXcXxXyXyXyXyXyXyXyXyXyXyXyXyXxXxXxXxXxXxXxXiX' W  .N a r t i i 0 8 9 7 7 6 1 1 1 > > 6 6 7 7 1 1 7 0 > 1 8 w > % > 1 & 1 & 1 1 1 1 > 1 1 1 6 6 6 0 7 7 8 9 9 8 0 6 r 8 1 & & 1 % & & & , % % & , , $ f & % % & % % 2 f 0 2 ; @ i | pXgXVXkXhXhXnXhXlXlXlXlXhXhXlXhXhXlXlXhXhXhXhXVXhXlXlXlXlXlXhXlXlXlXlXlXlXlXlXnXhXlXhXhXhXhXhXnXlXlXlXhXhXhXhXhXhXhXhXxXjXgXgXsXjXhXhXhXhXhXlXlXlXlXnXhXhXnXhXhXhXnXVXhXVXhXnXVXVXhXnXVXnXnXVXnXVXVXnXVX",
"] ] ] ( ] ( ( ] ( ] ( ] ( ] ( ] _ ] _ _ _ h.g.g.( ( W _ h.g.M.m.m.g.g.g.g.] ] h.[ h.[ g.M.h.W 5 e e r w w w v e e e y y e , , , 1 > & & & & & & > > > > & ; > > , , 2 1 1 2 1 1 7 1 2 7 7 7 8 8 7 7 0 7 8 7 8 8 8 8 8 8 8 8 9 9 e 8 e 1 2 e e e e e e t e r t t e e y y e y e y t u y y e y e y e t e u e e r e i 7 & p I 9 $ w e 7 e w 0 0 i 0 8 r e 2 q j L ,.9.8.9.t.t.9.9.8.u.u.9.9.9.u.9.8.w.e.w.8.t.1.8.8.*.<.%.$.+.+.$.#.! ! ! o.o.+.$.%.$.$.$.&.$.%.$.,.%.+.o.o.! ~ ,.oXfXxXnXxXyXpXxXxXiXiXxXxXyXxXxXxXMXxXSXnXSXSXSXSXJXKXKXKXJXJXJXJXJXJXJXKXJXJXJXJXJXKXHXJXFXV.k.mXHXuXpXyX9XiXvXiXpX%XIX!.!.!.!.Q.%XeX%XQ.,X XQ.pXnXKXJXJXPX!.E f =   { JXJXCXJXKXKXKXKXJXKXKXKXKXKXSXKXKXDXKXSXSXSXSXSXSXSXbXSXvXxXxXxXxXxXxXyXxXxXyXyXcXyXyXyXyXyXyXyXiXxXxXxXxXvXMXcXMX!.W W K l a p p i i 0 9 7 7 6 6 6 1 1 > 1 6 6 7 0 1 1 1 7 1 > 9 w 0 > 1 1 > > 1 & 1 1 1 1 1 1 1 6 6 0 6 7 8 8 9 w w 0 8 w 8 1 & % & & % & & % % % 1 % ; $ # * f % & & % & & $ $ 6 u 0 * q V.gXAXhXgXgXhXhXhXhXhXhXhXzXhXhXlXhXhXhXhXhXhXlXhXlXhXlXhXlXhXlXlXhXlXlXhXnXhXhXhXhXhXhXjXgXhXjXhXnXhXhXhXjXgXhXgXjXhXhXxXjXgXgXhXhXhXhXhXnXhXlXlXhXnXhXhXhXlXhXhXVXlXhXlXVXlXVXnXVXnXnXnXVXnXSXnXVXVX",
"] ( _ ] ( ] ] ( ] ( ] ] ] ( ] ( ] ( ] _ h.g.] ' ( W W _ ' >.M.g.m.g.g.h.h.[ [ [ [ [ [ k.g.W f 5 e e r r r t v e e e e y e , , , > & & & > & > & 1 1 1 1 1 1 1 > , 1 1 1 1 1 1 1 2 7 1 7 7 2 8 2 8 8 8 7 8 8 0 8 8 8 8 8 8 8 0 8 e e e e e e e e u e t y t u r r y y e e e e y u e e t e t t e e u e t e t e e e & 8 7 6 8 0 6 9 e e e w 9 9 0 9 9 9 e 2 3 z ^ ,.2.9.9.t.u.t.u.u.9.^.u.u.9.9.u.9.p.t.a.t.w.8.8.1.8.8.0.*.$.$.+.o.D o.$.%.$.*.&.@.@.&.&.*.2.3.O.O.X.-.%.@.O.$.;.~ ;.2.oXsXnXnXsXyXyXxXxXaXxXxXxXxXxXSXxXMXxXMXSXVXFXKXKXKXKXJXJXJXJXJXJXJXJXKXJXJXKXHXJXMX'   %XJXuX9XIX%XIXQ.W.~.~.~.V.~. XpXgXiXeX%XW.IXLXJXJXJXJXpXB.E ; . X . X 8   B.JXJXKXJXJXJXJXJXJXKXKXSXKXDXSXDXDXDXDXSXSXSXSXSXSXxXSXvXxXxXxXxXyXxXxXyXyXxXyXyXyXyXyXyXyXyXcXxXxXxXxXxXSXxXxXvXm.L I C a s p t 9 0 9 d 8 7 6 6 6 1 1 > > 1 7 7 7 7 0 7 7 6 6 8 9 8 1 > > 1 > > 1 & 1 & 1 1 1 1 1 7 7 6 0 8 9 9 w i u 0 7 1 1 % $ % & & & & 1 & % % % % % f % % % & & & ; & 1 0 f 1 0 r 1 * l E.BXZXkXnXnXhXkXhXhXlXjXlXhXhXhXhXhXhXhXhXhXhXlXhXlXhXhXhXlXlXlXhXlXhXhXhXgXhXhXhXhXfXfXhXgXhXhXhXhXgXgXgXhXhXhXhXjXgXgXjXhXgXhXhXhXPXhXhXhXhXhXgXhXgXlXhXnXhXlXVXVXhXnXVXnXnXnXnXVXnXVXVXVXVXVXVX",
"] ] ( ] ] ( ] ] ( ( ] ( ( ] ( ] ] _ _ ] ] } g.] ( W W _ h.g.M.g.m.g.g.[ ] ] [ [ [ [ g.g.( 0 f d d e r t r y t e e e e e 7 $ $ 5 > > & & 1 1 1 > 1 1 > 1 1 1 1 > 1 1 7 , 1 2 2 8 e 1 1 8 7 7 8 8 8 8 0 8 8 8 8 8 8 8 8 8 8 8 8 8 e e e e e e e 3 e t t e t e u e y e y 4 y e e y u e e e u t e e e e e e u e e e 0 p t ; f i s w 8 n t 8 i w 0 9 9 8 w e 3 l #.,.q.8.9.u.^.^.^.^.u.^.^.(.u.(.(.u.(.t.e.8.1.=.*.*.$.&.*.*.<.*.$.@.o.O.$.2.1.1.=.-.=.=.-.-.@.3.-.&.*.X.O.-.&.$.;.2.o.~ ~ ;.C.tXgXPXxXxXyXxXxXxXxXxXxXnXxXMXnXMXSXSXFXFXKXKXKXJXJXJXJXJXJXJXJXJXJXKXMXKX9XH  .w _ FXIX#XiXuXuXpXsXFXAXkXbXkXmXDXkXiXuXuXiXpXiXiXQ.m. .f     X * f i p 5 i   !.JXvXJXJXJXKXKXJXKXKXSXSXKXDXDXDXSXSXSXbXSXSXSXvXSXxXxXxXxXxXxXxXxXxXyXxXyXyXyXyXyXcXyXyXcXxXxXxXxXxXbXSXSXvXeX_ I K l i i u i 9 9 d 9 7 0 6 6 6 1 1 1 > 1 7 7 7 0 1 1 7 6 6 1 7 9 7 1 1 1 1 1 1 > 1 ; 6 1 1 1 7 7 7 6 8 0 9 r w i w 0 0 7 1 & $ % & & % & & % % 1 % 1 % & f % & % & & $ > & # # 6 2 $ 9 i 6 ; |  XZXnXnXhXhXhXhXhXhXlXhXhXhXgXhXhXhXlXhXhXlXhXhXhXhXhXhXlXlXhXhXhXhXgXhXhXhXhXfXgXfXhXgXhXhXgXfXjXfXjXjXhXgXhXhXhXhXhXgXhXhXgXhXgXhXhXhXfXhXhXgXhXnXhXlXhXVXlXVXnXlXVXnXnXnXVXVXnXVXnXVXVXVXVX",
"] ] ] ] ( ] ( ( ] ] ( ] ] ( ] ( ( ( ] ( _ h.' h.( W L ( h.>.m.M.k.g.[ g.[ h.] [ g.[ g.]  .5 d i n e r r r t n r t 2 , e 7 , $ , > ; & , 1 1 1 1 1 1 1 1 1 1 1 1 , 2 1 7 7 7 1 e 1 8 1 1 2 8 8 8 7 8 8 8 8 8 8 8 7 8 0 8 8 0 8 8 1 3 e e e e e e e e t e u e r t e e y y y y e e y y e y y u y e v e u e 8 e e 2 b 7 1 8 w w w i 1 t w 7 i d d r 9 0 u u : k #.%.9.9.9.9.9.u.(.t.^.^.^.^.(././.^.u.t.9.w.t.t.t.w.8.*.-.&.-.&.&.@.@.o.$.1.1.1.=.4.1.1.e.1.1.=.1.1.=.=.=.&.&.&.3.#.O.#.;.#.~ ;.Z.aXgXgXxXxXyXxXgXhXSXxXSXxXxXSXMXSXSXSXFXKXJXJXJXJXJXJXJXJXJXJXKXKXHX8X5    .' # B.AXeXrXuX#X%X!.m.[ T P T ' | | ] UX~.%XB.a # $     o f 0 9 0 d i w 1 I n > 9XJXCXJXKXKXKXJXJXKXDXKXSXDXSXSXSXSXSXvXSXbXSXSXvXxXxXxXxXxXxXxXyXxXyXyXxXxXyXxXxXyXxXxXxXxXxXbXSXSXSXvXvXMX!.K J a a l i 9 9 9 9 0 9 7 0 6 > 6 6 6 1 1 6 0 7 7 7 7 7 1 0 0 > 2 8 8 > 1 1 1 1 1 1 1 > 1 1 1 1 7 7 0 0 8 9 r 9 w i w 0 7 w 9 1 % $ % % , & & % & % % % < f & f & & % % % $ % 1 0 > 1 7 & & 0 u 6 0 } tXNXhXkXhXhXhXfXdXhXhXjXgXhXhXlXhXlXhXhXlXlXhXlXhXhXhXhXVXhXhXhXjXfXhXhXgXjXjXfXgXjXfXgXjXgXgXhXgXgXhXgXhXhXhXhXhXhXhXhXjXhXhXhXhXhXgXgXsXhXgXhXnXlXnXVXVXhXVXVXVXnXnXVXnXVXVXVXVXVXnXnXnX",
"] ] ] ] ( ] ] ( _ ] ] _ _ _ _ _ _ ] ( ] ] ] h.] ( ( W ( ] g.M.g.n.UX{ h.[ [ h.h.h.g.g.' 5 7 w w w t t u u a a e r 7 > 7 7 > , 6 1 1 6 > 1 1 1 7 1 6 1 6 1 6 6 6 > 6 0 6 7 7 0 6 8 7 8 8 7 8 0 7 2 e 8 8 e 8 8 2 2 e 8 e 8 8 8 8 e 8 e e 9 u 9 u r r 9 r r r r t y y y y t e e y y t e e e y y y w w w t e 1 2 M y u 8 e r t r e t r w d w d 7 d e 1 u 3 4 S %.%.q.9.9.u.9.9.^.^.^.^.^.u.^.]./.^.t.i.u.i.t.t.t.9.1.9.1.*.&.*.&.&.O.$.*.<.<.9.w.1.8.e.e.=.&.=.1.e.=.*.*.-.-.@.$.&.&.$.$.$.$.#.o.~ C.tXFXnXiXgXPXgXPXMXSXmXxXMXMXSXDXDXDXDXKXJXJXJXJXHXJXJXJXDXJXKXE.0 & f   9 K * _  .0 f $ X + > , , , , & 9 w > > > f 6 8 w i i i 9 0 9 i i i 9 s i K I 6 % eXJXFXJXJXDXJXJXKXKXDXSXSXSXSXbXSXSXSXSXxXxXSXxXMXxXxXxXxXxXxXyXxXxXxXxXyXyXyXxXcXxXxXxXvXSXxXSXSXSXDXxXvXk. .| i a p p w w 8 8 0 6 7 0 1 6 1 1 6 1 7 1 6 6 6 0 0 8 1 6 7 6 1 7 8 r & & 1 7 2 > 6 > 6 7 1 7 1 7 7 8 0 9 r 9 w i i w 8 r 8 % $ , 1 , & , > & & & & & % & & % & & & % & & f > 1 6 1 6 > f 5 0 8 0 8 u V.tXZXZXhXgXdXlXzXdXdXzXzXfXfXhXhXjXhXhXhXhXlXdXhXhXhXlXhXhXhXhXhXhXhXhXjXgXgXjXjXgXjXgXhXjXhXhXhXhXhXhXhXnXhXgXfXhXfXjXfXfXgXhXfXfXfXgXfXkXkXlXVXnXlXVXVXnXVXnXnXlXnXnXnXVXVXnXVXnXVXVX",
"( ] ] _ ] ( ( ] _ _ _ ] ] _ ] _ _ ( _ ( ] ] ] ] ( W ( _ ] g.g.M.UXUX{ [ [ h.[ { { g.g.( , 8 w w e e r e r r r r r 6 % 1 0 > > 6 1 1 > 6 6 6 1 6 6 1 6 6 6 6 6 2 6 7 7 0 7 7 7 7 7 8 8 8 8 8 8 0 e 2 8 8 8 8 9 e 8 e 8 8 8 2 8 8 e e e e 9 r r r r 9 r r r u r r e t t e e e e y y t t t e y e y i p w w r 8 8 t e e u u t y y r t w w d w e d e r 3 e 3 4 S #.%.0.u.^.9.^.^.9.^.^.^.^.d.^.^.i.C.9.9.t.9.9.8.8.8.t.t.t.t.t.8.=.&.*.O.o.*.8.1.1.9.8.1.=.1.4.e.1.1.8.=.=.=.*.=.1.1.2.<.2.&.$.&.3.;.~ } C.@XhXNXkXgXBXPXgXMXSXMXSXKXSXSXSXKXJXJXHXJXCXHXJXHXJXKXJXG. . .E K % . = f . = f s N s a a v m B B b K I s b K N s b b K b l  .s  .s s s s K K K % . , > pXJXFXFXKXDXJXSXKXDXSXSXSXSXSXSXSXxXSXSXSXSXxXxXxXxXxXxXxXxXyXxXyXcXyXxXxXcXxXxXxXxXxXSXSXSXSXSXSXMXMXyXE I K s p i w w w d 8 0 8 7 7 1 1 1 6 1 1 7 0 6 7 0 7 8 8 7 7 7 7 0 7 8 w 1 1 1 1 > 1 6 > 1 7 7 1 1 0 8 8 7 w i r u i i u 8 7 1 1 & $ $ % $ $ & & % % $ % & & & & & & & & 6 & > > & 1 6 6 6 6 7 8 0 0 0 w 0 R C.rXNXhXfXlXfXzXAXdXdXzXzXzXzXhXhXzXjXhXfXfXjXgXlXhXhXhXnXhXhXhXhXhXgXhXgXgXxXjXgXhXjXxXhXhXgXhXjXgXjXgXgXjXfXhXfXfXfXgXhXgXgXkXgXgXgXkXlXnXnXnXnXnXhXnXnXVXhXnXnXlXnXVXVXnXnXnXnXVX",
"] ( ( ] ( ( ( ( _ ] _ _ ( _ _ ] _ _ _ _ ] ] ] ] ( W W _ ] g.M.g.n.UX[ h.[ [ h.h.g.g.g.Y , w t e e 8 r u w e e r r 1 $ > 7 f f 7 1 1 1 > 1 6 7 7 6 1 6 6 7 7 0 7 7 7 7 7 8 8 7 7 7 8 8 0 8 8 8 8 e 8 8 8 2 e 8 e 8 8 8 8 8 e 9 q e e e u r r r t u r 9 r r r r u y t t t t u e u y e u y e u u y i p e 8 r r e 1 e e r t t r t r a r d r d e e e r e u g k F #.%.<.9.9.u.d.C.u.^.^.^.^.u.u.^.u.u.9.t.t.u.u.u./././.i.t.w.8.8.1.1.&.@.o.O.-.1.8.1.1.1.2.8.w.e.1.4.6.8.8.8.e.8.w.t.1.2.2.$.&.&.%.O.o.;.^ ^ >.oXhXZXlXkXMXMXSXMXMXSXDXSXKXKXKXKXKXKXFXJXmXKXKXMXM.$ = * f * f f * 0 0 9 i 0 8 i s a N n B B  .N N s s p a s i a i i i i i s a i i s s K l i i W & } MXJXSXJXMXDXKXSXDXSXSXSXSXSXbXSXxXSXMXSXxXxXxXxXxXxXxXxXxXxXxXxXxXxXxXyXxXxXxXvXSXSXSXSXSXDXSXSXvXKXN.I I n b p p r r w 9 9 9 7 7 6 6 1 6 1 6 > 1 6 7 7 7 7 8 9 0 8 7 7 0 7 8 8 0 0 > > > 1 > > 0 1 0 7 7 7 8 8 0 u r w d i i i 7 1 > 1 ; # $ & & & , & 1 % & & & & & f f & & & 6 & > > 6 & 6 6 7 0 7 7 6 0 0 0 2 ; 2 Q !.lXVXkXfXdXdXzXAXzXzXfXdXzXhXhXzXjXhXjXhXhXhXhXhXhXhXhXhXlXhXhXgXjXjXgXjXxXjXxXgXgXgXhXjXxXxXjXxXjXjXgXgXfXfXfXfXfXfXhXfXgXgXgXkXnXlXnXnXnXhXlXnXlXnXVXnXnXnXhXnXnXnXlXnXnXVXnX",
"( ] ] _ ( ( ] ( _ _ ] _ _ _ _ _ ] ( ( ] ] ] ] ] (  .W ( ] g.M.g.UXh.[ [ [ ` [ { g.g.{ K % e t e e e e t r 8 8 r 9 & $ > 6 6 1 6 1 1 2 6 1 1 7 6 1 1 6 0 7 7 7 7 7 7 8 8 7 8 7 8 2 8 8 8 8 8 8 8 8 8 e 2 8 8 8 e 8 8 e 8 e e 9 w r w r r r r t u r r u r u r t i u t t e e t y t e y e t y y e e w w 8 e s v e 7 t t t r e e r t a i t i t r d d e t 3 u A F +.q.*.9.u.9.u.u.u.9.9.^.u.d.^.u.u.9.u.u.u.u.i.u.^.u.t.t.t.t.t.9.1.&.$.&.@.X.o.@.2.=.=.1.8.1.1.1.e.8.8.4.w.e.e.1.1.1.1.<.&.&.&.O.@.%.2.o.o.$.#.~ ;.Z.hXVXNXnXPXSXKXMXSXKXKXSXKXJXKXKXJXSXJXMXKXN.X f 9 = . # = = = + * f 0 f 0 r a a v b b b s s a a i i i a i i r r s i w i s s i r 9 r w s s s s   ' JXJXFXJXKXMXJXDXSXMXvXxXvXvXSXMXSXxXxXSXxXxXxXxXxXyXxXxXxXxXxXxXxXxXxXxXxXSXSXSXSXSXSXKXKXDXSXSXvX_ T H b v p p r r w 9 8 0 0 6 6 1 1 1 6 1 6 1 1 1 0 7 7 8 8 7 7 8 8 7 7 7 7 8 7 1 > > 1 6 > 1 1 7 7 7 7 8 8 8 w i w 9 u i i 8 0 1 7 > % $ , & & , ; 1 % & , % % % % % % % % > > > f & 6 6 f 7 5 6 f f 6 6 0 0 u 9 2 j / Z.lXAXzXhXzXhXdXfXzXfXdXfXfXlXhXhXdXhXhXhXhXhXhXhXhXhXhXhXhXhXgXjXgXhXhXgXjXgXjXjXgXgXjXsXgXjXgXgXsXsXjXfXfXfXfXgXfXfXkXgXfXhXkXnXNXlXnXnXnXVXnXnXVXVXnXlXnXlXnXlXnXnXnXnXnX",
"] ] ( ( _ ( ] ( _ _ _ _ _ _ _ _ ( _ ( ] ] ] ] ] (  .( ( ] g.g.g.UXh.[ [ [ [ [ h.] g.g.i & 0 9 e u u r y r 8 2 e 1 % % 1 0 1 f 1 6 1 7 > 0 7 7 7 f 7 7 7 7 7 0 8 7 7 0 8 8 7 7 0 0 8 8 8 9 8 9 9 2 8 1 e 0 8 8 8 2 9 e q 9 e r r r r r r r e r r r u r r r r r i t u u t e t u t u y y y t e e e w e e v b v m t y t e r e t t m t t t r d t e r e u q j Z ! +.,.q.8.9.9.u.u.u.^.d.d.^.^.^.^.^.9.u.u.u.^.u.t.t.8.9.w.t.t.t.t.1.1.1.*.&.&.O...X.-.<.8.1.1.1.t.t.8.w.w.4.9.8.8.8.1.1.<.*.<.*.&.*.8.$.2.0.&.$.#.#.Q ^ C.tXnXNXFXGXSXMXSXLXKXJXJXKXKXKXKXDXJX{ + K b f + * f = * 0 f f * * f * * + + b s l b s s s K b l b  .N s i s s i w i s s w d r & 6 # 6 . $ + X { JXDXmXJXSXKXSXSXvXSXvXSXvXvXSXxXSXMXMXxXxXxXxXxXxXxXxXxXxXxXxXxXxXxXSXxXSXSXKXDXDXKXKXKXSXSXKXE.I W b H i t p r w 9 8 8 7 7 6 6 1 1 1 7 > > 6 1 1 7 0 7 8 8 8 7 7 7 7 0 7 1 9 8 0 > > 1 6 1 1 6 7 7 0 8 8 9 9 w u w u d q i 9 9 0 > 1 % 1 ; $ % & & % % % % & $ $ & % % % & & f & & & 6 & f 6 f 6 6 1 6 6 0 8 2 2 e e 2 M / %XdXzXkXdXkXfXdXdXfXfXhXfXhXfXfXhXhXhXhXhXhXgXjXhXfXhXfXgXhXjXgXjXgXjXsXgXsXjXgXjXxXgXgXjXxXxXjXfXjXfXfXfXfXfXgXfXfXkXkXlXnXnXnXnXlXnXnXhXnXVXVXVXVXnXVXnXnXhXnXlXnXnXVX",
"( ( _ ( ( ( ( ( ( _ _ _ ( _ ( _ _ _ ( ] ] ] ] ] ( W L _ ] g.>.M.UXn.[ [ ] ` [ [ ] k.] d 0 w r r e e r t w 2 1 1 % % & 0 7 6 > 6 6 7 1 6 1 7 7 7 7 7 7 7 8 8 8 8 8 8 7 8 8 0 7 7 0 0 9 9 8 9 8 9 8 8 8 8 e 8 2 e e e e e w e 9 u q r r w r r r e r r 9 r w r i u t t e y t y e t e e e y t t y e e e u y v v e v w r e t t v t e e e t r r r r w t 3 g j Z F #.%.%.8.9.9.u.9.9.u.^.^.^.^.^.^.u.u.u.u.9.u.^.u.u.t.i.t.t.9.w.t.t.t.8.8.1.1.&.@.O.O.-.=.8.8.8.t.w.e.w.w.8.=.1.1.1.8.=.9.8.<.*.1.9.8.(.1.*.*.*.@.%.<.;.#.~ :.Z.tXnXGXJXZXBXJXJXSXDXJXKXKXKXm.5 s ' # X f * . . = f . = . . . * = % 6 i s i r s s a K p a n s s i i s u 0 w w 6 ; f f f % % # & 6 # 6   s nXJXMXmXKXuXvXSXSXvXvXvXvXvXxXSXxXMXMXMXxXxXxXxXxXxXxXxXxXxXxXxXxXxXxXSXFXFXKXKXKXKXKXKXKXDXDXUXW I b a a d w w 9 8 9 8 7 7 6 1 1 1 6 2 7 6 7 7 7 7 7 8 9 9 9 8 7 0 7 1 1 1 7 9 7 > > 1 0 1 1 6 7 7 8 8 8 9 w i i d u i i s w 9 8 > % 1 % % % % % & & % % & & & & & & & & % & & & & & & & f & & f & ; 0 0 & , 1 2 e e 2 1 8 M 7.%XkXzXkXkXfXfXfXfXfXhXhXhXjXhXhXhXhXjXgXhXjXhXhXhXhXhXgXPXsXxXjXxXjXsXjXxXjXgXjXjXgXgXjXjXgXgXgXfXfXfXfXgXdXfXkXfXkXkXlXnXVXnXnXnXnXnXVXnXVXVXnXnXnXnXnXnXnXnXnXnXnX",
"] _ ( _ _ ( ( ( _ _ _ _ _ ( ( ( ( _ _ _ ] ] ] ] (  .W ( ] g.M.g.UXUXh.' ] ] ] [ [ { / 0 w i i a e u y r w 8 1 % % % > 7 6 > f 7 6 6 7 6 0 7 0 7 7 0 8 0 8 8 8 0 8 8 9 8 8 8 7 7 0 9 9 9 9 9 9 9 8 8 e e 8 e 9 8 e q r e w w r u w e r q q w r r r 9 r 9 r r r i t e e u y y t e y e y u e e t e e u e 7 e e e e e r m t v y r r r t t t e t r e u 3 g A S F o.! q.8.0.9.9.9.9.].].d.^.^.u.9.u.^.^.u.u.9.9.9.9.8.u.u.^./.^.t.9.9.9.t.t.2.1.1.=.@.O.-.1.t.w.8.8.t.8.1.1.1.1.1.1.8.1.8.8.8.8.w.t.9.*.=.4.*.&.<.&.$.$.,.,.,.^ ~ C.XXVXGXKXGXSXSXKXKXDXKXW.d E.B.V.p X * . . f o = = * = * f & % % 7 p N s i b s s s p p s b l i a  .i d i 0 f # * f . = $ & # f 6 f ' Q.iXvXJXSXSXSXSXxXvXxXvXvXvXvXMXxXxXMXxXxXxXxXxXxXxXxXxXxXxXxXxXxXSXxXSXSXFXFXKXKXKXJXKXKXKXDXeXT W K K p p a w w 9 8 0 7 8 0 0 1 1 1 1 7 0 7 7 7 8 7 8 8 8 8 w 0 8 0 7 7 7 0 6 9 9 2 > 1 7 6 1 0 0 8 8 8 8 9 i i i u i i i i i 8 7 0 1 1 % % % 1 1 1 > & & > % % f % & & & $ & $ % & & & % % & & & & > 6 > % 1 e 1 $ 2 e w e e 2 y } oXuXkXdXzXfXfXfXfXjXfXhXhXjXhXjXgXjXgXxXhXfXhXfXgXgXhXjXjXxXjXgXjXxXjXxXgXgXjXgXjXjXaXsXsXjXsXhXfXsXsXgXfXgXkXnXNXNXNXNXnXlXnXnXnXnXVXnXnXnXnXnXnXnXnXhXlXnXnXnX",
"_ _ ( ( _ ( ( ( ( _ _ _ ( ( ( ( ( ( ( ( ] ] ] ( ( W W ( ] g.M.g.UXh.[ [ ] ] ' [ [ [ E * w i 9 i r t v t u e 1 $ % & 1 6 6 > 6 8 7 1 2 7 1 7 7 7 7 7 8 8 8 8 8 0 8 8 0 8 8 8 8 8 9 8 9 9 9 9 0 8 e e 8 8 8 9 e w e 9 9 r q r 9 e w r r r w r r r u r r u r r i u t e t t y y y e e t e y e y e u v M e 2 7 r t t m t v t e e r y e t j u u j u u j 3 z Z S S o.D *.8.9.8.9.9.9.u.9.9.9.u.d.^.u.^.u.^.9.t.u.u.^.(.^.u.^.u.t.t.u.).(.u.y.u.t.1.*.&.@...@.1.t.w.1.9.e.9.8.8.e.8.8.8.8.8.=.8.t.9.8.r.r.e.1.w.1.2.&.$.$.$.#.$.%.#.+.! ].hXJXGXLXJXKXDXKXR.H iXCXnXZXiX!.( X . f = . . = = = * + % w l a K N i b K p i s s s b s 9 9 i  .d 0 6 f $ . . $ # 0 f 0 9 s g.pXFXMXpXMXKXSXMXxXSXSXvXvXvXSXxXxXxXSXxXSXxXxXxXxXxXxXxXxXxXnXxXxXxXSXSXSXVXFXFXKXKXKXJXJXKXKXKXB.K J K b n w a r w 9 7 7 0 7 f 1 6 1 1 7 1 1 1 7 1 0 0 7 0 8 8 r 9 9 8 8 8 8 8 > 8 w 7 > 1 7 7 > 0 7 8 8 8 9 9 w i w i i w i i a 8 7 8 8 % $ % % % % % % % % , $ % % % % $ & $ $ $ & & % % % % # f & & > 1 & $ , , , , 2 1 , 8 2 e e 2 y } %XzXfXhXfXfXfXhXfXfXhXhXhXhXhXgXsXjXfXfXfXfXfXsXgXgXgXjXxXhXtXjXsXjXjXsXyXjXsXxXsXsXsXsXfXsXfXsXsXsXgXgXlXNXNXVXnXnXnXnXhXnXnXlXnXlXnXnXnXhXnXnXnXhXhXnXhXnX",
"( _ _ ( ( ( ( ( ( ( ( ( ( ( ( ( _ ( ( _ _ _ h._ W W W ( ] { g.M.UXh.[ [ ` ' ] ' { ( i f 9 r 8 r e v v e u 2 , $ $ 1 7 1 1 7 7 7 1 1 6 7 0 7 8 8 8 8 0 9 8 8 8 9 8 0 9 9 8 9 8 8 8 9 8 9 9 9 q 9 e q e q 8 8 e 8 9 e r w r r r r r w u u r r r r r r 9 r r r r r e v e v e v t e e t e e y v e u M u e y y e e y p w i i e r j t M M 3 3 q 3 g 3 g : g S S F D D ..6.0.8.1.<.9.u.C.t.9.u.^.9.^.^.^.^.d.^.].^./.^.^.u.u.t.u.^.u.9.^.t.t.w.w.9.1.2.*.-.X.@.=.y.y.8.t.8.w.1.t.w.8.8.6.9.r.8.9.r.y.r.e.1.1.1.1.=.*.&.*.&.$.$.&.$.&.%.! ,.hXJXkXKXDXKXcX .,XJXMXmXnXgXFXkX6 + $ . = = * . % . # 9 p b s s a a a s K s  .s i w 9 9 9 0 9 q 0 * * f * * * = & 9 w l E.uXmXSXnXPXxXSXSXSXSXxXvXvXSXxXSXxXSXxXxXxXxXxXxXxXxXvXvXvXSXxXSXvXMXMXSXDXKXKXKXKXKXJXKXJXJXKXJXMXI I H b n v y t i i 9 8 8 7 7 7 7 1 1 1 1 > 1 1 7 7 7 7 8 8 8 8 0 8 8 8 0 8 8 8 9 7 8 i 1 1 1 7 7 7 8 8 9 9 8 0 0 i s i r r r r i r 9 8 0 1 & & & $ & % & % % % % % % f % % f % % % % % % % % % & & % & f % & & & & & < & f 6 1 2 1 e e 2 2 B }  XgXVXkXsXgXkXfXdXhXVXhXdXfXhXhXsXhXsXgXgXgXsXgXhXgXjXhXgXsXjXxXsXsXjXgXjXjXgXjXsXsXjXsXsXsXgXsXgXfXkXlXnXnXnXnXlXnXnXnXhXnXnXnXhXnXhXnXhXnXhXnXhXhXnXhX",
"_ _ _ ( ( ( ( ( ( ( ( ( ( ( ( ( ( _ ( _ _ g.( _ ( W ( ( g.[ g.g.UXh.[ ' ' ' ] ' [ W 8 6 9 9 9 r u t v t e e , $ % 1 7 1 1 7 7 0 6 6 7 7 8 8 8 8 8 8 9 9 9 8 9 0 8 8 9 9 9 8 8 8 0 9 9 0 9 9 8 8 e e e e 9 9 e e w r r q e r r r r r w r r u r r r r r 9 r u r t v v e u u e t e y v e t t e e B A e e u e t y e p p i t y y M u 4 3 g A z Q Q Q Z k k S S F G D S @.9.<.<.1.<.<.2.8.9.u.9.^.^.^.^.u.^./.^.d.^.^.^./.^.u.u.t.(.^./.(.u.t.t.t.w.1.1.*.&.@.O.@.=.w.t.w.8.t.w.t.8.1.9.8.8.0.y.d.u.9.w.1.8.<.<.1.1.1.=.*.*.=.=.=.=.*.2.#.,.aXJXnXJXxXd E.JXxXJXmXCXCXNXKX] X = # f X = = = # # r a l C K N b b N b s b a d i i i d 0 f 0 f . . = . = * # f 0 0 ~.iXnXmXSXFXSXMXSXvXxXSXxXvXvXvXvXvXxXxXxXSXxXxXxXxXxXvXvXvXvXxXSXvXSXMXSXSXFXKXKXJXJXKXJXJXJXJXKXKX!.U P b n v n d e r 9 8 7 0 7 7 7 6 1 1 1 7 6 7 1 6 7 7 8 8 7 7 0 9 8 8 8 8 8 7 8 7 0 1 r 1 0 1 0 8 8 8 8 8 8 9 9 8 8 9 9 9 8 1 1 K s r 1 & % & > 1 & & & & & % $ % % % $ % % $ % % % % % % % % % $ % % % % & % & % & % & & < > > 1 , , 2 2 2 8 e 0 / Z.gXAXNXsXsXZXhXdXhXVXhXfXhXfXfXjXfXsXfXfXsXsXjXxXjXxXjXsXsXjXgXgXsXxXxXaXsXsXgXsXsXsXsXiXsXgXgXkXlXnXlXlXnXnXhXnXhXnXhXhXhXnXhXnXhXhXhXhXhXnXhXhXnX",
"_ _ ( ( ( ( ( ( ( ( ( ( ( ( ( ( ( ( ( ( ] g._ _ W W W ( g.g.m.m.UX[ [ [ ' ' ' ' ' i & 8 r 9 9 t e t v t r 1 , @ & 0 8 0 0 7 8 0 0 7 8 8 9 8 8 8 8 8 8 8 0 9 8 8 8 8 0 9 8 9 q 0 9 8 9 9 9 9 9 9 r 9 8 e 8 r q 9 r q r u r r q w u w r r r r r r 9 r r r r r r i u e t u t t e u t e e t t e v V V y e u y e v e i i r t j y q g M S ^ q.0.7.0.,.<.$.o.D S x F ..@.x +.9.,.$.<.$.*.<.9.9.9.u.^./.^.).^.^.^.^.^.^.^.^.^.^.^.t.^./.u.(./.^.(.t.w.9.*.&.*.=.*.@.O.@.=.9.u.t.1.<.1.8.8.9.r.d.u.9.8.9.u.t.9.1.1.<.=.<.1.4.1.e.e.4.6.1.0.0.#.! oXZXrXl _ JXMXFXCXmXCXFXMXJXeX. % + f . * = $ # & i a N b N b a a a p r i i w i 0 0 0 f * f = . . . = * . f 0 0 k.nXJXKXKXFXGXKXGXSXvXSXxXxXvXvXxXSXvXvXxXSXxXSXMXxXSXSXvXSXvXSXSXvXSXSXSXSXKXKXJXJXJXKXJXJXJXJXHXHXmX[ U V m v m e t w 9 8 7 7 1 7 1 1 1 6 1 0 6 6 7 7 6 7 8 7 8 8 8 8 9 8 8 9 8 8 7 7 9 7 0 w 0 w 8 1 1 7 8 8 6 6 8 r r 0 0 r i i 8 7 a r 6 $ + + $ & 1 , > & ; & % % % % % % % % % $ % % f = & % f % % $ % % % % & $ & % % % $ & & f , , $ 1 0 1 1 ; 8 ; 2 R Z.uXVXlXaXfXhXhXfXhXfXfXhXhXfXfXfXfXsXfXjXxXgXjXaXjXxXgXxXsXxXjXsXjXxXjXsXsXsXsXaXgXsXsXgXlXkXnXlXkXkXkXhXnXnXhXhXhXhXxXxXhXhXhXhXhXhXhXgXhXhXnX",
"_ _ _ ( ( ( ( ( ( ( ( ( ( ( ( W ( ( ( ( _ _ } _ W W W ( h.g.>.g.h.[ [ ] ' _ ' ] K ; % 9 u 9 r u e t u e e 2 , $ 0 9 0 0 7 9 9 8 8 8 8 8 9 0 8 8 0 8 8 8 8 8 8 8 9 9 9 9 9 8 8 9 8 9 8 9 9 9 9 9 r 9 8 8 q e e e r 9 9 9 9 e w e r i r r i u t r r u r u r t i u v e v e t e v e u t e v e 3 t V y e e M m y m e 9 r u u M j g A ! #.%.q.<.7.0.2.0.C.<.$.$...D x ..O.D %.^.$.O.$.%.$.%.0.0.9.(.^.^.C.^.^.^.^.^.u.].9.u.^.^.^.^.^.u.i.u.(.i.t.t.t.w.2.&.*.=.*.-.O...O.@.=.9.t.9.8.6.8.9.u.u.8.9.t.9.9.9.2.=.<.=.1.w.w.e.t.w.r.e.e.9.2.2.,.O.C.^ :.JXtXnXBXHXJXSXCXMXFXnX& # . = f = * $ # 0 s s K B B N C N s s i i i w 0 f f f f = = o = = f * f f 0 i [ MXFXJXFXJXFXFXFXSXSXMXSXyXxXvXSXSXxXvXxXxXSXxXxXxXxXxXxXvXvXSXvXSXSXSXSXKXKXKXJXJXJXJXJXJXJXJXKXKXJXeXR P v v v v e r e d 8 8 7 7 7 7 1 7 7 7 7 6 6 6 2 0 0 7 8 0 7 7 8 8 8 9 9 9 8 7 7 9 9 7 w 1 r 7 1 0 0 r r 0 0 w p s 8 6 w a r 8 7 1 & # # $ $ $ & > & & & , & % % % % % % % % % f % & % % % % = % % % * % $ & $ & % & % % & % % % $ , , , % > 2 2 ; u u 2 ; ~ Z.gXzXfXfXhXhXhXhXlXsXhXhXfXjXfXfXsXgXsXsXsXaXsXaXjXaXjXjXsXgXsXaXgXsXfXsXsXsXaXaXgXfXfXkXlXnXkXlXkXnXhXhXnXhXhXhXhXhXhXnXhXxXhXhXhXhXgXgXhX",
"_ _ ( ( ( ( ( ( ( ( ( ( ( ( ( ( ( ( ( ( ' h._ _ W W W _ ' >.g.m.k.] ] ] ' ' ' ' d & 7 9 9 9 u r e t v e e 1 % @ 0 9 9 9 8 9 9 8 8 8 9 9 9 8 8 8 8 8 8 8 8 0 8 8 0 9 8 9 8 9 9 9 9 9 9 9 9 8 9 9 w q 9 8 9 e r r 9 u 9 r w u w u r r r i i r r i r r r r r p r i e v e v t t t t t v e u r e 7 e r u y v t e e m i p q j j j l #.q.0.0.9.9.(.9.9.2.9.0.<.1.%.o.D h ..O.D $.2.O.O.o.o.O.$.2.C.C.t.d.C.^.d.].d.C.u.^.9.9.^.^.^.^.^./.^./.^./.i.u.y.u.w.1.*.-.*.=.=.*.@.....O.*.t.^.u.r.9.0.9.u.u.t.8.0.8.<.<.8.0.9.t.t.u.y.u.a.u.t.u.^.9./.,.o.^ C.hXNXVXBXJXKXJXHXSXMXGXs X . . f = * * * 9 b s N B B N B C b s s s i d f f f = * + + . = f % $ &  . .] gXMXLXJXKXKXLXMXMXSXxXMXSXxXxXxXSXxXxXvXxXSXxXSXxXvXvXvXvXSXvXSXSXSXSXSXSXKXKXJXJXJXJXJXJXKXHXJXJXKXJXm.T V v v e p d i 9 0 8 0 8 7 7 2 7 7 7 1 0 6 6 1 6 6 7 7 8 8 7 7 0 8 0 9 9 9 8 8 0 7 9 8 9 1 w 8 1 8 r a p 9 8 9 t r 1 % > 1 , $ % + + $ % ; > & & % & % & & & & & % f = % % & % % % % % % % % % % % % % % % & f $ & & % % * f % % % 1 1 % + $ > 1 2 % 2 9 2 2 l | .XfXzXfXaXgXhXgXsXhXhXhXfXfXfXfXjXtXjXaXsXsXsXjXxXsXjXgXxXjXaXjXsXsXsXsXsXsXsXgXgXfXkXkXkXlXkXkXhXhXxXhXhXhXxXjXhXgXjXxXjXxXjXxXxXjXjXgX",
"_ ( ( ( ( ( ) ( ( W ( ( ( W ( ( ( ( ( ( _ _ ' _ W W W ( h.] g.g.k.[ ] ] ' ' _ I & f 9 w 9 9 t 9 t t e u 8 , , , w 9 w 9 9 9 9 9 8 8 9 0 9 0 8 9 8 8 8 8 8 9 0 8 9 9 9 8 9 8 9 9 9 q 9 9 9 9 9 9 w w e e e r 9 r 9 w r 9 r r r i r u r r i u p u r r u r i u p u v u t e e e u t e v v e y e e u v y n t e e e e s u q j j k ! q.%.<.9.u.^.t.t.2.t.t.1.<.<.2.<.<...x D o.D O.2.$.o.o.! 5.O.2.(.4.u.d.^.].].d./.u.^.u.^.^.^.t.^._.`././.^./.].^.u.t.a.t.1.=.=.=.*.*.8.9.=.@...O.@.0.y.u.u.t.u.u.9.1.8.*.*.*.8.t.u.^.^./.^.^./.(./.t.[.^.1.t.0.<.S %.AXZXHXCXLXJXKXmXnXFX|   f = * * = = * i l p N N s s M b a p p i q 0 f * # = * = * . * % % f r s ' eXFXmXJXGXJXJXFXMXMXnXxXxXMXxXxXxXxXSXSXxXvXxXxXxXSXvXxXSXvXvXSXvXSXSXSXSXSXKXJXKXJXJXJXJXJXKXHXJXJXJXuXE E v v v e i i r 9 9 0 0 5 7 7 1 1 > 6 1 1 6 7 7 7 0 7 7 7 8 8 8 8 8 8 8 9 8 8 8 0 0 9 9 9 1 a i 0 1 1 8 7 & % $ & % # + # + @ + $ % % $ % , > > % % % % % & & & % % $ f % % % % % % % % % % % % % = f % & % % % % & % f * % * * f & % % $ % & & $ 1 % ; 2 2 1 1 2 l V.sXzXgXsXsXsXhXfXsXsXsXsXdXsXaXxXxXaXsXtXgXxXjXtXgXtXtXjXgXsXjXsXgXsXgXsXgXsXgXfXkXfXhXkXkXkXhXxXhXhXxXhXgXhXgXgXxXjXxXjXsXgXsXgXgXgX",
"( _ ( ( ( ( ( ( ( ( ( W ( W ( W ( ( ( ( _ g.h._ W  .W ( [ g.m.m.k.[ [ ] ' ] W d f 0 w 9 r r e e y t t e 2 , % , d u w 9 9 9 9 8 8 8 8 8 9 9 8 9 8 8 8 8 8 8 8 9 w 9 9 9 9 9 9 9 9 9 9 9 9 9 u 9 r e q w w r u r u w w u r r r r r r r i r r u i r r i i p u i r v e u e t e u t e e e t v r t v M y t r 5 e v e t u u g j Q ,.0.9.t.(.t.9.t.t.p.(.4.t.t.8.0.8.*.<.+.x ..o.x o.3.O.o.! x x o.2.C.9.9.^.]./.].^.u.t.^.^.^.9.u.^.]./._././.^./.i.i./.(.t.1.4.1.1.=.1.1.<.1.8.*.$.@.o.&.8.0.9.9.9.8.=.*.*.*.1.9.u.u.^./.`.]._.].].].{.r.p.w.^.8.<.<.Q ;.lXZXGXJXMXSXxXiXnXm.  f * = * = = * i K t M V M M B K b s l 0 f * * . = = + * = = f f 0 C ' } !.KXMXJXJXLXJXJXJXKXLXSXnXSXSXSXMXxXxXSXvXSXvXxXSXxXSXxXSXSXvXSXSXSXSXSXKXKXKXJXKXJXJXJXJXJXJXJXHXJXJXZX~.J K v v m t r r w 9 0 7 6 f 1 7 2 1 1 0 0 6 0 8 8 8 6 7 0 8 0 7 7 8 8 8 8 8 7 7 7 7 1 w 7 9 0 b a 0 + + + + O . . + + + + # $ % & 1 & & % % & % % % % % % & % & & % % % % % % % % % % % % $ % $ % % % % % % % % % # % f # f f * f * $ $ # % > 1 & $ $ 1 1 @ 1 8 e 2 2 2 / Q.nXhXsXfXsXsXsXgXaXjXdXaXsXjXjXsXsXaXsXjXsXaXaXaXsXsXgXsXiXsXsXsXsXsXsXgXgXhXhXkXgXkXkXgXhXhXhXhXhXgXhXgXgXgXgXgXsXgXsXgXsXsXsXgX",
"( ( ( ( W ( ( ( ( ( ( ( ( ( ( W ( ( ( ( ( h.' _ W W W ( } g.g.g.UX{ [ ' ' ' K $ f w 9 8 r u e t t u t e 1 1 % 1 i u w w w 9 9 9 8 7 8 8 9 8 8 0 8 8 9 8 9 8 9 0 9 9 9 8 8 9 9 9 9 9 9 8 9 9 9 9 e w e 9 r u r 9 r r i r r r r r u i u r t i i r u r u r p p r t e e v v u y t y v t e v v 2 e M y e e d e t t e u u j j A ,.C.<.9.y.).^.w.t.(./.^.t.t.t.1.<.2.<.*.2.2.x h x x x 3.! o.o.o.x Q 2.0.0.9.^.^.^.d.C.t.C.u.t.u.^.^.^.].].`._._.^.(./.^.u.p.u.r.e.1.4.1.=.=.1.1.8.8.1.&.O...o.$.$.@.@.@.@.&.=.e.u.u.u.(.].`.'.`.`.].]././.+X/.t.u.t.8.<.! #.ZXsXpXxXcXyX%XiXG.. = = * = = . * p N r s N v s s s p s i f & = o = * = * = $ f f 0  .' B.yXJXmXKXJXJXJXJXKXJXJXKXSXSXSXSXVXxXxXxXvXSXSXxXSXxXSXxXSXxXvXxXSXSXSXSXDXKXJXJXJXJXJXJXJXJXJXJXJXJXJXKXnX] J n v e t t r w 9 d 7 6 6 6 1 7 1 1 7 7 7 7 7 7 8 7 0 7 7 8 7 8 8 0 8 8 7 0 7 0 7 7 1 8 6 1 > s i $ O O O o + + $ $ % % & % $ % $ + % & & > 1 1 > & > & & & & & & % % % % % % % % % % % % f % f % % $ $ $ $ % % * f % % * * * * * f % $ & & % * + $ % % 1 1 , $ , 1 2 3 2 j >.aXVXsXfXsXjXsXaXdXdXdXtXjXyXsXaXaXsXsXsXsXaXaXaXsXsXsXjXsXsXjXsXgXsXgXhXkXkXnXgXfXgXkXnXhXxXhXhXgXgXgXgXgXsXgXgXtXtXgXxXaXsXsX",
"_ _ ( ( W ( ( ( ( W ( W ( ( ( ( ) E ( ) _ ] ] _ W W W ( [ UXm.k.{ [ { ] ] I > 6 8 8 w w w w w t 9 9 u r 1 % % 2 e r e e q 8 8 8 e e e e 7 e e e e 2 e e e e e y e 8 8 q e e e e e e e e e e e e r e u e u u e r t e t y e t y e v y t e e u y t e e e y y t e y y e y e y y y y y y e y t e e e e e e e d e t r u u h z #.0.2.0.^./.^.t.(./.^.(.9.u.t.t.1.<.<.&.&.-.*.1.O.x c c c x D ~ ;.S z x q.8.9.^.d.u.9.^.^.d.(.y.u.^.u.u._.].`.`.].].].].d.d.u./.a.t.8.1.4.8.=.=.=.=.&.-.&.*.-.@.......@.*.*.1.e.w.t.i././._._.`.`.'.`.`.[.[././.(.u.t.(.2.%.! ~ lXgXxXMXxXPXMX,X  f X * = * % # s s b l s s b b b p d q & * = = + = * . f f f d 0 E B.GXLXFXKXJXJXJXJXJXJXGXHXKXKXLXmXSXSXxXSXxXSXFXSXSXxXSXvXvXvXSXMXSXSXSXFXKXKXKXJXJXJXJXJXJXJXJXJXJXKXJXJXJXE.J Y a p r w r w u 9 8 8 7 0 7 7 6 6 7 7 1 7 7 7 7 7 7 9 7 8 0 7 6 6 > 6 6 6 6 7 7 8 8 7 0 7 1 1 1 7 7 1 % $ + # % % O % % % & % % % % & % & % & & & % & & $ & & > & & = % $ f & f & % * = % % # f % & f % % % % % $ $ % % * f & % % & % % * % % % % % % % % = & & & & 0 ; f 2 0 L Z.VXsXdXdXdXdXrXsXdXaXsXsXsXrXrXaXgXsXsXsXaXsXsXsXsXjXxXjXsXsXxXjXgXfXgXfXkXfXdXgXfXkXfXfXfXgXgXdXgXsXaXsXsXsXgXsXsXaXpXsXsX",
"( ( ( ( ( W W ( ( ( ( ( ( W ( W ( E E _ _ ] ] _ W W W ( [ { 7.k.{ { ] [ _ p < > 7 8 8 e 8 e e w r r r 9 1 % 1 8 e u e r e 9 8 8 r e e 2 e e e u e e e e e e e e 9 8 8 e r e u e e u t e u e e t u e e e e e r e y e u e u e e y e y t y y e e y e y y u t t t y y e e y y 4 y e y e y y t e 8 e e e e e t m t t u u j S %.u.1.t.(.^.(.(.^./.^.^.(.(.t.9.t.(.t.1.t.2.-.&.=.3...x x c c c z ~ ;.z k #.0.C.C.^.].u.u.u.u.y.y.y.t.u.^._.]._._.].^.].d././.^.^.u.t.t.e.4.4.1.=.2.4.2.=.&.-.@.@.-.-.-.=.=.e.t.y.u.^._.`.`.`.'.}.'.'.`.`.{.`.`./.^.t.t.4.&.&.#.C.GXGXKXFXvXZX,X= * = = = * # 0 i s v  .s K K s s s d 0 * + . . = * = * f f f s ( | SXSXFXKXKXJXJXJXJXJXJXJXJXHXHXCXmXMXMXMXxXvXMXSXSXvXSXvXvXSXMXSXSXSXSXSXFXGXGXKXJXJXJXJXHXKXJXJXJXJXJXJXJXMX{ I N a a i r r w 9 8 0 7 7 1 2 6 1 6 6 7 0 2 7 0 7 0 7 8 8 8 7 0 6 0 7 6 2 6 6 7 7 7 7 8 7 7 7 1 1 0 7 w 0 % % % % % & $ % $ % & & % & % & & f & f f & f & % f f > f & f % & & % & & % % f % & % % $ % % % % % % & % & & & & % * % % % % % % % $ % = f % % % f % % % f * * ; 6 ; ; C ' gXsXdXaXdXfXdX#XdXfXdXdXsXsXaXtXaXaXaXsXaXaXsXgXsXsXgXsXsXsXgXsXfXgXfXfXfXfXfXdXdXgXdXiXdXsXdXdXaXiXrXsXsXsXaXaXtXaXsXsX",
"( ( ( ( ( ( ( ( ( W ( W ( W ( ( E ) ) _ ] ] ] _ W W W ( [ UXUXm.h.UX' } K < 5 , 7 7 d w e e w r t r u 9 ; $ 1 e r e r q 9 e q 9 r q e e e e e e e e e e e e e e e 9 9 e r e u t u e e e e t e u e u r e e e e t e y t e e y e e e t u y e u y e y e y t t t t e y y y u y e y y y y y y r e e e u e r r m d t t y u j ! ,.^.C.(.^.^.^.^.^._.^.^.9.t./.^.t.9.9.1.1.4.=.*.*.1.*.&.5.x c : c : z #.S x o.0.C.9.].(.^.u.u.y.u.u.u.u.^.]._.].].^.]./.^././.d.u.u.y.t.t.e.e.=.=.=.=.1.1.=.3.-.-.@.-.&.=.1.w.u.(.i./._.`.`.`.'.'.OX}.`.`.`.`._././.(.u.t.2.2.#.~ fXGXKXFXPXSXyX= . . = * * * s i K v N b K K s s s 9 % * . = * = * f f f f 9 / E iXKXnXKXJXJXKXJXJXJXKXJXJXHXKXFXLXMXMXxXDXMXSXSXvXSXSXvXSXSXvXSXSXSXSXFXFXFXKXJXKXJXJXJXHXJXJXJXJXJXJXJXJXJXW.I I a p i i 9 w 9 8 0 0 7 0 7 1 1 1 7 7 7 7 7 7 7 7 7 0 7 8 7 0 7 0 7 7 1 7 1 7 7 7 6 7 8 7 0 1 6 6 1 1 i s e % % # $ > % % % & & & & & & & & & & & & & & & % & & & & & & & % % % % & & f & & & f $ % % % % = % % & f $ & % % % # * $ % % % $ % % $ % % % * # % % % % % f ; f 0 f & ; 0 N V.dXzXsX#XdXkXrXrXrXrXrXaXsXsXaXsXaXaXaXgXsXsXgXgXsXgXsXsXaXsXsXgXfXfXsXsXsXdXpXsXsXsXpXdXiXdXtXtXtXtXrXaXrXtXtXsXaXsX",
"( ( ( ( W ( W W ( ( ( ( ( ( ( W E ) E _ _ ] ` _ W W W ( [ UXUXk.UXUX[ | w < 7 5 d 7 w w r e w r i t t r 1 $ 1 e r w r w r w e r w w q e e e e e e e e e y e e e e q e e r r e u e e u e e t e y r e t t v v e u y e u e y e e u e e y e t t e u t y t t u t t t y u u e e y y e e y y y r e u u y t t r r t r r j q j #.<.^.1.t.^.^.^.^.].+Xu.(.(.u.t.u.^.(.t.1.1.8.1.=.1.1.0.*.$.~ x x : : : : S k Z ^ ,.0.C.].C.i.(.u.t.u.u.t.^.^.].`.].^./.].].^.^.^.i.(.p.u.a.r.e.4.=.=.2.=.=.1.4.*.-.@.-.&.*.1.w.t.i.i./.`.{.`.}.'.OX'.'.'./._.`.+X_./.(.(.p.2.9.<.o.V.ZXFXFXPXSXxXf o = . * = f  .a N K N s l i i i i 6 = = + = * % f f 0 9  .' W pXFXSXJXJXJXJXKXKXKXKXFXFXKXFXGXFXFXSXmXMXFXSXSXSXSXFXSXSXSXvXSXSXSXSXFXFXFXGXKXJXJXJXJXJXJXJXJXJXJXJXJXJXHXCX{ I K s r i r 9 9 9 9 8 7 7 7 1 7 1 7 6 6 7 7 7 7 0 8 7 8 7 7 7 8 7 7 7 7 7 7 7 1 0 1 1 6 7 0 1 1 7 1 1 > 0 N p $ $ & $ $ $ % % & & , % & & & > > & f & & & & $ & & & & & & f & f & & & > % % % & & f > > f % % % % % % % & % % % % = $ % % % % % % % $ & % % % % % % & % f % * ; ; ; ; 0 ; 2 | !.nXgXtXrXaXfXsXaXrXrXaXaXsXaXaXsXaXjXsXaXsXsXgXaXsXsXsXgXsXfXsXgXfXsXsXpXaXsXsXpXaXrXaX#XtXtXXXeXtXtXtXtXyXtXtXtX",
"( ( ( ( W ( ( ( ( ( ( ( ( W ( W ( ) E ( ( ] ] _ W W W ( ] { 7.k.{ { [ b < 7 7 e 7 9 e w w e r r r t t 9 1 % 1 r r u r r u 9 9 9 e r e r e y e e u e u e e e e e 8 e e u e t e t e r u e e e y e e u e t e t u e u t e t t t t e u y e t e t e t u t t t y t t e y e y y y y y v y y y y y e e v a u r r e r r r l u z %.,.^.2.u.].(.^.^.`./.^.t.^.t.9.9.t.(.t.t.w.4.e.8.e.1.1.1.2.2.O.k c c 3 : - g k g #.V.,.].^.u.(.u.u.t.9.r.d.^.].].].^.d.]._.].s./._.d./.i.a.t.t.4.a.4.4.=.=.1.e.1.-.-.-.=.=.=.4.r.p.i./._.{.`.'.}.OX}.'.'.`.].+X].]./.(././.t.1.t.,.~ tXGXVXMXMXMX* * * . = # i s N K K s s a i i i 0 # + . * * f f f 0 i s } E iXJXMXJXFXFXGXGXFXFXFXFXFXFXCXFXKXJXKXKXKXSXSXKXSXSXSXSXDXSXSXSXMXSXSXFXKXKXKXJXJXJXJXJXJXJXJXJXJXJXJXJXJXJXJX9XP I b a r w 9 r w 9 8 8 8 7 7 1 1 1 6 6 0 7 7 7 7 8 8 8 0 8 7 8 7 7 7 6 6 0 7 1 0 0 7 1 1 1 > > 7 6 7 1 > # w 8 & 1 1 # & % $ & & & 1 % ; > > > > 1 > > > f & > 1 > > > f ; f 1 > > > & & & % & ; f 1 > > & & & % & % $ % % % % % $ $ % & % % % % % % % % f % $ % % % & % f % % % & & & * 6 0 ; 8 } %XzXaX#XsXsXrXaXaXdXaXaXaXaXsXaXjXsXjXgXaXsXsXsXaXgXjXfXfXsXgXdXdXaXtXtX#XpX#X$X#X#XpXeX@X%X%X%XtX%X%XtXtXtXeX",
"( ( W ( ( W ( W ) ( W ( W ( W ( W ) E ) _ ] ] ( W W W ( ] { { m.UX' _ e = 7 7 5 9 9 8 9 e e w r r r t r 1 % 2 p a i i r r r u 9 u r e t u e e y e u e t y e e e e e t e t e t e r e e r e y e u u e v e t t t t t y y y t y e t e t t t y e y e t t t t y t t y y e y e y e y y y y y y m y e v u r 9 w r t a y j q Z ,.2.^.t.(.^.^.(.^.].(.^.^.t.u.^.t.t.0.9.t.t.w.t.a.t.e.t.4.4.2.1.@.x x o.D : o : o : #.,.C.C.^.C.^.(.9.9.u.9.^.]._.].]./.]._.].].]./.)././.4.a.a.a.a.t.a.t.4.f.4.=.f.=.=.-.&.=.8.e.u././.[._.{.{.}.'.}.}.`.'.`.`.].+X]././.y.t.t.C.,.#.C.ZXVXMXxXMXf X = . . % s i s s K p K a i i 0 * = * * f f 0 0 9 l  .( ' iXJXnXJXJXFXFXGXFXFXSXFXFXFXFXGXKXJXJXJXJXJXDXvXSXSXSXSXbXDXSXSXSXSXSXSXGXKXJXJXJXJXJXJXJXJXKXHXJXJXJXJXJXJXJXCXm.K N b i p i i r 9 8 0 0 0 7 1 0 1 6 6 7 0 8 8 0 8 8 8 8 8 8 8 8 7 6 6 6 6 0 8 7 7 1 1 6 1 1 1 > 7 7 7 7 1 > 1 1 7 9 1 # & & & & & 1 % % , > > > 1 1 > f > > f 1 1 & 6 6 > f 1 6 7 6 f f > f 6 6 f > & > & f & & % $ & % $ $ % % % % % & & % % % % % % % % % % % % % % % & & f f f f f f % ; & ; ; 1 v 7.gXgXfXrX#X#XaXdXaXaXaXaXaXaXaXsXsXaXaXgXsXsXxXsXgXgXgXsXsXsXsXpXtXtXpXeX#X%X%X%X%X@X%X%X%X X%X%X%XXX9XeX X",
"W ( W ( ( ( ( ( ( ( ( W ( ( ( W ) E ( ( ` ] ] ( W K W ( ] { { UXUX' b , $ 5 7 > 8 9 8 8 8 e r r e u u e 1 % 2 a i p t r u r r r e r t t y e e u e e u t y e e y e u t e u e t e e t u e y e e e v e e v t e t e t e t t u t e u y y y t t t e t t e t t y e y t y y y u e y y y y y y y y y e v r u 9 u i p y t u 3 L ,.0.C.9.t.(.^.^.]./.^.9.^._.^.^.^.]./.t.8./.t.1.e.a./.t.1.2.t.1.2.4.$.x #.o.o o o o 3 #.;.9.C.^.^.u.u.u.9.9.d./.].d.^.d.]./.^.]./.^.i.^.(.a.a.p.a.p.p.a.a.r.e.4.e.e.4.=.-.=.=.1.t.a.u./.[.{.`.[.`.'.'.'.}.OX'.oX+X`.].]./.u.t.t.t.2.7.#.aXGXxXPXFXW   + . . 0 i p N n s s  .s i 8 & # = f 0 0 d i d  .W ( ] gXFXnXJXFXKXFXFXFXFXSXFXFXGXKXKXJXJXJXJXJXJXKXDXMXMXSXKXSXSXKXSXSXSXSXSXFXFXKXJXKXJXJXJXJXJXJXJXHXJXHXJXHXJXJXJX%X| I s a p p w i r 9 7 6 6 6 7 0 7 6 7 7 8 8 8 8 7 8 8 8 8 8 0 7 8 0 7 7 7 0 8 7 7 7 7 1 1 6 1 1 7 2 6 7 6 0 8 1 1 7 r r 6 & 1 % & & & , , & > f 6 > 6 f 1 1 > > 6 f 6 > 1 6 1 f 6 6 6 6 6 6 7 7 6 1 6 > > > f & & % & $ % % % $ % f & = $ & % % % $ = f % % % % % % % % % % $ % = # $ % f ; 6 f ; 6 & 2 t V Z.#XgXsXrXrXaXpXaXaXaXdXaXjXaXfXsXaXsXgXsXsXgXsXgXsXsXsXsXpXtXtX#X%X%X%X%X%X%X%X%X%X%X X XQ. X X,X X,X X",
"( ( ( ( ( W W ( ( W W ( W W ) W E E ) ( _ ] ` _ W W W ( ] { >.k.[ / m $ 1 1 e e w 9 9 9 8 w u t r r r 8 , $ 8 s u p t r r r r i t u t t y e y y e t e e e y e 4 r t y t e e t u t e t t e u y y t e u t e u t t e u t t t e e e y y y t u e y y t t t u v v y y y y u y y e y e M y e y e e e t q e t p p p t r u 3 ~ ,.2.9.9.9.^.^.^.].^.9.9.^.^.^.^.(.u.9.(.^.p.u.a.1.4.t.a.a.a.1.1.t.2.&.2.o.x ~ o o o o g Q <.2.0.(.u.9.9.8.9.u.^._.^.d.d.].].d.d./.^.^.i.u./.p.(.i.i.a.(.a.e.e.a.e.e.e.=.4.=.=.=.e.t.t.^./.{.{.}.'.}.'.OXOX'.`.`.`.`.`._.+X(.t.t.t.C.2.~ oXFXgXnXGXg.X * + # 7 9 K l C u K i i i 1 . . % 0 i  . . .K E / { eXFXJXJXKXFXJXFXFXFXFXFXFXFXKXKXJXJXJXKXJXFXFXmXSXvXyXKXKXMXSXSXSXSXFXSXSXFXGXKXJXJXJXJXJXJXJXJXJXJXJXJXJXJXHXJXHXk.K I n r a w 0 9 w 9 7 6 7 7 7 7 7 0 7 7 8 8 7 8 8 8 8 0 8 8 6 0 7 7 8 7 7 7 7 8 8 7 7 7 7 1 1 7 7 0 > > 1 6 1 7 1 % 8 K N ; & 1 1 > > & & % 1 > > > 7 > 1 > 6 6 6 7 6 f 0 6 7 6 6 6 7 7 7 7 f 1 1 6 > 6 > 1 & & & % $ f % % & & & & & $ % % % % % $ % * % % % % # % % = % $ f f f & % f & % * % & & ; & , , 2 ^ Q.sXaXtXtXsXsXaXsXsXsXaXsXaXaXgXsXsXyXsXsXsXsXsXsXaXaXaXtX@X%X%X%X%X$X%X!.Q.Q.%XQ.!. X!.!.!.Q.!.Q.!.",
"W ( ( ( ( ( ( W W W ( W W ( W ( E ) E ( _ ' _ _ W H W ) ] UX[ k.g.p , 7 1 > 8 8 8 8 8 9 9 9 q e r r 9 8 1 , t t p u r p i a i i t t t t u t t t e y e e y y y e r t e t u e u v y y e e y y u y e v e e u t e t t t e y e v u v v e v u e v e v t t u t t v t v u y v y y u e y y t t t v t e e y u u s n r e t u u A #.,.0.1.9.C./.].^.^.^.C.p._.^.^.9.^.^.^./.t.u.(.p.y.p.t.t.t.e.t.4.1.2.*.$.#.S - o o o o x ! ,.(.C.t.1.2.t.9.t.u.]._./.]._.`._.^./.^./.^.^.p././.+X/.a.a.a.s.p.a.4.e.a.4.4.=.=.e.8.e.w.p./._.`.|.'.}.}.'.'.'.'.'.`.`.].]._.p.t.t.9.9.<.,.:.rXPXnXZXeX. $ . + w i p I K l i r i 6 % $ O % i s L l E [ | m.eXKXKXJXJXJXJXJXKXFXFXFXKXKXKXKXJXKXGXKXKXFXSXSXSXPXxXiXMXDXKXDXDXDXKXKXKXDXKXKXJXJXJXJXJXJXJXJXJXJXJXHXFXJXHXFXHXyXT J K r n 9 w w 9 0 0 7 8 0 1 8 7 7 7 6 7 7 7 8 8 8 8 8 8 8 7 7 7 7 7 7 7 7 7 7 7 7 7 7 0 7 6 6 > > 6 7 1 6 7 1 7 8 1 > s N 8 1 % & 1 1 1 & > 1 1 1 1 8 1 7 2 6 2 7 1 0 8 8 9 7 7 9 9 9 8 8 0 7 7 7 1 1 1 > > > > & f & % % $ & & & & % % % % f & & % % % = # & % % % * f = % f < $ % f f % f & & f % & % f ; 1 @ 0 :. XfXsXtXaXsXsXaXdXdXdXsXsXsXtXtXaXsXsXsXsXsXiXaXtXtXtXtXpX$X%X%XoXQ.!.!.!. X!.!.!.Z.E.E.!.!.!.!.",
"( ( W W W ( W ( W ( W ( ( ) ) W ) E E ) _ ] ] _ W K W | ' { { 7.| 8 , 7 1 1 e 8 9 8 9 9 9 9 r e r t q 8 1 & t p i p p i p u p t t t t t v e u t y y y y e y y e e u t t e v e e e y y y e t y y v e v u t e y t u y t y v e v e e v e e v e v u t t t t t t y t u y y y y y y y y t v t e y y e y u t i m r u e y g j ! $.<.2.9.9.u.(.^.^.^.^./.u.^.u.^.^.^.u.^.t.t.t.y.a.y.a.a.4.t.a.4.w.1.2.2.#.C.~ - o - : : x D &.C.t.t.i.0.9.u.u.].].^.^.d.].^.^.^./.(.i.^././././././././.(.a.(.a.e.a.e.r.4.=.=.e.4.w.u./.)._._.`.'.}.}.}.'.'.'.'.'.`.`.`./.y.t.t.9.2.,.;.!.kXnXiXHXI X # . i p s K s s s i 9 % # $ $ 6  .W s ( _ E V.pXJXJXJXJXJXJXJXKXJXKXJXKXJXKXGXJXKXKXKXFXBXMXMXPXxXxXPXxXxXSXKXKXDXKXKXDXKXDXKXKXJXJXJXJXJXJXJXJXJXJXKXJXJXFXJXCXHXV.K K b 9 a w w w 9 9 9 7 0 7 0 7 7 1 0 0 0 7 9 8 8 8 8 8 7 8 8 7 7 7 7 0 1 1 1 6 7 0 6 6 1 1 1 8 7 7 6 7 1 > 1 8 8 8 > > 0 0 & 8 1 > > 1 1 1 1 1 > > 1 1 1 1 7 6 7 7 0 0 0 8 0 7 7 8 9 9 9 8 0 2 8 7 7 7 1 1 1 > 1 & & & % % % $ & & & % % & % % % % % % % % % & % % % % % % & * $ f f $ % f % % & & f & f ; f ; u 0 - 0 7.tXBXpXsXaXaXdXaXaXgXgXaXgXgXsXsXgXsXsXgXsXtXtX%XtXtX%X%X%XIXIXoX!.oX!.!.!.!.!.E.Z.E.E.!.!.!.",
"( W ( ( ( ( W ( ( ( W ) W W ( W ) E ) ( _ ] ` _ W W W _ ' { UXUXp < < 8 7 7 w 8 7 7 9 9 9 9 9 9 r i e 9 % ; r t s p p u p p t t t t t u u y t t y e e e y y y y t t t u y u v t e y e t y y e e e t e t u t t t t y t t u v t t u v e v u v e v y y t t t t v y y y v t y t y y v t t v v v e y s u r q e e e v t j 3 S #.%.8.<.9.t.^.]./.^.^.^.C.u.u.9.9.9.9.^.(.i.^.u.u.a.a.(.t.a.a.t.4.1.8.1.2.#.<.,.c o o : x o.O.2.9.9.9.1.9.w.u./.^.d./.].]././.].]./.^.+X/./././.{.+X+X/.p.(.p.a.a.e.a.a.e.1.1.8.8.e.u./.d.)._.[.`.}.}.'.'.'.`.`.`.`.`.)./.t.t.e.9.0.,.o.C.@XgXgXJXV.  + . a n b N s s i i 0 + + * & 9 I I E E E m.gXKXJXJXJXJXJXJXJXJXJXKXJXJXJXFXGXFXFXFXLXmXxXxXPXxXxXvXMXMXxXvXKXKXKXKXKXKXDXKXKXJXJXJXJXJXJXJXJXJXJXKXJXHXJXHXFXHXpX| b K v r p d w 9 9 0 9 7 8 0 7 2 1 7 7 7 8 8 9 0 9 8 8 0 8 8 7 8 8 8 0 7 1 1 1 6 > 2 1 1 6 1 > 8 0 7 7 0 > 1 > 7 8 6 6 7 > & 7 9 e 1 & % 7 0 > > > 1 > 7 1 7 1 7 7 7 8 7 7 0 8 8 8 9 r 9 9 8 7 8 8 8 2 7 1 1 > 6 & & & % % % % & & & & % $ & & & = % % % % $ & f % % * % % % % % f % % % f f % % f % % & & f > & * % f ; 0 | C.lXsXtXtXdXdXrXdXtXgXsXsXaXgXgXsXsXsXsXaXtXtX%XtX%X%X%XoXoXIX!.!.!.Z.!.E.E.A.E.A.E.E.E.E.",
"W ( W ( ( W ( W ( W ( W ( ( ) W W W E E _ ] ' ( W W K _ ' { k.( > , , 8 7 7 e 1 9 9 0 9 9 9 u 9 r u t 9 , % t y a a p a u p t r u y t y y u t t y y y y y e y e y y y y e u t t t u y y y e y y t u e v t t t e u e t t v e v v v u v t v e v e y t y y v v u v t v u v y y y y y t v e v e m t y r e 8 e 7 e e e u : Z +.#.<.q.9.C.^.^.u.C.9.^.9.^.u.9.t.9.9.^.^.^.^.t.(.(.p.y.a.p.y.t.t.t.t.t.2.2.%.0.2.x : o : D D 3.1.1.8.9.9.9.u.^.].d.^.]./.^.]._.^.^./.].`.+X/.`.+X[././.p.a.a.a.a.4.a.p.a.e.e.4.8.e.y.i.i._._._.`.`.}.`.{.{.`.`.`._.]._.p.t.e.w.1.9.2.^ C.Z.iXNXHXm.  # $ d b b l s l i 9 % . + % f s E L _ I m.mXJXJXFXJXJXJXJXJXJXJXJXJXJXJXJXGXFXSXSXvXPXPXxXPXvXnXMXSXSXSXMXvXSXKXKXKXKXKXKXKXKXJXKXJXJXJXJXJXJXJXJXHXJXFXKXJXMXHXm.J b a a i i p i 8 8 8 8 8 7 7 7 7 0 7 7 8 7 8 9 0 9 8 8 8 7 7 7 8 8 8 0 7 1 0 7 7 7 7 0 7 7 7 0 6 6 6 7 7 2 1 1 6 7 1 1 9 0 1 i 0 u r 7 & > 7 2 7 1 8 2 7 8 8 7 7 9 8 8 8 8 8 9 9 9 9 9 9 9 9 9 8 8 8 1 7 7 7 1 1 & & & % % % % $ $ % & f & & f & f % % % $ & f $ % % % % % % & % # % = f % % % f % % f & % f & f % ; 0 8 f ; ; / Q.AXkX@XrXgXsXaXsXaXgXgXsXsXsXpXsXsXaXtXtX@XXX%X%X XQ.!.!.Z.oX!.E.E.!.Z.E.Z.E.E.A.E.E.",
"( ( W ( W ( W ( ( W ( W W ( W W W ( E ) _ ] ] ( W W K ( ] 7.[ p , , 2 8 7 7 8 1 9 0 9 0 0 w q d r t r 9 & & i p a a i u y t t u y y y y y y y y y y 4 y y u y e y y y y y t u y y y y u t u u t t t t t t t t t y y t t v t v u e e v u u v v v t t v t u v e v y y y u y y a y y y t t y v y t e e e e e w e e 3 y 4 A ! +.,.*.0.9.u.^.^.u.u.^.C.)./.^.^.^.9.9.(.^.(.u.u.t.u.p.a.a.t.t.u.u.u.r.u.1.2.<.*.q.,.S c D o.t.1.1.u.8.w.u.u././.).d.].^.^.^.].^.^.^.+X`._.`.`.+X_.].^.(.a.t.p.a.t.t.a.a.a.a.e.8.e.t.u./.)._.]._.`.`.[.{.`.`.`.`.`._.].^.w.e.8.1.9.9.#.>.!.XXnXZXu   $ , i n b K s s w ; # . $ % 0 J / ' L { PXJXmXJXJXJXJXJXJXJXJXJXJXJXJXGXKXLXMXxXPXxXxXxXnXMXSXLXKXGXFXDXSXMXSXDXJXKXKXKXKXKXJXJXJXJXJXJXJXJXJXJXJXJXJXHXHXJXHXpXT I B e t p w w w 8 8 8 8 0 7 7 7 7 8 7 8 8 8 7 7 9 8 8 8 8 7 0 7 7 7 8 7 7 7 6 7 7 7 8 8 8 8 8 7 1 6 6 0 0 7 1 7 1 8 1 1 9 8 0 9 6 i N r > > 7 8 2 8 1 e 2 8 2 8 7 8 8 8 9 9 9 r 8 9 q e r e q 8 e 8 1 e 8 1 2 1 6 > & % & $ & % $ % % % % & & > & & & % % $ % % & % = % % % % % % & * % & & & % % % & & % & & f f 6 f = # 6 0 & ; j { @XVXgXtXsXgXaXaXgXgXsXiXaXsXsXsXtXtXtXXX X%XoXoX!.!.!.Z.!.E.!.E.E.E.E.E.E.A.E.E.!.",
"W ( ( W ( W ( W W ( W ( ) W ) W W W ) ( _ ] _ _ K H W ( [ { E > > 7 7 8 8 2 8 8 9 0 9 9 q w q 9 w a u 8 & & a a a p p p y y t t y y y y y y t t y y y y y y y y y y y y y y t y e y e y t t t t t t u v t t t u t t t t t t y y v v e v v u e v v t t t v t t t y y y y y y y y t t t y y y y e 2 e e e r d m e e u 4 j ^ +.%.%.<.0.9.C.^.C.^.^.9.].^.^.^.^.^.9.9.^.9.(.^.i././.^.p.u.a.y.i.u.8.1.a.e.=.9.<.<.^.<.0.2.t.9.1.t.1.9.r.u.^.^.d.].].].d./.]./.^./.`.+X`.`.`.`.+X+X+X/.p.(.a.a.a.t.a.(.a.r.w.8.e.w.r.u.i._._._.`.`.}.{.[.|.`.`.`._._./.t.e.8.9.9.<.,.^ !.Z.FX~.  $ + 1 i a b  .l s ; * . = % & i R ' E | yXJXCXFXJXJXJXHXJXJXJXJXJXJXJXFXFXSXSXPXxXxXPXMXSXBXFXFXKXJXJXGXFXKXDXMXLXKXKXKXKXKXJXKXJXJXJXJXJXJXJXJXJXJXJXKXHXJXLXKX7.K J n e a v e w 7 0 8 8 7 7 7 0 8 7 7 8 8 7 0 0 0 9 8 7 0 7 1 1 7 6 0 0 7 2 6 6 6 7 7 7 8 7 8 7 8 6 7 8 1 6 7 7 1 1 7 0 1 8 9 8 7 % 9 s r 6 > 1 8 1 8 e 1 e 8 8 8 8 8 8 8 9 w u r e 9 e e 9 9 e 9 8 8 e 1 1 1 1 1 > f & & $ & % % % % & & % & & > 1 f & % % % % $ % % f % % % % % & % % % * & % % % & % % $ % $ % 6 = $ 0 0 $ % 0 1 % $ l V.fXkXsXgXsXtXgXgXsXsXsXsXaXtXaXtXtXXX,XQ.%X!.oXZ.oX!.Z.!.A.A.(.E.A.(.E.!.!.E.E.",
"W ( ( W ( ( ( W ( W W ) ( W ) W W ) W ) _ ] _ _ W H W ( [ _ s , 1 8 1 8 2 8 2 8 q 0 9 9 9 9 u 9 w t w 8 ; 1 s p j p p p y y y y y y y y y y u y y y y y y y y y y y y y y y t e u y t u t t y t v t y t t y t t v v t t y y t y v v v e y v v v e v u v v e t t u y y y v y y y y y y y y y y y e r r r r m e e u u 4 j #.%.%.%.%.<.0.0.u.C.^.^.].].u.9.9.^.^.^.C.^.^.]././././.i./.u.u.t.t.9.8.a.a.y.e.=.0.8.$.t.t.2.2.t.0.1.t.9.u.u.d.d.^./.^.].].]./.^.^.].`.].+X`.`.{.`.].+X/././.i.a.(.(.a.a.p.a.e.w.e.w.w.t.i./.].^._.`._.[.[.`.}.`.`._._.i.t.1.8.w.9.2.,.^ C.!.fX0   1 X 7 d s  .s s d @ # . # & 7  .' ' E !.JXKXFXJXJXKXJXJXJXJXHXJXJXKXLXSXMXPXxXxXMXMXLXFXGXKXKXJXJXKXJXJXKXKXKXDXSXLXKXKXKXKXKXJXJXJXJXJXJXJXJXJXJXJXKXDXJXHXLXpXI P b t t a n r e 7 9 8 8 7 7 7 7 7 7 7 7 8 8 8 8 8 8 8 8 8 7 0 1 0 7 7 8 7 6 1 1 6 6 6 0 8 8 0 7 7 0 8 7 7 1 7 7 > 1 1 7 8 0 9 r 9 6 0 8 7 6 1 1 0 8 1 8 2 8 8 8 8 8 q 8 e w w q i e e e 9 9 e 9 e e 2 8 8 8 2 1 1 f > f % % % $ % % % % & & & & > & & & & & % % % % % % $ $ % % % & % * * & % % * % * % % = f & & 5 f f < f 5 % % 6 8 2 ; ; K V.dXtXsXsXsXsXgXgXsXgXsXpXaXtXtXXX XoXQ.Z.!.!.!.E.Z.E.E.!.A.E.E.A.E.E.E.E.Z.",
"( ( W ( W ( W ( W ( ( W W W W ( W ( W ( _ ` ] _ (  .W ( ' W < > e e , 1 8 8 0 8 8 8 9 0 q 9 w w w y e 8 > 2 l i i p p p t t v e y y y y y y y y y y e y y y y y j y y y e y e y y u t v u t t t t t u t t t v t y y t t y t t t v v u v t e v v t u v t t v t u y y y y v M y y y y y v y y y e u y t r d t e 7 e 2 4 3 q.q.%.%.$.%.*.<.0.9.^.^.9.^.^.9.^.].^.u.^.^.].^.^.^.(.u.u.u.u.t.t.9.u.i.a.e.a.r.8.1.8.9.1.2.t.1.1.8.8.8.w.u.i.u.d.].].^.d.^.d.^.^.^.(.].'.'.'.OXOX'.`.+X+X[.+X(.a.a.t.a.p.a.a.t.t.t.t.t.u.i.)././.).)._._.[.`._.`._._.].u.w.=.8.8.9.<.<.;.7.hX:.  O O + 8 n s l s u 0 . # = $ & 0 I ' } m.BXJXGXJXFXJXJXJXJXJXJXJXKXFXFXnXxXxXxXxXnXSXGXGXKXJXJXJXJXJXJXKXJXJXKXFXDXDXMXKXKXJXJXJXKXJXJXJXJXJXJXJXJXJXJXHXJXKXDXHX7.N B v e v t e e e e 8 8 0 0 0 7 7 8 7 7 7 8 9 8 8 8 9 8 8 8 7 7 7 7 8 8 8 7 7 6 6 6 7 0 7 7 8 7 7 8 1 8 7 6 0 7 7 1 1 1 8 9 1 1 8 8 w 6 > 1 8 9 8 7 2 8 e 8 8 e e 9 9 e e e w q i i w q 8 8 9 8 q e 1 e 1 8 1 1 1 1 > > & & f % % % $ % & & % % & , % % & % & % % & & % % % % % % f & ; * & * & * % % & % % % $ $ $ * < $ f % f f ; # % & 2 6 * q K Q.aXhXsXtXhXhXaXaXsXaXsXtXtXXX XoXoX%X!.oX!.Z.E.(.E.!.E.E.E.E.Z.A.E.E.!.",
"W ( W ( W ( W ( ( W ( W W W W W W ( W ( _ ] ] ( W W W ( E q , 8 1 8 8 1 8 1 8 8 8 8 8 8 8 9 r r r t r 2 , 2 y v v v v v v u v v y y y y v t v v u v e v u v t v v e v u v e e t v u v e y y t y y y y y y y y y y y y y y y y y e t t u y y y y y j y y y y y y y y y y y y y j y y y y y y y y M s a r i 9 9 9 e 2 2 2 Q ,.C.2.%.*.+.O.2.1.0.^.(.^.^.^.^.^.^.^.C.^.^.^.^.^.^.^.u./.u.u.u.i.u./.s.s.u.r.w.e.4.8.e.1.1.=.8.e.9.w.t.t.u.^.^.^.^.]._.^.^./.^./././.`.'.OXOXOXOX+X`.].`././.(.t.t.t.a.a.t.r.t.y.u.w.u.u./._./.d./._.]._.`._._.[._.`.u.t.8.*.8.w.9.1.;.2.tXf o *   $ i v N y r 0 % X f . f f d W >.' PXFXJXJXJXKXJXJXJXJXJXKXJXKXmXMXuXPXMXSXLXFXJXJXJXJXJXJXJXJXJXJXJXJXJXJXKXFXLXKXmXLXJXJXJXJXJXJXJXJXJXJXJXJXJXJXHXJXFXHXpXJ K B b a t w e e e e 9 8 8 7 7 7 2 0 8 0 9 0 w 0 0 w 8 p > 8 p > > 1 8 8 8 e 7 5 7 7 7 7 7 8 8 8 8 8 7 7 0 > 1 1 1 1 1 0 7 7 7 8 7 8 0 8 7 7 9 i i 7 8 9 9 r 9 0 9 r i i 9 9 u w w w r w 8 8 8 8 0 8 8 0 7 7 1 2 > 6 1 1 1 & & $ % $ % % & % % % & & & & & f % $ = & & & f % % % % & & % & & & % $ $ & & % % f % & % f % % % f $ & % & & & f 6 ; f 1 2 } tXBXgXtXiXgXsXgXsXrXrXrX@X%X%X.XoXQ.!.Z.!.E.!.Z.!.Z.E.Z.Z.E.Z.E.E.A.",
"( W ( W ( L W W W ( W W W W W W W W ( W _ ] ] ( W W W (  .0 1 2 8 1 1 1 1 8 8 8 7 7 7 8 8 9 9 9 r t t 8 , e t y e v e t t t t t y t y y u v t t v e v t v e v e v e t v u v v u e v v v y y y t y y y y y y y y y y y y y y y y t t v y y y y y y y y y y y y y M y y M M M y y y M y y y y y 4 v a i u 9 8 8 8 r 1 2 3 z ! &.C.2.<.#.o.o.$.0.C.9.9.C.^.^.^.^.^.].9.u.^.^.^.u.^.^.^.^.^.^.)._._.i.s.i.t.t.t.e.e.1.8.4.8.1.w.t.t.y.u.u.^././.]./.^.^.^.^./.].].+X`.`.'.OX+X+X`.+X+X+X+X/./.u.t.t.4.t.a.t.t.y.r.t.u.u.d._.).)./.].d._._._.`.`.].u.u.8.0.8.1.9.9.0.;.;.>.o   + X $ p a M s r 1 $ = * = f 0 s | { G.FXJXJXJXJXJXJXJXJXJXJXJXKXmXPXPXPXmXSXFXJXJXJXJXJXJXJXJXJXJXJXJXJXJXJXJXJXKXKXLXMXLXJXJXJXJXJXJXJXHXHXJXJXJXJXJXHXHXKXHXm.I n v t r r r e e 7 2 8 8 8 8 9 7 7 0 8 0 9 9 w w 9 0 i 6 r w , w v d 8 5 6 6 7 8 7 7 7 7 7 8 8 7 8 7 7 7 2 6 6 6 1 6 1 1 7 1 7 7 8 8 8 r 8 & 8 s p & 6 0 9 w 9 8 8 9 q d w w u d w w r w 8 8 8 9 9 8 7 0 0 7 7 1 6 > 1 1 1 & & % $ $ $ % % % % % % % % & & % $ $ % % % & $ % % % % % & % % & % & & $ & & % % $ % % % % % % & % % & & % & & & & f f 1 0 @ 9 7.tXnXfXtXtXtXsXgXfXsXtX@X X!.Z.%X%XoXoX!.!.!.Z.R.Z.R.Z.E.E.A.A.E.",
"W W ( ( L W W ( W W W W W W W W W ( ( ( ( ] _ ( W  .W W 0 & 9 1 1 7 1 8 8 1 8 8 6 7 8 8 8 0 w r u u t 2 1 1 t y e u v e u e v t y y t y t y t t t v u v u v u v u v v e v v e v v y e v y t y y M y y y y y y y y y y y y y y y y y y v M y y y y y y y y y M y y y y y y y y y y M y y y M y e t e 9 q 9 0 8 0 8 1 2 2 g Q #.$.].0.<.$.o.! #.2.0.C.^.].^.C.^.].^.9.9.^.^.9.^.]./.].d.^._.]./._./.i.i.u.t.a.t.4.4.4.e.4.t.w.t.t.u.y.(./.^./.]./.^.^.^.^.].].+X_.`.oX+X'.'.`.+X].+X/.+X`.+X/.(.t.t.e.t.a.u.t.t.u.u.y.u./.^././.i._.d.]._.|.`._.u.9.9.8.*.<.8.8.0.2.;.Z o . . # 6 b a v v r $ . $ = * 0 0  .[ k.nXJXJXJXJXJXJXJXJXJXJXKXLXmXPXPXMXLXFXJXJXJXJXJXJXJXJXJXJXJXJXJXJXJXJXJXJXJXJXKXLXFXFXFXKXJXJXJXKXJXJXJXJXJXJXJXJXHXKXHXeXP J b i r r r r e e e 1 8 0 7 8 8 8 8 8 0 9 9 w w w 9 0 9 & 8 1 r I b w 7 e 7 > > 7 7 > > 7 7 8 7 8 1 8 7 0 7 0 7 6 1 1 0 1 7 0 0 7 8 8 0 i 8 % & w w $ > 0 7 w r 0 9 r d q w w w w w w r 9 0 9 9 9 8 7 1 0 1 7 7 6 6 1 1 1 1 > & % $ $ % % % ; ; , % % & & & % & & % & & & % % % f & % % % % & & % % * & & % % # % % = % $ % f f & & % % % % & & & & f @ 9 8 @ l V.rXnXgXiXaXtX@X@X@X@X%X$X X X!.!.Z.oX!.R.Z.Z.Z.E.E.E.Z.E.E.Z.",
"W ( W W ( ( W W ( W W W W W ( W W W W ( ( ] ] ( W H K d * ; 9 1 7 1 8 1 7 7 7 8 1 0 8 8 8 9 9 r 9 t r 8 1 8 y t v t t t v t t t y y y y y y v v v e v e v t v e v t t v v e v e u t v e y y y y y y y y y y y y y y y y y y y y M v y y y y y y y y y y y y M y y y y y y y y y y y M y y M M y u e 9 9 w i 9 8 e e 3 ; 3 Q ! o.o.^.(.$.$.x k o.0.0.9.^.].(.].^.^.u.C.^.^.^.9.].^.^.^.d.]./.^././.).^.i.^.u.t.w.t.t.t.t.t.t.t.w.p.(.i./.).)./.].]._.]./.+X_.+X].`.`.'.'.+X`.`.`.{.`.`.+X`.+X/.u.t.e.t.t.u.r.w.u.u.u.u./._.)./.i.].d.u.d.d._._._.y.8.8.*.1.8.8.0.,.>.S o + . % r  .v a a 8 . . & = f 0 i W >.!.JXJXJXKXJXJXJXJXJXJXJXKXMXnXMXSXFXJXJXJXJXJXJXJXKXJXJXJXJXJXJXJXJXJXJXJXJXJXJXKXFXJXHXFXKXJXJXJXJXJXJXJXJXHXJXJXJXHXHXHXUXb n K t v t r e 7 e e e 8 8 8 8 8 8 8 9 9 9 9 w q 9 9 9 w 9 a  .| ' b 7 7 e e 7 7 e 7 > > 7 7 8 8 8 8 1 7 7 7 8 7 7 6 1 7 6 6 1 1 0 8 8 9 9 9 7 2 > 0 8 7 7 8 w r 9 9 i u d q i i u w w r 9 9 9 9 9 9 7 7 7 7 7 1 7 1 6 1 1 > 1 & & $ $ % % % , % % 1 % & $ % % & % & & f % & % % $ % % & & % % & = f % % % % % % $ % % $ % % % & $ = % % % % & & & & % 8 % ; 0 1 o C !.fXgXdXpXfXkXsX%XoXQ.oXQ.%X XQ.!.Z.!.Z.!.E.Z.E.Z.!.E.E.!.",
"W ( ( W W ( W W W W W ( W W W W  .( W ( ( ] ( ( W K d f , , 7 , 1 7 6 0 8 7 8 7 0 0 8 8 9 9 u e u e e 7 1 e v u v v e v y y v y y y y v y y v t u v t v e v t v t v u v y y v t v t y y t y y v y y y y y y y y y y y y M y y y y y v y y y y y y y j y y y M y y y M A M y M y y y y M y A y y r e e e u w 9 9 2 , e 3 ; z S ,.o.! 2.C.&.#.o.z D ,.C.1.C.(.].^.].^.d.u.9.^.^.^.^.].^./._.].^./.]._.+X/.^./.y.t.y.t.p.a.a.(.a.u.p.y.i./.].].s.]._._././.].+X_.].oX+X'.'.'.`.`.`.`.`.+X].`.+X/.(.y.w.e.t.y.u.y.u.u.u.y./._.).)./.d.i.u.r.t.^.)._.r.8.=.*.1.8.8.8.<.:.^ @ o o % i b N s u & . = $ % f 6 d E m.kXJXJXKXJXJXJXJXJXJXJXJXLXMXSXLXJXJXJXJXJXJXJXJXKXJXJXJXJXJXKXJXJXJXJXJXJXJXJXKXKXGXJXJXJXHXDXBXJXJXJXJXJXJXJXJXJXJXFXJX%Xv J n b w a t r e e 8 e e 8 9 9 8 8 8 8 0 9 9 9 9 w 9 9 9 r 1 V ] | I E , > w w 7 > 7 7 > 1 1 7 7 7 7 7 7 6 7 7 8 7 7 7 1 7 7 1 1 6 7 7 8 8 9 r i 9 0 7 i 8 8 9 9 9 9 w i q d u w i r 0 q r 9 8 8 8 9 9 7 0 7 1 0 7 6 6 1 1 1 1 > 1 & % $ % % & % & % & % % & $ & % & & & & & % & $ & & & % % % f % & % % $ % % $ % * % % % $ % & & & % % % $ % % % f & % * ; & 6 8 ; * 1 { oXnXkX$X%X X%X%X@X%XQ.!.$X%XQ.!.Z.!.Z.Z.Z.~.Z.Z.!.!.!.",
"L W W ( ( W W ( ( W W W W W W W W W W ( ( ( ( ( H  .0 f e 7 , 7 6 1 0 7 7 7 8 7 0 8 8 8 0 9 9 9 e e y e , e v t e v v u y t t y y y t t t t t t v e v e v e v u t u v e v t t t t v y t y y y y y y y y y y y y y y y y y y y M y y y y y y y y y y y y y y M y M y y y y M y M y M y M M y y y y t t t 9 9 9 0 8 8 e 2 3 g k Q ,.O.o.#.C.2.o.$.h D $.C.(.C.^.].9.].C.u.].^.9.9.u.u.^.]._./.^.`.`.`.]./././.(.a.1.t.t.t.a.t.a.y.u.u.i.i.i././.s.]._._._._._._._.{.'.'.'.`.'.'.{.'.+X+X`.+X{.`.+X(.t.1.w.u.y.y.y.u.y.y.i.)._.).i.d.d.].u.t.u.u./.u.9.1.*.*.8.1.1.2.#.,.-   o f i s N v 0 # # $ = f f 0  .' A.JXFXJXJXJXJXJXJXJXJXJXJXFXFXJXJXJXJXJXJXJXJXKXJXJXJXKXKXKXKXJXJXJXJXJXJXJXJXKXKXKXJXHXJXJXmXiXpXPXFXJXJXJXJXJXJXJXHXHXHXm.n I  .a a t w w w e 8 7 1 8 8 9 9 8 8 8 9 9 9 9 9 9 w 9 w 8 7 e I Y I | b 1 7 7 7 5 7 7 7 7 0 7 7 7 7 7 7 7 7 7 7 7 7 7 0 7 7 7 0 7 7 7 8 6 9 9 8 8 i r 0 8 0 0 9 w w 9 u i w w i r r 9 9 i 0 7 0 8 8 7 7 7 7 7 7 1 6 1 6 1 1 1 1 1 , & % % % & & & , % & & % % % & & & & & & & $ & % & % % f % % & % % % % % % % % % $ f = % % & % % % = % % * % % = % % & 1 % % 1 8 2 2 o C } / M M V Q 7.!.@X@XQ.Z.Z.%XQ.!.!.!.!.!.Z.E.!.!.!.!.",
"( W ( W ( W W W W W W H W W W W W ( W W ( ( ( W W d 5 , , 7 7 7 6 7 7 8 7 7 7 7 8 8 8 8 9 9 9 r t e e e , 2 u v v u t u t t t t y y y t y t t t e v u v u v e v e v e v t y t t t t v y y y y y y y y y y y y y y y y y y y y y y y y y y y y y y M y M y M y y y y y y y y y y y y M y y M y y t t t u e 8 e u e e t 2 3 z z h x ,.;.D x o.#.;.#.x x O.C.(.C.9.^.u.^.u.u.C.u.^.^.^.^.^.].^.^.`._.`.`.]./././.u.t.w.t.t.t.t.a.t.a.u.y.u.u./.).)._.)._._._._.)._.+X'.'.+X+X'.'.+X'.{.+X`.`.{.{.+X/.y.w.1.t.p.i.u.u.u.y.u.u.)./.d.]._._.i./.p.i.u.u.w.8.&.*.=.1.8.2.#.:.q   @ w s s b i 6 + = # = f 6 w K } !.JXHXJXJXJXJXJXJXJXJXJXJXFXKXJXJXJXJXJXJXJXJXJXKXKXJXJXKXGXKXJXKXJXJXJXJXJXJXKXFXJXJXKXHXFXMXiXiXxXMXJXJXJXJXJXJXHXHXJXeXE K N b n a w w w w e 8 7 1 0 9 9 9 0 9 9 r 9 9 0 9 w 9 w w w r > 8 Y | E | v w 7 7 e 7 7 e 7 7 7 7 0 8 8 8 0 7 7 6 0 2 7 7 2 7 1 7 0 7 8 0 6 7 7 0 7 w 9 1 1 0 0 w i w d u d u w i r w 9 9 9 9 8 8 8 8 0 0 7 7 7 1 1 7 0 1 1 1 1 1 1 ; & $ % % & & & % , % & & % % & & & & & & & & % & % & % % & & $ & % $ % f & $ % % & % * % % % % % % f % % % % % % % & $ # * % % > 2 2 e 1 $ O @ e 3 @ # C 7.Q.$X%XQ.!.!.oX!.Z.oXZ.!.Z.!.oX!.!.",
"W W W W W W ~ W W ) W W W W  .W W  .W W ( ( ( W K f % 8 , , e 7 1 6 7 7 7 7 7 2 8 8 8 8 0 8 8 9 v e e 7 2 e v e e v t v y y t v v v y v v t t t v e v e v t v e v e v u v y v t t v t v v y y y y y y y y y y y e y y y y y y y y y y j y y y y y y y M M y y y M y M M y M y y y y y y M y y e e r u r e 2 e e e e u e q 3 j l k S O.;.#.S x S $.#.x k Q 2.C.9.].9.9.^.d.u.9.^.^.^.^.].^.^.^.].].].].^.].^./.^.p.(.p.u.p.a.a.a.t.a.y.p.u.u.i.)._._._._._.`.`._.`.'.'.'.'.'.+XOX{.{.`.`.{.{.}.+X/.p.t.1.t.u.^.i.i.i.u.u.y.i.).i.).)./.u.y.^.u.y.u.t.8.*.&.*.1.8.0.,.,.z X @ i s n s i ; + . # % f 9 s K _ %XKXJXJXJXHXJXJXJXJXJXJXJXFXFXJXJXJXJXJXJXJXJXJXJXKXKXKXKXJXJXJXJXJXJXJXJXJXKXFXFXJXJXJXmXuXuXmXFXLXSXKXKXJXJXJXJXHXKXJXV.b J r p b r p t e e e e e e 0 0 9 9 9 0 9 r 8 9 9 9 9 0 w 9 d 6 w 1 5 K J J | n e e e 7 1 8 8 7 7 1 0 7 8 9 7 7 6 7 1 7 7 7 6 7 7 7 7 7 7 0 8 0 9 r 9 1 6 r 1 1 0 i i i i w u i w w i w 9 9 0 8 8 8 8 8 0 > 8 8 7 7 1 1 1 1 1 1 7 1 > > & $ & & % , & & & & f & = f & f & % & & & & & & & & & % % & & % % % & & $ f % % % $ % % $ $ % $ % % & % % # % $ & % > # & 6 % > 1 , 2 > 1 2 2 , 1 7 u @ 1 | Z.%X%X!.oX!.oX!.!.!.!.Q.!.!.oX X",
"W L ( W W ( W W W W W W W W W W W W W ( W ( ( W  .f f f > 7 e > 7 7 8 8 8 0 7 1 8 8 8 8 8 9 9 r e e e 2 , t y y y y v y u v t e a a a a a a y y v u v t v t t v y y y y y y t t y y y y M y y y y y y y y y y y y y y y y y y y y y y y y y y y y y y y M y y y M M y M y j M M v v v v v v v t t w e 8 8 8 9 r e e v t 2 3 j k z x S x ~ O.~ x k S #.! z ~ 2.2.0.9.9.^.^.u.^.9.^.^.^.^.^.].].].`.`.`.`.].].(.^././././.p.a.a.a.p.u.y.p.a.u.(././._._._.`.{.`._.`.'.'.'.+X'.'.'.'.'.`.'.+X`.`.{.`._.(.w.w.t.^.u.(.p.i.u.i.i.d._.).i.u.i.i.t.9.y.8.8.6.%.*.=.*.8.2.$.,.Q X 0 s s K s w % + = $ & 0 0  . .I eXJXKXJXJXJXJXJXJXJXJXJXFXFXJXJXJXJXJXJXJXJXKXJXJXJXKXFXJXJXJXJXKXJXJXJXJXFXKXJXJXJXFXFXPXkXKXGXFXFXFXJXJXJXJXLXJXFXJX%X| b B a a p r w w w w 8 8 8 d 9 9 9 9 9 9 8 0 0 w 0 0 w w q w e r 8 , 5 v I E b | N r > 7 e 8 8 8 0 0 6 0 7 7 0 7 7 7 0 1 7 7 7 7 7 9 8 7 7 8 9 0 8 w 8 9 w > # 2 r p d q i i i i i u w q i d r 9 8 7 6 6 6 6 7 7 7 7 0 7 6 1 1 6 1 1 > & & & & % & , & & & > > & & & f 1 & & f & & & % & % & $ & & & & f % % $ & % % % $ & & % % f % % % % % % % f = # % < * $ $ % % < > , & , > > , 1 % , % 0 f 0 0 z A.tX XIXoXoXZ.!.oX!.Q. X!. X!.",
"W W W W W ( W ( ( W W W W  . .W W W  .( ( W ( W f f f f 6 > > > 8 8 8 7 8 7 0 7 8 7 8 7 8 9 9 9 e v y 2 , e y y e y y e t t y t y y t a y y a a v v v e t v v u y m y e y y v v M y y y y y y M y y y y y y y y M y M y y y y y y y y y y y y y y y y y y y y A y M M y y y y M v v j v y v y y t r 8 8 q 9 w 9 e e e e u 3 j k x L x L D ~ D L S c q 5.5.z ~ C.9.9.0.9.^.0.9./.^.^.^.^.^.(.].^.(.].].]._.]./.^./././././.(.(.p.u.a.t.u.p.a.p.i./._._._._.`.}.`.`.'.OX+X{.OXOX{.'.+X'.+X'.{.'.}.{./.i.t.t.t.a.p.u.y.i.i.p.i.i.).i.i.u.i./.u.y.r.8.8.6.*.-.*.=.6.1.&.,.! o 0 s  .K a 8 # X . = & f f d  ._ iXJXJXJXJXJXJXJXJXJXJXJXFXKXJXJXJXJXJXJXJXJXJXJXKXKXJXGXKXKXJXJXJXJXJXJXKXFXKXJXJXKXSXMXnXLXKXGXFXVXFXKXLXKXSXKXGXJXBX{ N b B t r p t r w w 8 9 9 9 8 9 9 9 9 9 9 8 8 0 9 w 9 9 w w w t 7 1 8 8 7 i I I n | w e 7 7 d 8 7 7 1 7 0 7 7 7 7 7 8 7 0 1 7 7 7 8 9 7 1 6 7 8 6 8 w w w 0 % 0 9 i i i i i w i i i w w i d q 9 9 9 8 0 7 7 0 7 8 0 8 7 2 7 6 6 6 6 1 1 & & & % & % & % & % , 1 & % & & > & & & & & & % & & = & & % f & % % % % % % % $ % % & % % $ % % % % % % % % % % % * % $ % = & % % % % % , , , 1 % - % * q * ; 0 L !.,XoX!.!.!.%XZ.!.oX!. X!.oX",
"( L W ( W W W W ( W W W W W W W W W W ( ( ( (  .* * f f 7 , , 1 8 8 7 8 7 7 8 7 0 8 7 8 8 8 9 q e y t 2 2 e t t e y y y t v v y t u t u t y y y e v v v t v e v y e e y y y v v y y y y y M y y y y y y y y y y y y y y y y y y y y y y y y y y y y y M y y y y y y M y M M y y v v v u v v y y a r w e u u r 9 r t t e t 3 e l L S S S ~ 5.~ 5.S ~ c : : c c 5.^.%.C.9.<.9.9.u.^.C.^.^.^.^.^.(.].].].(.]./.].^.].+X+X/././.(./.i.p.(.i.).p.i.y././.)._._.`.}.'.+X'.OX'.+XOX'.'.{.'.OX+X`.'.'.{.}.{./.^.t.t.t.t.t.p.i.i.s.p.p.d.u.i.d.i.u.d.u.r.8.6.6.q.*.*.=.6.1.<.$.;.- ; s i b s 8 % + = & % f 0 s  .>.mXJXJXJXJXJXJXJXJXJXJXJXKXJXJXJXJXJXJXJXJXJXJXJXJXKXGXJXKXJXJXJXJXJXJXFXFXFXJXJXJXSXMXMXFXJXKXFXFXFXSXKXSXKXnXvXpXQ.>.J a B v i p w w w w 8 d 9 8 8 8 8 9 9 9 9 8 8 0 9 9 9 9 0 0 w w w 7 7 d w > 7 b E N K | 1 1 w d 8 8 8 8 0 7 8 7 8 8 8 8 7 7 7 7 8 7 8 8 7 0 0 7 7 0 & 0 9 6 % $ w r r w u i u 9 u i i 9 w w w 9 9 w 9 8 7 8 0 8 7 7 7 7 7 7 7 6 6 1 6 1 1 & & % % & % % % > & % & & % % & & & & & $ f % & & % & & & & % $ & % % % % f = % % % & % % % % % f $ % % % % % % % % % % % & & , $ % $ , , $ , % 1 , , * q ; f 0 * ;.tX X XQ.oXoX!.oXoX(.,X X!.",
" .W W W W W ~ W W W W W W W W  .W W W W ( ( W  .= f ; f e 8 , e 8 7 7 0 7 0 0 7 0 7 7 7 8 8 8 9 e y t 7 , e e t y y e y t t t t t t t t y y y a v e u v y t v t v v v v y y v t y y y y y y y M y M y y y y y y y y y y y y A y M y A y y y y y y y y y M M y y y M y M y y y M v y y v y v v v t r t t s s u r t v e e v 3 3 Z x S S 5.~ L S D 5.~ x x 5.z - : x t.2.,.9.0.C.9.t.t.9.(.^.^.u.^.(.^.^.].].^././.`.]._._././.[.+X+X).i.+X(./.i./._./._._.`.`.}.'.'.OX'.OX'.OX'.'.{.'.OX'.{.`.{.`.}.[._.].u.t.w.t.y.u.a.u.d.y.p.y.].).d.u.u.u.u.u.r.6.X.X.*.=.-.=.*.%.#.,.3 @ 9 0 w e f , % % f f f 9 d d B.JXKXJXJXJXJXJXJXJXJXJXJXKXJXJXKXFXFXKXFXFXKXKXJXKXKXKXKXJXKXJXJXJXJXFXFXFXJXJXFXLXnXMXLXJXGXSXSXFXFXVXMXKXSXPXiXgXN.K J B n a a a w w w w 8 w w w 9 0 9 9 9 9 9 9 8 8 w 9 9 9 w w w 0 7 e r e 7 7 e w E I I | | 1 w 7 8 8 8 8 8 8 8 8 8 8 9 8 7 6 7 7 7 0 0 8 8 7 7 8 9 8 1 > 0 % $ 0 w r i w 9 i i 9 i i i w w u 9 8 9 9 9 8 8 8 8 8 0 7 7 8 8 7 7 7 1 1 6 1 1 > & & & & % > & > ; & & & & % % & & & & & $ & & & & & & & % % % % & & $ % % & % % $ % % % % % % % % % % % % % * % * % $ % $ % $ $ % % $ $ $ , % % % , f * 0 f 0 ;  . X%X%X%X%X@XoXQ.%X X!. X X",
"W ( W W W W ( W W W W W W W W W  .( W W ( ( ( d = f & & 8 8 > w 8 0 8 0 0 7 8 8 6 6 7 8 8 8 8 8 e t e 1 2 e t t y t y y t t t t t t t y a y a y y y y y y y t y v v y e y y y y y y y y M y y y y y M y y y y y y y y y y y M y y y y y y y y y y y M y y y y y y v v y y M y v v M y y M y M v r i i i u i u p t v e r  .q 0 Z L ~ D ~ ! D 5.~ o.o.#.>.#.S z x c D 2.2.2.9.<.9.9.9.t.^.^.u.^.^.^.^.^.^.^.^./.].`.].].+X].+X+XOX+X[.[.+Xi.p.p.(./.`.`.`.`.`.`.`.'.OXOX'.OX'.'.+X'.{.'.'.{.'.`.`.'.`.`.`./.t.t.p.t.a.t.y.y.i.d.d.d.d.d.d.d.p.u.d.r.8.q.@.*.*.&.*.*.&.%.;.Z X p s f % # * = * f * f 0 9 0 E.JXKXJXJXJXJXJXJXJXJXJXJXKXKXJXLXLXFXFXKXFXKXJXJXJXJXKXKXJXJXJXJXJXFXFXKXJXJXKXSXSXSXBXJXJXBXSXSXSXVXSXSXMXPXyXxXgX[ Y B N r e a p r i w w 8 w w r 9 8 9 9 8 9 9 9 8 9 9 9 9 9 9 9 0 9 7 r w 8 7 r w 7 t E E b ] R , e 8 8 8 8 0 9 8 7 8 8 8 7 7 0 0 7 7 7 7 8 7 9 7 7 9 p i 8 0 $ & a 0 i r r u d i d w i i 9 9 w 9 8 8 8 8 8 8 8 8 8 7 7 8 8 8 7 8 0 > 1 1 6 1 1 1 > & & & , & & > , & & & & % % & & % % & & % & & & & & % $ % f & & $ f & & % $ % % = % % % % % % % % % % % % % % % < $ % % % % $ % % $ % $ , $ % , f . 0 * ; q * V.gXtXXXXX@X%X X X!. X(. X",
"W W W W W W W W ( W W W ( W W W W W W W W ( W f $ & & & 7 8 7 8 8 7 7 7 7 7 7 7 1 0 7 8 8 8 8 8 e e t 2 2 e y y v e u y v e u t t y t a y a y a y y y y y y y y e v y v v y v v M y y y y y y y M y y y y M y y M y y y y M y M y y y y y M M M A M y y M y y y y v v M M y v y v y y M y M M l w i i r u w r s t n r t l q q l ~ o.^ 3.,.;.;.2.2.;.3.5.z 5.2.2.%.g ! &.#.<.0.2.0.8.9.9.9.9.u.^.t.C.^.9.^.^.].].]._.+X]._.`.+X{.+X[.+X).(.a.p.+X+X/.+X{.`.`.`.`.+X'.OXOXOXOXOXOX'.'.'.'.OX{.'.OX}.}.}.{./.u.y.t.t.t.e.t.y.i.s._.d.d.d._._.d.u.u.d.d.8.6.-.X.@.=.=.*.<.+.~ @ l K s r f * . . = = f 6 f 9 eXJXJXJXJXJXJXJXJXJXJXJXKXLXFXFXLXFXJXKXJXJXJXJXJXJXJXJXJXJXJXJXJXFXFXFXJXJXJXLXnXnXFXJXJXFXBXLXFXVXSXSXFXxXxXpXMXB.K C v v r y p e r a i w e e 9 r d 0 q 9 9 9 9 9 9 q 9 q 9 9 9 9 9 0 w w w e e w 8 7 > I I I I } b > 7 8 8 8 9 8 7 7 0 0 8 7 7 0 0 7 8 8 7 7 8 7 0 1 1 r a r 0 & 0 a w i s p w u u i d q r r 0 w 9 8 0 8 8 0 8 8 8 0 8 0 8 8 8 8 8 7 1 1 1 1 1 1 1 1 % & & % & & & & & & > > & & % & & $ % % & & $ & & % % & % % % & & % % % % * $ % f % & % % % % % % % % % = % % % * $ f $ % $ $ = % % % , , , $ % & & & * f 0 ; } gXiXtXtX@XtX%X X X X,XXX",
"W L ( W W W ( W W W W W  .W W W W (  .( ( (  .f % < f 6 1 7 d 1 7 8 7 0 7 8 0 7 7 7 7 8 8 8 8 8 e v e 2 , e y y e t e t t e t t y t t t t y y t y y y y y t t t e y t v y y y y y y y y y y y M y y y y y y y y y y y y y M y y y y y y y y y M y y y M y y y y M j y M y y v v M M y M y M v v w d i r u r u s y t i i i q q q S ~ #.#.;.2.2.;.;.5.x D #.2.C.2.(.2.c ! <.o.<.<.0.8.<.9.9.9.u.t.t.u.^.^.^.^.^./.].].+X+X+X+X`.'.[.+X+X+X/.i.(./.+X+X[.{.`.`.`.'.oX'.OX+X+XOXOX'.OX'.+XOX'.`.`.OX}.OXOX}.{.(.u.t.e.t.t.w.y.i.s.s.r.d._._._._.d.u.r.0.y.8.q.X.X.@.*.2.$.#.#.2 w K W n i 0 f = = * & 6 6 I nXJXJXJXJXJXJXJXJXJXJXJXFXLXFXKXFXJXJXJXJXJXJXJXJXJXJXJXJXJXJXJXKXFXKXJXJXJXLXSXSXDXKXJXDXmXFXFXVXSXSXSXMXyXiXSXeX' K K n v t v r 8 w w w 9 9 9 9 9 9 9 9 9 9 9 9 9 9 9 9 9 9 9 9 0 9 9 e 8 e w w 8 7 8 1 8 J Y K v [ e 7 0 8 8 8 8 0 7 0 7 7 8 7 7 8 8 8 8 8 0 7 8 8 > > 8 r 8 & 1 w i i i i i u d u w w w d 0 9 9 9 8 9 0 9 9 0 9 8 8 8 8 8 8 8 0 7 7 2 6 1 1 > 1 1 1 & % % ; & & & > & > > > & % % & & & % & % % % % % % & & % & & & & % & % $ $ f = % % % % % f $ % % % f # % % % % f * & & % $ $ $ % % % % $ , % % & 6 & & ; ; q  .tXsXsXtXtXrXtX%X X XXXXX",
"W W  .( L (  .( L W W W ( W W  .W W W W W (  .f $ $ 0 7 1 7 8 > 7 8 8 8 8 7 7 6 1 7 8 8 8 9 9 8 e e u 7 e e y y y e t v t t t y t y t t t t t t t y y y y y y y v y t y y t y y y y y y y M y y y y y y y M M y y y M y y y M y M y M y y M y M y y M y M M y M y M y y M y y v A y M y v a M v a t u 9 9 u a a n i p i 9 q q 0 g x ~ D ~ 5.S x x S ;.2.(.V.2.2.,.2.$.x o.#.x <.<.0.2.<.8.9.9.u.(.u.(.u.^.^.^.C.^.].].].].`.'.{.+X/././.+X/.+X+X/.`.`.{.{.`.`.'.'.'.+XOXOXOX'.'.OX{.`.'.+X`.`.OX_.'.}.}.{.[./.p.a.t.t.a.y.p.p.u.d.d._.d.d._.d.r.u.r.r.8.8.-.X.X.-.1.*.#.>.u ;  .p p d 9 f * * * f ; f ' JXFXJXJXJXJXJXJXJXJXJXJXKXKXJXKXJXJXJXKXJXJXJXJXJXJXJXJXJXJXJXJXLXLXJXJXJXFXMXMXFXKXJXJXMXBXKXFXSXSXSXSXxXMXyXFXV.i K i p v e r e e a 6 w 9 d 7 8 9 9 9 9 9 9 9 9 w 9 9 9 9 9 9 9 9 9 0 7 w d w e w d w r 1 n T K n v } 8 8 8 8 8 8 7 0 7 7 8 8 7 8 9 9 7 8 7 0 7 9 8 0 0 1 8 > # 7 a w i w 9 0 w i i 0 9 u q 0 0 9 w 9 9 9 9 9 9 9 8 8 8 8 8 8 8 8 8 7 8 7 1 1 > & > 1 > , > > > > > > & f 1 f f & & % & % f % % % % % % % = f & & & % & & % % $ $ % & % % % % % $ f % % % % $ % * % % # # $ % % % $ % $ $ < % , % & % 0 * f # 0 ; f q @XsXgXtXtXrXtX@XXXXXXXXX",
"W W W W W W W W W E W ( W W W W W W W E E E b . $ , 1 1 1 7 8 8 8 8 0 8 8 8 7 7 8 7 8 7 8 8 e 8 e t t e 2 e e y t y u t t t t t t t t y t v t t y v y v y y y y a y a y y u y t a y a y y a M v v y u y y y y y y y y M y M y y A y y y y y y M A M M M y M y M y y y y M y y M y y M y M y M M y y y y y t t v w a p w 9 8 0 q : - 4 h x D ! O.2.2.2.2.2.0.2.0.2.2.(.2.x #.;.x O.2.2.2.9.0.9.u.u.^.u.u.^.^.(.u.^.^.^.+X`.`.`.+X/.`.`.+X/././.(.(./.`.{.}.{.'.`.'.'.'.'.'.OX'.'.`.OX'.`.`.`.]./.}.`.}.OX`.]._./.u.t.w.w.e.e.e.y.d.d.d.d._._./.d.9.9.r.0.6.q.-.X.@.*.*.#.%.Q o J K i d , % , % @ % 0 i I JXKXGXJXJXHXJXJXJXJXJXJXKXJXJXJXJXJXJXJXJXJXKXJXJXJXJXJXJXJXBXLXKXJXJXJXKXSXMXSXKXJXLXMXSXFXKXFXDXFXSXSXMXpXMXeXK J v v a a p i i d u u w w 0 9 9 w 9 9 i 9 d 9 9 9 0 9 9 9 9 9 9 9 9 9 e i w 8 e e 8 7 7 i 7 w E I B ' | 2 8 e 1 e 8 e 8 0 8 0 9 5 9 9 6 7 8 9 8 8 8 9 9 w f % 0 s i 9 q r r r r r e 0 r r e e 9 e 9 w 0 8 7 8 8 0 7 8 9 8 9 w i w 0 8 0 1 7 1 1 > 1 1 1 > > & 1 ; > 1 > % % > 1 & % & & % & % % % % % , % & & % % % % % & % % % % % % % % $ % % % % % & & & $ $ $ $ $ & $ % $ % % & % $ $ @ % % % % % > % & & ; 1 2 - Z.NXtXaXsXtXtXrXtXtXXXtX",
"W  .W W W W W W W W W W W W W W W W W ( ( E i + % , 1 1 2 2 7 7 7 7 8 8 8 8 7 0 0 8 7 0 8 8 9 8 e t e 2 2 e y y t e y t t u t t u t u t u t e v e u t y y y y y t a y a a a y y a a y y y a a l v y y y v y v v y y M y M y y y y y M y y y y y M y y M M y y y y M M M y M M M y M y A M y y M y j y y y e e v p t 9 8 9 0 1 q : c x D D ! o.o.$.,.2.2.2.2.2.9.9.2.2.0.2.x 2.;.5.~ ,.$.*.8.9.u.9.u.9.u.i.u.^.^.^.^.^.].+X/.`.`.+X+X`.+X+X+X/././.+X[.{.`.`.`.`.{.'.'.'.OXOX'.`.`.`.`.`.`.`.`.'.OX}.OXOX}.`._.].u.u.t.r.t.e.e.r.d.u.d.d._._._.].r.r.9.0.8.q.q.X.X.@.*.%.%./ @ s K d n 5 , = # % # w i 8 pXJXHXJXJXHXJXJXJXJXJXJXHXKXJXJXJXJXJXJXKXJXJXJXJXJXJXJXJXFXFXFXJXJXJXFXFXnXmXKXGXSXMXFXFXGXGXFXSXSXMXSXSXiXFXm.s J r v a a i i u d u d w w r 0 0 9 9 9 i 9 9 q d 9 9 9 d 9 9 9 9 9 9 i e w w w 8 w e 7 t d e 8 b T I P / V e e u 8 1 2 8 7 7 7 0 0 0 8 8 8 9 7 0 7 9 r w 6 & ; i i i 9 w 9 r u q u e 9 r q e 8 9 9 e e r 9 8 9 r 0 8 7 0 8 9 9 9 9 0 0 7 7 1 > 1 1 1 1 1 > > 1 & 1 > > > & % > > & & & , & % & % , % % & & & % & % % , % % % % % % % % % % % $ % % = f & & & % % % & & & & $ $ $ & % % $ $ % , % % % % > % & & @ 1 2 ; V.gX@XtXsXtXrXsXtXtXtXXX",
"W W W K W W W W ( W W W W W W W W ( W ( ( K 7 = , , 1 1 7 7 7 8 8 8 8 8 8 0 7 8 7 8 8 8 8 8 8 8 e y t e 2 e e y e y u t t t t t t t t r t t t t v t t v y v y y t y y t a a a a a a y a a y y v y y v v y v v v y M y M y M y y y y y y M y y y M M y y M y M y M y j M M y M y M M M y y y y M y y j y t e v e a r 7 3 q 3 3 j ! +.$.$.#.O.o.o.x 5.$.,.2.2.9.(.1.2.2.C.2.;.~ 2.O.x o.$.@.<.8.t.u.9.t.t.u.u.u.^.(.u.^././.`.`.+X`.{.+X{.`.+X`./.`./.`.`.`.`.`.`.`.'.'.'.}.'.{.'.OXOX{.OX`.(.^.`.`.`.`.`.OXOX'._./.u.t.r.e.e.e.a.r.u.d.]._._.}._.d.u.9.8.8.6.*.X.@.X.*.*.,.^ ; 2 H p m 1 % + @ * & a i . B.JXJXHXJXJXJXJXJXJXJXJXHXJXJXJXJXJXJXJXHXJXJXJXJXJXJXJXLXFXFXJXJXJXKXmXmXLXKXJXSXMXSXFXFXKXKXSXMXSXvXSXMXMXxXI s K r a p i t r w q d u 0 q d q 9 0 9 r q i w i q d 0 9 9 q 9 0 9 9 9 9 8 w w w d w w w w w w e w I | K K | e 1 t 8 8 8 7 7 7 7 7 0 8 8 8 9 8 0 1 7 w r i & ; 0 i w 9 i w r r e w w e r e q 9 8 e q e e w 9 0 8 9 9 8 8 9 8 8 8 9 9 9 9 7 7 1 1 1 1 1 1 1 > 1 & & & & > > % & > , & % % & % & & % % % % & % % & % % % % % % % % % % % % = % $ $ # % % $ % & & $ & & & & & % $ $ % % % % $ % % % % % % % f % f & ; % 2 - 7.gX#XtXsXaXsXrXtXtXtXtX",
"W  .W W W  .W W W W W W W W W W W ( W ( ( n % $ % > > 1 6 6 7 8 7 0 8 8 8 8 8 7 8 8 8 0 8 8 7 7 e y y e , e e y e t t t t e t t y y t t t u t t e v t t y y y y t y y a t y y a y y a y y y a a y v v y j v u M M y M y y y y M y y M y y y M y y y M y y M y y M y y y y y y y y M y y y j y y y y y y v v e v e u 9 e q q Z ^ q.,.<.q.2.$.O.&.2.O.5.o.3.4.C.2.(.2.2.,.,.4.5.2.2.o.x o.$.%.*.8.w.9.t.9.9.u.(.p./.^./.^./.+X`.{.{.{.{.{.{.`.+X`.+X/.(./.`.{.`.'.`.`.`.'.`.'.'.`.OX`.OXOX'.]./.`.^.'.`.].}.OX}.`._.^.u.r.a.e.e.r.r.d.d.d._._._.`.d.9.8.8.8.6.q.@.@.@.<.%.%.#.z - V n e < % @ . * 0 p i % / HXFXHXJXJXJXJXJXJXJXJXKXJXJXJXJXJXJXJXJXJXHXKXJXJXJXFXFXKXGXJXJXJXBXmXmXJXJXLXnXSXFXFXFXFXSXMXxXxXMXxXuXHXB.a J p B r p i i w w w u i w w u d 9 9 9 9 w w w w 9 9 w q 9 d 9 9 9 9 9 d w w w w 8 w w w 8 8 w w 1 s | T B } P 8 r 8 8 e 8 0 7 7 7 7 0 8 0 8 8 8 7 6 1 0 8 $ f i w 9 i i r w r e w w e r w e e 8 8 9 q 9 9 8 0 8 9 8 8 8 9 8 8 8 8 9 9 9 8 0 1 > 1 1 1 1 1 1 1 1 1 & 1 > > > % > 1 & % % % & % , ; % , % & & & % & & % % % % % % % % % % f $ % $ % # * % % $ & & & & & f & % % % % % % % % % % % % & , & f & & & % , 2 1 7.gXaXaXsXaXaXtXXXjXXXtX",
"W W W W W W W W W W W L K W W W W ( ( E W i $ % , > 1 1 7 7 8 7 8 8 8 8 8 0 0 7 8 8 8 8 8 0 7 7 e v y 7 2 e y y y t e y v e t t y y t t t t t t y a y y y t t t y a y a a p y y a a y a a y y v y y M y v y v v M y y y y y M y y y y y y y M M M y y y y M y y y y M y y y y y M y y y y y y y v e e v v r t r 2 t 3 3 j Z ^ ,.0.,.<.<.<.*.&.2.$.&.&.O.D o.O.2.3.2.9.2.2.%.,.o.$.,.h x 3.$.<.9.9.8.w.t.w.u.u.^.i.^./././.`.{.{.}.'.{.{.'.+X+X+X+X/./.+X_.`.'.`.`.`.`.`.`.'.'.'.OX{.OXOX`.`.`.`.`.}.'.`.}.OX'.'._.i.u.w.r.e.r.r.r.u.i.i./.).)./.u.w.8.6.6.6.&.-.-.*.8.*.$.,.Q o N N d , , = @ % i 9 w w w iXJXCXJXJXJXJXJXJXJXJXJXJXJXJXJXJXJXJXKXJXJXJXJXKXmXmXGXJXJXJXFXmXSXSXFXJXFXMXSXFXKXLXSXSXSXnXMXMXxXxXMXMXT b K a v r i i i w w w w i d q 9 w r r w 9 w w w w w 0 9 u 9 w 9 9 w w w q d w w w w w e w w w w r 8 1 a | I T T v r 9 1 q 8 8 8 7 9 0 9 0 1 7 7 8 0 8 8 0 % % 9 p 9 9 s q e q w e r q w r w 9 9 8 e w 9 9 9 9 9 9 0 0 8 0 9 9 9 8 9 9 9 9 9 0 1 1 1 0 6 & 1 1 > > > > > > 1 , % > & % % % % % & % % & , % & % & % ; , % & % % % % % $ % % $ % % $ $ $ $ & % & % & % & & % & % % $ % % % % % & % % & & & & > % & & % ; 2 ; :.gXaXaXsXsXsXtXtXtXtXtX",
"W  .W K W W W W W W W  .W W W W W W ( ( H 1 = , % > 2 1 1 7 7 8 8 7 8 8 8 8 7 7 8 7 8 0 7 8 7 2 e e y e , e y y e y e t e t u t t t t t r u e t a y a t t t t t a a a u y y t y y y a y y l a a y y y M t y y y y y y y y y y y y y y y y y M M y y M y M y y y y y y M M M M v M y y M y M M M v v v v n r r e e q 2 4 A #.,.,.0.8.0.<.<.<.*.@.&.&.*.*.2.2.3.o.O.O.2.<.2.2.2.o.o.9.o.x $.$.<.1.8.e.e.9.t.t.u.y.i.^.^././._.+X{.'.{.'.+X`.+X`.+X`.`.+X].+X`.`.`.`.`.`.].`.`.`.'.OX'.'.`._.`.{.`._.}.'.}.OX}.'.OX`.].u.r.w.t.a.r.t.u.u.u.i.i.i.i.r.8.8.8.6.q.*.$.-.=.8.0.,.,.o.o u J p 7 $ O & 9 d i w 8 O E.JXHXJXJXJXJXJXJXJXJXJXJXJXJXJXJXJXJXJXJXJXJXCXmXLXFXJXJXJXKXSXSXBXKXJXLXMXMXFXFXGXFXVXSXxXxXxXxXiXxXHX!.n K v b 8 t i i i u d q i u u w 9 9 i r u 9 i w w 0 9 u d r q i 9 9 9 i 9 9 r w w w r w w w i w 1 w n > 1 I ' v P T K r % e 9 9 8 8 5 0 9 9 7 0 0 8 9 9 9 8 # 8 p i 9 w i 9 r r w r e 9 w r e 9 e e q r e w 9 9 w r 9 8 8 r 9 9 0 8 9 9 9 9 9 7 1 1 1 1 1 > 1 1 > ; > > > & > % & > & & % & & % % % ; % & % 1 , % 1 , % & % % % % % % 1 % % % % % * % $ & $ % & & % & % & $ & & % % % % & & % % & & & 1 & & f % & & & ; 2 ; >.gXsXaXsXsXsXsXaXtXtXtX",
"W W  .W  .W W  .W W W W  .W H W W W ( W d % + , , , , 8 8 7 8 8 8 0 0 8 8 8 7 7 8 8 7 8 7 7 7 7 1 y y e 7 e e y y u t u t t e e r r r e r u t t a y y t t t y t a y y a y y y y a a y a a a a y y y y y y y y y A y y y y y y M M y y y y y y M y y y M y M M y y M M y y M M M M M y y M M y M v e v v v t e e q 2 3 j ! ,.<.<.*.1.1.*.*.=.*.@.-.&.-.*.*.<.*.1.1.@.O.O.o.2.$.<.o.2.2.x O.$.2.1.1.8.8.e.w.t.a.y.p.i.i././././.[.{.`.+X'.{.+X+X+X{.+X`.`.`./.`.`.`.`.`.].].`.`.`.`.`.{.+X`.{.}.}.]./.`.}.}.'.}.'.}._./.u.u.r.r.r.y.t.u.y.u.u.a.w.9.8.8.w.f.q.*.-.*.*.1.9.2.%.;.: ; V a w $ + > a 9 u 9 6 + E HXKXHXJXJXJXJXJXJXJXJXJXJXJXJXJXJXJXJXJXFXSXmXFXJXJXJXKXKXFXBXSXKXGXFXMXMXLXFXGXFXFXSXSXxXiXxXxXPXnXMX' n B e v r t i i i i i d u d w w 9 w w r i w w w 9 9 w i r r i 9 i 9 w i i i w w w i d w w i w w 7 e i 8 1 n ' R R | Y i 6 0 9 9 8 8 9 9 9 9 7 0 6 8 i i 9 > 7 i a i w u i w w w r r r r e 9 w e e u e r w w 9 9 r r 9 9 9 w 9 9 9 9 9 9 9 8 8 7 0 1 1 > 1 1 1 & 1 1 > > 1 1 > % % > 1 , & % % % & % % , & & % 1 % % & & % & , & % & & % ; , % & $ & % % & % & % & & & & & $ & & % % % & & % % & & & & 1 & & f & & & & ; 2 ; V.nXgXsXgXsXsXaXtXtXaXtX",
" . .W W W W W W W W W  .W K W W  .W ( K 7 O $ , , , 1 1 1 8 8 e 7 8 8 8 8 8 7 7 0 7 7 0 8 7 8 7 e u v e 2 e e y e y e t u e v v t u t t t t t t y t t u t t y y t y t y y a y a y y a a a a v y M y y y M v y y y y M M y y y y y y M y A y y y y M y M M A y y M y y M y M y v y y y M M M y y v v v b v v e e 2 2 g F #.<.<.0.9.8.8.1.*.&.&.&.-.*.1.8.=.=.=.1.*.t.<.&.$.D $.O.o...2.x 3.<.<.1.8.8.e.w.w.t.t.y.(././.)._./.+X`.`.].+X{.'.{.`.{.{.{.[.`./.`.`.'.'.`.`.`.`.'.{.'.}.OX`._.'.`./._.'.^._.'.'.'.'.`.}._.]./.p.u.r.w.y.y.r.u.u.u.t.8.8.e.w.w.e.6.*.-.6.*.1.9.9.%.,.k - C q 2 , , 7 r i 0 e 2 8 > MXHXJXJXJXJXJXJXJXJXJXJXJXJXJXJXJXJXKXLXnXSXJXJXJXKXJXKXBXLXFXKXGXGXxXMXSXKXFXFXFXSXSXxXxXiXiXxXnXSX9Xi C K p t J w i u i i i u w q w i i w w q d i 9 0 u i i w 9 9 i i 9 i i q i 9 w w w i i w w w 8 t d w e 8 8 8 + N B B s w i 9 9 9 9 9 0 9 0 9 7 7 7 r s i 6 + i l i 9 i i 0 i w q r r u e 9 9 w q 9 r r r r q r 9 0 r 9 0 8 9 9 9 8 8 9 8 8 8 8 8 7 6 1 > > 6 & 1 & & > 1 1 > & & % > ; % % 1 % % % % & % & & 1 % & & & & , & % & & & , & , % & % & % $ f % % % f & f & & & & & % % % % & & & & & & > & & 1 & > % & < % ; 1 2 V.hXtXaXsXaXaXsXsXsXaXtX",
"W  .H W K K W W W W  . .W H  .W W W W d # # f % , , 2 2 e 7 8 8 0 0 7 8 8 7 7 0 e 8 2 7 1 7 8 7 e y v e 2 7 y e t t t e e u u t t e u e e r r t t u t t t t t t u t t t r t t y a y a a a a a a j v y y M y M M y y y M M y j y y M M y y M y M M M M y y y y A M y M M M M y y A M M M j y y y m e v M b t e e 2 4 j +.%.<.1.2.8.t.*.&.-.X.-.-.&.*.=.=.1.=.=.8.8.=.*.<.<.*.@.o.o.o...o.O.$.&.1.1.e.8.e.1.8.t.t.u././.i./.[.{.{.+X`.`.].`.{.'.{.{.+X`.`.+X].+X].'.}.`.`.].]._.`.`.`._.{.{._.)._.`.^.}.`.OXOX}.OXOX}._.^.i.i.t.=.a.t.a.p.r.t.y.e.1.e.t.w.w.r.*.-.X.=.f.=.=.&.%.;.- A t 2 + 6 0 9 8 i 6 6 0 . A.JXHXJXJXFXJXKXJXKXJXJXKXJXJXJXFXMXMXmXJXJXJXJXJXJXJXLXFXFXKXJXFXiXSXFXGXGXFXFXVXVXxXxXxXyXmXMXSXJX' T b a a p r t 9 i i s i w u w w q w i i i d q r e u r r 9 r r u r r r e 9 e e i d r d t w r w w r r w w w 8 e 8 2 1 e e e e e q w u 9 9 0 8 9 w w 1 0 r > # w i i i w q i i w r r r r r e 9 q r r r w e r r r w w w 0 q i w 9 u 9 u 9 9 w w w w 9 0 0 7 6 & & > 1 2 1 1 > & & & & , 1 > 1 > 1 & & & & , & & % % % % % % & % & 1 % % % & & % % = % & & % % % f & & & & & & & & $ % & % % & & % % & > > & & & > & 0 % & 1 @ 2 0 V.hXtXgXtXsXaXaXaXtXtXtX",
"W W W W W W W W W W W W  .W W W W W K 0 = # & % , , 1 1 7 7 1 8 6 6 7 7 0 6 6 6 8 8 7 7 7 7 7 7 e t v e 2 7 y y e u e t e e e e t t e t t u t t t t t y t t t t t t y t t t t y y y a a a a y y y y y y y y y y M y y y y y y y y y y y M y M y M y M y y M y y y M M M M M v j v y M y M M M y v e v v n e 8 8 e 3 j #.%.,.1.8.t.1.-.-.-.-.1.1.=.*.=.=.=.1.=.8.8.8.8.<.<.<.*.&.&.$.@.$.&.*.2.1.e.1.e.e.e.8.t.y.t.p./.^././.[.`.].`.`._.+X`.{.{.}.'.+X+X].+X_._.'.'.`.`.`.+X`.]._._.`.{.`._.`.{.}.}.^.}.'.].}.&X}.'.}.`./.u.t.e.p.y.i.(.t.w.e.6.=.1.a.r.t.t.-.-.X.-.=.=.=.*.%.%.g 3 y ; $ f 0 0 0 9 6 & 6 # ' GXJXJXJXJXJXHXJXKXJXJXJXGXSXnXMXSXFXFXJXJXJXJXJXJXLXJXLXKXJXSXxXSXSXKXKXKXFXVXSXxXiXMXiXnXLXLXHXuXY K b b b t r t u i i i i u d i i i u d u i w i 9 r r r 9 r r r r r r t u r r r t t w i t i i w w w i r d w w w e e e e e e e e 9 9 9 9 8 0 8 9 9 8 0 8 0 % 1 w w i i u i i i w e e q r r r r w r w 9 q e e e w i w w d 9 w w 9 u 9 0 w 9 w w 9 u w 8 0 8 7 6 > 1 1 f 1 1 1 > > 1 & ; & > > & > % & & , & & & % % % 1 % & & , & ; % % % & % % % % & & % % % % & & f % % % % % & % % & % & % & & % , & 1 > & , 1 & 6 % & ; * 2 3 V.hXaXsXrXaXsXtXaXaXaXtX",
" . .W  . .W W W W  .K W W  .W K L W  .f . $ $ $ ; , , 1 1 8 7 8 6 6 7 7 6 6 > 6 8 8 1 8 7 7 7 2 2 e v e 2 7 e y t t t u t e u u e t e t e t r y t t t r e t t y u t t t t t t y y y a y a y a y y y y y y y y y y M y M M y y y y M y M y M y M y M y M M y M y y y v j y M M M v y y M v M M M v y e v t 8 8 2 3 j A #.%.<.1.w.9.*.O.&.*.-.*.-.=.=.=.=.=.8.1.e.8.8.8.8.1.0.<.1.2.1.1.1.2.1.1.t.e.e.t.4.8.w.r.u.t.^./.^./._._./.`.`.+X`.+X{.{.+X'.+X{.+X_.+X`.`.`.{.'.`.`.`./.^.`.`._.`._._._.`./.}._.OX`.`.}.}.OX}.}.{._.y.t.i.t.y.p.p.p.t.8.8.=.1.a.t.r.a.=.-.-.=.=.=.=.*.<.<.! - j 1 * & 6 9 9 7 f & 6 6 6 uXJXFXJXJXJXJXJXKXKXJXFXSXPXvXmXGXJXJXJXKXKXJXKXKXFXFXKXKXSXvXMXFXFXFXGXKXGXSXSXxXyXxXxXFXJXKXJXB.b s n N n t t p i i i u w u i s i i i q u i i i r r u r u r r r r r u i r r r r w w i w i i d r w i t d t i w w e e e u w 8 8 e 9 9 w 0 9 0 0 8 9 9 i 9 % & w r w i i i i i 9 9 q e r r r r r r q w r 9 w q w r i i i q 9 9 9 i w w w w 9 w w u r 9 0 9 8 8 7 6 1 1 1 & 1 1 1 > > > > > > > > ; > % & & & & > > 1 % & & % & % & % , % & , & & % & % & % $ $ $ % & & & % $ & % & & % % % % > > > & & 1 1 > & > > & 5 % & & % 2 2 7.fXaXgXrXrXtXaXsXyXaXtX",
"H W H W W W W  .W W W K W W H W W  .9 . = % % , , , , 1 1 1 1 1 6 1 6 > 1 1 1 > 1 1 8 1 8 7 8 7 e e v e 2 2 y e e t e t e t v e e u t e u t t t t t u r t u t t t t y y t t t y y u y y y y t t y y y M M y M M M y y y y y y y M y y A y y M y y M M M M M y M v v v y y y y M v v M y v v y M M v e v t e 8 8 e u j %.$.<.<.e.<.1.*.2.&.-.3.-.2.=.4.=.1.=.1.e.8.8.8.8.8.8.9.9.0.1.1.9.1.1.1.8.e.t.t.t.t.r.y.(.i.^._./.`.`.{.`.`.].]._.`.`.`.`.{.+X'.{.`.`.`.`.`.`.`.'.`.`./.^./._._._.).)._._.^.`.}.`.].&X'.'.OX}.'.`./.^.u.i.t.a.y.a.i.a.6.6.e.e.r.a.y.y.f.-.X.-.-.-.*.*.*.,.$.z 3 2 O 0 f d 8 0 0 & 6 8 X E.JXCXJXJXJXJXJXJXFXmXMXnXSXFXKXJXJXJXJXJXJXKXKXFXJXFXJXFXuXnXKXLXFXGXGXFXFXSXxXyXxXSXGXFXJXJXCXR B N b s a w r a i i i i u d i i i i u d i i i i t r t r r r r u r r r r r r r u w i t i t i r t w w t i t w i t e e u r r w q u d u i w 9 9 8 7 9 i a 8 & 8 i i 9 i u i 9 i i 9 w w 9 r r t r t r 9 u 9 r r r r i u 9 i i 9 9 u w i w w w w 9 i w r 9 0 8 0 6 6 1 1 1 1 > 1 1 1 1 1 1 > > & , , > ; & % & % & & % 1 , % 1 % & & % % % , 1 , % % % % % % & % & % & $ % % $ & & & & & & & % & > 1 1 1 1 1 > > , ; & & $ & 1 ; 8 ; :.iXtXsXtXtXtXtXsXtXtXtX",
" .W K H W W W  .W W  .H W K W K K b < . + , $ , , , 2 2 1 2 1 1 1 1 1 1 > 1 > 1 1 1 1 8 7 7 e 2 e e y e 7 e e e e u e e r r u r t e t u r t y t t t t r t r t y t t t y y t t t y t y t t y y a y y y M M y M y j y y y y y y y y y M y y y M y M y y A M y M M M M M y y v v j v M y M M y M y M v v v v e 8 9 2 j j %.%.<.<.9.*.2.<.&.@.$.2.t.*.1.4.1.=.*.8.e.w.9.8.9.9.t.9.t.8.1.9.w.1.8.4.t.u.t.t.t.t.u.i.(.^.+X]._.`.`.'.`.`.`.`._.]._.`.+X`.{.{.{.'.'.`.`.`.`.`.`.{.'.+X^.t.u.].).)._._._.{.).`.^._.}.`.OX_.'.'.`._.).u.w.y.i.y.y.p.8.=.*.6.e.t.r.y.t.8.-.X.-.-.f.=.=.*.%.#.! q ; + 1 6 8 9 f 7 & 7 7 # E HXJXJXKXJXJXFXJXLXSXMXMXGXKXJXKXKXKXKXJXKXKXKXKXGXJXSXxXSXFXLXKXGXKXKXKXFXMXxXxXSXSXJXJXKXJXQ.v K N v y t t t p i i i s i i u i w u r i i i i i t u t t u t t e u r u r u r r t w w i t i i t d w t w r r t i t r r r r u r t r u w i i i 9 6 6 8 s i & 0 r r a i i w w w i w i r u r 9 r u r r r u 9 r r r r r 9 i 9 i w 9 w s w i 9 i i 9 i 9 w w 9 0 7 7 1 > 7 1 1 1 1 1 > 1 1 1 1 & > & & % 1 > ; % % & % & 1 % 1 % & & & % % & % & ; > % % $ % % % % & & & = $ $ % & & > & , & & & & & > 1 1 1 1 1 1 & & & & f = ; ; ; 0 - ^ tXtXaX#XtXXXaXtXtXtXXX",
"W  .W W  .W W W W H W W H W K H K m , O # , $ , , , , , , 1 1 1 1 1 & 1 > 1 1 1 1 1 1 8 7 e 7 1 e e y t 7 , e e t t e t e r r u t t v e r u r y y t t t u t y y t t y a a y y t a t u t t y a y y y y y y y y y y y y y y M y y y M M y M y y M y M M y y M M y M M y M M M M M y y M y y M M M v j u v v v r r e y j ;.%.%.<.0.1.<.$.O.2.2.2.1.1.1.1.=.*.=.1.8.8.w.8.8.9.9.t.9.9.t.t.w.e.1.w.w.y.t.p.(.(.i.i.]././._.]._.`.`.`.`.`.].].+X^.+X].+X`.{.'.}.}.{.{.`.`.`.`.'.{.`.`.u.u.i.^.)._._._.`.`.^.^.'.].OX_.].}.OX}._.].i.y.i.u.y.y.a.8.6.=.8.w.w.r.y.r.e.=.X.-.-.-.=.=.&.$.$.^ A @ ; # 0 8 0 % > & 6 6 9 f iXJXJXKXJXJXFXFXMXSXSXFXKXKXKXJXJXKXJXKXKXKXJXJXKXSXPXMXFXFXFXKXKXKXKXGXSXxXxXMXGXGXJXJXnXJXUXv v v a a a a t r i i i i l p d q i i p s i s a s y t t r t y y r t r r r e u t t i r i t w i t t w r i i r d w t r u t t t p i t d u i w i 9 7 6 6 i 6 $ r i 0 i i u w w q w w i r r r r r 9 r r r 9 r 9 u 9 r r q 9 9 i i 9 i i i 9 i 9 q i i i i r w 9 8 7 7 0 7 0 1 7 1 1 1 > 1 1 1 > 1 & & & > > , & , % % % % 1 , ; , % & & % % % & > > > & & & & % & & & & * % $ & & > 6 6 & 1 , & & 1 1 > 1 1 & 1 1 1 & & f $ % f f ; q * ( tXXXXXXXtXXXtXtXXXXXyX",
" .W W  . .W W W W W W K W W W W K 5 = + $ $ $ $ 1 , 1 1 1 1 1 1 1 & & > > 1 1 1 1 1 , 7 7 e 2 e e e y y e 2 e t r e e e r e q e u e e t t t t y y y y y t y y t t t a a y y y a a y a t u a y a y y y y y y y y y y y y y M y y y M y y y M M y M M M M M y M y M y y M v M M M y y y M M M M M v y y v v n r r u q l #.,.%.q.8.2.$.O.%.9.t.&.<.1.1.2.*.2.1.8.1.9.8.9.8.8.9.9.9.8.9.9.8.1.w.e.r.u.(./.^./././.`._._.]._.`.`.`._.'.`.`.`.`._.^.].`.`.{.'.{.{.'.'.`.`.`.`.`.`.{.'._.i.u.).d.d.s.).).'._._.'.].'.^.}.OX}.`._._.].).i.r.r.y.r.8.6.=.=.8.e.r.y.w.r.=.X.X.-.-.3.=.&.$.+.+.! e * $ 8 0 f > > % & 8 i . ~.JXHXKXJXJXCXmXvXSXFXGXKXKXKXJXJXKXKXKXKXJXJXKXFXxXSXKXSXFXJXKXKXGXGXDXnXxXMXSXFXJXKXKXDXpXJ K v a a a a n p i i p s i p p i i i i s p i i i a t t t r t y t t t y t u r e u u p i i d w i r p d t i i i i i t r t t t i u t r i i w r 9 9 w 9 0 6 ; 6 i i r i i w w i d q w u r r u r r r u r r u r u 9 r u r i 9 9 i i w 9 i w i i 9 i q 9 i i r r 9 8 8 7 7 7 1 7 0 6 1 6 > 1 > 1 1 & & & & , & > & & & % % & & & , ; , & & % % & & & > > > f > & & & & & % $ % & & & 1 1 > ; > > 1 > 1 , ; 1 & 1 1 1 1 & & f % % 1 * 2 q * L XX X X XXXXXXX X,XXX X",
"W  .H H W W  .W W W H W  .H K W n , . , , $ , , 1 , 1 , 1 1 1 2 1 > > > 1 1 1 1 , 1 1 1 7 e e e e e y e e 2 e t r u e e u t 9 8 e v e u u t t t y t y y y y y y u t a a a u y t y a y t y y a a M M M y M y A y y y y y y y y y y y y M M y M M M M M M y y M M y M M v y y M y M M y M M y y v M j u v v y r w q q j ^ %.#.<.<.<.+.2.9.2.&.&.t.t.4.=.*.1.t.t.8.w.9.t.9.8.8.9.t.t.w.9.t.e.w.t.u.u.i./././.`./.`.`.`.`.`.'.'.`.].'.'.'.OX`.]./._.].+X+X+X+X'.{.'.`.`.`.`._._.`.`.`.^.9.u.i.i.).`.`.i.].`./.`.^.'.&X'.'.}.OX}._.d./.y.t.p.w.6.=.-.*.e.8.y.i.y.y.=.X.X.X.3.-.-.-.@.+.+.;.A o 0 f 8 6 f > % & 9 i . } KXFXHXJXKXmXmXFXFXFXGXKXJXKXKXKXGXKXKXJXJXGXLXpXBXKXGXKXGXKXJXKXGXFXSXxXxXSXKXGXJXJXvXJXE.u J v v v a a i a a s i i a p p i i i s s i i u i a t t r t y y y t y y y r r t t i p p i i w w i a i p p i t i t a u t t u r r r 9 i i w 9 9 i i r 7 $ % 9 r i i 9 i w w i i w 9 w r r r 9 r r r t r r r r r 9 9 r i 9 9 s s i i q i i 9 i 9 i w i w r r w 9 8 7 8 1 1 7 1 7 6 1 > > 1 > > 1 & & & % % & & > > > > & & & , & & 1 1 & , $ & & > > > 6 6 & & & f % % % & & f 1 1 & & > > > > 1 1 1 1 1 & & & & 1 & & > % % f * f q o L XX!.oX X XoXXX X X X X",
" .H  .W W  .W W W K W W  .W W  .6 & = + * $ % & 6 > 1 > 1 , 1 , & & 1 & & > 1 1 1 1 1 1 > > 7 w r r r 9 0 0 8 r r r u w d u u u v e t r r e n t t t t d y t r t y r t y y y y y a a a y y y a t y y y y y y y y M y y y y y y y y y y y y y M M y M M y y y M M M M M M M y M M M v M M M M y v v t e v I K r 1 e u j Z #.<.<.<.+.$.2.O.$.$.<.<.<.1.<.9.8.9.1.8.9.9.9.9.9.9.9.9.9.u.9.t.t.t.u.(.(./._._./.`.`.`.`.`.]./.`.`.'.`.`.'.{.'.`.'.`.`.`.+X`.'.`.`.].}.'.+X`.`.`.`.+X+X`.].t.t.^.[.).i.^.{._./.`.'.].OXOXC.}.}.'._._._.i.i.t.r.y.e.-.=.=.f.f.a.a.p.a.*.&.-.X.-.-.-.-.-.+.o.! >.j o 0 2 f & & f 6 w w 7 6 kXJXFXJXSXnXFXFXFXKXKXKXKXKXGXKXKXKXKXJXGXmXiXHXFXHXJXJXKXKXKXKXKXFXMXPXnXDXJXJXKXMXFXKXT b U v v y t v v v e u p t p p u a t a a a a p a a s a y u i u r i u r u r r r u r a a a i r r u u r p i r r p p u r r r r 9 r r r u r p u 8 1 r y a > $ 8 a 9 w i r 9 r u w w w w q 9 e u r 9 9 r t r q w r i r 9 r i i i u i i i i i i u u i u i 9 i i i d 9 0 8 0 1 0 1 7 7 1 6 6 1 1 1 1 1 & & & & & & & > 1 & & 1 & & & % 1 & ; % % & , , & 1 1 1 > & 1 1 1 & $ $ $ % 1 1 1 1 > > 1 1 0 1 6 1 > 1 1 > 1 1 , & & % < & % > 7 ; . l Z.oX!.(. X!.oX(.Q.oX!.",
" .K K  .K K W  .W W  .W K W W  .f = + * % % % f ; f > 6 1 1 , , 1 1 & 1 1 & & 1 1 1 6 1 6 6 7 9 0 r i r 9 8 8 r 9 w w r i u w d t e t e t t r t r r t t t r r r y t t y v t y a a a y a y a a u y y M y y y y M y M y y M y y y y A y M M y M y y y y y y y y M y M M M M M y M j v v v M M M j v t v v n r e y 0 e j S ,.,.#.$.#.<.%.<.$.<.2.9.0.1.1.1.9.8.9.u.u.9.9.9.9.9.9.u.9.u.t.9.9.9.u.(./.^._._.`._._._.{./.`._.`.}.{.`.`.`.`.`.`.`.`.'.].].].^.`.`.`.].'.'.'.'.OX'.oX`.'.].^.u.^./././._._._./.`.`.^.OXOX`.`.&X}.^.`.i.i././.i.w.=.-.-.=.=.f.a.a.p.y.=.=.X.X.3.-.-.-.X.@.@.+.! #.2 2 8 f * = % 6 i v w . !.JXFXJXLXSXLXFXFXJXKXKXKXJXKXJXGXJXJXJXuXPXFXKXHXKXJXJXKXKXKXKXKXSXPXxXSXGXJXJXHXmXJXIXn V b v v y v e e v e a y y a y a a u y a y y y y y a a a p a p p p p i u i i i r r p a i p r r r r r p r t i u i r i p r r u 9 u r r 9 r 9 8 8 w r t > 1 r i 0 i s 9 9 u d u i w u d 9 r r e e q r r r 9 r r r r u r i w i i i i i i q d 9 d u d q w w i q d q 0 8 7 7 0 7 1 7 1 > 6 7 0 1 1 , & & & 1 & 1 1 & & & % 1 & & % & & 1 1 > > 1 > 1 & & & 1 > > > > & & $ $ & % 1 1 1 1 1 > 1 > 1 7 1 1 1 1 1 > > 1 1 & & % & & % > 7 ; + 0 V.Z.Z.Z.!.C.(.(.Z.E.(.",
"H K  .H W H H W  .K W W W W K d # * = $ & & & & 1 1 > 1 1 1 1 , & 1 1 1 1 1 1 > 1 1 0 2 1 1 0 7 0 r i r 9 0 8 9 9 u d q q d u d e t e r t t t r r r t d r t p y t t y y a y y y y a y y y y a y y y M M y M M y y y y y y y M y y y y y M y y y A M y M y M M M M M v M M M y M M M y M M M M y M v r t n v t y u 3 4 A #.,.%.%.<.,.$.<.$.%.<.0.9.<.0.<.9.1.9.u.9.9.9.9.u.9.d.C.u.9.(.9.^.t.^.^./._.`.`.`._.`./.`.`._.`.'.'.{.+X].+X`.`.+X`.`.'.`.'.`.].`.`.'.].].].`.'.'.'.`.oXOX`.^.^.^.i.i.).[./._._.`.].`.OXOX'._.}._./.}.`.u./.i.a.a.=.-.=.=.f.f.a.p.p.p.8.1.-.X.X.X.-.-.-.O.&.! ! :.Q 2 2 0 ; $ $ 1 a b p X ] JXBXKXFXKXKXKXJXJXKXKXJXJXJXKXJXJXKXnXPXLXJXJXJXJXJXKXFXKXJXFXFXSXxXnXKXJXKXKXKXSXJX[ v P b v v v e v v v v u a a y a y a t y y y y u t a a s a p a p s p p u p i p i r u p t t t r r i i p r u a i r r r p u i u r r r w r r r r q 8 2 2 1 ; w i w w i i 9 w d q i i w w w 9 w r r r r r r r w r r t r r u w u i s i i w u u w w i w i w 9 9 w w q r 9 9 7 7 7 6 6 1 1 7 7 1 7 1 1 1 ; & 1 1 1 > & & > & % 1 & & % $ & & & 1 1 1 1 ; 1 1 1 1 1 1 > & $ % $ & > 1 1 1 > 1 1 1 > 1 1 1 1 0 1 2 1 1 > & & & & $ % & & 1 1 1 + - ~ Z.Z.(.C.C.C.B.C.C.C.",
" . . .K  .K H K W H K  . .W  .9 = * * # & & & & > > > 1 1 1 2 1 & & 1 1 1 1 > > 1 1 1 1 6 6 6 6 0 9 i p 9 8 8 9 9 w w i i w w w e e e r t t r e r r t t r r p n y r r v y y t a a t y a a y a y y y y y y y y y y y M y y y y y y y M M y M y y y M M M M M y M M v v M M M M y M y M y y M M M M v r n P K n r e 2 2 g Q %.,.%.%.$.$.$.+.$.#.*.<.<.1.1.t.8.9.9.^.9.^.9.9.u.u.d.^.u.9.9.t.^.^.^._._.`.`._.].+X`.+X_.].+X{.{.`.].].`.`.`.`.].+X`.`.}.'.`.].`.`.`.^.+X`.'.'.`.`.`.{.].^.t.a.u./.)._.u.)._././.`.OXOX`.}.'.^.}.[.OX^./.u.u.r.f.-.=.=.=.a.a.p.a.i.r.w.-.O.X.X.-.-.-.$.@.+.+.Q ,.Z 3 0 f ; ; 6 a C a > v FXFXKXFXJXJXKXJXKXKXKXJXJXJXJXJXGXPXMXJXJXFXJXJXJXGXFXFXKXJXGXVXxXxXSXJXJXKXJXFXHXpXB V U v v y v e v t e v p u y t t y t t y a a y a y a a a a p p u u i i a i a u p r p p r r r t p u p p r i s u r r u p p i p r r u 9 r 9 r t i r 2 , # 7 i i w i i i r w w i w w w w w e q r r r r r u r q r r t r r r i i i i i i 9 i d q w w w w w 9 0 w w i 9 9 9 8 7 7 1 1 1 1 1 2 1 1 1 1 > > > 1 1 & & & & 1 1 1 % & & 1 & 1 & 1 > > > 1 > 1 1 1 1 1 1 1 % $ $ & , > 2 2 1 > 1 1 > 1 1 1 1 7 1 1 6 6 > > ; 1 & & $ % $ & 1 1 ; @ f l V.C.C.V.>.C.2.M.C.C.",
"H K H  .K H H W H W W  .W W  .* * # # % & > f & 1 1 > 1 1 2 1 1 1 ; 1 1 6 > > > > 6 > 2 6 0 1 7 0 9 i p w 0 7 9 w w q d u w q w e w e r r p r e p p t r r r t t y t y a a t t y t t a y y a a a y y y y y M y y M M y y y M y M M M M A M M M y y y y y M y y y M M y j M M M y M y M y M M M M t v v v b b n y 8 3 2 3 Z #.,.#.#.o.#.O.$.+.%.<.<.<.<.9.0.9.0.9.9.^.u.C.^.u.u.^.^.^.9.u.u.^.^._.`.+X`.{.`.+X`.`.`.]./.+X{.{.`.+X{.{.`.+X+X`.`.`.^.`.`.`.`.^.^.].`.`.'.OX'.`.].`.`._.^.t.t.u././.).u.).d.u.`.'.`.^.`.OXOX_.OX`.`.|.|.d.r.e.=.=.-.=.4.f.f.0.r.d.w.w.=.-.-.-.X.3.-.-.D *.! ! #.#.L : ; ; ; 2 p K K e , iXHXLXFXJXKXKXJXKXKXKXJXJXJXJXmXuXmXFXJXKXJXJXJXJXFXVXSXKXJXGXvXiXnXFXFXJXJXKXLXJXM.n U b v v y y y t v v v y y y t t y y y y v v a y a a a p a s u p u p i p a p a a p i i 9 r r u p p a p r p p p r u r p p u p p r r r w 8 8 r a a q 1 1 i i r i i i 9 i 9 i i q u w w w w r r r r r r r t r e t t r r r i i i i q i 9 i i d q w w q w w w w r r r w 0 9 6 6 1 1 & 1 1 1 > 1 1 > > > > & & & & % > 1 1 1 1 1 , > , & & & > > > > > 1 1 1 1 1 7 > $ $ $ & > 6 7 6 > > 1 6 > > 1 1 1 6 1 6 7 1 > > > > & % % % & & > , % @ ; 3 ;.>.M.2.>.>.>.>.2.C.",
" . .K  .H K K K W K K H  .K d = = # % % & > 0 6 6 1 1 1 1 7 1 1 > > 1 1 1 1 1 > > > > 1 6 7 7 1 8 9 i a r 8 8 9 w 9 w w w w 9 d r e e e t r t r r t t r t r r t a u t y a t t y y t y t t y y y y y y y y y y y y y y y y y M y y y y M y y M y M y M M M M y M M y M M M M M M M M y v M M y M v v u e n b y r u u u 3 k ^ q.%.o.! ! ! +.o.;.<.%.<.%.0.<.9.8.t.^.u.u.u.u.C.u.u.^.u.^.u.^.^._.]./.`.+X{./.`.+X{.{.`.+X`.`.+X`.`.{.`.`.`.].`.].+X`.].].'.'.`.].`.`.`.`.'.'.`.].`.`.`._.9.9.i./.i.d.y._.d.u._.`.`.^.'.'.OX`.`.{.].'.}._.p.e.=.=.=.=.f.f.a.r.r.r.8.w.=.*.-.X.X.-.X.O...@.+.#.#.+.;.q ; * ; ; r N N n X E.JXFXFXJXKXJXJXJXJXJXJXJXJXKXMXuXFXJXKXKXJXJXJXKXLXSXSXKXKXFXxXiXSXKXFXKXJXLXJXmX| b b v b y y y y v t e v v a a a a a a a y v v y a y a v l s p p p p p p p s a p a s p r 9 r r i p p u p u u p p r r u i i t p r u r e w 8 2 r s p 8 1 8 i 9 w i i 9 r i i 9 9 i i w i w w w e r r r r u t w 9 r r 9 r r i i i u i 9 9 i i i w w w d u w u w w 9 9 9 9 0 6 6 1 > 1 > > 1 1 > 1 > 1 > 1 > 1 1 & 1 > > > > 1 & 1 > 1 1 1 & 1 1 1 > 1 > 1 > 1 1 1 > & $ & > 1 6 7 6 1 1 1 7 1 1 1 > 1 1 6 6 1 1 1 1 1 > & % & % % > > % @ % f : L >.>.>.;.;.;.;.;.>.",
" . . . .K H K W K  .K K H  .d = + # % $ & > 6 > 1 6 1 6 1 1 1 1 1 > 1 1 1 1 > 1 > > > 1 0 7 7 7 8 9 i i w 0 0 9 w w 9 0 w w w q e r e r r r r d r t t t r t t t y t t a a t t y a t t y y y a a y M y y y M M y M y A y y M y y y y y y y y M y M M M M M M A y M M M M M M M M y M j v M M y M M M e e v B v e y y M g 3 Z #.,.#.! ! x x D o.$.#.*.<.<.<.9.9.^.9.^.9.^.^.9.9.^.^.^.^.^.^._.]._.`.+X`.`.`._.`.`.{.+X[.+X`.`.+X`.`.`.`.`.`.].].`.`.`.`.`.'.'.'.'.`.].`.`.'.`.`.`.'.'.].u.9.i.i.i.).u.s.d./._._._.`.}.`._.'.^.'.`.'.'.|.p.f.4.=.4.=.=.6.r.d.r.d.w.9.1.=.-.X.3.-.X.O.O.! O.+.#.! ;.~ z - - 2 t v a b . UXHXKXJXJXKXKXJXJXJXJXJXJXLXMXnXCXKXJXJXJXJXJXKXGXSXMXFXGXKXSXxXPXFXJXJXKXJXKXJXE.B P v v B v y y y t v m v M s v y a a M l l v M a a y a a p s a p i a p a u i a p u s a u u r r p i p p p p p u p i i i r p t i i r r r q r e w t e 1 1 w i w i i 0 r p w 9 9 9 w i 9 q 9 r q 9 9 r r r 9 r q 8 w u r r r q i i i i w w i i q w w w w q w 9 9 9 9 9 8 9 9 0 6 6 6 1 1 1 > > > > > > 1 1 1 > 1 1 ; > 1 & & 1 ; > 1 1 1 1 1 1 1 1 1 1 1 1 > 1 1 1 , % % & > 1 6 1 1 1 1 1 7 1 1 1 > 1 1 1 6 6 6 1 > > > & % & & % 1 > # @ & f ;  .;.>.;.;.^ ;.^ ;.;.",
"H  .K H  .K K H W W K W  . .0 . = % & % & & & $ 0 1 1 6 7 2 1 1 1 1 1 1 1 1 1 1 > > & > 1 7 8 7 8 9 i i r 7 8 9 w w 0 w 0 w w i e r r r e r r v w r t y d t d p y t y a y t t y u t a y p y u y y y y y y M y y y M y y y y M M M y M M M M M M y y y y y M y y y y M M M y M M y y v v M M M M e M v v y n y t v u M j 3 3 Z ! ;.#.Q x k S ! #.#.#.<.%.0.9.^.t.C.u.^.^.^.^.^.^.^.^.^.^._.]._._.`.`.`.+X+X+X`.+X_.+X/.`.+X]./.+X^.^.+X`.`.].`.`.^.`.'.`.^.]._.].'.'.`.`.'.`.`.].'.`.^.u.u.u.i./._.p.d._.).].u._.`.^.'.^.OX}.]._.&XOXs.p.a.a.=.3.=.=.6.r.r.w.r.6.e.8.=.-.X.-.-...-.3.O...o.o.O.! 7.l - ; q l C N I + | HXLXKXJXJXKXJXJXJXJXKXSXmXxXmXHXJXJXJXJXJXKXGXSXSXSXFXGXFXxXxXSXFXJXJXJXJXHXHX| a P v B v y y y y v v u e v v a y a a v v a a a a y y y a s a a p a p p u r p p u a s s q r r p u p u u i p i r r p u p r i p u r t t r r 9 2 8 9 7 , 2 v i 0 i r 0 i l 9 i w 9 9 i i i 9 r 9 q 8 u r r r r 9 e w r 9 q r 9 i i i i w i 9 i i w w 0 w 9 9 9 0 8 0 8 8 8 9 7 7 6 6 2 1 1 1 1 1 1 1 1 1 1 1 > % , > 2 1 1 1 1 1 > 1 1 1 1 > 1 1 1 1 7 1 0 7 0 2 1 & & & > 1 0 > 1 1 1 0 1 1 1 1 1 1 1 1 1 1 6 7 1 > > > & % f $ & 1 & # @ & ; ; f ~ ;.~ ^ } ^ ~ ;.;.",
" . . .H  .W  .W  .K  .K K d % = = % f f ; f > 6 1 7 7 1 7 2 2 1 6 1 1 > & 1 1 1 & > & 1 1 1 0 0 8 r i a d 0 8 w 9 q q d u i r w e d r r r t r t t t d r r r r t u t r t t t t t y y y v y a a y y y y M y M y y A y M y y y y y M y y M M A M M y y y A y M y M M M y M y M v y M M M v M M M y M v v y r v r v v v M l q 3 j L S ~ ! x z z x O.~ #.;.2.<.0.9.C.u.^.^.^.^.^.^.^.^.^.^.].]._._.].`.+X+X'.'.+X`.(.`.`.`.`.{.`./.(.`.}.`.`.'.`.`.`.'.'.`.].]._.`.'.'.`.].OX'.].].].'.OX].u.d.u._.d.[.)._.d.d.i.u._._.]._.}.'.`.`.'.].}.].d.u.e.1.-.-.-.4.f.r.r.r.d.w.8.=.*.X.-.X.-.X.@.@.O.o.O.#.#.#.,.z : q l l s K % 8 SXKXKXJXJXJXKXFXGXFXSXPXiXKXJXJXJXJXJXJXJXFXFXFXvXSXFXFXFXiXMXFXKXFXJXKXLXJX%XB K B K B r y y y y y v t v v M M a y a a v r a M v y t y M l s b s l s p s r p a a a p p p p i p u u a a s i u r i s r u p i p s i u 0 w r r t e w $ 8 t r 9 9 i q 9 0 9 9 9 w w i i i i q r r u r 9 r r u r r 9 r r r r u i i i q i 9 i 9 9 9 9 q w w u d w d q 8 8 8 0 8 8 0 6 6 1 1 1 1 1 1 > > > 1 > 1 1 1 1 1 1 1 & 1 > 7 7 1 7 6 > 1 > 1 > 6 6 6 6 6 8 1 % % & & 1 1 1 0 7 1 7 > 2 1 1 1 > > & & > > 1 1 1 > % % % % & $ f 6 # # ; & ; ; ; L ~ ^ } ~ ~ ^ ~ ^ ",
" . . . . .K H  .H  .K H  .8 % = = $ % & & & > > 1 7 1 7 1 1 1 1 6 6 > > 1 > > 1 > > & 1 1 1 1 > 9 w i i u 0 0 9 w 9 d u d r w r r e r r r d t r t t t r r r t r t t t t t t t t y y y y a y y a y y y y M y y y y M y y y M y y M M y M M y y y y M y M M y M y M M M M M M M j M M v v M M y y v y v y y n b B v v l y u 3 q j l S S L 5.z z z D o.;.2.C.0.0.9.t.u.C.u.^.^.^.u.^.^.^.].].].`.`.oX+XOX+X'.`.`.+X^.+X+X+X+X`.`._.`.+X].+X`.`.].+X'.`._.].'.'.`.].].'.'.'.].'.'.OXOX'.9.d.u.u.).).d.).|._.).s.u.^././.`.}.}.`.].`.'.&X|.d.y.r.a.=.=.=.=.f.r.r.r.d.w.w.8.8.6.q.X.X...X.O.O.O.o.@.+.o.^ ;.: 3 l l  .b f 1 iXJXJXJXGXKXGXSXFXnXiXuXSXKXJXJXJXJXJXJXJXGXFXSXnXFXGXFXMXiXSXKXJXKXJXFXHXHXm.b K B B M v y y y v y v v m a a y y a v M l y v v v y t a a a a s a p p p u u i u p a p p p p a i p p p a s p i u a a r i p u p a a t t r u t p u 1 1 q a r i 9 i w i i q 9 w i 9 i i w 9 i r r r 9 r u 9 r r u r r 9 e r r i w 9 i 9 i 9 i i i 9 i u d d q 9 w 9 8 8 8 9 8 9 8 0 0 7 1 1 1 1 1 > > 1 6 1 > > 1 1 1 1 1 1 1 > 1 1 > 1 > > 1 1 1 1 6 7 7 7 7 8 1 % % & > 1 1 1 1 6 6 1 > 7 1 2 1 1 > > 1 1 1 1 1 1 ; > % % % f $ f f # # & & f ; ; l ~ ~ ^ ~ ~ ~ ~ ( ",
" . .H  . .W K W W  .K K p & = = * * % & & > 6 6 1 7 1 7 7 1 2 , 1 1 6 > 1 1 > > > > 1 > 1 > > > 0 9 u i 9 0 7 9 0 w w w u w r 9 r e e r e t r r e r t t t r t w t t t t t t t t y y y y a a y a A y y y y y y y y y y y y M y M M y y M y M M y M M y y M y M M M M M M M M M y M v j M y M M y M v v y y n n v v y t u u 3 2 : L S Z z g 3 : z k ! #.<.<.<.0.0.9.^.u.^.u.u.^.^.C.^.^.^.].`.`.`.+X+X+XOX+XOX'.`.`.`.`.]._._.`._.'.`.`.`.`.`.`.`._.`._.'.'.'.`.].'.}.'.'.'.'.].].OX`.9.9.u.i.)._.)._.`./.).).u.)./._.`.'.`._.].].|.Z.d.d.d.r.r.p.4.=.=.f.r.f.p.s.i.y.8.=.-.X.X.X.X.X.X.O.O.o.o.O.^ #.,.~ - K u K l 0 o Q.JXKXJXJXFXFXSXPXiXiXmXJXKXJXJXJXJXJXJXJXFXSXMXnXFXKXFXxXxXLXJXJXJXHXFXJXuXP V K V v B v y y v v v v v v a a y y v M v a N v y a a v a y a a a a p p i p a p p i u i i u p p i i u p i p u t r p p i u p u p a p i r u 9 s a u % w e i 8 i i i i i 9 9 i i i i 9 i 9 i w u i r w 9 9 r r r r 9 u r e e r i w i 9 i q 9 i i i i 9 d q 9 w 8 r 9 0 8 9 9 8 9 8 7 7 7 1 1 7 1 > 6 6 6 6 1 & > > 1 1 1 1 1 1 > 0 1 > 1 1 > 0 7 7 2 7 7 7 7 8 1 & % & > 1 1 1 7 1 7 1 6 > 1 7 6 1 1 > 1 1 > 1 1 1 1 1 > % % $ % # & & = * f ; ; ; ; q ~ _ } ~ ~ ~ ~ ~ ",
" . . . . . .K H K  .K W d # = = # % % % & > f 6 1 1 7 2 1 1 1 1 1 6 2 7 1 1 1 > 1 1 1 1 1 1 1 > 0 8 9 i r 8 8 9 0 9 w w 0 w 9 w e r e r e t e t t r r r r t t t y t t t u t y v y y y y y y a a y y y y y y y y y M y y M y M M M M y M M y y y M y y M y M y M y M y M y y M M M y M y M M y v v v v e t v v n r r e 8 u u 0 ; : z L L S z : : : k ! #.,.,.0.0.9.9.u.i.u.C.u.^.d.u.].^.].].`.'.+XoXoX+X'.`.`.`.{.`.{.`._.`.`.{.`./.`.'.`.`.OX`.].`.'.'.`.].'.'.OX`.^.'.'.$X`._.OX`.u.9.].d.d.`.`.|.}.i.u._.i.i.i._._._._.`._.`.|.d.u.`.|.d.r.p.f.=.=.f.e.f.r.s.d.y.6.*.-.-.-.-.O.O.O.O.@.o.o.o.o.;.o.>.z j j C N i   M.JXFXKXFXSXSXxXyXxXSXKXJXJXJXJXJXJXJXJXJXFXSXxXSXGXGXSXiXvXKXJXJXKXFXHXHX~.n P J V v v v v y t v v v v v M a y a a v a y N v y y v l M a s s a a a a a a a s p p a i a p a y u t i i t i i r r p p u r r a i r r r 9 8 0 a t 8 & t t w q w i i i 9 i i i i q 9 i 9 i q i i r r u r r u r r r r r r u r e w i 9 i w w 9 9 9 i 9 9 9 9 9 9 9 9 9 0 8 8 9 8 8 7 7 7 7 7 1 1 2 6 6 6 6 2 1 > > > 1 1 1 1 1 1 > 7 1 > 0 1 1 7 0 1 6 1 1 1 6 0 > % % > 1 1 1 0 1 7 1 6 6 7 0 7 > 6 6 6 2 1 1 & 1 1 1 1 > % % % % f & & # $ % & * 0 ; 0 L ^ ~ } ~ ~ ~ ~ ",
" .H  . .K H K K I H K  .f . = = $ % & & > > 1 7 7 1 1 7 1 1 1 1 6 6 7 7 0 0 1 1 1 > 1 1 1 6 7 6 8 8 r p r 9 0 9 w 0 9 9 q 9 9 9 r e r e r e r e r r e r r t y y y t r t u t t y y y y a y y y y y y y y y y y y y y M M y M A y M M y M M y y M A y y y y y M M y y M y M y y M M M M y v v y y v v v e t b v v 7 w e 8 w q q 0 ; g q z  .5.Z z 4 : c ! ,.$.%.2.0.9.^.u.C.u.^.^./.^.d.].].].'.'.'.+X'.+X`.`.`.`.`.`.`.|.`.`.`._.`.^.+X`._.].`.].`.'.'.`.`.`.`.'.].`.].OX`.`.].|.&X`.u.9./.)./.`._.[.}./._._.u.r.y.i.)._.|.'.'.`.].].'.[._.}.s.d.f.f.f.f.f.f.r.p.r.r.6.6.q.-.X.X.3.X.O.@.O.X.o.+.o.#.! #.,.3 C l  .l X [ GXSXSXSXPXpXyXgXmXSXFXJXJXJXJXJXJXJXJXJXFXnXxXSXFXGXPXpXSXGXKXJXHXKXJXBX| B P V B v v v v e v e a a s a a l a M y a a y M a a y v v M a a a a a a p a p l a p p p p a a u p i u u i r t i u i p i u p r p t r r r r 8 2 9 0 + 8 i p 8 a 9 w i w i w i i 9 i i i 9 9 i 9 u i r r r r u r r r r r u r r r i w q i 9 9 9 9 9 9 9 9 9 9 9 9 0 9 8 8 9 8 8 9 8 8 7 8 7 6 1 0 0 6 1 1 > 1 6 > > 1 1 1 1 1 1 0 1 7 2 > 6 > 1 7 7 7 7 1 6 1 1 6 & $ & > 7 1 0 7 7 0 1 7 1 1 7 7 1 > 1 6 6 > > > 1 1 1 1 & & $ % % f f = * * % f ; f * ; L / ~ ~ ~ ~ ~ L ",
" .m  .H  . .H H K K  .d % = + + $ & % f > > 1 1 1 1 1 1 1 1 ; , 1 0 7 7 8 7 7 6 1 1 1 1 2 7 7 7 9 w r p r 9 8 8 9 9 9 9 8 9 w w r e r d r r e r t t r e e t r n t u t t e t t v y t t y t a a y M M y y M y y M y M y y M y y y y y y M M y y M y M y y y y y y y v M M y y M y y y y M v v v y v v v e t n e e 8 w w 8 9 i w 9 ; q z l  .E ~ x k c - c x ! #.<.<.8.9.u.u.u.^.^.^.].].].].].].`.'.oX+XoX'.`.`.`.`.`.`.'.`.`._._.].+X].`.`.]._._.`.`.'.`.'.'.`.].'.OX'.'.Z.'.`.Z.OX`.^.u./._.d.[._._.`./.[.[.i.a./.)././._.}.}.`.'.`.'.[._.|.s.d.a.a.f.f.6.f.f.a.p.y.r.6.6.6.6.X.@.....+.o.o.o.+.! +.$.^ :.L y l i  .= W GXSXgXgXyXpXxXPXSXKXJXJXJXJXJXJXJXJXJXHXSXvXSXFXGXSXxXxXFXGXJXKXFXHXJXQ.m T V B v v v v v y v v s a n n a a v v l a s v a a y v a y a M a a a p j p p p a a a u i u i p p p i p p r u i p i a p p a p i u r r r t i r r 8 2 $ r u 9 1 p 9 9 u w w i i u w i 9 9 9 9 9 i i r r r r r r r u r u 9 e e r r q i i w 9 i 9 9 i w 9 9 i q w w 9 9 8 9 8 8 8 8 8 8 8 8 7 0 6 7 6 1 1 > 1 6 6 6 1 1 1 7 1 1 7 7 1 7 6 > 6 6 > 7 7 7 7 7 7 1 1 1 & % , 2 7 7 1 7 7 7 7 7 0 7 7 7 1 1 0 1 6 > > > 1 1 1 1 & % & % % f % * * % % ; % ; ; ; l ~ E ~ ~ ~ W 5.",
" . . .H H K  .W K W n 1 % = = + = % , > > > 1 1 2 1 1 1 , 1 1 1 1 1 0 7 7 8 7 7 0 0 1 1 1 1 6 6 8 9 i p t 0 8 0 9 9 8 9 9 9 9 r e e e r e e r r e r r r r t t t r e t r t t u t t y y y t y a y y M y y y M M y y y y y y M y M M y M M y y y M y y M y y y M y y v M M y M v M v j y M v v v v V v v v e e 7 e i i i 9 w w w u f q z x x x ~ ~ ~ S z : : c o.$.<.0.9.t.^.C.i.^.].^.].]._.`.].`.`.+X'.oX'.`.'.'.'.'.'.`.`.].`.`.`.`.`.`.'.`.`.`.`.`.`.`.'.'.'.].'.'.].].`.&X'.`.'.].].u./._._._.`.`.`././._.i.).[.).d.i.]._.'.'.}.d.`.'._.[.|.|.p.p.r.f.6.f.f.r.p.d.r.6.*.6.6.*.@.@.....o.+.o.o.o.o.#.#.^ } q l q d * i xXxXyXyXeXxXSXnXLXJXJXJXJXJXJXJXJXJXKXFXSXPXSXKXGXSXxXxXKXGXJXJXHXJXAX{ e V B B v y v v y v v a v v a a a v a v v v v v l a a a a y a a a a a a s a i a i a p p p i u p u i p p p p p i u i a i p p a u r r 9 r r t p a 7 7 e t 9 8 0 0 i q i 9 9 w w i 9 w 9 i i 0 i i r r r r r r r i u 9 r 9 r r r r i w i w i i q i w i q 9 0 9 9 w 9 8 8 9 8 8 0 8 8 7 7 8 8 0 1 7 1 1 1 1 6 6 6 6 7 0 7 1 1 0 7 7 > 0 6 > 2 > 1 7 0 1 7 1 0 1 1 & > & > 0 7 7 0 7 8 8 7 7 1 1 1 7 1 7 6 6 6 1 6 > 1 1 1 1 & % & $ f f f = f & % & ; % ; - q E ~ ~ ~ ~ ~ L ",
" .H  . .H  .W K H K d $ + = + + # % > > 1 > 1 1 1 1 1 , 1 , 1 1 > 1 1 1 7 7 7 7 8 7 6 1 > > > > 0 0 9 i i r 9 9 9 9 9 0 9 9 9 w e e e e r r r r d t t t t t d r r t t u t t e t t t t y y y t a y y y y y y y y y y y M y M y M y y M y M y y M y y y y M M y M j M M M y y y v v y M y v v v v v v v v v v e n l s i i i w 8 q q ; q L L L ~ ~ x ~ ! c : : h o.<.<.0.9.u.^.u.u.d.].]._.`.].`.].].oX`.+XoX'.'.'.'.'.'.`.].`.'.}.`.`.`.`.{.`.]._.].`.'.'.`.'.'.'.'.'.'.'.].].].'.'.].].u.].|._.}._.`.{.{.[.).u.s.y.u.d._.[.|.}.}.`.d.}._.d.OXOXOXs.s.r.f.6.f.a.a.e.p.s.r.6.6.*.-.-.-.@...O.@.@...O.! #.+.#.^ j q s i * f yXiXyXiXgXxXxXSXKXJXJXJXJXJXJXJXJXJXJXFXMXvXZXJXFXxXxXMXKXKXJXJXKXHXnXV V V V B v v v v v y v v v v v a M s a v M M v y v v y a v a y y s a s s s a s s s s a p a a s a p i u a u p p u r p u r r i i u u 9 r r 9 r t p % ; a t i 0 s 9 i w i i i 9 q w 9 w i i 9 i q w w u r r r u t t r r 9 r r r r r 9 w w i i w i i w w 9 9 0 9 0 0 9 9 8 0 8 0 0 7 0 6 0 7 7 6 1 6 1 1 1 7 7 7 0 6 7 7 7 7 7 1 7 7 > 7 7 6 8 1 1 7 1 1 0 7 1 1 & % > > 1 7 7 7 0 8 8 8 8 7 7 7 1 1 0 7 1 0 6 6 1 6 1 1 1 1 & % $ & * 0 f + = & % f f * 2 * 0 ~ ~ / ~ L L L ",
" . . .m H H H  . . .f * = . . * * % f & > 1 1 1 1 6 6 > 1 1 1 1 1 1 1 > 1 7 7 7 8 8 8 8 0 1 > 1 2 6 9 y t 8 1 0 8 e e q e 8 w r w q 9 r r 9 u r u r r 9 r r r i v t e v t t t t u t y a t t t y y y y y y y y y y y M y A y M y y M y M M y y y y y A y y y y M M y M M M y y M M M y M M M M y M M v v v v M M v p r r w 9 8 9 q 0 0 l Q ~ ^ ;.;.5.x x ~ z c c +.%.0.9.0.u.9.u.u.].]._.].].].].].oX`.oX+X`.'.'.'.'.`.`.}.OX`.].OX].].`.'.].^.`._.].}.'._.`._.'.].'.'.`.].`.].`.^.'.}._.u.u.d.].d._.|._._.|.d.d.i.u.u.).).u.s.[.i.).]._.{.}.}.`./.).i.r.e.=.=.e.r.r.r.r.6.6.6.-.-.-.@.....+.o.@.o.D o.#.! #.~ : l l * f yXSXxXyXyXxXSXVXFXJXJXJXKXJXJXKXJXJXKXSXnXMXFXGXSXxXPXSXFXFXJXKXFXJX~.s J B v v v v v y v v a v a v v v a a a a v v v N a v v v b v v a a y y y a v a a a a y a a a a y t a a t r t p t e r r r d r e t n e r r 8 t s 1 1 2 e t t r 9 r e e e w w r e r e e r r r e e e e r e e r r t n d r e r r r r r t r r r r u r i i w w 9 w 0 0 9 8 8 7 0 7 8 8 8 9 7 7 7 7 7 7 1 1 1 > 6 6 6 6 6 7 7 7 7 7 8 8 8 0 0 1 1 7 0 1 2 > > > > 1 > % $ $ > 0 7 7 6 1 7 8 8 8 8 0 0 7 7 1 0 7 7 1 1 1 1 ; , > > > % $ & & , % $ $ , , % f * f f ; L ] L ~ L L x ",
"m  . .H  .H  .W W d f . + + + * # * % & > > 1 6 1 1 1 1 1 1 1 1 7 1 1 1 6 2 1 0 7 8 8 9 8 8 7 7 1 7 9 a t 9 2 8 8 e 8 e e 8 q e r r 9 r r r r r i r r u 9 i u u e e v e u t u t r t a y y p u y y y y y y y y y y y y y y y y y M y y y y y y y y M y y y y y M M M M M j M v M M y y M M M M M M y v v e t v v t r e 9 9 8 8 9 w 2 2 l L ~ Q x  .z ~ ;.2.>.5.z ! *.q.q.r.0.u.d.u.u./.].].`.`.`.`.(.`.`.`.oX'.OX'.'.oX'.'.OXOXOX`.OX}.`.`.'.'.`.`._.'.`.'.OX'.'.`.`._.`.`.'._.^.`.'.'.`.].0.u.].d._._.|.d.d.d.d.u._.).d.d._._.)._.y.u._.}.|.`.}.`.`._.i.y.w.e.f.e.r.p.r.e.f.6.=.=.-.@...X...O.o.O.o.+.+.#.;.#.Z q l 0 o eXnXyXiXiXPXSXSXKXJXJXJXJXJXJXJXJXJXFXmXvXSXFXGXSXxXxXSXGXGXFXJXFXBX} b K K B b v a a v v a v a a a a v a a v a a v v b n v v v v a v v a y a y a a v y y y a y a a y y r i p r w r p r r r t t r t r t a w r r 8 r r 1 9 e r r u 9 9 r r e e e e e r e d r r r r t t e t t t e e r r r t t r r r t t t e u e e 9 9 r u u w w i w 9 0 9 8 8 8 8 7 8 7 8 8 8 7 7 8 7 7 1 1 1 2 1 6 7 7 7 6 6 0 7 7 7 7 7 7 1 1 7 7 7 7 1 7 8 7 0 > & % % & 6 7 7 7 0 0 8 7 8 8 7 8 8 7 8 > > 6 1 1 > 1 1 1 1 > > > % % & > , % = $ & , % ; o * * ; l ' ~ L L z z ",
" . . . . .W W W  .0 * = + + * = $ % & & > 1 > 6 1 1 1 1 1 1 1 1 7 1 1 1 > 6 > > 6 7 8 9 9 9 9 9 2 7 w p a w e 9 8 8 9 9 8 8 e e e r 9 u u r r r i u t r r u p p y t t u e v t t u t t y t y y a y y y y y y y e y y y y y y y y y M M y M y y y y y M M y y M M M y y M M v v M M M M M M M M M y y A M u t v v e 2 2 8 8 8 8 9 w 0 2 3 q l L Q 5.' >.2.,.;.3.L k @.%.*.0.0.9.d.u.d.^.^.].].].].].`.].].].`.'.OXOX'.OX'.'.'.'.'.'.'.'.'._._.].`.OX'.}.`.`.'.`.].`.`.`.'.'.'.'.^.'.`.`.`.|.d.u.d.d._.|.d.s.d.d.[.].i.).).).)._.`.)._.).u./.'.}.{.}.}._.).a.y.w.e.e.e.p.r.r.8.e.f.*.X.X.X.+.X.O.O.o.o.o.o.! #.;.^ l q q o E.SXyXyXiXMXVXFXGXJXJXJXJXJXJXJXJXKXFXMXnXSXKXKXvXiXxXFXKXJXFXJXHXeXK K V K V b a a a v v v n a v v a v a a a v v a a v v v a a a a v v a y y a v v v y y y y a y y t t t t i r r r r r r t t t r r t t a t u r r 8 2 1 r r r r u 9 u r r r t d w e e e r r r r r e r r d t r r r e r r r r r e e e t d e t e u r r 9 9 9 9 d w w 9 9 9 8 8 8 7 8 0 7 7 9 7 7 7 0 2 1 7 7 7 0 7 7 0 7 7 6 7 6 6 0 7 1 7 7 7 7 7 7 7 7 7 7 8 9 6 % + $ % 2 7 8 8 7 7 9 9 7 8 8 0 8 8 8 8 0 6 1 1 1 1 1 1 1 1 1 1 1 % & > > > % $ % , % % & + f - * l ~ L 5. . . .",
"H  . . . . . . .i = . # + = * . $ % & & > > > > 1 1 1 1 1 1 1 6 7 1 1 > > > > > & > 6 0 8 7 8 8 8 e w a p e 8 2 2 8 8 8 8 8 8 e e 9 9 r 9 r u r t i r r r i r p t t t t t e t t r t t t t y y a y y y y y y y y y y y M y M y y M M y A y M M M M y y y M M y M M M M M v M M M M M M y M M M M M M M M v e v e 8 8 1 8 8 8 8 8 9 9 0 ; ; ; l ~ ;.;.;.3.~ ;.;.O.g F $.q.q.0.8.9.9.d.].(.].].].].`.].`.oX].`.oX'.oX'.'.OXoX`.'.`._.].`.`.`.`.`.'.].`.'.'.`._.`.'.].'.'.}.`.].`.'._.]._.'.OX`.d.].d.d.d.]._.d._._.).i.^./.).u.i._._.i.u.u.d._.`.}.}.).)._.u.y.y.w.f.r.r.r.r.r.e.f.6.-.@.@.X.....O.O.O.#.o.+.o.#.:.~ z l ; M.FXiXeXxXnXSXFXKXJXJXGXJXGXJXJXJXKXSXMXMXFXJXFXPXxXSXGXJXJXJXJXJXm.N Y P J V B v v v v y v y a a a v a a v v b v v v a b M v v v v v v a a v y v a l a y a a a a y t t i i p t r w w w t r r r r e e t 9 p p a t 8 7 8 u t r r r 9 r r r r t r e e w r r r r r r r r d r r r r r r t t r e e w r t e t r u r r u 9 9 u w w 9 9 9 9 9 w 8 8 8 8 7 7 1 0 8 7 7 > 7 1 0 7 7 7 7 7 7 8 7 7 0 7 7 6 1 1 7 1 6 2 7 1 1 7 0 1 7 7 7 1 $ + % > 0 0 8 8 7 8 8 9 9 9 8 8 8 7 0 8 8 8 8 7 1 1 1 1 1 1 & 1 > % & > 1 > , $ , % < % * * f * * q L L ~ ~ 5.L ",
" . . .H W  . .W f . = # = + + + $ % & & 1 & > 6 1 > 1 1 1 1 1 1 0 1 > 1 1 1 1 > % > 1 1 1 1 2 6 7 8 w t t r 0 2 2 e e q e 8 9 r r w e r r r r r r r r 9 r r u t u t t t u t t t t t r t y a y y y y y y y y y y y y y y y M M y M M M M y M M y M y M y y y M M M M M v y v M v y M M M M M M M v v v v e e t e 8 8 2 9 9 8 8 w 0 6 9 q & X o : z S ~ ~ ;.#.~ ;.F h ! #.$.<.<.0.9.d.d.d.^.].`.`.`.`.`.].`.].`.'.`.'.'.'.OXOXOX'.`.'.'.`.].}.}.`.].'.`.`._.].`.'.^.`.'.}.`.^.`.}.`._.].`.OX}._._.9.u.u._.|.|.].d.u./._.i.u./.)./.).u.9.y.u./._.`.}._.|.).a.y.i.r.6.w.r.r.e.a.f.f.e.=.-.*.-.....X.@.#.o.o.+.o.! ,.;.~ q f >.FX,XeXxXMXFXFXKXJXJXJXJXJXJXJXJXKXSXnXMXFXKXLXxXiXSXJXJXKXJXJXnXI I K P K B N b v v v a v a a a a v v v v v v b v v a v b N N b v v a a y v v a a a y a a v a a y y y a a i t r w e e r t r r e r r r 8 t s a u 8 8 t 9 r w u r u r r w r t r w e e t e t t d r r e t r r t r r t t t t r e t r t t t y t u e 9 r r r w i 9 9 9 0 9 9 8 8 8 8 7 0 1 7 0 0 1 1 1 1 0 1 6 7 6 7 7 7 7 0 7 8 7 0 7 1 7 1 7 6 6 6 6 7 0 1 8 7 6 > > > 0 8 8 8 8 0 8 8 8 9 9 9 9 9 8 8 8 8 w 8 7 7 0 1 1 1 & & 1 & > % % ; 1 & % % , % , % $ $ & * @ q L L ~ L L L ",
"H  . . . .W  . .= . * # + + + + % % & & & 1 ; 1 1 1 > 1 1 6 1 6 1 1 1 7 7 6 6 1 & > 1 > & & 1 1 1 2 9 u t r 8 7 e 8 e e 8 9 e e q w 9 r u 9 9 r 9 r r u r r i i t e e u r t e t y t t t t y a a y y y y y y y y y y y y y y y M y y y y y y y M y M y y M M M y v M M v M M M v j y y M M M v v M v v M v u u e e 8 8 e 8 7 7 8 q 6 9 i 9 +     = f l ~ ;.~ ~ ;.;.c k o.#.,.@.8.0.9.9.u.d.].]._.`.].`.`.`.'.'.'.OX'.].`.'.'.OX'.OXOX'.`.`.'.`.].}.'.`.`.`.].].d.`._.`.'.`.'.'.'.`.'._._.'.}.`.`.].u.u.u.d._._.d.u.i./.i.i./././.t.i.u.8.t.].`._.}._._.).)./.i.w.f.6.6.r.a.e.e.f.6.6.=.-.-.X.@.O.O.O.o.G ! ! ! #.;.;.l o >.VX!.xXxXSXFXGXJXJXJXJXJXJXJXJXJXLXMXvXMXKXKXmXiXPXSXKXKXJXKXJX!.K J N J B v v v v n a a a a v v v v v v v v b b v v v M N B N B N v v l v y v a a y M y l v a y y y a a p a a y r w e r t d y t r r r 8 r a u 8 8 e u r u 9 r t r r 9 w e e t r e d t e t e t r r t e t y d r r e r e r r r e r r t t t r r e 9 u r r q i i 0 9 0 9 0 8 8 8 8 8 7 1 1 6 6 7 1 1 1 1 7 1 6 6 6 0 6 7 7 8 8 8 0 7 0 7 7 7 6 6 6 1 1 1 1 7 1 & > 1 8 8 w 8 8 8 8 8 8 8 9 8 8 9 0 9 8 9 0 8 7 7 1 1 6 6 1 1 & & 1 , % % & 1 & % , % , % % $ % ; % * q  .L L L L S ",
" . .H  . .W d 0 . = # . + # + $ % % & & & & 1 & > 1 > 6 1 1 6 6 7 0 6 0 7 7 1 1 1 1 & % % & 1 1 1 2 9 r t r e 7 8 e 8 9 q e 9 q r e e r r r r u 9 r r r t r i t e v v e r r t t y y e t y y y y y y y y y y M y y y y y y M M y y y y y y y y y M y y M M M M y v M M y M M v y v v y M M A v v M v M M t v v e w 8 7 8 8 0 0 7 w 9 0 9 w 7 $ X   X o 0 L ~ ~ o.#.x c k o.+.@.%.q.9.u.d.u.^.].].].].].`.`.`.'.'.'.`.`.].`.'.'.`.}._._.'.'._.`.'.`.`.^._.`.`.`._.`.].].'.'.}.`.`.`.`.`.].`.'.|._.}.}.^.u.u._._._./.u.i._._.u.i._._.r.8.u.u.u.i.{.|.|.[._.|.).y.r.r.6.6.r.f.a.e.=.=.=.=.=.-.X.-.X.@.$.@.@.+.+.! #.;.,.~ ; ( yX,XxXPXSXSXFXJXJXJXJXJXJXJXJXFXSXSXMXFXGXGXnXxXPXKXKXJXJXJXFX} I K B B B b v v v y v a v a v v v b N v v v v v v v M v N N N N b v v y v v a a y y a y a a y t t y a a p p a n p r r w r t t t r r r q 9 r 9 1 8 y r r u r r t i r 9 e e e r r e e e t e r r e r r t r t t t r d e t e e e e e t e d e e e u 9 w u w 9 q 9 9 9 9 w 0 0 8 8 0 8 7 7 1 1 0 7 7 1 1 0 7 6 6 6 6 0 7 7 7 8 7 7 7 7 7 0 1 7 7 1 1 1 1 > > 1 > & > 0 8 9 9 8 9 0 8 0 9 9 8 8 0 9 9 8 0 r 9 8 7 0 0 8 7 6 1 > & > > > % % 1 , % % % & % $ % % % & * ; f s L  .Z L L ",
" .K  . . .K d * . $ # X + $ + $ $ % & & & 1 1 1 > 1 f ; 6 1 6 1 8 7 7 8 8 7 0 6 > & & % $ & 1 1 1 8 9 r p r w 2 8 8 8 e 8 8 9 9 9 w q r r r 9 r r u r r p p u u t u t e u t e r v y r u t y y y y y y y y M y y y y y y y y y M M y M M M M M y y y y M y A y y v A M M M y y j y v M M M M v v v y M v u e t e e 7 7 2 1 1 6 7 0 9 9 6 7 d e = &     o o q ~ ~ L ;.: - z x o.$.q.0.9.9.u.d.d.].`.].+X`.].].`.`.`.]._.`.'.'.'.'.&XOXOX}.'.`.`.`.`.'.].`.`._.`.].^.d.].`.`.'.`.].].`.`.`.'.`.`.'.OX}._.u.^.u.u.i.t.^./././._.).).).).i.9.8.u.u.i./.|.}.}.}._.u.i.d.6.6.e.a.f.f.=.=.f.f.=.-.3.X.5.o.O.@.@.+.+.+.! #.;.>.z  . XhXyXSXVXVXGXJXJXJXJXJXJXKXJXGXSXMXSXFXGXFXPXxXMXKXKXJXJXGXiXI Y C E N B B N a v v N v v v v v v v B v v v v v v v v N b N N b v a a y y a v y y y a y y a y t u a M n i t a v a t y e w r t t t r r r 7 8 8 , r N r p r r r r a u r r r e e r e e 7 e r e e e e r r r r t t t t r t r r r d r t t t e e e e w w 9 9 0 w d 0 0 w w 9 7 0 8 8 7 7 7 > 0 7 8 7 7 7 1 7 1 6 7 2 7 7 8 7 7 7 7 7 7 2 7 7 7 0 1 1 1 > > % > 1 2 8 9 r w 9 r 9 9 9 9 9 0 0 9 9 9 9 9 8 8 8 9 9 8 8 8 7 6 1 1 & 1 1 1 , % 1 , % $ % > % % % * % * % * f q L x L  .5.",
" .H  . .K  .8 . = = + + + + $ $ % & , & & % > > > > & 2 6 > 6 7 7 7 0 2 7 7 7 7 0 6 > & & > % & 1 1 e e r r 9 1 2 8 8 8 e 8 e u e r w r 9 e u r r e r q w r r 9 e v e e u e v e e t y y v y y t y y y y y y A y y M y y y y M y y y y y y M M y y y y M y M y M y M M M M M M M v y y j M y M M v M M y v e 2 1 e 1 , 1 1 7 7 7 0 0 8 d 5 5 5 > > > + X   X ; l ~ ~ ~ : - x #.O.2.<.9.9.t.^./.^.^.]._.`.].^.^.^.].`.'.`.].`.OXOX'.&X'.^.`.OXOX'.'.`.'.}.].u.].`.d.'.`.'.'._.'.|.`.`.'.`.}.'.`./.}._.`.`.^.9.t.u.u.].).]._.d.).)._.i.u.w.8.t.u.).i._.|.{._.[._.u.p.r.r.r.r.r.r.r.a.f.f.4.=.=.X.X.O.O.O.@.@.+.o.F ! #.^ / z iXyXxXnXFXKXKXKXJXJXJXJXJXJXJXKXMXMXSXKXKXFXPXxXSXKXGXJXHXJX~.v M T M K N N v a v a a a a n y v v N v a a v v b b N N b N N v v a a v M M l y a y y a a a a y a y a a a a p a a p p r t w e w y v a e a p 8 1 0 a s 9 9 r u 9 r r p p d r r r r e e t r e r r r r w r t p p p r t r d r e r e r r t t y t t e e e e u w w 9 0 0 9 0 w 7 8 8 8 7 0 0 7 1 6 7 7 0 1 7 8 6 1 1 7 7 7 7 8 7 7 7 8 0 7 0 1 6 1 1 6 1 % % % > 0 8 8 8 9 9 8 0 w 0 w 0 w 9 9 9 8 8 9 8 8 8 9 8 8 8 8 7 7 0 1 > > & % % $ & & $ % $ , $ $ = % & $ * * * ; q L L  . .L ",
" . . .H H d 5 . . . + + O + $ $ & & & , & % > > 1 > 1 1 > > > 6 1 2 1 7 7 7 7 7 7 7 6 1 1 > > & 1 1 8 t r r q > 8 8 e 2 2 8 e e w q e w e r 9 r r r 9 r r w r r e u v t t v v u r r t y y y y t y y y y y y y y y M y M y y y M M y M y M y M M y M y M M y y M y M M M M M M M M v v M M M M y y M M M M t 2 7 2 , , 2 7 7 7 8 0 9 9 9 7 1 7 5 < , 1 > @ X X o f z ~ L g z ~ O.,.<.8.9.9.u.u.u.].^.^.]._.].`.`.'.`.`.`.OX'.`.`.`.`._._.`.`.].`.^.`._.].`.`.].`.].'.]._.].].'.'.`.`.'.OX'.^.^.`.'.`.'.}.`.`._.9.u.9.u.i._.)._._.).u.y.u.y.i.)._.s._._.[.|.}.}.).s.r.r.e.f.f.e.f.f.=.=.=.-.-.X.X.O.X.O.O.@.+.X.G +.^ ^ ^  .XXtXiXMXFXKXJXJXJXJXJXJXJXJXJXKXmXMXMXKXGXBXxXxXSXGXKXJXHXmX' v v U V N N v v a v v v v a v v v v v b y n v v v v v v v N N v a a a v M s M a y v a y y a a y a y a a a a p a a a a p a r w e e r t n N r 2 9 a a a r p p i r r r r u t e r r r r r e t r e t r w w t t t n p p t t r r r r r r r r t u e e e u e e e 9 9 w w 9 0 9 9 7 8 8 7 7 8 7 6 0 7 7 7 7 7 7 8 7 6 0 7 6 0 0 1 8 8 8 7 7 7 7 7 6 1 6 7 1 > % & & 1 7 8 9 9 9 9 w 0 w w 9 w 9 9 9 9 8 8 9 9 8 9 8 8 7 0 8 7 1 1 & & & % $ % & 1 $ $ $ , , $ $ $ % # * % * ; q L L x x L ",
" . . .H  .0 # . . = + + + + @ $ % & & % % & > > 1 1 1 1 1 > > 6 1 1 1 1 6 7 7 7 8 8 7 8 7 2 > & 2 1 e r r r w 1 1 8 8 8 8 e 9 e 8 8 e q e e r q r r u r r u r e t e v u e v t e u t t y y y t t y y y y y y y y y y M y M y M y y y y A y M M M A M y M M M M M y M M M M y M M y M y M M M M M y M M M M t 7 1 7 7 2 e 8 7 8 w 9 8 9 8 7 1 5 1 > 5 6 7 1 * o X o * ; l l g S o.#.%.1.9.8.9.t.u.^.^.]._._._.`.'.`.^.^._.].^.^.].u.^.].'.OX}.'.}._.OX'.^.'.`.^.].'.|._.]._.].'.`._.'.'.'.`.`.`.].`._._.`.`.'.'.u.^.9.u./._._./.d.i.i.u.u.u.a.u.i.y.[.}.}.{.`._._.s.r.e.6.f.f.f.f.f.=.=.-.=.-.-.-.X.O.@.@.X.@.X.+.+.! ^ #.L !.aXpXMXSXKXKXJXJXJXJXJXJXJXJXFXMXMXSXFXFXVXxXgXSXGXGXJXJXeXv U V P U N b v v v v b v a v v v v b N v v v b v v v v v v N v N v v a v M v a y a y a y y a a y y a y a a a p a v b v v p t w w 8 e n J a 0 1 u l i r p p p p p i r r r r r r r e e r t r r r r r r r r w r r y p r r r r t t r r r t r e e e e e e e e w u w w d 9 9 9 8 8 8 7 7 7 7 6 7 7 8 8 7 7 7 7 7 8 7 7 7 7 7 1 8 7 7 7 7 7 7 7 6 1 2 7 7 > % & % 1 7 8 9 u r 9 9 9 w w 9 w 0 9 9 9 9 0 0 8 8 9 8 8 8 8 7 7 6 1 & > & & & & , , $ % % % , $ , # $ # * & ; ; 9 K  .x  .z ",
"H n  .K  .f . = . + . + O + + $ % % & & % & ; , > > > 1 & > & > 1 1 1 1 > 6 0 7 8 8 9 9 9 8 6 > , 1 8 e r t r 1 e 1 8 8 8 8 8 9 9 9 e e 9 w w w r r r r r r r r e v e e e u t t t t t y y y t t y y y y y M y y y y y y y y y M y M y M y y y M M M M M M M y M M M M v y M y M y M M M M M M M y M M y v v 7 2 7 1 7 e 8 7 8 e 9 8 8 5 5 7 5 , 7 f % & 6 0 6 1 * . X o ; 3 z ~ o.#.<.2.8.8.9.t.^.^./.].].].^.^.^.].`.^.^./.}.'.].`.'.'.}.OX`._.^.'.].d.`._.]._.`._.].`.'._._.].`.'.`.`.`.'.'.`.'.].].`.'.'.`.'.].u.9.u.]._.].d.u.u.u.u.i.u.y.w.i.[.|.{.`._._.{.s.d.r.r.f.f.f.=.f.f.f.=.=.=.-.-.-.-.-.@.@.@.X.+.o.+.^ ^ ~ C.iXyXvXSXKXJXKXKXJXGXJXJXJXJXSXPXSXFXFXFXxXxXxXSXGXFXJXJX7.v T V V V B B b a a v v v v v v v N v N b v M v N N N b v v N v b v v v v s v v a a v y a t a y y u y a y p i a a s b b n a t t r 8 e r b e 1 8 p s t u p u r u p p p u r r t e e e r e r t r w t t r r r e w t t t r t r t t t r r r d t e t t u r u e e 0 u d w 9 9 9 9 8 7 0 0 7 7 7 0 6 0 0 7 6 1 0 1 7 7 8 7 7 7 6 > 0 7 7 0 7 7 6 7 0 6 7 7 1 & % & > 7 8 9 w r i w w w w w w 0 9 0 9 9 9 8 8 8 0 8 8 8 0 8 7 0 6 1 1 > & % & & , % $ % % % # $ $ $ * # * ; ; f q C z l z  .",
"K  .H K r = . # + + = + + + + $ % % % % & & & & > > 1 1 & & & > 1 & 1 1 1 1 6 7 7 7 8 9 w 9 7 0 1 % 7 e r t r 2 1 e 1 8 8 e e e 8 w e w r q w w r r r r t e e e e y e u e u t t t t t t t y t a y y y y y y y y y y y y y y y M y y y y y M y y M M y A M M y M v v v v M M j M y y M M M y M y M M v a v t 8 e e 7 e e 2 1 8 8 e 8 1 2 7 7 1 1 1 > > 6 1 e , , % & #   . o : S ! o.O.,.2.1.9.9.^.^.^.^.^.^.^.^.].`._.^.].OXOX/.`.`.`.`._.`.].].}.'.'.'.`.`.'.'.].]._._.'.`.].^.&X_.^.'.'.].].'.`.`.'.'.'.'.'.&X`.u.u.d.^.]._.d.u.t.r.i.).i.i.i.).).i./.|.'.}.'.|.s.s.d.r.f.f.f.f.=.f.f.f.-.-.X.-.@.-.@.X.X.X.@.o.G ! #.~ 7.tXiXMXSXGXFXJXJXJXJXJXJXJXGXSXxXSXFXKXFXMXxXPXLXKXJXJXkXI J v P V B B N b v v v v v v v v v N b N N b v v b b N N v v b v v b v v v v v v y v a y a y y a y y y y y a p i n a v a a v p a p r 8 8 8 2 8 t a a i p a r r r r u p r u r r w w d e e e r t e d r r r t r r r r d t t t d v t r r w t e r t r u r w 9 9 8 d 0 9 9 9 8 8 8 8 7 7 6 6 7 7 0 7 7 7 6 1 6 7 0 7 8 8 8 8 7 0 0 1 0 7 0 2 0 0 7 7 0 7 1 & & , 0 0 w w d i r u w q d w 9 9 8 8 9 9 0 9 8 8 8 8 8 8 8 0 8 0 6 > 1 1 & & & % % % $ , , , $ $ $ $ * = * & ; f q L L  . .z ",
"H K  . .7 . . = . + @ + + @ $ $ % % $ % & & 1 & % > ; & & & & & & , & & > 1 1 1 0 6 7 7 8 w 9 8 1 2 2 9 r p r 2 2 1 e 8 2 e 8 e 9 q e r r r r e r r r u r t u v v e y e t t t t t r t t t p u u y e e y y y y y M y y y y M M y y M y M y y y M M M y y y y M M v A B M M v v M y M y M M y M M M M v v M y e e e e 7 e 8 8 1 8 7 8 1 1 , , 1 1 ; 2 7 7 7 7 < , 5 > 9 & - o o z ! o.#.3.1.1.t.t.9.t.^.9.9.^.^.^.^.^./.`.`.+X^.^.'._._.`.`.`.'.}.}._.`.`.u.^.].^.[.]._._.`.`._.`.}.`.`.}.'._.`.'.].oXOXoX'.OXOX'.'.`.].d.d.].d.Z.u.t.t.^./.).i.).i.i.^.).'.OXOX|.|.s.s.s.r.e.f.f.f.f.f.f.=.=.-.-.-.3.-.-.-.-.-.@.+.G ! ^ ~ }  XxXnXSXGXGXKXKXJXJXJXJXJXFXnXxXFXFXGXSXvXxXvXSXKXJXJXQ.a E y A V v v v v v v v b v b M N v v N N v N v v v N B N v N v v v N N v v a y v v a a v y y a a y y y y y a a a a a a p p a a v b b v r 1 1 t a i r a a p p u p p p i r i t r r w e e r r r e r y r r e r t t t e r r t n t r r r r r e e u r e r q e 8 8 0 9 9 9 8 0 8 0 8 8 7 1 6 0 6 7 7 7 7 7 7 6 7 0 0 7 7 8 8 8 7 0 8 7 7 8 7 8 8 8 7 7 1 7 0 1 2 0 i i i i u i q d w i q 9 9 9 9 8 9 9 9 9 0 8 9 8 8 8 8 7 7 7 6 > 1 1 & & & % % + $ $ $ $ $ $ $ < * * * & ; f q L L  .5. .",
"K K H d < . . # = + # # # + $ % % % % $ & , > > % > 1 % % & & & & & & > & > > > 0 1 1 1 2 7 9 e e 2 8 r r i t 8 1 e 1 8 8 8 e e 8 9 e w r u 9 9 e u e r e r u e y e e y t u e v r t u t t y u p y y y y y y y y y y y y y y y y y M M y y M y y M y M M y M M M M M M M y M M M y M M M v M v v j M M v M a e e e 1 1 7 8 8 8 8 7 5 1 , , ; 2 1 2 0 8 1 , 7 7 1 < , 7 8 q ; - 3 L ! O.$.<.2.t.t.u.^.9.u.^.^.^././.].`.`.].^.].`.OX'.OXOX`.`.}.`.].`._.].`.'.'.`.}._.`._._.`.].}.].'.OX].`.OXOX`.]..XOX`.oXOX`.].$X'.'.'.].d.d.d.u.9.r.i.).i.p.a.p.d._.|.|.'.`.].|.[.s.p.r.r.p.e.f.f.f.f.=.=.-.-.-.-.*.-.-.-.-.-.$.+.+.^ ~ } C.iXSXFXGXKXKXJXJXJXJXJXGXFXnXMXFXFXGXSXMXPXMXSXKXJXFX} N Y M P M B v v v v v v b v v b M b v N v N N M v N N B N v N v b v v N M v a a a l M y a y a y a a a y y v n a a a a p p p i a v b B K p 7 8 i a r 9 u i u p p i r r r r r t r w e e e e e t r r r t r r r r t r r r t t p t r t r r r e e e u r e r r 8 8 8 9 9 8 0 7 8 8 8 7 7 0 6 6 6 7 6 7 7 7 7 0 7 8 7 7 8 7 0 8 8 8 8 8 8 9 9 8 9 9 8 7 7 7 0 0 9 r p i i w w i i i w w d w 9 9 8 9 9 9 0 8 8 8 0 9 8 8 8 8 7 7 6 6 1 > & & % % $ + , $ $ $ $ $ $ , * * * f * ; q  .L Z L z ",
" .K K 0 = . = * # # # # # # $ % % $ $ % & > > > % > , & % & & & & & & & & & , > 0 1 > & > 0 8 9 t e e r t a p 0 e 1 e 2 2 8 8 e 2 8 8 q 9 e e 8 r r r u e e e e v e e u e e e t r u r t t t y y y e y y y M y y M y y y y A y y A y M M M y M M M M y M M y M M M y M M y y y M y M M M v v v A v v v v M y q 8 e 2 1 2 8 8 8 8 7 7 1 % , 1 2 - 1 2 1 1 , 7 5 , < e & 6 0 f j : k S ! O.$.2.1.4.9.^.^.^.^.^.^.^.`.`.^.9.u.`.OX}._.'.OX'.].'.`.9.].'.].d.`.OX]./.`.].[._.].].^.}.}.'._.^.].OX}.`.OXOX].`.OX}.].'._.'.}.'.|.d.d.d.w.8.w.u.i.s.y.u._.d.y.u._._.|._.|.d.p.p.p.p.p.r.a.f.=.f.=.=.f.-.=.*.-.-.-.@.-.-.*.@.#.#./ } V.sXSXGXKXKXFXKXJXJXJXJXFXSXxXMXFXFXFXSXvXPXPXSXKXJXiXK I N U P M B v M N v b v v v v v v v v v b v B N v b N N b v N N v v v N v v v y a M a v a a y a a y a y y n a a a a a a p p r n a p a a e % a a p t a s s p i u r u r 9 u r t t w e e e e e r e r r r 9 r r r t p p t t t t n y t t r r t r e e r u r u e e 8 9 8 8 7 8 8 8 8 8 7 7 1 1 0 7 6 6 7 6 6 6 7 0 7 8 8 8 7 8 0 8 9 9 w 9 w w w w 7 2 7 8 8 9 r s i p i q w w r i w w q w w 9 9 9 0 8 8 9 9 8 9 9 8 8 8 0 8 0 6 > > & $ $ & % % @ $ , $ $ $ $ $ $ * o * * f ; q z L l z z ",
"K K s f . . # + + + + + $ + $ + % % @ & 1 % 1 1 1 % & , ; > > > > & % % & & 1 & % 1 1 1 1 1 1 1 0 7 9 i s s i 0 0 8 8 7 8 8 8 9 8 8 w w 9 9 9 9 i w 9 i i i w w r r q r r e u r r r r t p p p i y y v y y y y M M y y y M y M y y y y M y M y M y M M M y M M M v v v y M M j M y v M M M y M y v v v t v t e 2 7 , 7 7 7 7 7 8 7 , , , > 1 1 ; 6 6 0 1 > 1 > > 7 1 7 1 7 7 7 e 2 A ! o.$.2.&.t.^.u.t.C.^.^././.^.9.9.`.}.].^.'.9.].'.'.`.`.`.'.OX}.].`.'.'.^.].}.^._._./.`._.{._._.{.'.'.`.`.`.|..X'.'.'.'.'.'.].'.&X'.Z.u.^.].9.r.u.9.r.d.)._.s.d.r.r.d.|.|.[.|._.d.d.d.s.u.w.8.=.=.=.f.=.f.f.-.3.3.X.-.-.-.X.@.$.#.+.^ ^ 7.%XFXSXFXFXMXJXKXJXJXJXKXnXxXmXKXKXFXMXxXxXxXGXnXJXV.a P I y P B M M m M m M M M M M M M V B B M M v v v M B v v v V v M M M M M M a v a v v a a a w t n y y r y a v t e v v t e t u e v v v v $ t a a a u t t a a u t e t e u t t 9 u 9 9 r 9 9 u r r u r r u i r t r r d r i a a t t t t n t t r y t r r d r w w 8 8 7 7 e 8 5 8 7 7 1 7 6 7 7 8 f 7 6 7 7 7 7 8 8 7 7 e 8 8 0 8 2 9 e w 8 0 8 9 7 8 e r u t t t p y p t t r r e d 9 9 w q 9 9 9 0 8 0 9 9 9 0 8 8 8 7 7 7 7 1 2 1 % % 1 $ O + , $ $ $ $ $ $ $ $ + $ , % 1 ; 0 l  .z z z ",
"K  .9 $ . . . . + $ + + @ + $ $ % % % % % % % % % 1 & , > > > > & > & & & % % & % 1 1 1 1 1 > & > 0 8 9 i s i 0 6 7 7 7 0 8 8 9 8 8 w w w w i w w w 9 i 9 i i i r r w r 9 r r r r r r u u p p a y y m y y y y y y y y A M M y y y M y y y y M y y y y M M M M M M v v v M M M y y v M M v M M y v v v t v v e e 7 7 7 7 7 8 > 7 7 , , , > 1 1 & 6 1 1 1 1 6 1 1 2 2 8 7 e 7 7 7 2 u Z #.,.&.2.1.9.t.t.^.^.u.^.C.9.].^.`.`.^.`.^.'.`._.'.OX'.`.].'.`./.OXOXOX`.OX`.^.`.}.`.'.`.`.`.`.`.'.{.}.|.'.|._.'.'.'.'.'.'.'.`.'.`.].'.].9.y.u.9.r.y.d._.s.[.s.d.y.d.s.[.[.|.|.OX|.d.d.r.r.r.e.6.6.f.f.f.-.f.-.f.3.-.-.-.-.*.&.@.$.%.^ q.%XgXJXFXGXJXFXJXFXJXJXKXPXxXSXJXKXFXMXSXxXSXSXJXNX| K V P V B B M M M M M M M M M M M M M m M M M M N b B v v B v B B M M M M M y a a v v v a a a t y y v y y y y v v v t e t v e v m e e v 1 e e a u y t u t t y t r r r t t e t r r r 9 9 u r 9 r r r r r i r i t t r t r t t y t t r t r t r r r t r r w w w w e 8 7 8 8 7 7 8 8 8 7 7 6 7 0 8 7 7 7 0 7 0 7 0 8 2 8 q q 9 8 8 w e 8 8 e e e 9 2 8 e r y y a a y y t t u r e r u q w w 9 9 9 9 9 0 9 8 9 5 8 8 7 7 7 0 2 1 1 1 1 % % % $ + $ , $ $ + @ $ $ # $ + $ $ $ ; % 2 l z z z  .",
"K s f + . . . . $ + + $ + $ $ $ % % % % % 1 1 % % % , & & > 1 1 , % , % & & % & % 1 1 1 1 1 1 , > 1 6 7 r i i w 1 7 0 7 7 8 8 9 8 8 9 r w q q w u 9 w i i w u i r e r w r q r r u r r r r r u p y v y v y y y y y y y y y y y M y M M y y M y M A M M M M M M M A v M M M M M M v A M M y v M M v v v v v v e v m e e 7 7 7 5 , > > , > > > 1 1 1 1 6 6 7 1 7 2 0 2 8 7 7 7 7 e 2 2 3 ! ;.O.<.<.1.9.t.u.9.u.u.^.^.^.`.^.^.`.^.^.`.`.`.`.`.`.'.'.'.].^.'.`.`./.]._.^.^.^.u.u.u.^.`._._./.]._.`.`.'.].'.'.OX'.'.'.'.].].'.'.&X'.^.u.8.9.r.u.d.p.d.).s.s.s.p.d.s.[.|.|.|._.s.|.s.d.i.a.e.e.f.f.f.=.-.f.f.-.-.-.-.-.-.-.$.%.%.! q.Z.nXuXJXvXDXKXFXJXJXJXSXPXvXLXKXKXFXMXSXvXSXMXKX!.e T B V U v V v M M M M M M B M M M M M M B M M B B B M v B B v v B M M M M M y v v v v v a a y v a y y n y a y t v v v v v e v t M v 2 e , v r y y t t t t y p t t t t t e t u r u r r u r r r r 9 9 r r r p u r r r r r t d v d t r t r t t r w t r d w w e e w 8 7 8 e 7 6 6 8 1 8 1 6 7 8 8 8 7 7 7 8 0 0 0 8 8 8 e e e 9 u t w 8 q u t w 8 2 e r y y a a a t t t u t e e u w d w w 9 9 0 0 9 9 0 9 9 0 8 8 9 8 8 7 6 6 1 1 1 % % $ $ $ $ % $ @ $ + # + # $ $ $ $ , * ; 2 s z  .z  .",
"K i f . . # # # # + + + + $ $ $ % % % % % 1 % 1 ; , & & & > > 1 % % ; & , & & % 1 & 1 1 1 0 1 1 1 1 0 0 w a i u 1 6 0 8 8 8 8 8 8 9 9 9 w w d w 9 i i q 9 i 9 i r e r w r r r r i r r r t i i i v e y y y y y y y M y y y M y M M y y M y M y y y M y M M M M M M M y y y y y M v M M y y M j y v v v v v e e v v e 7 7 6 > > , , , 1 1 1 1 1 1 1 6 6 1 1 7 7 7 8 7 8 8 e 7 7 7 8 4 - j x o.$.<.1.9.9.^.u.9.9.^.].9.`.^.^.].^.'.^.`.'.].^.`.OX'.^.`.'.OX^.^.`.OX{.]._.`.`.`.}.OX`.`.`._._.].`.}.'.|.'.'.'.'.'.'.'.'.'.'.'.'.'.`.d.d.y.d.d._.s.d.s.d.d.s.p.r.d.s.|.d.d.d.|.|.|.d.y.r.e.f.f.=.=.=.-.-.-.f.f.-.-.f.-.*.$.%.%.! } 7.sXBXKXJXJXFXJXJXJXKXmXPXnXGXKXKXSXSXMXvXSXVXGX' r | B V P v V B M M m M M M M m B M M M M M M M B B M B B v v B v v B M M M M M v v v v a a a v v y t t t a a a v e e v v e t v v V v v 1 e t v a y a a a y a u y y t t t r u e p i t r r r t r r r r u u r r i r t r r r t t p t t r r t r r r w w w t w d 7 7 w 7 7 8 8 8 5 > 8 8 1 8 6 7 7 8 8 0 7 8 8 8 0 9 w e 9 e r w r t r r r r t r 8 2 e e r v a y y y u a t r u r e r i w w w 9 9 9 0 0 9 5 0 8 8 0 8 8 8 7 7 6 > 1 1 1 1 % + $ % % $ + O + # # $ $ $ , , $ , ; * 0 l  .z z z ",
"K d * . . # # # + + + $ + $ $ % % % % % % , & % , ; % & & > 1 1 & & & & > & & % 1 % % % 1 1 2 8 6 7 8 8 w i i i 1 1 7 7 7 7 8 8 0 8 9 u 9 w w w 9 9 9 i q i 9 i r r 9 q r r r w r r t p p u r r e e v t y y M y y y y M y y y y y y M y M y y M M M M M M A y M M M y M M y M y y v M y y M y M v v v v v y r t t t 7 1 1 > > > , 1 1 1 6 1 1 1 6 1 6 1 7 7 7 7 0 7 0 8 8 8 7 7 2 8 - o g o.+.*.<.8.9.r.r.9.u.^.^._.9.].].0.`.'.`.'.`.]._.OX'.^.'.'.}.'.].OXOX_.`._._.`.}._.]._._._._.`._.`.`.}.`.}.'.'.|.'.OX'.'.'.OXOX`.'.'.`.d.u.d.d.d.d.d.d.d.d.p.d.r.r.r.d.d.d.|.|.|.|.|.s.i.r.t.e.e.f.6.6.f.-.f.-.-.X.-.-.-.=.&.@.q.G / q.C.N.I | Q.JXJXmXKXGXxXPXSXFXKXGXSXKXxXSXSXHXpXa V P V V V v v B M M M M M m M M M M M M M M M B B M B v v v B v M M B M M M M M v b v v v a a v v y t r y v y t t t t v v e v v v v v e 1 v e v y a a a y y y y y y t t t e e t u i r r u r r r r r r r u 9 r r r e t t r t p p t t r r r t r r w d w d r w 8 7 e 7 7 7 7 7 7 7 8 1 1 1 7 7 7 7 9 0 8 8 9 0 9 i w 8 e r r 9 r i r r p r 9 8 8 e t v v v y y y t y t t t r r e t q 9 9 0 9 9 q 8 9 8 8 8 8 0 7 8 6 1 6 1 1 , 1 & 1 % $ @ $ % % + # # @ + $ $ $ $ % % % * ; * 0 l  .z  .z ",
"K 9 * . # . . # + # + # $ $ $ % % % % % & , % 1 % % , % & & & > & & 1 & > > > > 1 % % $ % 1 1 1 1 7 8 8 w i s i 0 7 7 7 0 7 7 8 8 8 9 w w w w w w 9 9 9 i 9 9 9 w q e r 9 w r q 9 9 r i p i r u v m y y y y y M y y M y y A y y y y y y y A M y y y M y M M M M M M M y M M M M v v M v M M M M v v v v v v r t e e e 2 1 > 1 , 1 1 1 6 7 1 0 1 1 1 1 6 6 1 7 0 0 0 0 7 7 7 5 f 1 e 3 X : ~ ! #.<.<.8.9.9.t.u.u.^./.^.^.].9.`.].}.].^.`.}.'.`.^.'.'.^.`.'.OX_.0.OXOX'.}.}.]._._.'.`.]._.`.`._._.].'.}.].].'.OX'.'.'.'.'.'.'.oX`.d.r.r.u.d.d.d.d.s.d.d.s.d.p.y.d.d.s.|.|.|.|.s.s././.p.a.w.e.f.f.f.=.f.-.-.-.-.=.=.=.%.$.q.q.G U l w J K Y pXJXJXKXSXxXPXFXGXKXKXSXKXvXSXLXHX~.r U v V V V V v v M M M M M M M M B B M M M M V M B M B v v B v v B M M B M M M M N N N s v v v v v y r t y y a y v t v t v e e e B v v , t b v t y t p u t y t t y y t t r u e t r 9 9 u 9 r 9 r a u r t r r w u t t d t t t r p t r r r r t t d w t i i r w e 8 e 7 7 7 8 1 > 7 1 1 7 1 1 , 7 2 8 8 0 9 9 9 w i r 9 r u r r u a t p r 8 1 2 r a r t y v v y y y y y t e r r u t d 9 9 w w w e 9 0 9 8 8 8 8 8 8 6 1 1 1 1 1 , 1 % % + $ % % $ $ % @ $ $ $ $ $ % & $ * % & % 0 K  .x x  .",
" .0 . . # # + + + = + $ @ $ $ % % % $ % & % % % , & % & % & & 1 & 1 1 & > > > 1 & 1 % & % & 1 1 1 0 9 9 i i i t 7 7 0 1 1 1 7 8 8 8 9 9 w w w u 9 q 9 9 w w i 9 e r r e e r r r r 9 u t t u i i u y t y y y M y y y y y y y y y y M y M y y M M M y M M M M M M M M v v M M M M v M M M y M M M y v v v M v t e e t e e 9 8 7 7 8 0 2 1 0 7 1 1 1 1 1 6 1 7 1 1 0 0 0 0 7 5 5 7 2 2 e : - z ! #.$.*.1.8.9.9.u.u.u.u.].(.9.`.].'.].u.^.'.'.].^._.^.`.'.'._.`.`.OX`.OX^._.}.`.}.&X}.}.}.'.`.`._.^.].].`.`.|.'.'.`.'.'.'.OX'.'.OX'.`.].d.d._.[._.|.s._.d.s.d.s.s.d._._.d._._.|.|.d.i.p.a.r.e.6.6.f.f.-.-.f.=.-.-.=.=.&.*.,.G G A A L Y Y R r ' MXJXGXMXxXMXGXKXGXKXDXDXvXmXFXuX| b P B V V V V v v M M M M m B M M B M B M B M M B B M B B B B v B B B B M M M M M N v M n v v v v v y y y y y y y t t t v v e e e M v e 1 v v v y y y t t t t y y t t t t e u v t r r r r r r r u i i u i r u r r t t t t p p p p t t p p t p t r r t w w w w 8 8 e 5 7 e e 8 7 7 1 7 7 , 7 1 7 7 8 8 8 9 9 w i i r r r y p t t t a r 0 1 8 r a a t t v v v y v M y y t t e r t t u w w 9 r 9 9 9 9 8 8 8 0 8 7 7 7 7 0 6 1 1 1 1 % + + % % + $ $ $ @ $ $ $ % % , & % % & ; * 2 l L L W  .",
"l f . = # # $ $ + + + # $ $ % & % % $ % & 1 1 % & & & % & & & & 1 1 > > & 1 > 1 1 1 1 1 1 % % 1 1 8 9 r i a a p 7 7 7 1 1 1 7 8 8 8 9 9 w w q d 0 i 9 i q 9 i 9 9 r e w w q r r u r r 9 r r p a t t y y y y y M y y y M y y y M y y y M M M M y y M y M y M M M y M y y v j M y y v M v M M y y v v m v M v t t e e e m w w e 8 9 8 6 6 7 7 6 > 1 1 1 1 1 1 1 6 0 8 5 0 7 7 8 7 w 1 2 u o @ ~ ! +.$.*.0.u.u.u.^.9.9.^.9.^.^.`.}.].].`.'.'._.].].'.'.`.'.'.`.].OX`.OX`.`.OX`.`.'.].'.OX`.^.^.].'.}.`.|.'.'.'.'.`.`.'.'.&XOXoXOXOX'.d.8.d.d._._.s.d.).|._.s.s.[.[._.s._.d.|.|.s.p.)./.p.p.a.r.e.e.f.f.-.f.=.-.-.&.&.$.<.%.A A A P N T Y M R C } HXLXPXxXnXKXJXKXFXDXMXSXMXKX%X9 I b U V B V B v B M M M M M M M M M M B M M B M M M B B B B V B B M B M M M M M M N M v a v v v b v n a a n y y y e t t v v v v v e e , v v y y y a a y t t y y a t t t t t t t y i u i u p a p s r t i p p p p r t t y n p p t t t y d t p t t r w w w w e 8 8 8 e e 7 7 7 5 > , 7 7 7 7 7 2 7 7 7 7 8 d i 9 w i t r t a a a i p r 2 % ; 0 a p u v y v v y v y a v y y t t u t t r i r w r 9 9 9 9 8 9 0 7 8 7 0 7 0 6 6 1 1 1 , % O + % % @ + % + # $ $ % 1 1 2 7 > * ; f ; 0 L L L L 5.",
"d ; X . * * * = + + # # # $ $ $ $ % % % & & & & % & > > > > > > 6 6 6 6 1 > 1 6 1 1 6 1 1 > > > > > 1 8 r p i i 9 1 1 1 7 1 1 8 0 8 9 q w w w w 9 9 9 w w q 9 9 r 9 8 e 9 e e u 9 r r t r t u 9 r r p p u t a a y y M M y M y y y y y y y y y M M M M M y y M M y M M M M M M M M y y v M M M M v y v M M M v t v n y p p t w w w 0 8 8 0 0 6 6 7 7 1 7 7 2 6 > 7 7 7 7 7 7 8 5 e 1 2 2 2 2 u Z #.+.*.0.1.9./.u.u.u.9.9.].'.].C.].'.`.`./.].].'.'.}.^.'./.}.].`.OX'.'.OX'.'.'.`.`.`.OX].`.'.'.`.d.'.}.'.`.'.'.`.OX&XOX}.'.'.'.OXd.d.d.0.r.d.d.d.d.s._._.d.s.d.r.s.s.|.|.|.|.|.&X|.|.s.p.e.6.e.r.f.f.X.f.f.f.f.-.*.q.q.A 4 A T V R T V V U P U { JXpXuXmXKXKXKXJXKXMXMXSXJX[ N I P V V B B B B M M M M M M M M M M B M M B B V M B M M M B B B B M M B B M M B m v v b v b v v v y y y v v a y y v v v e v U v t v 1 e v v t v t y y y t t y t t u t y v y y y t p p p p r i p p r a i u u p a r i a y a y p p t r r t r r r d e e w d e e 7 7 5 e 7 7 7 > > 5 8 7 2 , , 7 e 7 7 8 8 9 u 9 u r r r p a i a i r p 1 $ ; e a w r s a a v v v a a a t t y t t r r v r r r 9 9 8 9 8 7 7 2 e 2 7 2 1 9 7 1 7 7 7 > $ $ $ $ $ $ $ $ % * + * 1 7 7 7 8 8 7 & & * * 0 l L ~ L L ",
"d % . + * = = * # + $ $ $ $ % $ % % & & & & % % & & ; , > > > > > > 1 1 6 1 0 7 1 6 1 1 6 1 6 > 1 1 7 8 i p a i 8 0 1 0 7 1 0 8 8 0 9 d q w w 9 9 9 9 9 w 9 i 9 e 9 q 8 9 e 9 r 9 9 u r r r r r r r u p p y y a y M y y y y M y M y M M M M y y M M M y M y M y y y y M M M y M M M M v y y M M M v v v M v v e p a a a i w t d i i 9 9 7 0 6 6 7 0 0 1 1 7 6 7 7 7 0 7 0 5 7 7 e 8 1 e 2 2 3 j F +.,.<.0.9.u.u.d.9.9.^.].`.].].^.`.].`.`.'.`.OX`.^.OX`.].].OXOX}.^._.OX].^.`.`.OX}.OX`.'.}.`.`.'.'.}.'.'.`.'.}.'.}.'.}.OXOX'.'.'.|._.].d.d.d.d._.|.|.s.d.d.d.s.|.s.s.|.|.d.s.s.|.|.s.s.s.p.r.6.f.X.f.-.-.-.X.f.0.G h U G T V T A V R R R L N R } FXMXkXJXJXKXMXDXMXLXLXuXV B J P V V B B B M B M M M M M M M M M V M m M B V M B B M M B B B B B M M B M B V M v v b M N N N M v n a v a y t r t v t t v v b V 8 8 t v v v v t a a a y y a a t t v t v t t y y u i u p r u u p u p s i i p a p t p t n a i a p n p t t t r r t e e 8 e e e 7 e 7 8 e 7 7 7 1 7 7 7 e 7 e 2 7 e 8 q 9 9 r r r t s 9 a N p l C 8 $ % 2 r a t t a v v v l y y y y y y y t t u t e t u r r u e e 9 e 7 e 7 7 7 7 1 7 0 7 1 0 1 > $ $ $ $ $ $ $ $ $ $ # % 1 > > 7 8 d 8 1 1 ; % q K  .x L L ",
"9 = . = * * * + # # # $ $ $ % % % , , & % % % % % & , & 1 & > > > > 1 1 1 1 0 7 7 0 1 7 6 6 > 6 1 1 0 8 i i i p w 7 1 0 7 1 1 8 8 8 0 9 9 9 9 9 i 9 9 9 9 9 9 9 r e q 9 9 e e r 9 u r r r r 9 u r r t p t a a a y y y y M y M y y y y y y M M y y y M A M M M y y M y M j v M v M M y y j v M M M v v v v v e e t p n t w w i a i i r w 8 8 8 8 8 7 1 1 1 6 7 7 7 7 8 1 7 7 7 5 8 1 2 7 2 1 2 - z o.%.,.0.9.9.^.9.9.u.].].].]._.`.`.`.`.'.`.].^.'.].^.OX^.OXOX`.].&XOX]._.}.'.`.OX`.`.'.`.'.].}.'.'.`.'.`.`.'.'.`.'.`.`.OXOXOXOX&X|.d.u.u.d._.|._._._._.]._._.s.d.d.s.|.|.|.|.|.|.|.s.|.s.d.r.r.f.f.f.f.=.0.e.q.S A A V V V P U T U R R R T N K K { ZXKXKXKXKXKXmXMXDXHX~.w J B P V B B B M M M B M M m m M M V M M M M M B B M B B B B B B B B V M B B M B V M b v N v N N N b v v v b v v a a e t r v V B b b > a b v v n y r a M a a a y y t v t t e t t y y p a p u r r u p p p u p p s a u p p a p a p t p p p p p t t r r e d e e e e e 7 7 7 7 8 7 7 7 7 7 2 1 1 2 7 e 7 8 9 9 r r r t p l u s b s v r $ $ 0 r u p a a i M v M a y y y a y t t t t t t t t t t e r e r w e e e 7 7 7 2 7 7 0 7 0 2 > % % % % $ $ @ $ + $ & & > 1 1 7 7 w e 8 7 1 f * 0 l L L L L ",
"0 * . * = = # . # # $ $ $ & % % % % % & % & % % & & & 1 & 1 > > > 6 2 1 1 1 > 1 1 7 7 7 1 0 6 7 0 1 1 8 r i i i r 7 > 1 7 0 6 7 8 8 9 0 i 9 9 0 9 9 i 9 9 i 9 9 r w e e 8 q 9 e 9 9 9 u 9 r r r r t t r t u y y y y y y y y y y y A M y M y y y y M M M M y M M M M M M v v v M M y y y y v M M M v v v v v v y t y r r w w w i i i r r w 8 0 0 7 7 1 1 1 6 7 7 8 7 8 7 0 8 0 7 8 8 7 7 7 7 2 2 : Z ! ,.0.0.0.9.9.u.^.].].^.].oX^.`.}.].'.'.'.+XOX`.].`.`.'.OX`.}.OX`.].OXOX`.OX`.`.^.'.`.OX'.'.'.OX}.}.}.OX}.`.`.'.'.'.'.'.OX&X|.].d.].d.d.d.d.d.d.[.[.|.|._.s.s.d.s.s.d.|.d.|.s.s.s.s.s.r.r.r.f.f.f.-.8.8.@.k A U T T U P P T T U U V P R Y Y E i { JXKXBXJXKXmXDXMXFX| B I B P V B B B B M m M B M M M M M V M M B M M V B M B M B B B B B B B B B B M M V M B N B N v v v a M B b B b v N M t v v e B V v 7 e B B t v v t y y a y y t a a u t t t u u t y y a s p i r r i p p p a i a p a p p p a p p a p p p t r r r e e e w w d e e 7 7 7 7 e 7 5 7 , 7 7 , , 1 2 e 7 2 e 9 e r t u p a a a K a r B r O $ 9 9 t r t a a s v v a a y y a a y t u t y y y t t t t r r r r q t u e e e 7 e 2 1 7 7 7 > , % % % $ $ + + $ $ $ & & 1 6 1 1 7 d 8 w 7 0 0 ; q C L L L L ",
"f . . # + * # + + $ # $ $ $ % % % % % % % % 1 , & & & & & & & 1 1 1 1 1 1 > 1 1 7 7 7 6 7 7 7 2 1 7 0 8 w i i s r 0 & 1 0 1 1 7 0 8 8 9 9 9 9 9 i 9 i 9 w q i 9 w w w 9 e e 8 8 9 e e r r u r r p p i u y t t t y y y y y M M y y y M y y y A y y M M M y M y M v v v M M M M M M M y y y M M M v v v v v v e v t r r w w w i r r i u w w w w w 7 0 0 8 7 7 7 0 8 7 e e e 8 1 e 2 8 e 2 0 9 0 2 o : Q ;.,.0.9.0.9.^.^.^.C.^.^.].].`.'.].`.`.'.].+XOX`.`.'.OX}.OX&Xu.`.OX].`.OX_.`.OX'.OX'.OXOXOX`.}.}.OXOXOX}.'.`.}.}.'.'.'.`.|.`.`.'._.d.d.0.0._.|.].|.d._.d.s.s.s.d.d.s.d.s.s.d.s.|.[.d.p.r.r.r.f.r.q.9.q.h T | U P T T T P T U A U V P R U J Y K N { JXJXKXMXmXDXDX%Xm P P V V V B B M B M M B M M M M M M B M B M M M B B M M M B B B M B B M M M V B B B M B N N N b v v v v v b N v v M N b t v e t B 8 8 a b v t v a t v y a y y y a a t y y t t r t t t l p i r u r r p p p p p a p p a t a a y n a p t p t t r r r r w w w w w e 5 e 7 7 7 7 7 , , 7 7 1 2 7 e e u e e e e t t t y a a r N a i N 2 . 8 p r 9 t a p a C a a a y y y a a y t t r y v v t t y t t e u e t t t e e e 1 7 7 0 7 7 7 > % % & % $ $ @ # $ % & ; 1 1 1 1 7 7 e 8 8 0 6 f ; 0 C L ~ L L ",
"* = * = * . * = $ + # $ $ % % @ % % % % $ 1 ; , $ & 1 > 1 1 ; & > > > 1 1 6 6 6 1 1 1 1 1 7 1 7 1 1 1 7 9 u i i i 7 > 1 1 1 1 6 0 8 8 8 9 9 9 9 9 9 9 q i 9 9 9 q e e e e e 8 8 8 q 9 9 9 r r 9 p p p i t y t u y y y y y y y M y y M y M y y y y y M y M y M y j M v y y v v M M M M M v v v y v v v v v v v e r w r r p i i i w w u d u w d q 8 8 7 8 8 8 7 0 7 8 7 7 8 8 2 8 1 e e e 8 8 8 2 - - z ^ #.7.0.0.u.i.^.9.u.].`.].'.OX}.`.`.`.].`.^.OX].OX`.OX^.OX'.`.OXOX^.`.OX^.`.OX'.OX}.'.OX`.OX+X[.OXOX}.'.OX&XOX'.`.'.'.].].}.|.|.].d.d.d.|._.s._.|.|.|._.d.p.d.d.p.d.)._._.[.|.|.).d.y.r.r.e.s.q.0.^ g R A n U T P P U T A U V U U U R T U V L K N } FXKXGXCXmXHXUXm B B P V V B M B M M M M M M M M M M M M M M M B B B M M B B B B B M B M M B B M M M y b v b N b v v v v v N v v v B B B v b v v e , v v v y v N v t v a a a y y v a y y y y y v t t t a p p u i r u r a q p p a p p s a p a n y a a a p t p t r r r w w w 8 8 7 e 7 e , 7 7 7 7 7 7 7 7 7 e 7 e e e e u t t y y y a a s p b C 8 $ 2 e t 9 9 a N s a s a a y a y a v v y y t t t u t t t y t u v t t t t e e e e 2 7 e 7 7 8 1 > & % % $ $ $ $ % & & > & 1 0 ; 1 7 7 7 7 0 6 6 ; ; 0 L L L L L ",
"# = * * + + $ $ $ + $ $ $ % % % % % % % % & & & & & , > > > > > 1 > & 1 6 6 6 > > 6 2 6 0 1 1 6 1 1 0 0 0 w s s i 8 > > 7 1 1 1 7 7 8 9 9 9 q 9 9 i w i i 9 i 9 9 e e e e q q 8 0 e 8 e 9 u u r p u r t y y t t y y y y y y M y y y y y M y M M M M M M y A y y y M y M M M M M M M M M v M v v v v v v v v m e p a s a s p i r w 9 w u w i i r w 9 8 8 8 8 7 7 8 7 e 1 1 e 2 2 e 2 e e q 0 0 0 0 : 4 k #.,.<.0.u.C.9.u.^.].`.oX^.`.].`.`.'.}.OX'.OX`.].OX}.'.`.'.'.'.}.OX`.].&X'.'.`.'.OX`.OX'.OXOXOXOXOXOXOXOX&X}.].].'.'.'.'.].|.'.OX}.].d._.d.d._.|.|.|.|.d.|.s.s.p.s.s._.s.|.|._.d.p.y.d.r.r.q.d.G k R U A T P H T T T T T T V U U J R R R Y K I K n } BXFXNXCXqXV V M V P V B M M M B m M M M M M M M M M M M M M M B B M m B V B B M B B B M V V M M B M b N N N N N N v v N B b v n b B v b v V V 1 e B v y a B b v v v l a a y y v v y a v y v y y t t i a p i r r r t i r u p a p i a i a a p a a p a v t n t r r w w e 8 8 7 7 7 7 e 7 7 , 7 1 7 7 7 7 2 2 7 2 e e r t y y y a a a a C a N a $ % w w r r a s b s a a y y a l a y a y v y y y t t t t t t t t e t t e t u u e 8 e 8 2 8 8 1 1 > % & , $ % $ & & > > 1 1 6 & 1 1 8 1 > > f f ; ; f q L L ~ L L ",
"# o = * * = % % + $ $ $ % % % % 1 1 % % % % % & % & > > > > > > 1 1 > > 1 1 6 1 > > > > 1 6 1 1 1 1 1 0 9 r i s p 8 1 1 7 1 f 6 6 0 0 8 0 9 i w w 9 w w 9 9 i 9 9 e q 8 9 8 e 8 e e 8 9 9 9 r r p r r t t y a a y y y y y y y M y y y y y y y M M y M y y y y M M y M y y M v j M M M M v v v y v v v v v v e 3 v b K N s w w 9 i u u d i r i t t w 8 8 7 8 8 8 e 1 e e 1 e e e 2 2 1 8 0 0 f 0 l ; o q ~ ;.,.0.9.r.C.^.].].].].`.'.+X`.`.'.`.'.].'.].'.^.'.'.OX'.}.'.].].OXOX`.OX`.`.'.OX`.OXOX/.OXOX`._.OX}.^.9.d.].].'.`.].'.OX}.}.OX}.|.].d._._._.d.d._._.|.s.s.d.d.d._._.s._._.s.s.d.d.d.r.d.d.G A Q A V T n T T U V U T T T A P T P U I U R Y J U Y s E nXkXzXIXe U P m P B B B M B B V M M M V M V V M M M M M M B B B M B B V V B B M B V M M V M M V M B N B N N v v v v b v v v y v v v T e v v , B v N a v b t a v y a M a y t a y u v a y y y y y y a i a p r r i i u u r p p t p a t a y a p a a i y t r t e r w 8 d e e 7 7 7 , 1 7 , 7 7 5 7 7 7 7 e e e u r r u y y y a a a a v i N t , $ 2 w a a b C s a b v a a v y v y y y y y y v u t t y y t u t t t e t t u t e e e 8 8 8 w 8 0 > > & & & & & & & & 1 1 1 1 f ; & 1 8 1 % % , f * ; * q K E L ~ L ",
"+ = * * % $ $ # % & % % * = % % , & % % % % % % , & 1 1 1 1 1 1 1 % % % 1 2 > , 1 > & & & & > 1 1 1 7 7 8 9 r i s i 6 & > 1 & > 8 7 8 8 9 r 9 9 9 9 9 9 u d 9 q 9 w q w 9 9 0 0 0 8 8 9 r r w i u i r u t y y y t y y y y y u y a a y a v a v v a a v y a M a M M M M M M M M j y v M M M M M M M M v v v v y e e a M a e u e e r t u r t y y t t u e e e 1 2 7 2 7 2 e 2 7 7 e 8 0 7 7 8 8 5 9 0 d q @ x ^ ,.2.2.C.9.^.^.^.^.].].].oX`.`.'.'.+X`.'.`.].+XoXOX'.`.`.`.`.'.OX'.'.{.OXOX'.OX`.].'./.`.'.`.+X`.]./.`.'.OXOX{.].`.`.OX}.'.OX}.}.)././.d.).s.s.s.i.s.i.)._.u.r.r.r.d.d.d.d.|.OXd.d.d.Z.G y T R V Z R V U U T T T T U P P P U U U P P T T P V V B M U uXCX| n V V T b B V M M V M y M M M M M V M M M M M M M M M V V B B M M A v v M M B B B B B M B M V V B B M M V M M M M M M M M e T P M , y M M v v y y v v y v v a v n v a a y v v a y a y a t y a t n r r t r t t t t t t t t t e v v m y y y y y y e e e e e 9 8 7 0 7 1 6 6 6 0 1 7 6 7 8 8 8 e e u e t t y r v v t v v v y v y t X 7 v e e v v b B b v v t s a a a a u a p l i p i a a p r s a i u u w i w i r i u 9 9 0 9 8 8 1 % $ & > $ & & & & , > 6 6 $ & > 1 0 1 , % % & $ $ ; & 0 L E L ~ L ",
". + # $ $ $ $ $ % $ % % % % % % % % % & % 1 % & & 1 & & % 1 1 & 1 1 ; 1 > 1 > , > > > & & & > > 1 1 0 7 8 9 r i a r 0 > 1 > > > 7 7 8 9 0 8 0 9 9 9 9 9 w w 9 9 w w w w 9 0 9 9 8 8 8 9 w w u 9 i w i i t t y a t y y y y y y v a y a y y v v l y v v v a v a y l M M M M M v v M M v y M M M M v v v v v v y r e M v t e 8 e 2 e r r t r t t r t t u e 2 e e 7 7 e e 7 7 7 e 2 8 7 8 8 8 8 9 8 8 w q ; 3 Q #.,.2.1.9.9.C.u.^.].(.].+X].+XoXoX+XOX'.(.oX'.OX+X`.'.OX'.+X'.'.+X`.OX'.{.`.`.+X_.`.].`.'.'.OXOXOXOXOXOXOX}.}.{.}.}.{.`.}.`.`.u.)._./.i.p.i.i.s.i.i./.).i.y.s.s.p.r.w.r.s.d.d.d.0.d.M V T U C R | R V U U U T U U U P P U P U P U P M T T U T P B M } IXn U V v | V M V M M V B M M M M M B M M V M V V V M M M M M B B B B B B B B V V V V V v M M B B B M v v v v y M M M M y y y e m V e e M M B v v M m v v v v v v a v v v a a v a a a a y y a t t t t y t t t t t t t t t t t t v t v y y y y y y e y e e e e 9 8 8 8 7 2 6 6 1 6 6 1 2 8 8 9 8 8 e e r t t v v v v y b v v v v y O 8 e e v v v v B b v v t v a s s a a a i u a a p s a s a u p i i i u d i i i i q d w 0 8 8 8 8 0 $ $ > 1 % & & , 1 2 1 & & $ & 1 1 , % % % = % # * & * 0 L ~ L ~ L ",
". . + # $ $ $ % % % $ $ $ % & f % % % & % % , & & % & & & 1 1 % % 1 1 1 > % & > > > , & & & 1 > > 1 1 1 0 9 r i i i 0 > 1 1 & > 0 7 w 9 9 8 8 r u 9 9 9 w w 9 9 w w 9 w 8 8 8 8 9 9 9 w 9 9 9 9 r r r r t t y a y a y y t v y y a v a a y a a M y a v M M s a a v M M M v y v y M M v v y v M M y v v y v a y r u y y u 2 e e e w t t u t t t r v y r e e e e 2 e 2 7 7 7 7 7 7 8 8 7 8 8 9 0 9 w 0 q q : z Q %.,.2.9.t.9.9.C.].].`.`.].`.'.oX'.oX'.].`.OX'.'.+XOXOX'.'.}.'.`.`.OXOX`.`.`.`.`.{.OXOXOXOX'.'.'.OXOX'.`.+X_._.`.`.`._.{.`.|._._././.i.u.r.y.i.s.p.).).u.).|.s.s.d.8.|.].d.d.|.].A A T G P C Z T A U V T U P U U U P P P P U U U U B T T P U T T P m U U v B T m V m V M M M M M M M M M M M M M M V V M M M A V V B B B B M B V A V V V A M A B M v B B B B B M B M M M y M M M M B e M e m M M M v v v v v v v v v v v a v v v v v v a y a v a a r t t t t t v t t a y t n t t y y y t y y y y e y y e e e e e e 8 7 7 7 7 6 6 6 1 1 6 7 0 8 8 8 8 8 e e r v v t v v v v v v v v v e + v b v b b B B b v v t v v i s a s p a p a s a p a a p t t i i i i i u r r 9 u w w w 9 9 9 8 8 1 & % > 1 & % , 1 2 7 1 % # % > 1 > , $ $ % . $ = * * & q R W ~ W ~ ",
". . . + $ $ & % % $ $ # $ $ % % % % % % ; , & & % , ; , & 1 & 1 % 1 1 1 % $ & 1 > , ; & & , & ; > 1 1 7 8 0 w i i i 8 ; 1 1 > > 1 8 8 w 9 8 9 9 9 9 9 9 u 9 9 9 i w 9 0 8 8 8 8 9 0 9 w 9 9 9 9 9 u r i t t a y t y y y y u y v y v y y y a y a v v s v v M a a y v v M v v v v v M M M A v M v v y v v a v y u e t y e e e t t u t y t t t e u y y y y t e e e e e e 2 7 e 2 e 8 8 7 0 8 9 9 0 w ; p 0 0 q k #.,.<.0.C.9.(.^./.(.oX].].'.'.`.`.+X].`.'.OXoX'.OX'.'.'.+X'.'.`.'.OX`.`.}.OX'.'.OX'.'.{.OXOX'.{.'.}.{.{.`.`.{.`./.`.`./.{._.}._././.i.t.r.r.r.r.u.y.y.i.s.s.r.p.d.d.d.d.d.$XZ.U A / A V P R U U R U U U U P U P V P P U U U U P P T P P P T P P T v P v b P V B v B V V M M M y M M V M M M M V M M M M M M M M V B A V B V B V B V B B B B B B B v M M B B B B V V M M y y M B P U B < M y M M y M v v v v v v v v v a v a v a v v v y n a a v a t t t t t t t t t y t t t y y t y y y e y y y t y e e e e e e , 8 7 0 7 7 6 1 6 7 0 7 7 8 8 0 8 e e e t t e v v n t v b v v v v v , e v V b v V b v v v t v t t a s i i i s a p p u i u p i t r d u i r i w w r 0 9 9 w w w w r 8 8 1 % > 1 1 & > 1 1 0 1 & % + % & & % $ = $ $ # * * * * ; s L ~ L E ~ ",
". . . + + $ & & % % % % # $ % % % % % % % , % 1 > & & 1 > 1 1 & & & 1 1 > % % > , & & & % & & & > > 6 6 7 9 r i i i 8 & 1 1 & & 7 0 7 8 q 9 9 9 9 8 9 9 9 9 9 9 i w 9 0 8 8 8 0 8 8 8 0 9 9 w q 9 u r u p u y y e y u y t t v u a y l y a y y y M M v s v v v N v j u v v v M M y M M A B B M v y v M y y l y t t e u r v y t e t y y y t a t t y y a t t r u e e e e 2 e e 7 e 8 0 7 8 0 9 8 9 0 9 i 0 j ; 3 F #.,.,.0.0.(.^.^.(.].].].`.`.+XoX`.'.+X`.`.oX'.OX`.`.'.`.OX'.`.'.{.`.{.'.OXOXOXOX'.'.'.OXOX'.'.OX`.}.}.{.}.'.`.`./.`./.`.u././.[./.s.i.u.y.r.r.8.8.w.y.s.p.e.r.s.).u.0.oX0.k A / A V V S T T V V U U U U P P P V V P P U T U U V P P V P T V V T E I v B P B Y b V M V M M M M M V V M M V M V M M M M M B V B V V V V B A B C B V V B v B B B V v B B v v v v v m M M M M M B V B y , B m y B m v v v v v v v v v a a y a v v v v v v a v v v a v t t t v t e v t y y t a t t t y y y y y y y t y t m e e e e 7 7 0 1 7 6 6 6 7 1 7 6 7 8 8 0 9 r e e r t e v v v r v B e v M B e $ v v v v b v v v v v t t t v a a p j a a p p t r r i u i r r 9 q 9 9 r 9 9 9 0 0 w w w w w w 7 0 > > & 1 1 1 7 8 0 > % $ $ % , $ $ < $ $ # + * * * * ; f  .( ~ W L ( ",
"+ . . O # % % % % % % = $ $ # # % % % % , ; % % % > & 1 1 & & 1 1 1 & & > & & & & & & & , & & & > > > 2 7 9 i i i a 9 1 1 1 & & 1 0 6 7 9 9 9 8 9 0 q 9 9 w r 9 0 9 9 8 8 8 8 8 8 8 8 8 0 w w d r r r r t a t t y y y y u t t t a y v y v a a a M M v a a v M N t v M v v v j M y M M y v M M A y v M y y v a y t t t v v v r u y a a y y y y u y y t y t r e e e e e e 7 e 2 e 8 8 7 8 9 0 9 0 0 i 0 0 q q - j Q #.,.<.0.9.(.t.^.].].].].`.`.'.'..XoX].'.OXoX`.`.OX'.'.'.`.+X`.OXOXOXOX'.'.+XOXOXOXOXOX`.`.+X`.+X/.`.`./././._./._.}./.{.)._./.)._._.d.d.u.u.r.w.6.8.8.r.r.r.p.8.0.`.q.y A | U V / | V V T V B U U U U P P P P V P P T U U U P B T U V P T P V | V P B b V b P M M M M M M V M M V M M V M V B M V V M V M B B V B V B B B B V V V A B B M v A v v B B v B B B M M y M M M V V m , M y B B M M v v v v v v v v v a y v a a a a v v a v v b v v v v v v t t t e n t y y t y p a y y y y M y y t t e e e e e e 7 7 6 1 7 0 1 1 7 1 1 0 8 9 9 w r t e v t v v v t v t v v v v V v + v t M e v U v y v t v v v t t i a p p u p p p p p p p p r r w 9 0 9 8 0 8 9 9 i w w w w 9 9 0 7 0 1 1 1 1 1 1 8 7 1 & $ $ % & , $ O + $ , $ + * * * * ; g  .L L ~ ~ ( ",
"O . . + $ % $ $ * % % % % # % # % & % % % & 1 % & > & & & 1 & 1 & & , & & % & > & & % , & & & & > 1 1 1 0 8 r r r s 9 1 1 1 & & 6 6 8 8 8 9 9 9 9 9 8 9 9 9 9 0 9 9 0 9 9 8 9 8 9 8 8 9 9 w u w 9 u r p t t u r y y y y y u t y y a y a v a a a M v v v M v v N v v v v v v v v M M M y v M M M v M M M v a a y e t y v v v r u t a a y y a y t y t y t y t t t y e e 2 e e e e 8 7 8 0 5 9 0 9 0 d 0 w w p - 2 k ~ #.<.2.0.9.9.^.^.].`.`.oX'.+XOX'.+X].OXOX'.'.'.OX'.`.`.`.`.'.XXOXOXOX'.+X+X.XOX'.'.{.`.`.{.{.].`.`.`.`.`.{.{.`.+X{.[.}.|._.u.].).)._.).d.d.d.r.6.6.=.=.=.6.8.0.].+.A G T b P T R V A R R R / U T U V P P P P P P P P P U U T U T U B P U T U V | v T B r P v B y M M M M V M V V M M B M V M V M V V V V B B V A B B B B V C V V V B V V B M v B B B V V V V V B M M M M B V y e P y B M y M v B v v v v v v a v v v v v v n N v v a v v v N v n v t v e t t y a y y n y t y y y y y y y t t e t e e e e e , 7 1 1 1 6 > 6 7 7 7 7 8 8 r r t r t t n v t v v v v v v e v v , , B v v v v B v v v y y t v t t p a a i p p i y u i p u r r r q 8 8 8 7 8 8 0 9 w w w w 9 9 0 9 8 7 1 1 0 1 0 7 8 1 & & > > , & $ $ + + $ $ $ $ * o * * * q L L L ~ ( ~ ",
"+ . O + $ % $ # # = * % % % % $ % & , & % % % % % % % , & & & & % & 1 > & % & 1 % & > ; , & & & > 1 1 1 1 7 9 w r s w 1 1 1 & & > 0 8 8 8 8 9 9 9 9 8 9 9 w 9 9 8 8 9 9 8 9 8 8 0 8 8 0 0 9 w w r r t i t t u r e y y y y u y y y a a v a M a v l b N v M l v v v v v v v v v v y M M M M v M y y M M y a v v y e u t v e e e t t y a y y a y t y y y a y y y y y e 7 2 e e e 7 8 8 0 0 9 9 9 9 d f i f i i 9 @ 2 A ^ ,.,.2.1.(.(.C.(.`.].(.oX].'.'.'.'.+XoX+XOX'.'.'.`.`.'.OXOX'.+X`.OX'.'.OXOX'.OXOXOXOX}.'.`._.`.}.}.{.}.`.}.{.}.[._.(./._.`.).i.u./._._._.s.p.d.w.8.=.6.6.9.|.@.A R U T T I V R | V U U V U T U U U U P U U U P V V P P T T P P V U T P V U V B T U v T v b V y y M y B V m M M y M M M V M M M M V M M V V M B M M B V V V M V C V V V V V M B B B v v v v y M M M M M y y e V y M M M M M V v v v v v m v v a a v v v v v v v v v b b N v v v v v v v t v t a t y y y a y y y y M y y e y y e e e 5 e e e 7 1 1 6 6 6 2 7 8 8 8 8 8 9 9 9 r e t t v v v v v t v v v M v + v e B v V v e b v v v t t t n e p l p a p p i p i t r r u 0 9 9 0 9 8 0 8 9 w 9 9 0 9 9 w q w w 8 8 7 7 8 7 8 8 6 % $ % 2 7 > % $ $ $ $ + + $ + f * * * f l L L ~ L L ~ ",
"# . . + $ % $ # $ % % $ % # $ # $ $ % 1 % % % % % % % & & & > > & & % % % % % % , , & & & ; , & 1 > 1 1 0 7 8 w p p i 8 & 1 6 % 1 6 7 8 9 9 9 9 9 8 8 9 9 w e 8 9 9 9 8 8 8 8 9 8 7 8 8 9 9 r r e t e e y e y u y y t e u u y t t t a a M a a y v v l M v M v v v M v y y M M M M y M y M y M M M a v N l M N a e e y v y y y u a t t u r r t t t y a y t y y y v y e e 2 8 8 8 8 8 2 8 d 9 8 0 0 0 9 9 9 9 9 9 o - ^ Q ,.2.2.(.(.^.^./.^.].`.].+XoX`.`.+X'.oX`.'.`.`.'.OXOXOXOX'.OXOXOXOX&XOXOX'.OXOXOXOXOXOX'.`.'.}.{.`.`.{.}.{.}././.{./.u.u.d.d.d.d._.'._.|.|.8.u.d.q.0.0.0.S S R R U P P I U P P P U U P P V T T V P V U U T P P P U T P V T P P P V V U V P U T T T U P M V M M M B B B B B B M M v A B M M M v V B B V B M B V V A B V V C V V V V V V C B V B B M M M M M U U T B V M e N N b v v v a v v v v v v v v v b v v v v a v B a v v v v v n v v v M b v a a a v v a a y v y y t v v t e t t e e e e 7 7 7 e 5 1 0 7 7 1 1 7 7 0 8 8 0 9 9 r r r e v v v v a a a B a t v B O 7 v b v V n v t v v y n y y y a y a a i y u i i u r u e e 8 8 8 2 9 0 0 9 9 w 9 9 i w w 9 q w w w 8 8 8 8 8 0 7 7 $ $ & 1 7 2 1 , $ $ , $ , + $ $ , O $ @ f  .~ L L ~ ~ ( ",
". . # # $ * # # % # # % # $ % # % % % % 1 % % 1 % $ % & & > , > 1 & ; , % & & % % & & % , % > , > & > 1 > 1 8 w r i i 0 % & ; % 1 1 7 8 8 8 9 9 9 9 9 9 r w w w 9 0 9 0 8 8 8 8 0 0 7 7 9 9 9 9 e u e y e y e e y y y y y y e y t y a a l a y a y y v a a a y y v v M M v v M M M M M M M y M M M a s M a a M a t e e e e y v r t y y t t r y y t y t y y y a a v e e e 9 2 8 8 8 8 8 e 9 8 0 8 9 0 d i i r r w ; X : ! o.#.2.0.t.C.^.C.].].].`.`.`.'.(.'.'.'.'.`.'.`.OXOX.XOXOX'.OXOXOXOXOXOXOXOXOXOXOX'.'.`.`.`.}.}.{.{.`.`.`.{._./._.[._./.)._.|.'.|.|.|.'.'._.'._.9.d.0.d.F F S S A U I I T T U P T T P P P V P T P P U U T T T U T T U T P U V P U V V T T U V V P U U V V M M B B M M M B B M M M B M M B V M V V V B B B B C V V V V V V V V V V V V C V V V V M M M M M V M M B T P e e B B B B B N B B v v v v v v v n v v v b v a v b v v B b v M v v v v M M v a a v a a a a y y y a v t t t n r t r e e e 7 7 7 7 7 1 1 1 1 6 1 1 7 8 0 9 9 w r r a y v y v v b v v v v a b V e 1 v v v v M v v v v t t y t y y t t a a s p p r i u e e 8 e 8 8 8 8 8 8 0 9 w q d 9 d q 9 d d u w w 9 9 8 9 9 8 > # > > 0 7 7 1 > , + $ $ $ + , + , + , @ , q  .~ L L L L  .",
"# + # # $ $ # O # # # $ % = % * % % % % $ % 1 % % % % & % , , ; > > > % % % % % % % % % % 1 & & & % % > > 1 0 8 i i i 8 & $ > $ 1 0 7 8 8 8 0 9 9 9 9 9 9 9 r r 9 8 8 9 8 8 8 9 8 7 0 7 0 9 9 9 e e y e y e y e e e y e e y y y u a a a v v y y a v y M a a v a y M y M y v y M M M M y y M M M M a v v y a M a y u t v t v v t y y y t t t y a t y y a y y y a v y u e e 8 8 8 8 9 w 9 8 0 0 8 9 9 w w i d 9 9 2 X @ j ! ~ ,.,.0.9.C.(.^.].].].].`.`.oXoX'.`.`.`.+XOXoX'.+X'.OXOXOXOXOXOX&XOXOXOXOXOX}.}.'.'.+X`.`.`.{.{.{.{._.[._._.}.{._.`.`.d._.'.].].|.`.`.].'.`.].|.d.A A S R R T U I I I P P P U U P P P P P T P U T U U U P P P V V V V P V P U V U T V U U V V P U U P B M M B M M M M B B M V V B B M M B V V P A M M V V M V V V V V V V V V V V V V V V V M M M M M B B V M T e e M b N b B b N b B v v v v v v v v v v v b v a v b a v v v v v v v y v v v v v a v y y a a y n a v t t v t r t r t e m 7 e 7 1 7 7 1 6 1 1 1 7 0 7 0 8 9 9 w i a s t t v v b v v v v t t B b + r b b v v v v v v v n y y y a y a y a p s p u u 9 9 9 8 e 8 2 e 8 9 8 0 0 9 w i i u u w w q u d q 9 9 9 8 w 8 1 % + 1 2 7 7 > , % + + $ $ $ + + $ $ $ & % 2  .~ ~ L L ~ L 5.",
". + # $ $ $ # # # # # $ # % % % % % $ % $ % % % % % % % & & & & > > > > & & % % $ % % % % & % & > % % > > > 0 8 p i l 9 & & & % 1 1 7 7 8 7 9 9 0 8 9 9 8 9 e r 9 8 8 9 9 7 0 9 8 7 8 8 9 9 w 9 e e e e e y y u y y y y y y y y y y y a a y a y v a a a a v v v M M y y v j M M j y y M M M M M N a v v y a M a t e v M v v v u t t y t t t y y t a y a y p y a y y t y e 8 8 8 8 8 8 8 9 0 8 8 9 0 8 w t d d 0 8 X j 3 g ~ #.o.2.9.t.u.(.^.].].].`.`.`.+X'.`.oX`.'.'.'.oX+X'.'.OXOXOXXXOXOXOXOX}.OXOX'.OXOX'.{.`.`.`.`.`.`.`./._.u._._.(.i././.d.`.|.].].|.|.'.'.].].oXd.A F T R S T R T T I P T P P U P P P P P T T P U U U V P P P P P P P T U V V P V P T V U U V V P U U U U V M B M M M M M A V M V M M M A M B V V V M V V V V B V V V V V V V V C V V V V B V M M M M V y M T P B , e P b N B b b b a v v v v v v m v v v v v b v v a v a a v v v v v v y v v v a v v v v v y n a a a a v e e r r r r r e e e , 7 7 1 7 7 1 1 > 7 7 7 1 8 8 9 9 w i s b n v t v v v v v v t v b 8 $ v B B b v v v y e v y v y v v y y n i p u r r 9 8 8 2 8 1 8 8 e 8 w r w w w u w w w w w i w u q d w w r w 1 & * & 1 6 7 7 > % $ + O $ $ $ + $ + + $ $ ; $ 3 L ~ L L ~  .L L ",
". + # # $ # # # + # # * # # % % , % $ $ % % % , % % % % , & % & > > 1 & & % % % % % @ , & % % , 1 & & 1 & & 0 8 i p s i > % & % 1 1 0 7 7 0 8 9 0 9 9 0 e 7 e e 0 9 8 8 0 9 8 8 8 8 7 8 9 9 9 9 e e e t e y y e y y y y y y y y t y a a a a a a v a a a v y M v y M v y M y M y y v y M M M M M B l v v y v M a r e y M v v t e u t t t t y y a t a a y a t a y t v y t e e e q 9 7 7 8 8 9 9 8 0 0 8 9 i d 0 0 9 X ~ V.o z ~ #.$.,.2.C.t.C.^.].(.].oX].`.`.`.`.`.`.'.'.'.oX'.OXOXOXOXOXOXXXOXOXOXOX'.{.}.'.OX'.'.`.`./././.^.^./.u./.).i.d._._._.]._._._.|.`.`.d.%XoX'.A A G T T T T T T T U V T U T T T U T T P P U U P U V V V P U U U U P T U V U U V V T V V P V V P P P U T P V B M M M M v v M M M M v v M M B B B V B B A V V B A M C V V V V B B V J V V V P V M M m M y e M V , y B M B N B N B v v b B V v v v t v t v v v v b v v v v v v b v B v v n y v v v b v v v v v a a a a y e e t t r e e e 7 e 7 7 7 7 7 7 0 > 1 1 0 8 0 8 8 8 9 r i i s s v v v N B v N N b v V y % y B B V b v v v v t t t t t t r y r y t t t r e e 8 8 7 8 2 e 9 q r q i i w i u w w 0 i i w w 9 w w w r 8 0 & & & 7 9 7 6 > & $ + + % , + + $ + $ $ + % @ ; l E L L S L  . .L ",
"+ + # # # # $ $ # # # # # % % % @ % $ % % % % % % % & % % % & % & , & & 1 & % % % % % % % % & % 1 & & 1 1 > 1 7 w i s i > $ % % > > 6 7 8 8 8 8 0 9 8 9 7 7 8 1 8 8 8 8 9 8 7 8 7 0 7 7 8 8 9 8 e u u e e y u y e y e e e y y y t y t y y a y y y y y a a y a l y y y v M M y M v v M M M y v M N M v v y v M v v u t y t e t u r t t t t t t a t u y a t y y a t t y y y t e e 9 8 1 0 9 w 9 8 9 0 9 r i d i 0 q X ( sXL - g ~ ! O.<.<.9.9.(.^.C.+X].(.].].`.].`.oX`.oX'.'.'.OX'.'.OXoXOXOXOXoXOXOXOX'.'.OXOX{.OX{.{.`._._._._.[.`.`.'.`.`.`.[.|._.].].]._.].^.Z.oX%XG A T A U T T T U T T T U U U P U U P P T V P P V V T U P V P P U P V V V T P U U T V T V V P P V P P P P P P P V M y M B V M B M M v M v M M M B B B V B V V V V B B B V V C A V B J V J V V V V V B B B V M M M , M V y N B N N b B B B b M v v v v v v b a a v v v v v v a v b b v v v v v v b N N v v v v v v a a y y v t t t r r r e e e 7 7 5 7 , 7 7 1 6 7 0 8 8 0 9 r r i i a s s N M b v v b N N v B M 1 , P b v B v v v v v t v t t v t t t t r t u r r u e 8 9 8 8 8 8 9 9 r r i i i w i i i w i q d w d q w w w 1 % > 2 9 8 1 > > $ # + @ % + , + + $ O , $ $ % ; 0 C L L l L  .5.5. .",
"+ + # # # + # $ # # = + # # $ % $ $ % % % % % % % % % % % % % % & & & 1 1 , & & % % % % & % % % & & & 1 1 1 1 8 7 9 s p 1 # $ $ % > 0 0 8 8 8 8 8 8 8 8 e e 2 e 8 8 0 9 8 0 0 7 7 0 0 7 7 8 8 9 u e e e e y e y y e e y y y y y y y y a y a y a y y y a a a a y M j v M M M y y v M M M M j v y M a M N v y v v v u r v y t y y u t t y y y u a t y y a t y y a y t v t y t u e 9 8 8 8 8 9 9 8 8 8 9 9 i q i 9 d o _ hXoXl ; z Q o.#.<.0.0.C./.C.^.].].].].].].`.oX+X'.'.OXOX'.'.'.OX'.+XOXOXOXOXOXOX}.'.OXOX'.OX'.}.{.{.'.'.}.}.'.`.}.}.`._._.}.`._.[.].d.d.oX'.].U A T U T T U U T T T T V T U P U P P V V P P P P P P T U P U T T U U U U U U P U U T V T V P V P A A V P P P P P P V B M M B A B B B B v v V M B B A B V B V V V V B B V V B B B B V Z V V M B V V V V P P T U B m y M B M N N b v v b B B v v v v v v v v B v a v b v v v a a v v v v v v M v v v v v a a v v v a a y a y n p t r d e e e e 5 7 7 1 7 7 7 6 0 0 8 7 7 9 w u i p s p a s s v v b v N v v v a B w , e J v v B v y a v e t t v t t t y t r r e e u e 9 9 9 e 8 e e e r r r i i i i u i i i i p i i u i w w 0 0 > 1 7 w 8 7 % % $ + O + $ + + + + $ O , , + $ $ 1 l L L l l  . .z  . .",
"# # # # + O # $ # # # # # # # % $ $ $ % % % % % % % % % , % ; % % & & 1 ; , & & 1 % 1 % % % % % $ $ % 1 1 1 6 7 1 9 s p 2 $ % $ $ & 1 8 8 8 8 8 8 7 2 8 e e e e 8 8 8 8 9 8 7 7 8 8 7 7 8 9 9 0 e e e t e y y e y y y e y y j y a u y y y y a a y y a M a v v a y M M v y M M y y y M M M M v y s a v v y v v v t e t v v y y t t y a a a y a a t t y y y t a a v t t t t t e t 8 9 8 8 0 7 8 8 2 q 9 d 9 i 9 d s X E VXyXQ.q ; x S o.$.,.<.0.9.(.^.].(.^.].].].].].].].+XoX`.oX.XOXOXOXXXOXOXOXOXOX'.`.{.OX'.{.OXOXOX'.OX'.}.'.}.}.[.`.}.}.`.}.`./.].].].d.d.].Z.A A } T T T V V U T T T V F T T U T U P V V P U T P P P U U V U P P P P U U U V B P P V V V V U V P P V P P P T P M P T T M y B M M v v B v v V A B B v B B V V V B B B V V V M B V V V J V V V V V V V V P P U U y , P P M P J B N b v v v M b v v v v v v v b v a v v v v v v a v B b v v b v v v v v v a t v v v v n y a y t t t e e e e 7 8 e 7 5 7 1 7 7 6 7 8 8 7 8 0 w w i i i a a a a B v B B B v b v v B 1 , P v B B B v t t t v e e t t v e r r e e 8 8 8 8 8 0 8 e w q r r r r u u r r i i i u d u i u p p i r 0 0 % 0 9 w 7 > > > % $ + + $ , $ O + + + , , $ , + * 0 C L l l L z x  .z  .",
"+ + + + = # + # # + + + # $ $ $ % $ $ $ & 1 % $ % % $ % % % % , & & & > > > 1 & 1 & & % % & % $ $ $ % % $ 1 2 8 7 w i i 9 % O % & f 6 0 7 8 8 8 8 8 8 0 2 e 7 7 9 8 8 8 8 8 7 7 1 0 7 8 8 9 9 8 e e w r u r r r e t e e y y e y y y y y v v y y y a y a v a v v y y y m M y M M M M M M M y M M a a v v v y a v y 8 y v y r v r t y t t a y t r t t y y a t t u v t t t u t v t u e 7 e e 8 e 2 2 e 9 8 9 i r 0 9 * K PXuXiXZ.f - S L ~ 3.,.2.<.9.C.i.^.^.^.].d.].].^.].].`.`.oXoX'.'.oX'.'.oXOXOX'.OX'.OX'.OXOXOXOXOXOX+X+XOXOX'.'.}.'.'.'.'.}.^.^.].].d.Z.].d.A T / T G T T T T T T T U U U U P T U U U U U T U U P P P V P P V U P P P P P P R V V V R V R T Z U U U U U V V C U R V P U U B v B B v M M B v M V V V B B B B V V V V B B B V V V V V V V V V P v V M V M T T P M e V P V y P v M v v v v v v M M M M M M m M M M M M M M M M v v v b b v v B v v y v v v v v v a a v b n a a t r w w r r 9 9 8 8 7 6 7 7 1 6 > 6 7 5 8 8 8 w r r p n v v b v y V V v t v v v v v O v v V V v v n t v e e e e v e e e e y e e e u e e e 8 w r 9 w i r i i s i i r r r t r w e 8 r a a t 8 1 1 8 8 0 8 2 , + + + $ $ + % % $ $ # # = % f % # * f q l  .l  .z l  .z  .z ",
"+ . + + + + # # # # # # # # # $ $ $ $ $ $ % % % $ % % % % % % % & & , & > > ; & & 1 , % & > , % $ % $ % $ & > 0 7 w i i r & O % % & > 7 7 7 8 8 8 8 8 8 e 7 e e 9 8 8 8 8 7 7 0 1 7 7 7 8 8 8 9 r e w w r w r r y e y y t u y y y y y y y y y y v y a a y M v v M y M M M M y y M M M m y M M M a v v v v v v v v 8 r v v v B b t u t y a y t u t t y t y y y y y t t t e t t t t e e 7 e e 8 e 8 w r w r i i w i % W MXpXuXyXM.@ : x ~ ^ ;.#.,.q.0.9.u.C.^.^.d.].d.C.^.].].].`.+X'.'.'.oX+XOXOX.X'.'.OX'.'.'.oXOXOXoX'.OX.XOX'.oXOXOXOX'.}.}.'.OX'.OX].d.oXoXy / T U V P T T T P U T T U U U U P P U P P U U U P P P P P P U P P U T P V P P V R V V R R V V V J V P P A V V V V U T U P U U V V B M B B v M C M B V V V C B V V C B B V C V C B V V V B V V V P V P P U M P T V e y V V M V V K V B B B v v v M m M M M M M M y M M m M m M M b b v B b v v v v v v v v v b b v a y a a a a t i i w w 9 w 0 8 0 0 6 1 1 1 1 1 7 7 7 8 7 8 w w t i t a a v v N v v v B v v v n v 7 7 v v M V v v y t t v e e e e t t e e e e e e y e e 9 9 9 r i i i s i u r i a u u t u t r u r u r e e 8 8 8 e 0 1 1 % $ $ % + $ @ + + + + $ $ $ % & % $ * % 0 q l z z q q q q q q q ",
"+ + . + + + + # # # # # # # # # # $ % & $ @ $ % % $ $ % % % % % & & > > > 1 1 1 1 1 1 % & 1 1 % & % & % $ & & 1 0 8 r p r > @ # # % & 6 7 7 8 7 8 8 8 8 2 e 2 e 9 0 8 8 8 8 7 6 7 2 0 0 8 8 9 9 e 9 r r r w u r u t y e t t e y y y y y y v y v y a v a a l v y M M M M M y y y M M M M M M M M a v v v v y v v v e r y t v v v t t t t t t t t t t t t t t a y v e t v v t t e v e u e e e 2 e 9 r r w i i i i i % b LXiXuXnXsX;.o : Z S ~ +.#.,.<.0.0.u.9.^.C.u.u.C.].].].].].`.'.oX`.`.`.oX'.oX'.oX'.'.oX'.'.OXoXOX'.OX+XOX'.OX'.'.'.'.}.OXOXOX'.oX'.$X].h R T / P V T T U U U T T T T P A U T U P U U P U U P P P P P P P P P P P P P U P P R V V V V R V R P V V V V V V U P V V U V V V P T V B B M l M V V C V V V V V J V V N B V B V N B V V C B V B V B v V B V y M V y e M V V M U M V V V B B v v v y M y M y M y M M M M M M M M M v v v B v b v v v v v v v v v v a t p y a a i t a i w 9 9 8 7 6 1 1 > 1 1 1 1 > 7 7 7 7 e w w i t t t a v v N M v y v v B v v v v O B M M M B v v v y y v e e t t e e e e e e e u e v r w w r r r i i t i i i i p i r r r t t t t r u 9 e e e r 8 1 & % $ + $ $ $ + = # + + % % & % & f & # % ; 0 q q q q q q q q q 0 0 ",
"+ + + + + # + + + + # # # $ # + # $ $ $ $ $ $ % % $ % % % % , % & & & > > > 1 1 & 1 1 & 1 1 1 > 1 1 1 1 1 1 & 1 1 8 r i i 1 # + # % & 6 9 8 8 7 8 9 2 8 e e e e 9 9 8 9 8 7 7 6 > 7 1 1 0 0 9 9 w w 9 r u u r r e y e t t t y y y y u y y y y y a v y y a a v v M M M M M M M M y M M M M M M M a a v v n a a a v e e t y v y e t t t u y y y t t t u t t y y y v t u v e t v t v t t r u e e e 9 e e q w i i r d & 9 mXuXPXxXPXiX^ o : z k ! ! #.$.,.2.0.9.9.9.C.0.^.].].].].].].].].`.].'.`.`.`.`.'.'.'.oX'.'.OX'.'.OXOXoXOX'.'.'.'.'.'.}.}.OX'.}.oX&X].u G T P U T U T T U U T T G T T U U U U U U U P U P P P U U P P P P V P V V V P T U P R V R V V V V V J P P J J J V U U V C V V C C P V V V M y M M M M V V V V V V J V V C B V J V N V V V B V V V V V P A V V P P M e y V M U M M V V B M B B B B M M y M M M M M M M M M M M M M M v v b v v v v b v v v v v v v v v a p a a a a t i r 9 9 8 8 7 1 7 0 7 1 7 7 1 0 7 5 e e w d i p i i t a a v N N B M B v v v v v , O T M B M v M v v y v y v e e e r r e e y e e v e e t i r w r 8 8 9 r w i i s r r u 9 9 t r t r r r r e 2 8 2 & $ $ $ $ $ + $ + + + # % % , % $ f & f % $ ; ; 0 q q ; 0 f 3 q q f q f ",
"+ . + + # + # + + + + # $ $ $ $ $ + + + $ % $ % % $ % % % % % % % & & & 1 > 1 1 & 1 2 > ; 1 1 > 1 1 1 1 1 > 1 > 1 0 w i a 8 $ + + $ & 6 8 8 8 8 8 8 e e e 1 7 e 9 9 9 8 8 8 0 1 7 1 > 6 6 7 8 w w w w i r u i w t e u t t t u u v y t t y e v v a l v v y a a v y M M M y M M M M M M M M M M y a v v v v a y v v e e y v v n t y y t t y t y t t t t a y y y t y e y t e v v t u t t t t u r e 8 q 9 9 w d u d p 7 f iXuXMXPXMXgXpXL o q z k Q ! #.$.2.2.C.9.9.9.u.u.u.^.].^.^.`.].].(.`.`.`.].+XoXoX`.`.'.`.'.+XOX+XoX'.+XOXOX}.'.'.'.'.}.'.'.oX'.aXC.j T A G A T T U T U U T U U U U T T T T T P T P U U U P T T P T T P P V U P P P U U P V R V R R V V V V V V U U I P V V U V V U P V J R V U U N l M M M N C V V V V C J J V N B B P V M V V C V V B C V V U U V V T P M e P P V V V M P B v B v v v B v y M M M M M M M M M M M M M M M v B v b v v v v M B v v v v v v v a a a n a y t w w q 0 9 8 6 6 7 7 6 6 7 7 7 7 7 7 e e e e e y a a a a a v N N M V A v v v v v , v V v B B v V v e v v v e t t r r r r t t t u i i i i i u 9 9 9 9 9 9 9 9 9 r i r w 9 r r i r w 9 9 9 7 1 > $ $ + $ $ $ + + + # # % & > 0 1 1 f & % % * * f f 0 0 f f ; ; ; f f 3 f ; ",
". + . + + + + + + + + # $ $ $ % % $ + + $ $ % $ $ % % % % & % & % % % & & , & 1 & 1 1 > & 1 1 1 1 1 ; 1 1 1 1 > 1 8 0 i i 9 % + + # & 6 0 8 8 8 e 2 8 8 7 e e 2 9 0 8 8 8 8 7 0 > 6 6 > 1 7 8 9 9 w w w w r r r y e y t t t y y u y y v y v v t a a y y v a v y M M M M M M y M y M M M M M y M v v v b v a a a v v e e v v t r y y y y t a y a u t t y a y t r v u t y e t v u t t t t y t t r e 8 9 9 u i d u w w f eXvXkXvXkXuXxX XL . @ 3 k Q ! #.;.,.2.0.7.9.9.u.0.9.^.^.].].(.^.Z.].`.`.oX].`.`.].`.'.oX`.'.oXOXOXoXOXOX.X}.'.`.'.}.oX'.].$X&Xd.k T Q T / T T U U T T U T T T T U T T T P T T T T U U U U P P P P T T P P U P P U U P P U V V V V R T T T V V V V U Z V V U V C U P P V U U V C P J M M B N N V J V V V J V B C B V V C B N N B B B B B B B V V P P U M , M M V U y V V M B B v v B B B M M M M M m M M M M M M M m M M M b v b v v n v v v v v v v v v v a a t t p a t r w 9 9 9 8 8 7 6 7 0 1 6 7 7 8 7 7 7 e e m e v m a a a s v v b N v M v y v V v , , T v v M B v B v v v v v v t v a t y y t t y y s s i i i w 9 0 w 8 8 8 7 0 8 8 w w 9 9 0 r w 0 8 8 1 & % $ $ # $ + + + @ O + $ & ; 6 7 9 0 8 8 5 > & % & * f 0 q q 0 ; ; ; ; ; ; f ; * ",
"+ . + . + + + # + + = # # $ $ % % $ $ $ $ $ $ $ $ % % % % % % % % % % & & & & & & 1 1 1 & 1 1 1 % % % % , 1 1 1 ; 7 8 w a 9 % + # # & 1 1 7 8 8 8 8 2 8 7 2 e e 8 8 8 8 8 9 8 7 6 1 > 1 6 7 0 8 q 9 u w r w r r e y t u e y e y v t t e t t t v M y y a y M v v M M y M y M m M y M M M M y y M v v b v v a v v v v e e y v r t s v y a a y a u y y y a t t t u v t u t u v v y y y t t y t t t e e 0 r r u q i 8 w , %XmXPXuXuXSXeXPX!.C @ @ q z k Q ~ #.,.2.2.0.0.9.0.9.u.(.^.^.C.(.^.].`.].].].oX`.oXoX`.`.`.'.'.oX'.oXOX+XOX'.`.|.'.'.'.'.'.&XZ.A Q G V T U T T T T T T P U T T T T T U U U T P P P P T U P P P V P P T P P P P P U U P U T V V V U R V V V P V V U U U U V V V V V V A V V U V V P U V N C C V V C V V V V V V V V V B V B C N N B M B B M A V M T P V e y V M M V y B V M B B M B B v v v M M M M M M M M m M M M M M M M v v v v v v v v y M M y y v y y v y t t y y r r 9 w q 9 0 8 0 0 1 6 > 6 7 7 0 0 7 e e e e t y v n v a s v M v N v M v y v B m + v U v v M B v B v v v v v v v v v a y y n t t a s s a i a i 9 0 1 7 0 1 1 0 7 8 0 9 7 7 8 7 0 0 1 > % $ # $ # # $ $ + $ $ % 1 7 0 r 9 i t i i i r 7 & % f ; ; f 0 q 3 f * * @ * ; * * o ",
". + . + + + + + + # + # # # $ $ % , % $ + @ $ % % % % % % % & % % % % % % & & % & 1 1 > & & & , % $ % % , 1 1 1 > 7 8 w i r % + + # $ > 1 0 7 7 2 8 8 1 2 e 7 e 8 8 0 8 8 9 8 7 1 1 1 1 1 1 0 8 d 9 w d u u r r t t t y e t y e e v v t t t v t y a a a a a l M y M y y M M M M M y M M y M y M a v v v a a a a y v r 1 v v v V M s a y y a y y a a y t t t t t v e t t e u v y y y t t y t t u u e u r r i i i t 7 O !.mXPXPXMXxXvXiXuX!.C @ o 3 z z x ~ #.;.2.*.0.9.9.9.9.9.t.9.9.^.^.(.].].].(.].`.`.].`.oX+X+XoX+XOX+X'.'.OX`.`.`.`.'.oX$X&X0.B A / T / T T P T T T T P V T P P T T U U U U U U T P P P P U P P V P P P V B U U U T U V V P U V V T R V V A L P P V V U R U V U U U U V V V U U P V J U U M V V J J V V V J B V V V C N C V B V V C C V B B P y y T A y e M V V M y U V M V B v B M v B B v y M y y M y M M M M M M y m M M v v v v v v v v M M M M v v v v y n t t n t t r w w d 9 9 8 6 1 7 1 6 2 7 7 7 7 e e e e t e y y a a n N v n v v B M v v v v 2 , V v v v V M b v v v v v v v v v v v a v a y t a N b s s s i 9 0 1 1 > > & % > 1 0 0 6 f 6 & & % $ # # + $ # # + + + + > 1 7 w t s i a s a a s s s 9 f & f ; f f 0 q f ; * * @ * * * - * ",
". . + + # + + + + + + + # # # $ $ $ % % % % $ @ % % % % ; % % % % % % % % % % @ % % & , > % & % , % & % & & & , 6 0 8 8 i i 8 @ + + $ > 0 1 7 8 e 7 2 e 2 e 7 7 8 8 8 7 7 0 6 6 6 > > > 1 7 8 8 0 9 q d 9 u r 9 u t t r e y y y u e v v v u v v t t v y y M y a M M y M M M M M v M M M y M M y v y v a v y y y v y e e v V B v a a y y a y t t a a a a y y y y y t t t t y y y v a t t y a a y t t t e 9 r t p 9 s # m.HXiXPXPXxXcXuXiXpXR.T + , 4 v A S ~ ~ o.%.*.2.9.9.0.0.9.t.C.u.^.^.^.^.^.^.].].].].`.`.].].'.oX`.`.'.'.`.'.`.'.'.oXoX&XZ.A T T T P T T T T T T T T T U T T T P U T T U U T P m U U U P V T T T U B B P T P P P P U U U V T T A V R T V V V R T U V V V T P P V I P V U V J L P V V J J V v C P P B N V U V V V V N N N N V V M M v V U V P V v V v @ V v M B B M M M M M B B v M M M B B M M M y y y M M M M B m v v n v v v b V V v v v M M M M M M y y v e v t t e e e w 9 8 7 7 1 0 7 7 6 7 7 7 8 9 8 e e e u y y y y b v b a n b v y B t v v v b O v M B B B B b b N v b v b v n N N N b v a a s n n s s s s s a w 0 6 6 & & & & % % & & & & % $ $ + + + $ $ # # $ $ $ 1 2 w i p i s s s a i i a i i s p 9 0 > , ; & 0 ; w 0 o o ; * o * * * ",
"O + + + + # $ # + # + = + # $ + $ $ % % , % $ $ $ $ $ % % % , % % % % 1 % , & , % & , ; > > & & & & & & % , ; , > 7 7 9 i i 9 $ $ + $ > 1 7 7 7 7 7 e 7 e e 2 2 8 8 7 0 8 0 7 7 0 1 > > 1 7 8 8 9 9 w u r r r r u t t r y e e y t t t t t t t v v v y v v y M M m M M M m M M M B M M M M M y y M v n a v v v v v v t e e v v r a y y y a y a y y y t t y y a a v y y y y y y a y a y t y t y a y y y e w r i p w s * { HXuXPXPXvXvXuXiXiXeX7./ + - 4 3 z Z D S ! +.$.<.<.0.0.2.C.9.t.(.t.C.(.^.].].^.^.].].].`.(.oX`.'.'.'.+XoXOX|.'.].].&X0.A A U T T T T T T T T U T T A U T T T T U U U U A P U T T U U P U V P T U P P P P A T P U P P P P U U U V V V R V V V L V V V V A U U P Z V V V V U P P P J P P L M M C V V V V V V J V V V C N C M M V B V V V V P T V V e v V V M B V V M V V M v B B V B M M M M M M M M y M M M M M V v v V v v v b v b n v v M y y M M y M y t t t v t t e e r w 8 7 7 0 7 7 0 6 1 1 8 8 9 8 e e e e e y y y s v b b M b N b B y v v e , 7 v v v v v v v a a v v b v b b N N b b a a a a v v a s s s b s i r 7 7 0 6 1 & % $ $ % % % & $ # # & $ + + + # > 0 8 r a a s s s s p i i i i i s s n s i 9 1 % & > 6 0 0 0 & o . + * * . * ",
"O + + + # + # # $ + + $ # + + $ $ $ % % % % % % $ $ $ $ $ % % , % % 1 % & % % % % & % 1 > 1 & 1 , & & % % & & & > 6 6 7 r i 9 6 + + + & 1 0 1 1 e 7 e 7 7 7 e e 8 8 8 8 8 8 8 7 1 1 > > 0 7 8 8 w 0 w q 9 r u r e r e t e y e u t t e v t t u v v v v v v v v v M M M M m M M M v v M M M M y y v v v v v v v y r v v e e y v v y t t y y y a y y t u y y a a a y y y y y t y a t t y a t t y a y y a t u t p t r s & | AXvXuXkXuXiXcXpXiXuXeXZ.L 3 o ; q g z Z S S G #.%.<.<.0.9.9.9.C.u.9.^.^.C.(.^.C.C.^.^.].`.(.].'.'.`.`.oX].oXoX'.$X7.A / G P T T T T P T U U T T T U U U P P U U U U T T P U T T T V P U V P P U T U P V P U U U P V V V V V U V V R R R U U V V V V V V U U U V V B V V U P P P P P U U V B M N V L V V V V V V V V V V M V M M V B b T P T T v e A M V V V V V V M V V M B V V B B M M M M M M M M M M m v M M v v v v b v v b v v v v y y M M M y y y e v e v e t e r 9 9 8 7 7 7 7 7 1 1 7 0 8 8 9 8 e y e y y y y M a v b b s N N b v v v v y O y v v v v y v v v v v n v v a a a n a i i r t t y n p s b b s s p i 9 9 8 7 6 & % # # # # # $ + + + + # % & 1 0 9 r i i p a i i i i i u r r i i s s p a s r 2 & & 0 6 6 0 6 f * X o . = * o ",
"+ + + = + $ # + $ $ $ + # + $ # $ % % % % & % % $ + $ $ $ % % , % % $ % % % % % % % % & & , & & ; & > % > % & % & > 1 6 0 i w 7 + O + % 1 7 7 7 7 2 7 e 2 7 2 e 8 0 8 8 8 8 8 8 1 1 1 1 1 7 8 8 w u 9 d r r r r e r r u u e y t v t u e t e t v e t v u y v y v y y y y M M M M M y y M y M M y v v v a v a n t r v y r r v v v t t y y a a y y y y y y a y y y y y y y y a y y u y a y y y a a M M a y t u p i p p & s mXuXuXuXiXiXiXpXiXuXpX%X!.' 2 o - ; q Z k Z x Q ^ ;.,.,.0.2.9.0.9.(.C.u.u.C.^.^.C.^.^.C.].C.].'.oX`.`.+XOX'.].$X0.t Q R U U T T T P P U T T T T R T U T A P U U U U T T T P P T T T U P T T U P P U U U P P U P A V U P T T T V V V V V T U R U U U P P V J P V C V V V L J J U J J U J T P B B V J V V V V J V V N V V V V v v V B V / V U V , v V V M M V V V M V M M B M V M B M M M m M M M M M M M M v M M v v v v v v V v v v v v y M y y y y y M v e v e r e e d 8 8 8 1 0 1 6 6 7 1 6 7 8 8 9 9 e e y y y y M M v v b a v N v v v m v v e , v y v v v v n y v a a p t t t r e e w t r r w t t p s s N b s p i a r w 9 8 0 6 % $ # # + + + + $ + # % 2 9 r i a a s s i i r r 9 9 8 9 w r i p p p p a s a 8 1 & 1 & ; f 6 0 ; X + * o * o ",
"+ + + $ = + $ # # $ # # # + # # $ $ % % % % % , % $ $ @ $ % % % % $ % % % $ % % % $ & % % % % & > & & % & % % & % & > 1 8 9 w w $ O O $ , 7 2 7 7 e 7 7 2 e 1 7 8 8 8 8 8 8 8 8 1 1 > 1 6 0 8 0 w w w 9 u d r r t u e t e t t t u e e y t u t y v u v t v t y y y M M y y M M M y v y y v v v v v a a a y v v v t v v e e r v t a a a a a a a t a a a y a a y a y y y y a a y t y y y a v l a a y M v y y y a i p i 6 0 iXnXuXuXiXiXiXpXpXpXpXqXpX!.} q + @ 3 3 z z x S S ! #.;.,.<.0.0.9.9.t.9.9.^.C.u.^.t.C.9.t.^.^./.(.`.`.`.oXoX&Xq.y G P T U T T U T T T U T U U R T U U U T T U U U U P P T U P U T T T P T T T P V P U T P P P P A T U U T T V V R T V V P P V P U U P V V Z P V B V P U P U U J P P J V Y U J B M M V U V P Z V V C M B C V M M V V V / V M u e V v V V M V V M M B M B B B M M M M M M M y y M y M M M M v v v v v v v v b v b b v v v y M M M y y m M t t r t r e e 8 8 0 7 0 6 6 1 7 6 1 0 8 8 8 9 q e t y y y v v v v v v a b B b v v y v y $ e v v v v v v a i i t w w r r r d r r i i r r t d p p i a s b a i p s i i i w 0 8 6 % $ + % $ , , 1 1 w w e r r p y v a i w 8 0 0 0 7 0 w i p a s a s a a s a r 0 & & % f ; 6 w f . . . . o . ",
"+ + + + + $ + # # # # + # # # # $ $ $ % % % , % % % % % $ $ $ % % % 1 % , & % % % $ $ $ % % % % , % & % % % & & % & > 1 0 7 9 i , + O + , 7 7 e 7 2 e 2 e 8 e 7 0 8 8 8 0 7 8 8 1 1 1 1 > 0 8 8 w w w w w q r r e r t u e t u v t t e t y y t t e t e v t v y y m m y y y M M M v v v M v v v v a a y a v y y t v v v e r t t v v a v a a a y a y y a a a v M a y t a a y y y y a y t a v M a y y y v j y v v s i u 9 0 eXmXuXuXiXuXiXpXpXpXiXiXpXpX Xm.l o o o ; 3 l l x L Q o.#.%.,.<.0.0.9.9.C.t.C.t.C.9.t.(.C.C.^.C.].].+XoX].$X0.y G P | T U T U P V T T P R U U T T U U T T T U U T T U P U U U T P P T T P P T P P P U U U P P P U T U P T V V V V R R V Z P U U U U P U V V P P V C L U P I U U U P L V P U J V M M V U V J J K V M B B M V C V V B B V V v 2 B V V V V B V V B B M V B B M M M M M M M y M M y y M M M v y v B n v v v v v v v V v v v M M y y M y M y v t e e e e 8 8 8 0 7 7 0 7 7 7 6 0 7 8 8 9 w r t y y y v v v v N v M n b b B n m m v m $ v v v v v v t p p i y p p t w w w 8 8 8 8 8 8 e e w 8 8 9 i i i i a s s s s i i w 7 6 , 1 1 7 2 8 r r v s v y u r e e 6 & & 1 6 8 9 9 i s a s b s s s N s a s p 7 & & f ; > 7 0 f . . . . . . ",
"+ + + $ + + + + + + # # + # # # $ $ @ $ % % % % 1 % % % % $ $ $ % % 1 % % & % & & % % % % % % % > % % % & % % & % > > 1 > 0 9 r 1 % O + , 1 e , 7 7 , e 8 1 8 8 8 8 8 7 7 7 0 0 1 1 > > 6 7 8 8 9 9 w w 9 9 9 q t e t t t u e e t e t u v y t t v v v t v v y y y M y y M M M M v v v v v t v t n y a a y v n v e v v r r v v B l v a a y y y u y y y a a a a a y y y a a y a t a a y a y a a y y M y y y v N N s r s 6 Q.mXuXsXiXpXpXpXpXpXpXiXiXpXiXpXB.L ; @ o o : 3 j k S Q ! #.$.%.<.<.0.0.9.0.9.9.9.0.9.9.t.9.9.(.].(.].'.&Xq.A ^ T / T U U U U P U U U P T T R T T R R U U U T T T U T T U U U U U U T T P P T T T P P V P P P P U U U P V R V V V R T R I U U U U U P L V U U V V V P V U J V P U P I L P J V V C B N C P V J V B B V B B V V V V V A M M v v V V V v V V V V B M B B V M M B M M M M M M M M M M m M M B v v v v V V v v v B v v v v v y M y M y y y y t r r r e e 8 8 7 7 0 7 7 7 7 7 0 7 9 8 9 9 r r y y v v v v v M N N N s v y y v e 7 v e e v y v y t p p p i n r r w 8 8 1 , , , % , % , , , , , & & 6 0 8 9 r i s a i a i i p i e e u u y y y y u t t r 8 2 1 1 0 8 8 i a N  .N s s i i i i i a a y i s t 8 & $ 6 & f 6 0 0 *     X X X ",
"+ + + + + + + + + + + + + # # $ $ $ % % % % % % % % % % % % % $ % % % % % % % $ & , % % $ % % % % % % % % % > > % > 1 1 1 0 0 i e % O + , 1 , 7 , 7 2 7 7 2 8 8 8 8 8 7 7 7 6 7 0 1 > > 1 6 8 9 0 9 9 u u 9 9 9 r u t e e e t u t e e v t t t v v u v v v v v y y M M M m M M M v y y y v v v v y v y v v v y v t v v t e r v v M a y y y y y y y a a a a a u t y i y a y a y t y y v a y t y y y y M y v M V B K r i * ~.NXuXiXsXpXpXdXpXpXpXdXiXuXuXpXpX!.' ; - o o @ ; q z k S ! ! #.,.,.,.<.0.0.9.9.C.9.9.1.C.9.C.^.C.].].oXq.A T / T T T T T T T T T U A U T A R R R U U U U T T T U P T T T U U T T T T U T U P T T T P V A P U P P V P U V R T V V V V V V U U U V C V U U U V V U V V V J V V C V V U U R P V V P P N a V V J V V V C V B B V V V T T V v , V B B V M V B V M M M M M M M M M V V M M M M M M B M M y y B v v B v v v v b b v v v v v v y M M m M y y e t r e r w e e 8 0 7 1 1 7 2 7 1 7 7 0 9 9 9 r t M v v v v v N V v B V v r 1 e r V e e , e v v y v n a r w 8 1 , , , $ = $ $ + % = O O O O O + + $ $ * & & 6 0 0 i t i i s s l b a a a a a y t t w 8 2 , % , 1 8 i i a s b s a r w 9 0 0 0 6 7 8 w q r a t 2 & & & * & ; f 0 f X   X   X ",
"+ + # + O O + $ + . + + + # + # % $ % $ $ % $ $ & & & & & & % $ $ $ % & & % % $ % $ $ $ % % % $ % % % 1 , 1 1 1 , ; 1 & 2 7 8 9 p # . + $ & 7 > 7 7 7 8 8 7 8 7 9 8 7 7 0 6 6 6 1 1 & & 2 7 9 8 e w d w w w w t r w r w r r t w e v v v t y y y y y y y y y y M y M M M M M M m M y v y y y v v a a a v y a y y M u a a e e v M a v y t t y t t t t y t y a a a y a y y a l v a y a a v v a a M y u u v v M M V B e v $ [ AXpXiXiXaXpXpXpXiXiXiXuXuXuXuXPXpXW.V.q * o ; ; @ ; q j j Z ! #.#.#.2.,.<.0.2.<.<.0.0.C.9.0.C.0.C..Xq.T T T T T T T T T T T T P T P T T P P T T T T T T T T T T G T P P U P U T U P T U P P T T U P T U P V P U U P P P U U U P P P P P V V V V V V V V V V P V P P P V V V V P U P V U U P V V V A B v V T V v P P v v T P P T T T B e m V V V P V m M M V V V V V V V B B M M M M M y M M y m M M M v v N b b b v v b v v v v n v v M M v v v v v e r w r a t 8 7 8 7 8 7 8 e , % 8 8 7 e w w r p v v v v M V V V V V v e e r 8 8 E N i $ = T n v a y r 8 , , + $ $ + + + + O + + # + + O + + + + + O O O + $ & > > > 0 8 w r i a a 9 r a s a 8 6 2 & $ & & 0 w p s l a a p r 7 1 1 + $ $ + $ $ $ $ & 1 6 0 7 7 6 > % & > & & 6 f o . X X X ",
"+ # + + + O O + . + + + + # # # $ $ @ $ $ % @ % % % & 1 , & & $ % @ % % % % % % % % % % % % % $ % % % % % % % 1 > , > & 1 7 8 9 i & + + $ & 1 1 7 7 7 8 8 8 8 0 8 7 0 0 7 1 1 6 1 > & 1 6 8 8 8 8 w r r w w w d w r d i r d w i t e e e y y y y y y y y y j y y y M M M y M M M y M v v v y y v y a y a a a a y M y v s e r M M M l v a y y u r t y y t t a y y y a a a v y y a y a a v a y a a M v v y v M M V A v v $ T kXiXpXiXpXpXpXpXiXiXgXuXuXuXuXPXuXpX%X,X} 0 * * * * o 2 j A Z Q ! ;.o.,.,.,.<.<.<.2.<.<.(.C.0.C.^.;.A T T T T T T T T T T T T T P P T T P U U T T P T U T U U P P U P U U P U T P P U U P P U T U U T U U P P P U P P P U P P P P P P U U V P T P T V V U U P P V V P V V U U V B V P U U U U R V V V V V U V P P b V V P B T V v T e M V V M M V V M V V B V V V V B B B M M y M M y M y M M M M M M a a v v v v a a a v v v v a a a M M v v v m v e i r r d w 8 7 e 8 5 , > d e 7 7 w 7 8 w d w w a v M v M v v e e e e t v b n w b w a X p t 7 i e 1 , , $ $ + O O O + + + + + + # % $ + # + + O O O O O O + + + $ % > 1 1 0 7 8 8 r 9 8 8 6 % $ % & 1 8 i a N K K r 8 8 8 1 & $ $ $ $ + $ + + $ $ $ $ & ; 6 1 > $ $ & > % ; 0 0 @ o o o . ",
"+ # + + O O O + + + + + # # + $ $ % $ % % % % % % % & & > 1 > > % $ % $ % % % 1 & % % % % % % % % $ $ $ % % % % & , & 1 > 0 8 8 r 8 $ . $ 1 1 2 6 7 7 8 8 7 7 7 8 7 8 8 7 7 7 7 1 1 & 1 6 8 8 8 8 w w w w w w w r w t w r r w i t r t t t y y y y y y y y y y y y M M m y M M M M M y v v y v v y a a a y a M a v y y a e e a v a y a a a y y a y a a y y y a u M a v a y a y y a y a a y a y a M M v v M M M B B v v , v eXuXpXpXiXiXpXsXiXiXiXiXuXuXuXuXPXkXPXsXQ.B.( 8 . + ; @ 2 q g z ~ #.,.;.#.,.<.2.0.<.2.<.9.0.0.Z.#.j A T T T T T T T T P P T T T T T T T P P P T T T T T T T T U T T U T T U U T P P T U P P U U P U T U A V V V V V A P P P P P P P P P P U P V T U P U U T U V P P P V P U U V V A P U U A U V V V V V B B V P v v P U B V | T V v 7 P V V m M B V V B V V B B B B V B M M M M M M M M M M M y M M y v v v v v v v v v v M N v v a y m M n v v v m e e e e 8 e 7 7 7 7 8 6 , 7 e 7 > w w d t p i w i e e e e e v v v a v t , 7 i i b w 1 O K 7 8 8 + , $ O . O = $ $ 1 2 8 0 7 8 7 7 7 2 1 1 > > % $ $ + + + + O X X + + + $ % & 1 1 8 6 > & $ $ & 1 9 r r i r 9 0 > > & & $ $ # # # $ $ + $ $ $ $ $ & % & 1 7 1 > % & & % % * 6 0 ; * o o o ",
"+ + + O + + = + . + + + + + # # $ $ $ % % % % % % % % & 1 & > > , , % $ $ $ $ % & , % % & % % % % % % % $ % % % % % > 1 1 0 7 7 9 r > . $ 1 & 2 7 0 0 7 7 7 7 7 0 7 8 7 8 8 7 8 1 > & > 6 7 9 8 8 8 w w w w w i w r w i w r t r t e t y e y y y y y y y y y y y y y M y y M y M y M v v v v v v a v y y y y y a a y y y u e y v y a y a v v s v t y y y t y a t y a a v v a y a y a y M a a a a M y u M M M M V B V v v 1 %XkXpXiXiXiXiXiXiXuXiXuXkXPXuXuXuXuXvXxXgXgX X7.I 2 X o . - 3 q g k Q o.#.%.,.>.<.<.C.0.7.,.C.Q 4 } R T T T T T T T T T T T T T T T T T P P P P T T T T T T U P U U U U T P P T P P T U P P U U U P U U U U P P P P V U P A P P P P P V V P U T V V V P U U V V b V P U V A V U U P B V V V V R V V V V V v v P v P b v v U B T B , y P B M V V M M B B B B B B B B M B V B B M M M M M M M M M M M M N b b b v v v v v v v v v v v v y v m y t e v e r r d r w 8 8 7 1 d e 6 7 7 8 e 1 e w 8 w i w 8 v v v v v e , $ t v n e 8 p r w i   e w > 7 O O O O $ , 7 e n v s n s K N N K N N b s b b v s s e 8 7 2 > % # + $ + + + # % % % % % % % % & & 1 $ & % % % $ # $ $ # # # # $ $ & % % & $ $ % % % ; 1 6 0 7 6 > , % % % % * ; 0 ; * * o * ",
"+ + + + + + + + + + + + + $ # # $ $ % % % % 1 % $ % % 1 , 1 ; > 1 & & $ $ @ % & & % % % % & & % % % , % % % % $ % % & > 1 1 0 7 9 i 0 + # > > 6 6 6 7 7 7 7 7 2 0 7 7 7 8 7 7 8 1 > & 1 1 8 9 9 e e 9 d w r w w t w i w w i d r r r t t y y y y y y y y y y y y y y y M M y M M v v y v v v y v v a a y t y t a a a v a y u t v B M a a y y y y y y a y a a a y y y a v v l a a y l a v y v l v j e y v M V A V v B t v > B.mXpXiXiXaXiXiXuXuXuXuXuXuXuXuXkXvXMXBXvXuXiXyX!.7.v ; o X - ; 3 3 z L ! o.;.,.2.0.<.0.0.Z.A 3 / U R T T T T T T T T T T T T T T T T T T T U T P P P T T T T U P T T U T P V U P P T U P U U U P U T T T T T T U P P P P V V P P V P V U T U U V P U P P V V P P V P U V V V U T P V U V V V V R T T V V V v v V P V P T P M M e e U B M M P V M M B M B B B B B M V M B B M M M M M M M M M M M M M v v v v v v v v b v v v y v a v v v v v t n r r e e 8 8 7 > , % , , > 1 8 1 1 t t a a v b B b b $ , v v v v t r r n s b b N v r >   w + , . X > 7 e n n p r r r a s b b n N s s s p s s a s b s J K C b s a r w & % $ $ $ $ $ + * % % % % $ $ # + # $ # * & & > & & % % & & & > 1 1 & ; > > 1 > ; 1 6 6 > > & % > % % % * f 0 3 ; ; f ; ",
"+ + + . + + . . . + = + + # + $ # $ # $ % % % % % % % $ & & > > 1 1 1 $ % % % % & , % & % & % % ; % % % & % % % % % % > > 1 1 1 8 r 8 $ # & 1 6 1 6 1 7 7 0 7 7 1 6 0 0 0 6 6 6 6 > > > 0 8 8 9 e 8 w 8 w w w w w w r i i w t r r r t e e y y y y y y y y y y e y y y y m M y M v v v y v v v y l M v y a y y y y a a a v t e v N M a y t u y y y y a y y a a y t t a a y a a a y v a v a M M N v v y v M B M V v v t M > } mXpXiXiXiXiXiXiXuXiXuXuXuXuXPXPXkXmXPXgXkXPXiXpXeX!.{ Y 2 X @ q z z l x ~ +.#.;.,.<.7.0.A 4 Q / U T T T T T T T T T T T T T T T T T T T T U T T P P T T T T T G T T T U P P U P P T T U U U U U U T P U T U T U P P P A V P P P V P V V V T U U P U P P V B V P V V V V V P P V P U U U V V V V V T V V V b v v V P T T U T y e T V V M V V V M M V B M M B B B B V B M M M M M M M M M M M M M M y v v v v b b B N B b v a v v v v n v a d e t r e 1 7 1 1 8 e e 7 v n t a B v v B t 1 1 y v w r b v e e v r v v b v v p a p a H a X $ O O , , e n b b a w , , $ , 0 7 7 8 7 2 2 6 6 6 6 6 1 > 1 6 1 1 > > > % $ $ % $ % $ % & % % & & % % % & & & 0 2 2 7 0 ; > > 6 0 7 > 1 1 2 > 1 1 1 1 1 0 0 7 0 1 6 1 > & % , ; % & & * * 3 0 3 ; 3 ; ",
"+ + . + + + + . + O O + + # + # + $ # @ $ % 1 % % % % % % & , , 1 1 & 1 1 & % % ; % % % 1 % % % % % % , % & % % % % % % & > 1 7 7 9 w 1 + % > > 6 1 7 6 1 7 0 7 1 7 7 8 7 7 0 1 1 > > > 2 7 8 0 w 8 8 w w i w w w t r i w i r t r r u t y y y y y y y y y y y y M y M M M y y M v v v m v v y y y a y a a a a y y a y u a u e y M s a y y y a M y a s a a v a y t a y a y y y y y y v a a M M M M M M M M M C V V M v M 6 I kXpXuXiXuXiXuXuXuXuXgXuXuXuXvXPXPXkXmXnXMXkXuXuXiXtXeXZ.} l ; @ ; 2 z z L ~ ! ^ ;.:.0.y j / G T / T T T T T T T T T T T T T T T T T U U U U T T T T T T U U P U T T T T U P T U U T T T U U T P U T P U U P P A P U V V V U P V V P V V V V U U V V P P P V V P U V B V U U A V P U V V V V A V V T V P V V V v V P V B U U e e P y V V M M M V B B B M B B V V M M B B M M M M M M M M M M M M v M v v b B B N N N N v v a v v v v r r w e e r r e a a p p v B V C v v t e r r r r b r w n b p a b v v v v v v v v y v a N s i p , X , O 7 w s b n 7 > , O = + , , $ % % % $ $ $ $ % % & & % % & > % $ $ $ % % % % $ $ & , > 1 1 6 > > > > 6 8 9 9 6 7 8 9 9 d w 0 9 9 w 8 8 8 7 0 8 8 8 8 7 8 7 8 0 0 0 > & , , > f * ; f * f 0 q q q q q ",
"+ . . + + + O X O + + + + # # # + + $ $ $ % % % % % % % & $ & @ & & 1 1 1 , , % , % % % % % % $ $ % % % % % % % % % % % % > 1 7 2 8 w 8 + $ 2 & 1 6 6 0 7 7 1 1 7 8 8 8 8 8 7 7 1 > & > 0 7 8 8 w w w w w t i w w w d w r r r d r u r t e y e y y y y y y y y y M y M M M y M M M v y v y v v e y y a a a a a a y M a a M t e a N N M M s v a a a M M M a a y y a y a y y y y y a v a a y a a M M M M M B M V U V M M M 7 r kXiXiXiXuXuXuXuXuXuXuXuXuXMXmXkXvXvXMXxXPXkXvXkXvXuXpXpXeXE./ f + @ 3 j k L Q Q ! ^ j j / T U T P P T T T T T T T T T T T T T T T T T T U U U T T T T T T T U U T T T T T T T U P T T U U T U U U T U T U U P P U T V V P T P V V P U U V T T T T V P P V P P V P U P P P P U P A V V V V V T U V V T P P T V v v U T M T e e P y U V M M M B P V B B B B B M M M M B B M B M M M M m M M M M B M B N v b b v v a a t t t p r r r r a v v b b J J V K B v t a n n v v P K w w p v n b B b r t B b t v v v t r v b b t b n N a i i . X # b n a v e 8 , # O + + , + O # $ # # $ + # $ + + # # # + $ $ & & $ & % & & > > 1 6 2 f & > ; & > 1 0 8 r w 8 i i r w q w i w 8 9 r 9 9 r w 9 9 w e 8 8 7 8 7 6 6 1 & & , > 1 f * f ; * @ f 3 q g z q ",
"= O + O + + + + O + + + $ # # $ $ $ $ $ % $ , , & & $ $ $ $ % 1 % 1 1 1 1 1 & & 1 & % $ % & & , $ $ % % % % % % $ $ $ & 1 1 1 1 7 7 8 8 % % > 1 > 6 7 2 7 1 7 7 8 7 7 7 8 7 7 6 > > > 0 8 0 9 8 e e 8 w w w w w t w i i d r w w r r w r r e t u y v v y y y y y M a a M M M v a v y y v v u v v l y t y a y y y l y y a y y y t M a a a l M M M y a v a y y a a a a a y y y a y y y t y a s M a A v M M M A M V M y a a w t eXuXpXiXuXiXuXuXgXiXuXkXvXPXPXkXPXMXnXkXPXPXvXkXuXuXuXuXuXpXQ.7.v $ o - u Z A ^ / 4 A A / T T T T T T T T T T T T T T T T T T T T T T T T U T T U P U U P P U U U T T T P V T T P V T T P P T T T T T T P P U U U P P P P P P P P P P P P U U P P P P P P V V V P U V P A V V P P U P U P A P U U P U P P P T P M m T | B < M P V V B P B B B P P M V B B M B P M y M M M M M M V V v B e v v v M e a a v r r y r v b I v e T n T V J K V N y e v V v v N N v y v a t v v v t m v v b B v a y t a a v v v t t v v B a b y a t n , X e v v p 8 > , , O + $ # = + + O + + + O + % $ O # $ % % % & 1 ; & > > 1 1 > 1 1 1 6 6 6 6 1 0 8 8 8 > & & 6 w w i i i r w r w i r r i w u q w 9 9 9 9 8 0 1 2 > & f 1 1 1 1 > > > 8 , % ; * * 0  . . .z ",
"O O O O + O + + + + + + + # # # $ $ $ $ $ % % , & & & % % % % % $ % % & 1 1 1 1 & % % % % % % % % % % % % % % $ $ $ % % % 1 ; 1 7 7 9 8 % % 1 1 6 > 7 1 1 0 1 7 7 0 7 7 7 7 0 1 & > > 1 8 9 9 9 d 8 d e w w w w w w w w r r i w r r w q e t t y u y y y y u y y a a a v M M a a v v v v v v y v M y y a a y y y y a a a a y t e a M N M a y y a y a a v M y a M u a a y y a a y a a v v M M M M M v y M M M A V V M y v r 9 eXgXpXuXuXuXuXuXuXiXuXuXkXvXvXMXkXMXMXPXnXMXkXbXvXMXuXkXkXiXpXpX~./ @ o o ; j A y A R R Q U U T T T T T P T T T T T T T T T T T T T T T T T U U P P T T T U U U U T U T U T P P P T T T U P U U U T T T T U U P P A P P P P P P P U P P P U T U P T P P P P P V P U P P P V V P U U V V P P P P P V P V V P P P P P y M e e T V M P V B M B V m B M M V B P B B P P M m y M y m y M v v V v v e v V v B P v v v v P J b r V / e v V B N N B v n y B v v N B v v v v v v v v v v v v v v v a a v v v v v v v t v v B n a v r r v = X n n w 1 , $ O + O # $ $ $ % % + + $ # + $ & % $ 1 1 1 1 0 8 9 9 8 9 w i r r 9 8 r i r i r 9 9 w 8 8 2 & $ > 0 7 9 9 9 r w w u d 9 9 w q w d w w 9 8 8 0 1 > 1 > & ; ; 1 > > > > > 1 > % f ; ; q  .5.z  .",
"+ O O + + + # + + = + + $ # $ $ $ $ % $ $ % , , & & & 1 1 % % $ $ % % ; & 1 > 1 & % % % % % $ $ % % % % % % % % $ $ $ % & > > 1 6 0 8 8 & % > 1 6 6 7 0 7 1 1 1 7 2 1 7 7 7 6 6 > > 1 7 8 8 9 0 8 w w e w w w w w w w w w w t w r r w r r t y y y y e y y y y y a y a a l a a a v v v v v v v v a y a a a y a v a a a M v y u e N N N M a a a a a a v a v y a a t y a y a a s y y a s v M M a a M v y y v M B V J C y v s 1 Q.MXpXuXuXuXuXuXuXuXuXMXkXMXPXMXMXMXPXPXPXnXkXkXvXkXvXuXkXbXuXuXiXIX} O   X , v M U / R R T U T U U P P P T T T T T T T T T T T T T T T T T U U U T T T T T U U U U P T T T T P T T T T T T P P U U A U U U U U U U P P P P P P V P U U P U P P U T P U U U P P P P U U P P P P P P V V P P P P P V V P P P P P U T M y e M P P M U P V V V V M M V m V y M M y M y V B M M M M y M U V U V e T e M T K N v P E B v v B v B | r n y b v v N V b b M v a N B v M v n y v v v v v v v n a v v v v v B v v M v v v v b N r v e r e X , r 8 % O O + + $ + , $ $ % , , % 1 1 ; > > 0 2 7 0 8 9 r w r i r a s s s l N K K s b b v s s a i w r 9 & + # & 1 0 8 8 r u u w 9 9 w w d u w w w 8 8 7 1 1 > & & f ; > > > > > > & > & & f ; ; 2 z 5.L x ",
"O O O O . + + # # + $ # # $ $ # $ $ @ , % % % & & & 1 1 1 % % % % % % % & & & % 1 1 % 1 & & $ + $ $ $ $ $ % $ % $ $ $ $ % > > > 0 1 9 7 & % > > 1 1 7 7 1 1 1 1 7 1 0 8 7 7 6 7 % > > 0 8 9 9 8 8 8 8 w w w w w t w d i r w w w u r r r e t y a y y y y y y y y a y y a v a y a v v v v v t v u a y a a a y a M y v a M M a t e C N a y a M M a a l v v v l a y t y a y y a M a a a a v v l a l M v M M M v B V V V y y N % ~.nXpXgXuXuXuXuXPXPXPXuXvXvXMXkXPXMXnXnXPXMXMXvXkXvXkXMXMXkXkXiXiXPXeX$ O $ 2 A / U R T U T T T U U T T P T T T T T T T T T G T T T T T T T T T T T U U U U U U U P T T T T T P P T P P T T U P U U V U U U U U T U P P P V V V P P T U U P P P P P P U U U P P P P U U P P V V V V V V U P P V P P P P U P P P P T V V M M e M M M M M M M y y y M M V y B V y P M P T T M M P V y T V v V e } y v b B P K I P v v a J B r V v M t b v b B V V M b v v b B v v M v v v v t v v v v v M N N b v b v B M M v v v v b b r n e p , X , , + O O = % , % , , , , , > 6 f 8 9 w 8 8 w w w r i s N K J K K b s s i i r 9 r 9 w t t i s a s a s i 0 $ O # & 1 6 8 9 w d w u r 9 w w 9 9 9 0 8 7 7 1 1 > > > > & & & > & , > , > > ; ; f * ;  .( L L ",
"O . O O + + + + + # # $ + $ $ $ $ $ % % % % % 1 > > 1 > 1 & & 1 % % % & % & % & 1 ; , 1 1 & & * $ # # # $ $ % % $ $ $ $ % % > 1 1 1 8 8 & % > > > 1 7 6 7 1 6 7 6 6 7 7 7 7 2 > > > 1 7 8 8 9 9 e 8 w 8 w 8 w w i w i w r w r w t t r r t u t y v t y v v v v v a y a M v y y v y y y y v v t y y a a M a y v v y y v M v v t e a M M s y a a y M v a a y a v y t y a y y v v a M M s M M M M M M M y M M B B A C V y a  ., UXCXpXuXPXuXuXuXvXkXkXvXPXMXMXvXMXkXMXkXkXvXkXMXvXkXuXmXuXiXnXMXuXmX%X+ 7 m U T T / T T T T T T U T T T T T T G T T T T T T T T T T T T T T T T T T U U U T T U U U T T T T T U P P P P T T U U P P U P U U U U P A U P P P P P P T U U T P P V P V T U P P P P P P U P P A A V V V V P U P V V P U P P P P P P P P B P P B y B M y y e V P V M e M e B P V P e T T B P P m y V B y v v V v B T B v a b J B V B a N b v v v v v v B v N b V B v M M b v b B b v v y v B B v B v v v v B v B b v v v M v v v v v v v a p w r n X O , O + + $ , , , & , 5 7 7 8 w r w r i a a a a s b K B N s a w 8 7 + $ % , % # + . $ $ , , > 7 9 r s N s r 1 $ # + % & 1 7 9 w w i w w d 9 9 9 8 0 7 1 1 1 1 > > & > & & & & & > , 6 > 0 1 1 ; f *  .5.( ( ",
"+ O + O . O + + + + + # $ $ $ % @ $ $ $ $ % % % > > , & & 1 1 1 , % & & % > 1 & 1 > 1 > 1 1 , & $ $ @ # + $ $ % $ $ $ $ % % , 1 1 1 7 7 $ $ & > > > 1 1 1 6 0 1 1 > 1 0 7 0 1 > % > 1 7 7 8 9 9 e w w 9 w w e w w w w i i i i i r t t t t t t t v y e y t v u v a y y l l a a v a M y M y y v y a a y a a t y l v a a v v y t t e N Y J a y a a a a a y a a a y t y a y a v v v M M v s M M M N M y M M M M M B M V a a B 8 / CXiXuXPXuXuXkXMXMXvXMXkXMXuXkXvXvXPXkXPXkXkXMXkXvXuXMXuXuXMXuXiXFXQ.O v V T T T T T T T | T T U T T T T T T T T T T T T T T T T T T T T T T T T T U T T T T T T T T T T P T T U T P P P P U U U P U P P U T T P V U U U P P P T T P P P V V P P P U U P P P P U P P U P U U P P V P P P A V B V P P V V P P P B P P P P T M M M M / M y M m y M / e M B M V y T T B M M M M V M B v B V v M v v y B N b a B P b N B v y B V v v V N N B M B b b B B b B V b B v v B M b B B v B v v v v v v v v v v v v v v v a v a v 8 r 1   $ O O , , , > > 7 8 e r r r p n b b s s K K K K K N N a 9 1 + . X X X X X X X . . + X . X O + $ 1 7 8 i b s r 7 & $ # # % & 0 8 9 w u w u 9 0 0 7 0 > > > > & & & & ; & & & % * , > 7 > 1 6 ; 6 ; *  .( ( ( ",
"+ O O O O O . O . O + + + $ + % + + $ $ $ % % % > > ; % & 1 1 1 , > , & > > > > > 1 > 1 1 1 1 1 , % % $ @ $ $ $ $ $ $ + $ & & 1 > 1 7 1 $ $ > > > 1 6 6 1 1 1 0 6 1 6 7 6 1 > % & > 2 7 7 7 9 9 w w w w w w e 9 w w w i r i r i r r r u t t t t y y y y u t t e a y v v a y a M a y M y v v v y v y y a a y y a a a v a l v a y e N U V v a a M a y y y y a v y y y a y y M l a a a y v M M M M M M v M B M B V N V y y n t M PXuXuXPXuXvXkXvXkXuXkXvXkXMXuXuXkXPXkXkXkXuXbXkXkXmXkXMXmXkXiXkXAXV., V | T T T A T T T T U U T T T T T T T T T T T T T T T T T T T T T T G T T T U T T T T T U U T P P T T T T T P U T T U P U U P A U P U U P U P P T P P P P P V P P V V P P P P U P P U U P P V V P P P P P V P V V P P B V V V V V V V V P P T V V V B y M M V e M V V M e V B M M M V V P V P B M P P V V P v v e V M T V V v K Y B b v v I n B K V B V V B v M B B v b M B V v B V M B M v M v v v v v v v v v v v v v v v v v a v n v v a a v e w + X > = , , 6 8 e w p a t v v n N N K K K N K N K N s i % $ + O O $ , 1 8 1 , + O . X . O O . . . + $ % & 8 9 i a p 9 1 $ $ $ % & 1 7 8 9 9 9 9 8 8 8 7 > 1 1 > & & & % & & % % % & % , > , > 6 f 0 2 * W ( ] ] ",
"+ + O O O . . . . . + + # $ % % + $ @ $ $ $ % % > > > 1 1 & & & 2 1 1 > > & & & > > > 1 1 1 1 1 1 , , % $ $ + $ $ $ $ $ @ $ & , 1 > 0 2 $ $ > > 1 1 7 1 1 1 1 1 7 7 7 7 7 6 > & % > 1 7 8 8 8 9 w w w w w 9 d w w w w w w w r r 9 9 r u t t t t u y y v y e t e v a y a a y a M y y y y y y v v v y t y a y y y M v a a a y M a r u a t u a M y a y y y a a a y y a a y a v M a a a M M M M M M M M M M B M V V N N t r a b e eXuXkXvXuXuXvXkXvXMXuXMXMXvXkXkXbXPXuXuXPXkXkXkXkXkXuXvXuXpXMXMXIX5 v [ T T T U T T T T T T T T U T T T T T T T T T T T T T T T T T T T T T T T T T T U T U U U U T T T T P P T T U T T T P P U T P T U U U P P P P U T T T P P P P P T P P P P V V P P P T P P P V M V V V P V V P V P U U P V V P P P V B B P P V P T P T B B B P M V y y U M B M M y V m U M P P P V B M V V B V v B b V P M V B N B B I P v v V v V P v B M M M B b M B B B v N v v M M B B v B v v v v v v v v v M M v v b v v v v v v N v a v w r e   $ 8 > 7 e d t p n n s n b b b N K N N l N s a i w 0 % O O . X . O + + + , 1 8 8 > + X o O O O X . + + % & 6 0 i s a t 6 & & % % & ; f 9 0 9 9 8 8 8 8 0 0 1 > & % % $ & & % * $ % & % 7 > 7 7 0 8 q *  .( 3.] ",
"+ + # # + + . + . . O + # $ $ & $ $ $ + $ $ , , , , , , & & , & & & & & > & & & & & & & & & 1 1 1 1 1 % $ $ $ + $ $ $ $ $ % , 1 1 1 , > & $ % > > 1 1 1 1 1 7 1 7 7 0 7 7 2 1 & > > 1 7 0 8 9 9 9 w w w 9 9 w u i w i w i i u i n e e e v v v e t e v v v t v v y a a v M M s v v a a a y a a a u y a y y a v y M a a l v a a a 8 a B B b a v a v y y t t t y v t y y y v y M M M M M v v v y M M j M B M M B A B V v e v v 2 !.mXiXMXuXMXuXkXvXkXvXkXvXvXkXkXkXkXuXuXPXPXvXPXMXuXMXMXPXkXBXIX$ P T T T T R R R V T T R / R T R T T T U P T T T P T T T T T T T T T T T T T T T T T T T T P P T T T T T T U P P U U P U T T P P P P P P P T T T P T P T P P P P U P P P U U P V U U U T V T T T V T U V V V U U T V V V V V V V V V B B V B P P V T T V V T V y v V V M M M V M V B M M B P U P V V V V B B V P V B B B m M M M M M V V M M M A y M B V V B B M M M B B B B M m M V B M m M M M v v v B B B M M M M M M M M M M a v b v a a n v s 9 8 # . 0 9 s i a s N s K b s N  .l s s s b s  .p r 9 6 % + . $ # $ & 8 9 9 9 8 7 7 f 8 i r 8 & = X . . . X X # # # & f 9 i s s i 9 f % * $ % % 6 9 9 9 0 8 0 7 f 6 f 6 > 6 6 & & & % % % % % > > 6 0 0 w 0 %  .] ] ] ",
"+ # # # # + # + + + + + + # $ $ @ $ $ $ $ $ $ @ $ , % 1 > > 1 1 1 1 1 1 1 > 1 > ; & & & & & & & 1 1 1 1 & % $ $ $ @ # $ $ % % & 1 % ; , & $ % > 1 > 1 1 1 6 1 7 8 7 1 7 1 1 & & > > 1 0 0 8 9 9 9 9 9 w 9 w q d u w w w w w q w e e t t t e t t t v v e v v t v y y a a a y y y v a a a a y y a u a v a a v a y M M a a y v v y t a B N v v v N y a a t t y v v y v y v y M j M M v j v v v y M M M M M M M B B M B v u e v 4 ~.AXuXkXuXPXkXmXkXvXkXPXkXkXuXuXvXkXMXkXMXMXkXPXPXnXuXuXiXCX!.$ I T T T U V R R V V T V R T T V T T T T T T T T T T T T T T T T T T ` T T T T T T T T T T T P T T T T T T T U P T T T U U T U T U T T P P P P P P P P T P P P P T P P V P U U U P U V V U V V V A T V U U U U U V V V P P V B V P V V P V B P V B V V V V P T V B y M V M M M M M B B B M B B V P V V B B B B V V V V V V P B B B M M M V V V B B M M M B B B B V B M B B M M M M B M B m M M B M v v v M M M M M M B V M M M M M v v b v a a a a a w $ O 8 a i s K K s s s s s s a s p i s a a p w 9 7 f # . . . 9 w i s K s i 9 % 8 s s i 8 0 7 i 8 & # + . + # . + = . # & 8 i d i i s d f f $ % & 6 & & f 8 9 7 7 7 6 6 > & & 1 > , , % & , & 6 0 0 0 9 9 7 &  .] ] ] ",
"# $ $ $ # # + + # # # # # + # # $ $ $ $ $ $ $ $ @ % % , , 1 1 1 1 > 1 1 1 1 1 > > , & & & % % % % 1 1 1 1 , % $ + + + + $ $ % 1 1 % , , % $ $ ; > > > 1 1 1 1 1 7 0 7 1 1 > & $ & > 1 6 7 7 8 0 9 9 9 9 w w w r d u u i i w i d t r e v t v e e t t t t v e t v a y y y y y y a a a a a y y a y y a v a y M a y v y a y v a v v t t y N b a t v y y a y y t v v v M v y y v v M M v M M v v v M M M v M M V M M M M v v y M e UXAXuXPXPXkXkXmXPXPXPXkXvXkXkXvXkXvXkXkXuXPXMXPXPXuXPXuXCX!., V P T T U P V R V V R T V T T T V R T T T T T T T T T T T T T T G T T T T T / T T T T T T T T P U T P P T T U P U T T T T T T U P U T T T P P P P P P P T P P P T T P P P P U U T T V U U V V B B B V U V V V U V V V V U T U V V P V V P V P V V B V v B P U U P T y y M V B M M P M B P V B B B V V V V V m P B V V V V V B B B V M V B V B B V V B M M B B B B V V B B M M B B B M V B M M V B B B M B M M M M y B V M V M M M M v b v v a a a a p r . + N K i a s s s a p a a a p i r w i r r w 7 6 0 > $ # % 0 N i 8 6 % = X X + X X + 7 p p w > 9 s r & . . $ # # . . . # $ & 0 i s l s d 6 % + $ % & & > 6 6 7 6 6 6 1 > & & 1 1 > > , & & & 6 8 q 9 w w 0 &  .] g.] ",
"# $ % $ # # + # + # # # $ # + = + + $ $ $ $ $ $ % % % , ; 1 1 1 & 1 > 1 1 1 1 > 1 > , & % & % % % % 1 1 1 , % % $ $ $ + @ $ % % , % , , % $ $ , & & > > 1 1 1 1 1 > 1 1 1 1 , % > 1 6 0 7 8 8 8 9 9 8 9 w w w 9 q d d u i i i u e e t e t e v t v t t t t t t t v v a a a a y a y a a u y y y y a a v a a a y a v v a v a v a a t e t V J a r t y n a a a a n v M v v y v v v M M M v M M v v M M M M v M M M M V B M M v B y | mXPXkXMXMXuXmXuXMXkXvXkXbXkXkXuXuXuXPXuXuXkXvXkXuXuXHXQ., v R R U U P P V T R V V T V R T V V T T T T T T T T P T T T T T T T ` U T T T T T T T T T T T T T T T T T P T P P U T P T T T P P U U P P T P P P P T P P T P P P P T P U U U P U P U U U V A B M M M V V U V V T U U U P P U T P P V V V V V P V P V V V V U P V V T M y y V V M M V M M V V V B V V V V V V V V V V M V B V V V B B V V A V B M M B V B M B B B A B B B B M B M B V M B B M M B B B B B B M V M M M M M M M M M M M v v v a a n a p 8 8 + 8 H s p i t i i i i w 8 7 9 7 6 6 6 & % % & & & & $ % 6 r K i & # # & 9 s 6 > # . X % i K 9 f & 0 i i & . . . . @ . + + + & f 8 i i i i i 1 % $ % > 0 > # > 6 > 6 2 1 & & 1 1 > > ; & & & > 9 i i d w 8 ;  .] 3.] ",
"# $ $ % $ # # # # # # # % % # $ + + + $ $ $ $ % % % % , % 1 1 1 & ; > > > 1 1 > 1 1 1 > & & & & & & 1 % % ; % % % $ $ + + $ $ % % % % % $ + $ , & , , > 1 1 1 6 > > 6 > > & & $ > 1 7 8 8 8 8 9 r 8 9 9 w r 9 0 9 9 w w w u w w t t v v t e t t e v t v e v t t M v v v a a a l y y t y u y y y y a y a y y y a a y y y a a a v v r y K I N y y v v v a a y y v v v v v y v v M v v v M M v M M v M M v v v M V B M y v y M y B uXMXuXkXPXuXMXkXkXPXMXuXkXMXkXkXuXkXMXvXuXuXuXuXmXCXE., V T V R V T V T V T R T V R V V V R V R T T T T T T T T T T T T T T T T P T T T T T T T T T T T T T P P T T U P U T T U P T T T P P P U P P P T T T T P P P P P T P P m U U T U U P P P U P V V M M M M V V V V U U P V T P V U U P P P B V V P P P P V V V V V V V V V V M M V P V M V M B M M V V V V V V V V V V V P P V V P P V V V V V V V V M V V B B B B P V V M B B B B B M B V B B B M M B B M M B v B v M B v M M M M M M M y a v v a n v n t , $ + v n e s 9 8 0 9 8 1 & # + # + O O + + . . + . . + + + $ > > $ # $ & 8 a K s p 9 & + + 1 i K i & $ 0 i i w $ $ # + . + . . + $ % f 0 i s s s t 1 $ # & & & % & > 1 1 1 1 , 1 & 1 & & & % % & 7 r r r 9 8 f  .( ] ] ",
"# $ $ $ $ # # # + # # # $ % % % + + $ $ $ $ % % % % % % % % % 1 1 1 1 6 6 2 6 1 1 1 1 1 1 > > 1 1 % % % % % % % % $ $ $ + + # $ % % % % $ @ $ % & 1 ; 1 1 1 1 0 1 2 6 6 1 % $ * > 1 8 8 8 8 8 0 9 9 0 9 9 9 9 9 9 w w u q d d u e e e e e v e v t t t t e t t v a v a y a y v y a y a t a y a y a y y a a y y a v y a a a v a a v r r v B v a v v v v y y a a a j v v v v y v M v j v M M M M M y M B v y v M V B V y v y y y y %XmXMXPXMXkXMXkXvXkXkXMXkXuXbXkXuXMXMXPXuXMXMXMXCX!.% M | U R V V U T U V V V T R R V V V V V R T P T T T T T T T T T T T T T T T T T T T T T T T T T / T T P T T T T T T T T U P T P P U P P P T P P P T T P P T P P P P T P P U P U U P P U U P P V M y y y M V P P P V P P V V P U P V B V U B B P V P P P P V V T V V P P B P M y M B B V V V B M M V V V V M B V V V V B P V P V P V V B B V V V V V V V V M B B V V V V V M B B B B B M m B B B M M M M M v v v v v v M v M y M M M y M M a v a y y v y r > O $ n e 7 w % % % # + + + + + # # $ % ; f > > > $ # % $ + # # 1 1 6 7 8 8 w i s i 7 6 1 & & & i b N i $ $ 0 a i 9 6 % # + . . . O + $ ; 0 w i s s i 0 & $ % & # # $ % & & & 1 & & & & % % $ $ $ 1 9 9 9 9 8 f d ( 3.] ",
"+ # # # $ # # # + + # # # $ % % + $ $ O $ $ $ $ % $ % $ % % % % > > > 6 1 1 1 1 1 1 1 1 1 1 6 1 1 1 % % % $ % % $ $ $ + # # $ $ $ $ $ % $ + + % & & 1 1 1 1 1 1 > 6 6 > > % $ % > 1 0 7 8 8 8 8 8 0 9 9 0 0 w 9 w q u d d i i u r e e e v t e e v t t t v t v t a a y v a a y y y y a t a y y a a y a a s u y M v v a a a y a y v r e a b v v a a a a v a a y v v v j v M M M M M M y y M M v M M A v v y M V M B P v B M y M y ~.CXPXkXMXkXPXMXMXMXPXPXMXkXvXkXuXPXPXPXkXMXMXkX!.@ V | V T V T U U U T T R V R V R V V R V V R V P P P P P T T T T T T T T T T T T T T T T T T T T T T T T T T T T T U U T T T T P P T U P U P P P T P T T T P T P P P P T P P U P P P U U P A V V A M y y y u v P P V V P P P P P U U P B V U P P V P P P P P V I P B V P P V P M M m M V V V B M B M M V V V V V V B B V P P V m V V V B B B V M M V M V V V M V A P V V V V M B M B B M M M M B B M M B M M B v v v M v v v M M M M M y M m v v a a v v t e , O , 1 % % $ = + # # $ & 1 0 8 9 w r r i a a a i w 8 8 9 8 2 6 1 > 1 0 1 1 0 r s l N a 0 % 1 8 9 a N s p w 6 # s i 9 0 > % $ # O + + + # $ & f 8 i b n t 0 & # # # $ $ $ $ $ % $ $ $ $ $ $ $ $ # > 0 8 9 9 8 6 f ( ] ] ",
"+ # # # # # # $ + + + + # # $ % @ $ $ $ + + + $ $ $ $ $ % % % , & > > > > 1 1 1 1 > 1 1 1 1 1 1 1 % & % % $ $ $ # $ $ @ # $ % % $ $ $ $ $ + $ % $ $ $ & > > 1 1 > > 6 6 > & % % & 1 7 8 8 8 8 8 8 9 9 w 9 9 9 r w 9 9 9 q w u r t e v t e v v r t t t t t v v v a a a a v a y y a a y y y a a a a y y a v y a M v l a y y M a y t r t v V b v y t y y y y n v v t v M M M M M M M y M M M M v v y M M v M A V v B U v v A u M y V.AXPXuXPXMXuXnXkXkXkXMXkXvXkXvXMXMXPXuXMXMXiX%XO R B B T A V R U V V V T V T V V V V T R V V V P P T T P P T T T T T P T T T T T T P T T T T T T T T T U T T T P T T T P U T T T T P P T T T P P T P T P P T T P T P P P P P T U U V V U U P P V P V B M j y e y v P P V P U T U P P U U U P P P P P V V V V P U I P V V P P P P V y y M B V B B B V B B M V V V P V V V V P P V P V P P P V B V V V V V M V V B M v v v B V V M M B M M M M M M M B M M M V M B B v v B B B v y M M M M M M M N v a a v a t 8 = O , # + O X % > 2 9 r p a s b s s s a a a i t r 9 9 9 9 9 9 r w r w 8 0 0 0 i i w w p s p w 8 i s K s s s i 8 $ % f 8 9 8 7 & $ $ # # # # % , 6 8 r s l a 8 % $ $ # # + + + + $ $ @ $ $ # + + + > 0 7 9 9 8 ; f ( ~ ~ ",
"# # # # # % % # # + . # # $ $ % , $ % $ $ $ + $ $ $ % & % % , , > > & & & 1 1 1 > > 1 1 7 2 6 6 1 1 > % & % % $ $ # $ $ $ $ $ @ # % % % # O $ $ % % & > > > 1 1 > 1 1 1 % $ % % 1 7 8 8 0 1 8 8 8 8 9 9 9 9 0 r 9 d d u u d q w t e r e v t e v t t t t p y a p l y v y a M y y a a y y y a y a u a M y t a v v a a y M M M a t v v r e b v v B n v v v a n v B v v v M M M M v M M M M M M M v M M M M M M B V B B M M v v M M } MXMXMXPXkXMXuXvXkXvXkXMXMXMXuXkXMXmXuXuXCXIX, J U Y U P P R R U U V V U U U U T V V A T V V V P V P U P P P P T T T T T P T P T T T U P P T T P T T T T T T T T T T T T U T P P P P T T T P T T T P T T T T P P P P P P P T T U U U A V V R R V V V A v u t v B V V V V V P P P V V V P U P V P V V P P P V P T P P P V P V P V m e , e m v V V V U V B P T V m B V V B P P P P V P P V B V U P M V P A V M V M V M V B V B M V M B M M M M m M m M M M M M M M M M M M M B M B M M M M M M y n v v v M v e 1   . $ % & 0 w i s p i s b s N K b K N l b s s s p a y u e r r e 9 r 9 2 1 1 e r e y v y t t a a t t a s M v v v p 9 ; & & 1 8 r 9 1 % & > $ + + 1 2 2 w t t u t , $ $ $ $ + O + O + % $ + + + $ + % 0 8 8 8 1 f d 5.~ ( ",
"= # # # % # $ $ # # # # # # $ $ + $ $ $ $ # $ $ + $ % @ % % % , > & & & % , & 1 ; , 1 1 6 > 1 1 1 1 > , & & % $ $ $ $ $ $ $ $ , $ $ $ # + @ + $ $ & & > > > > > 1 6 1 > % % % & 1 7 7 8 7 7 8 9 0 8 8 9 9 9 9 r 9 q w u d u w u t e e e v e v e t y r t y a t y v y y v v a y y a a a y a y y y t a v a y y a a v y a y a M l t t v e t b B v v y y v v a y y v t v M M M M M v M M M M M M M j j y M M M v v C A M M v v v y v ' sXkXkXkXvXnXMXMXMXkXvXuXkXuXkXvXiXuXuXAXQ.O M V U U R R U V V U U V V C V P U T R V V T U V U V V P P P U T P T T U T T T T T T T T P P U T U T U T T T T T T T T T T T T T T P T T P P T T P T P T T P T T P T T T P P T P T P U U T V V V V V R T V V M M M B P P P P P P V V P V V P P P P P P V P P V V P P P P P V V B n y e e , , , y V V V V V V V P V P V V V V B B V V V P V V B V P V M M V V M M M M M M M M M M m V m M M M B M V M M M M M M M M M M M M M M M M B M m M M M M y v v t e v v 1 O . % 8 r w a n  .b s a K K N K K K N N K  .s s n N N l a y t t u 9 9 e 8 2 > , > e e y v a r e 8 i t r r r t y v K s p i w 7 % % r r w 0 1 > 1 1 $ 1 1 e r a a s e e , + + @ $ + $ + + $ + + + + + % 1 7 7 8 6 ; f  .( ~ ",
"+ # # # # $ $ % $ $ $ # # # # # + + + $ $ $ $ $ $ @ $ $ $ $ , % % % % % % & & & & & & , > > & > 1 1 > > , & & % @ $ $ $ $ $ $ , $ % $ $ + + + % $ & & > 1 > 1 0 1 1 1 % $ $ % > > 1 7 8 8 0 8 9 9 8 0 r w 0 9 i w w w d i w i w e e r t e e t t t t r y a y a t a y y a a a a t a a y a y a a y y a a a t y v l a a y y a a a a e v t e B P v v y a v a a t y a j v M M j M M y M M M j M v M M v v v M M M M M B V B B M y y y ' pXMXnXMXkXPXMXkXvXuXkXkXuXkXMXkXvXkXFX!.2 M V V V U T R U P C V U U V V M V P V V V V U U V V V V P P V P T P P P P T T T T T T T T T U T U P T T T T T T T T U T U T U U T P V T T P P T T T T T T T T T P P P T P T T P P P A U T U V V V T V T T T V V V V B P U T P P P V V P P U P P P P V P P P V B B P B P P P B B v m , , $ , + O , v P V V V V V B V P P V V B B B M V B B V V B M B V M M M V M M V M M M M M M M M B M m m M M V M V M M M M M M M m M M M M M M M M M M M M y y M t v v e v n ,   7 r s n b s s s b s s a p i t i r r i u i w r w i r e e e r e e e u e r e e e 8 e e v v N v a p 9 q 8 8 8 9 e t s s b K b r 2 , 0 i s i 8 8 8 7 1 1 7 2 9 r t p v v 7 , + , @ O $ $ + + $ + + + + % & 1 0 8 1 & f W ( L ",
"# + # # # $ $ % $ $ $ # # # # # $ $ $ @ $ @ $ + + + $ $ $ $ $ % % % % & & & % & % & & & , , & > 1 > ; , & & , % , % % $ % $ % % $ % $ + + O + $ $ % > > > 1 1 1 1 6 > & $ $ & > > 1 0 7 7 8 8 8 0 8 9 9 w 9 0 w w w w q w u d u e t e e v v v e t t y r y n y y y y y a y a y t y a y y a a y t y a M y y v y a a a y y y a a y v v v t b V b v a v v v v v a a y y v M M M M M M M M v M M M M B M M M M M M B B V V M M v y v R eXKXmXmXMXPXkXkXuXkXMXMXkXuXMXuXuXHXE.$ M T | U V V P V U P P V Z V U U V V C V R V V V V V V P V P P V P P P P P P T U P P P T P P P U U P P T T U T T T T T T T T T U P P P P P T P T T T T T T T T P P P P P P T P T P P P T U U U V T V V V V T V V B V A B V U P P P V V V P U U P P P P V V P P V V V P m P U m v m 7 , , O O O , + $ , b T P v P V M V V V B V B V B B V B M V B M M M M M V V M V V M M V V V M M V M B M M M M M M M m M M M M M B M M M M M M M M M M M M M y M M y e v v v v r $   d p p i 9 7 7 9 7 0 > > & & ; 6 0 0 0 1 7 1 6 0 & & 1 1 & & , @ & $ + @ @ $ % % , 1 , e 8 0 9 q p a a b l M v v b s a r 9 0 % $ # 6 p b a i r 8 w e 8 8 8 8 e t v v v , - , , @ + + + o + $ $ $ # # % & 1 7 0 ; q  .~ ( ",
"+ + + # # # $ % % & $ $ # $ # # $ $ % $ % $ # # + $ $ $ % # % % % % % ; & , & % & % & & % 1 % & > 1 & & 1 , % % % % $ $ $ % % , % % @ $ + + + $ $ % & 1 > 1 1 7 1 1 > ; & $ & & 1 0 6 7 0 7 7 7 9 8 9 9 9 0 9 r w q w w u w i w v e e v e v t t t t t t y a y a a t y a a y t t a y y a a a y y y l v y a a a a a y y a v a a y v v v e t b B v v v N N M v a a v v M M M M M M M M M M M M M M M M v M M B M B V M M v y y M v y !.HXCXmXCXMXMXMXPXkXMXMXuXgXkXkXCXE., B | M V P U U P J V P I B V V U U U V C U V V V U Z V V P V P U P P P V P P U U P P P P P P U U P P P T T T T P T T T T T T T T T T T T T P T T T T T T T T T T P P T T T T P T T T T P T T U V T U T V R V R V V V V V V P P P V P V V U U U U U P P V P P V V P U P P V P B m y , , O = + O O + $ $ O m V P v V V B V V V B B B M B B V M B B V B m M M M M M M M M M M V M M M M M V V B M M M M M M M M M M M M M M M M M M M M M M M M M M M M y M v v v v v 1 X O 1 8 1 , & % f 7 9 9 r i s N K K K K K K N N N B N M N M M M v v y t e 8 1 1 1 2 , , - @ $ $ $ , $ , 1 1 1 7 1 , w 8 1 , $ % $ % $ , 1 t N l s a p y t r e r t y v v v e 7 , @ , $ + + O $ $ $ $ # $ * % f q 0 f q  .~ ~ ",
"O O . + + # $ % % $ % % $ $ # # # + + $ # $ $ % $ $ $ $ # # @ % $ % % % & % & % & & % , % % & & & & & & % & ; % % $ $ $ $ % % , % % , + + + + $ $ & % & > 1 1 1 > > 1 & % % % 1 1 6 1 7 7 8 7 0 9 9 9 9 9 9 9 r i d 9 u d q d u e e t e e e e v t t t t t a a t y y y y a a t u a a a y a y y t a v v a y a a y y y a v v a y y t t v t r v B B v v v n v s a y v v M M M M M M M M M M M M v M M M v M B B B M M V M v M y y M 8 m.CXFXCXCXmXnXkXPXPXPXkXMXMXMXCX!.1 M T U T V A V T U U V J L I V V V P U U P V U V V U V V V V M V P P P P V U U U T T P U P P P T P P P T T T T T T T T T T T T T T T T T T T P T T T T T T T T T T T T P T P P P T T T T P T V V V V U A V R V V V V V R V P U P V V P P P U U P P U P P V P P V V U T P V V B M e , < O O X O = O X O $ + , v V v B B B B V B B B B B M M B B B V B M M V V M V M M M M M M M M V M M M V B B M M M M M M M M M M M M V M M M M M M M M M M M M M M y y M v e v v v + X % 1 , > 8 0 5 7 w w p l N K b s i i i p r w 9 e e 9 e w u e v v v N N B B v y e e e e t e e e 2 2 2 1 7 2 1 2 2 1 > > 1 1 1 8 8 2 2 , @ 1 8 r a K M N N M v y v l v e v M u 1 , , , % $ + + $ # $ # * $ % ; f 0 ; f z ~ L ",
". . . O @ + $ % % % % % & % $ $ # # + + @ + $ $ + $ + $ # # $ $ % $ % % % % % % , & % % % % & & , & % & % , % % % $ $ $ $ % % 1 % % % % # + + $ % % 1 1 > > > 1 1 1 1 % $ $ & 1 1 6 1 6 7 8 7 8 q 8 9 9 9 9 0 q w i q w w u 9 u e v r e t e e v t t t t y a t y a y y y a a y t a y y a y y a y v v a y a a a y a a v v a a y y v t v v e v v b v v v v v v a a v M M M y M M M M M M M M M M v M v M A M M M B V B M V M M M v t ' uXKXHXHXmXDXMXmXkXuXvXMXmXkXQ.O V T A T V V V V U P J J J J P V V V P U U U V U V U U V M V V B V P V V U P U U U U T T P T P P U T T P U T T T T T T T T T T T T T T P T T T P P T T T T T T T T T T P P P T P P P T P P P P P P P U T V V V V V V V V V R P P P V M P P P P U U U P P P P P P P P P U P B M e e , , O O $ $ $ $ O X O O + $ 2 v V V B B B B V B M B M B M B M B V V M M V M V V V M V V M M V V V B B B V B B M M M V V M V B B M M B V M M M M y M M M M M M M M M y y M v v v v e O # e e e r r r 9 r i s K K K K N a r 9 9 8 0 6 & , , , $ $ , , 2 2 e e y v M M v M v e v t v v v t u v v v e r e t t t t u e r w e 2 e 8 , % % 1 8 r a v M M v v M M y v M v t e , % , % , $ + @ # $ = * * * * f f f q  .~ L ",
". o . . O = # = % % % % & & % $ , , % $ + + $ $ + + + + + + + $ $ $ $ $ $ % % $ ; % % $ % % % $ 1 & & % % % % $ $ $ $ + @ $ & , % % , % # # @ $ % $ 1 % > > 1 > 2 1 1 % $ $ & 1 > 1 1 0 7 8 8 7 9 9 9 9 9 0 9 9 d u d w w w w 9 e e t v t t t e t t t t t a a a a y a a y a y y l y y y y a y a a v v y a M M y a l a y y a M M v e t v t t v v v a v v M v v a v v M M M y y M M M M M M M M A v v M M A M M B M M A M M v y u w v %XCXHXKXFXHXCXAXmXMXkXMXuX%XO V V T | V M R U U V C V J U U C V U U T Z V U V V V V V V C V P V V P V V P V U U U P P P P P T P P T T T U U T T T T ` T T T T T T T T T T T T T U P P T T T P T P T T T T P T T T T T T P P P P U P V V T T V T R R R R V V V P V V V V V V V P U P P V P U P P U P P P V M m e < < + O < e m e , $ $ O O O , + 7 P U B B B m M B M B B B B M B V V V M M V M V V M M M V M M V V V B M B V V B B M B M V M V V V M B B M V M M M M m M B B M M M M y y M m v e v e 7 , 1 n w e d e w 9 r p w i s s s N K s a a i 9 8 0 1 2 % # O o O O O # $ 1 2 e e t v B v v v t v v v v e e v t y t y y r p a y a a p e e t r 2 $ $ % $ 2 8 t v s v M M M M v v v t 2 # % % , % $ $ $ % . * & * * * f f f  .5. .",
"+ . O O O O + + % % % % & % & & & & % $ $ % % % + + + + $ $ $ $ @ $ $ $ % % % % $ $ $ % % & & 1 1 , 1 % % % % $ % $ % % $ % , , , & & & % # + # % % & & & & > & 7 > & % % ; > > 1 1 7 7 8 9 7 7 8 8 9 9 9 9 q 0 9 w w w d u w q w i y y r t t y t y y y t t t y a a t y a a y t y y a a a y y y a t t y t v y t v n v v t y v t t y v y t y V V v v v v B v v v M M M M y m M M M M M M M m M M M M M M B M B B M B V V M M y y N r m.FXHXLXJXKXFXJXKXMXMXJXQ.% J Y Y V V U R C V V Z V B V V M T U V V V J U J V V J P V N M C M V P U P P V V V V P P P P P P U P V T T T T P T T ` T T T T T T T T T T T T T T T T T T T T T P T T T T P T T T T T T T P P T U U U U P P P P P P P P P P P P P P P P P V P P B P U U P P P U V U V V V V v m , , , X O m V V K v t e , $ O O , , , V P V B B V V P B M V M B V V V v v v v v V U V v V V b b B K B N V B v b V V V B B B B K B b v v v b B V B B N b v a s M v v v v v a p t v 8 , t e O v e w t t t a n a t 8 w w e w i p s b K K b b b n N p p i w 7 > # O . + + $ $ , 9 p a v M v v v M M y a y y u t y v t i i s s s s i a i i i 0 1 & # * % 1 7 w p a p s b N s s t 8 1 % , % & % % $ + + % & % $ & % ; - l L L ",
". + O X . O + # $ % % % % & & & & % & & & % % $ $ $ @ + + + + + $ + $ % % % % % % % % $ $ & % % & & % % % % % % $ % % # % # , , & $ % % % # + # $ $ & & & & > > 6 & & % $ & , > 6 2 > 0 7 8 7 0 8 8 8 9 9 9 9 9 r r u w u w i w 9 u r t r r u t t y t t t t y a t u y y y t y y y y a y y t y y t t y y v v y t e t t t t v v t v v y t u y V R B v v v v v v y y M y M M M y y M M M M M M M M M M v M j M M B V C C B B M M M y r } kXHXFXFXKXKXMXKXKXJX,X* J Y U U U U U V T U U P P V V V C V V V J I U U P L V V J V C M B B V V P P V P A P P P P U U P P P P T P P P T T T T T T T T T T T T P T T T T T T T T T T T T P P P P T T T P T P T T T P P P P P P U U P P P P P P P P P P P P V P P P P P P P V V P P P P P P P U T V V M e 7 , + X O e V P v I I b e , + $ , , < $ v V P V B V V V V V V V V b V V V V U U U v V b v K V B B v B b b B b v b v v b B b B B V b B N B B V V B v n b b n M b N b b n t t r t t 8 8 7 v $ O v v y v v v a v a r i w 8 > , 6 7 7 w i d w p r r p a s s b s a s a 0 1 % + . O % 2 r t y v M M v y v y y y a a y r r i i i i i s s i i s i r 8 6 1 % * $ $ & 2 8 8 i i a i i i 8 1 % $ $ % & , % + $ $ % & & % $ & * u l L ",
"+ . . . . O + + # $ % % % & & f & & > 1 1 > % % % & $ $ + O + O $ $ $ $ % % % % % % % $ $ $ $ $ $ % % % % % % ; % $ , $ # @ $ % % $ $ % $ + + + $ % % & & & & > 6 1 % $ % & & & > 1 7 7 7 8 8 7 9 9 0 8 8 9 9 9 u w d u w i w u r r u r t e r r r t t y t t y y t y a a y y a v a y a t u t a a n y v y v y y y t v t t y v v t y y v v y r y M B v v v v v v v M y M y y y M y y M y M y M M M M M v v M M M M M B M M M y y v y a Y eXKXJXDXJXKXKXSXJXpX6 P V R U J U U V V U V V V U V V C M V C V J P U U V V V V J V B M B B V V P P P V P P P A V P P P V V P T T T T T T T T T T T T T T T T T P T T T T T T T T T T T P P T P P T T P T P T T T P P P P V P U U U P P P U U P P P P P U V V P P P V V P V P V P P P P V V T U V b v , $ $ O O e v P P P b I P b e , $ , , , + y V V P B B V B B m V V V V V V b v v V n n P V V K P b B v B b v B v a v v v B B B N b v N B B N b b v v N N N b v a a p e e 8 8 1 2 1 1 r r r e O , v v y v v v v v v v s a w 7 5 , > % , 1 > , 6 6 7 8 2 6 7 8 w w i i s a t 9 > # .   $ , e t a v v v v t e e t a r e i i r u w i p p i i a a a i w w 6 > $ + + $ & > 8 0 r w w 9 8 6 ; % $ $ & 1 % $ % $ $ 1 > $ @ * * j  .l ",
"+ + . . O O + + # # $ % % % $ & & & > 1 1 > > > , & % $ $ + + O $ + $ $ % % % % % % % $ $ $ $ $ % & % % % % % , $ , $ $ # $ % % & $ $ % $ # + + % % % % & f f > 1 > % $ $ % 1 1 7 6 6 7 7 8 8 7 9 9 9 8 8 9 9 9 9 w w 0 w w w 9 r r r u t u t t r u t y y y y y y a a a y y a a y y y a t t y a y y y y y n v y y v v t t v v t t t v M v e e t B v v v V v v M M y y M y M y y y y M y M y M y M M M M M M M M M M v v M v y y y s i ~.HXJXFXJXGXKXJX,Xw b / R J Y U C C U U V U V V V U V V V V V V V P P C N V V V V C M M C V V P P P P P P P P V V P P P P V P T T T T T T T T T T T T T G T T T T P P T T T T T T T T T T T T T T T T T P T T T P P P T P P P U U P P P P U U P P P P P P P V P P P V P V P P P P U P P V V V V b t 1 , O X + m n b v v P b b V V V v 7 , , O < M V P V V V V V V P V V P b B B V U U U V P V P V V V B B b V V B K b v v r v v B N b N b b b N B B B b B w e w 8 1 1 > , , , 8 w a n b B v v v , O v v 7 r p a v a v v b n b n i w e 1 > % , , $ & , , 7 > > > 1 1 6 1 1 0 8 r a a w 2 & O o $ 1 e u M N v t 8 1 2 e r y i i p i d u w 9 8 9 i p s s i i r w 2 & % $ # $ & 6 6 0 8 0 0 6 1 1 $ $ % & & $ % + $ , 1 $ $ % ; q l l ",
"O O . . . O + + + # $ $ $ % % % & & & & > 1 > 1 & > & & % $ $ @ + $ + $ $ $ $ $ % , % & $ & % , & % & & % % & & % % % @ $ + $ $ % $ $ $ $ # . # $ $ & & & > > 1 1 & $ $ % & 1 1 1 1 0 7 7 7 8 8 9 9 8 8 8 9 9 9 w d 9 q d u r r e u u t t t t t e t y y y y y y a y t y y y u r t y a y y t a a y t y y t v t t v v v y t v t t y t t a v e v M v v v v M M m y y M y M M y M M M M M M M M M M C M M M M M M M M C C M M M M v a a r } MXJXKXKXmXJXeXa p Y | V V T T V V U T V V V V V V V V V V J J J J V B B J V V J V M B B V P P V P P P P U U U U P U P U T U U U T U T T T T T T T T T T P T T T P V P T T T T P T T T T T T P P T T T P T T P P P P P P P P P P P P U P U U P P U U P V P P P A V V P P P P B P P P P B V V b v e , + + = , r v V B n v T K b P U P n m , O O v P V V U V V V V V V V V B B B V V V V B b b B B B M M M v M v v M v y v B B b M v y t y 8 1 > , , $ $ + % , 1 8 t b K P K K K B N p w 9 e v v O O e v v p n v v a a p v s v N s a i w 8 > 7 > , > > , 1 1 0 1 7 0 1 1 > & > 1 7 8 r t i 8 % . o , 8 r t b s r 2 % , 2 r i i s i u u 0 0 0 0 7 8 i p a s a i w 0 0 & * + $ $ % & 1 1 > 1 1 & & % $ $ $ & ; $ $ & 1 % $ $ f q q  .",
"O . . . O O + # + # # $ # # # % % & & % % & ; 1 & , ; , , % % % $ $ % % % % % $ , 1 > > & 1 > > 1 1 , % & % % % $ % # # + $ + % $ # $ $ $ + . + # $ % & & 6 > f & % % # % & & 1 1 7 1 7 0 7 8 8 9 9 8 9 9 q 9 9 w u d i u i i i e e e t e t u e r r y y y y a a v y t t y a a u t y a a a y y a r y t y n t t t r t y t r n t t y t y y v e e v v v v v M M M y M M M M M M M y M M M M M y y M M M V M C M M M M M M M C M M y M y t K eXFXJXHXFXPX9 J R J V V U V V U U V C U V V M M V V V V U J P Z J J J V J V V V V B B V V P U P V U U P P U P P P P P P P P T U P P T T T T U T T T T T T T T P P T T T T T P T P P T T T T P T T T U P T T P P P T T P T P P T P U T T P P P U U U P V P P P V V V P P P P B P P P V B V V m e , + + + $ e v b B P U v P J P K P P V V e , , v V V V P V V V V V M M V J V B V V M v n T V V V B M B v M B v v v t e w 1 1 , , $ % % , , 1 2 e v b B J T Y P K N b b b a p y y t t p p e n 7 X , v v e a y y a a a a s b N N n s a a i w w 7 1 7 > > 1 , > > 1 1 1 1 > 7 0 > & & 1 1 7 t e 2 , @ O % 8 a b N t 1 % % 1 8 8 i i i i r r 7 6 > 1 0 9 i i a p s i r 8 6 & $ # # % & % % % % & $ $ $ + % & , % $ % , 1 & $ ; q l l ",
"O . . . . + + # # # # # # # # # $ % $ % % % & , & & > > > % % % % % % % % 1 % & % , , & & & 1 ; 1 % , & % % % % $ $ $ # $ + % $ $ # # $ # + + # # # & > > f & & & % % % & & 1 1 1 7 7 0 0 6 8 8 8 0 9 8 9 9 9 9 w w w q d d q u t e e e t e e e r t t t t t y v a a a y a a a y a a y t t t y a y y t n t v v t t r t t t t t t r y a a v u e e v M v v y M M y m M M M M y y y m M M M y M M M M M M M M M M M M M M M M M y y M y n n E.CXHXLXPX .Y L J R M V U V V U V V V V C V B A V V P U V J J P P J J P P V J V V B B V V U U P P P U P P P V P P P P P V P U T U P P U P P U U T U P U T T T P T T T T T T P P P P P T T P T P T U U U P T P P P P P P P P P T T T U U U P P P U U P P P U P P P V P P P P P P P P B B B v e , $ + + $ 1 n P V B B V P b V J J P b V b v v e v B B V B m V B V V B M P B v v B U P P V J n v v t r y e , 1 , $ , $ $ $ 1 1 e r t v N K T P P P V V B b p a a a p a v a a a a a p p t r v B + O t t e e r w w i a a a b s b b s s v s a r i e 8 w e 7 7 1 0 7 1 7 7 0 0 % & 1 1 1 1 0 1 8 e t e 1 X + , 2 r a v e 2 % + % 6 8 r i i i i 9 8 6 > 1 7 9 7 i i i i a i i 0 1 & & & > 1 > 1 , > & $ $ $ % & > & $ $ & 0 > $ f q  .z ",
"X . X . . + # $ + # # # # # # # + # $ & % & % $ & % , > > , % % & & > , , ; , , ; % % $ $ $ $ $ & % % % % % % % $ $ $ $ $ + + $ % $ $ % $ # + # # $ % > 1 1 > & % % % % & & & > 1 7 7 7 1 0 8 8 8 8 8 9 9 9 9 0 0 w w w 9 u i w e t e u t t t v u t y t t y y v u t y a y y y a a a y t u y y a y y y y v v t t v v v v t v t t y v v u e t v e V T V v y M V M M M M M M M y y M M M M M M M M M C M M M M M M C M M M M M M v v y s w 7.CXLXMXL  .| ' N M / M U Q T V C V U M B M B V V U U U V V J P J V C V P V V V V C V V V U T P P U U V P V V P U U P V T U P V P T U P P P P U P V V P P T T T P P T T T T P T T T P T P U T T T T T T P P T T T P P P T T P T T T U P T P P P U U U U P P U P P V V B P P P P P P V P v e 1 $ + $ $ % v n P K B v M B I P K b b P P P U P v v v V V B M V B V V V m V V b v v v r 8 1 7 , , 1 , , 1 , e t r t v B V P T P P V V B K N v v N N v v v t b b b N n a a a a a b b b v p t e V X + e 8 1 n t w w w i i r i w p s n s n p r p p r w d d e w w w 8 0 1 1 1 6 1 7 0 1 1 1 > > 1 % 1 u y e $ X + 1 w v v r > # + $ ; 8 i i i i r 9 6 > > 0 2 1 8 8 i i a i i i r 9 8 9 8 7 0 9 2 1 1 % % $ & $ & > % + & 2 1 $ f q q q ",
"O O O + + = + $ # + # # # $ $ % % $ $ $ % % % # $ % % & % % $ % % $ $ % % % % % & % @ $ $ $ $ $ $ % $ % % 1 1 1 ; , & $ $ O + @ & & $ # # # # # # # * & > > & % % , % % & & & 1 1 1 7 0 1 7 0 1 9 8 8 8 8 0 9 9 9 u w w u w i i t e t t t t e u e e v t y y v y t t u t a a a t y t r t y y y y a n a y t t a n t n y t t r t t t y a y t t t e e V V M m V M y M M M M y M M M M y M M M M M M M C M v v v v v M M M M M M y u y v y p E uXJX%Xf / 7 E A B V M V U V V M V V B V V V V V V A P P J P J P J J P V C B B M M M M B V B V V P P U V V V V V V V V U P V P P V P U P P V P U T P P T T T T T T T T T T T T T P P T T T T T T T P P T T P T T P P T P T T U T T T U P P P P P P U T V P P U P A P U U U P P V P V v e 1 , $ + + , e M B P U P B M B B V P V P b K V V V m M v m v n M m m e 7 , , , $ $ + , 1 2 1 1 r y v N K P Y Y U T I I P K B N b N v v v b N N K B K B N B B B N b b n a s b a a N C b a a p p n w X > 1 1 7 w d w e w w 9 9 9 d w w w w i p p p d i i r r w d q d 9 9 9 9 0 8 0 0 0 8 0 1 > & , 2 > % 7 a i % . $ & 8 i b p 0 # * % & 7 8 r p s a i 8 1 & & 1 > 0 8 r i p i i a t i u w w w 9 0 w 9 0 1 % $ % & & % % $ & > 1 ; 0 q q ",
"O O O O + + # $ # # # # # $ % # $ $ $ @ % % % % $ $ $ $ $ $ $ $ $ + + $ $ $ % $ % % & % $ $ % $ $ @ $ $ $ $ $ % , > > & $ $ $ % % $ $ $ # # # O + # $ & > f & & % % % > & & 1 1 1 1 1 7 7 1 7 7 9 9 0 9 9 w 9 r 0 0 w w 9 9 w i u e t e t t t t v t t t y v y t y t t y y a y y y y t t y a a y t t y y t t t y t v y y y t t t t y a y t t t u e y M B M y M M M y y M y M m M M y M y M y M M v M M M v M v j B M M M M M M M u t y t N %XJXnXI v E T V R V V V B C M V V C M M M A V V V V V C V V V C B V B V V B V M M M C V B B B B V V V V V V U U V V V P P V P P V V P P P P P V V P T T T T T T T T T T T T T T T P T P P P P T T P P P P T T T T P T P P T P P U T T P P U U P P P T U P P P U P P P P P V v P v v e e 1 % $ $ $ 1 v M B P V B v B M V V P P b P P b M M M M y y e , < e < e e m v y V V V V P J P P V K V B B N N N B M B B N B N N B B B N b B B B N M M N B K N N K B C N N N b b a n a a v b n a t , + 1 w 8 7 7 8 w 8 w 9 9 w 9 8 7 e e w w d w t r w i r w w t w d 9 0 9 9 8 8 7 7 8 8 7 6 6 > , 1 7 > & 1 8 w 1 + . # 9 s b s 1 % # $ & 7 w r i p a i 0 1 & & > 6 7 8 w w w r i i i r w w q w 0 9 9 8 0 & $ $ $ % % % % & 6 0 0 0 q q ",
"+ O O O + + $ $ # $ # # # # $ # $ $ % $ % % % % % % $ $ $ + + $ @ + + + + $ $ $ $ % % & & % $ $ $ $ $ $ $ $ $ + & & & & % % % , % $ $ $ $ $ # + # # % % & & & % & % % % % & & 1 1 6 7 7 0 7 7 7 0 9 8 8 8 9 9 9 w w w w 9 9 w u e e e t u t t t u y y y t u t t y y t t y a y t a y a y a a v y y v v a a y y y y t y y t t t t u y a y y t t t e y M M M y y B y M m y y y M M y y y M y M M y v v C M M M M M M M M M v v M C v y M a t B.ZXJXeXw | J V T B V V M M V V V B M M M B M B V V V V V V V V B C B V V N C M M M V B V V B B B B B V V V V V V B B B V V V V V P P V V P V V V P P T T T T T T T T T T P P T T T T T P P P T P P P P P P T T T P P P P U P P P T T T U U T P P P U T P A P T U U P P P P P P v v e , % $ + , , e B V V V B B M B n B V V P P b b P B B M M M v v e P T T P U T T V V V V V N b v B P J K V N N N B v b B b B B B B B K K B B B B N B N b N B K B N N b b b n v b s n a p p a b b p n , , 7 w 8 7 0 d e w e w w w w 8 8 8 8 8 w w i w w w r r w w w q w 9 w 9 9 q 0 8 8 9 8 7 7 6 1 1 1 1 1 & # > i r 0 + + # 0 a b i 8 & + + % 1 9 w i s s i 9 0 1 > > f 7 0 8 9 r i i i i i w d 9 0 w w 0 0 1 % % $ % % & % & 1 8 q 0 0 0 ",
"O + O O + + $ $ $ $ # # # # # $ $ $ # # % % % % % % $ $ $ @ $ + $ $ + + + + $ $ $ $ % % % % % $ % % & % & % $ $ $ $ $ $ $ $ % % # # # $ $ * # + # # $ & & f & $ % % , % % ; & 1 1 1 0 1 1 7 7 7 8 8 8 8 8 8 9 9 q d q d w w q d t t e u t y t t t t t t t t t t y y a t t y y t a a y a a y y a v y y a y y y v t t t t r t y v t a a y t t t t e M M M y y M M M M M M M M M M M M M v M M M M v v M M M M M M v M M M M v v y M y v y w UXMXCXHXW.y P B T V B M M B V V V B M V B B V V C V V J J V J V V V V C N N M M a M N P V V V V B B B V V V V V B M B M V V M M V P V P V B V P P P P U T T P P T T U T P T T T T T T T T T T U P P P T P P T P P T T T T U T U U T T T U T T U P P U T P P P U U P P P P U P P v e e , % = $ , r v V P V B B B B B B B V V V V V P b M M y y v v v v M B V B v v v v V V v V B N B V B B B B K B J I V B B B K B B K N B B N N B N b V B N N B B B b b v b b v a a p v s a a v b a p r O > 1 9 8 w 9 w w w w w i w w e e 8 8 8 8 e w w w w w w w w w w w 9 w 9 9 8 8 9 8 9 8 9 8 7 6 8 1 > 7 6 & % > 8 t r $ X # 6 w s a 9 & + + % 2 9 i a s a i 9 0 6 1 ; 1 1 0 9 r r i r i i i i q 9 w w w 7 1 & % $ % % & % $ , 7 d 0 q 0 ",
"O + O O + + # $ $ $ # # $ + # # + $ # $ $ $ % % % % + @ + + + $ + + + + + + $ @ % $ % $ $ % % % & % > > & & & % $ $ + $ + $ @ + # # # $ % $ # O # # $ & & > & & % % % % & & > & 1 1 6 7 7 0 7 8 8 8 7 8 9 0 w 0 w w w w w w i u t u t t y y y t e t t y t t t t y y y t y t y a y a y y y y y y t t t y t r t t t n y y t r t t t y y t t t y t e y M y y y M M M M y y y M M y v v v v v v v v v M v M M y M M v M B B M M y y y u y r 0 ' iXBXGXKX!.v _ L I l y M V M A V A V V V V V B V V B V V V C V B V V V M V M j v v V V V V V B V V V b V v V M v v M m M V M V P P V P V V V U T U P P U U P P P U P P P T T T T P T P P P P P P P P T P P P P P T T T T P T U P U T T U U T T U U T T U U P P U U P P V P P B y , , $ $ = $ 7 t B V V M M M v v P b v P P V V V V b B M m e e y M M m y y V V B v V n b n B K V H B K K V B B B K J N B B B N N N B N B B N N N N v N N N N N v v b b b b N b b a a a v v a a b v a 1 . w w 8 8 i i w w 9 9 9 w d i e w 8 8 8 8 e 8 w 8 8 w w e e d w 9 9 0 9 9 9 9 8 9 9 8 8 0 0 0 8 0 6 6 6 1 & $ # 0 i 9 % . + , r a b i 1 # = $ 6 8 i a s a p r 7 0 > > > 0 8 w w i i i i i i i 9 u w q 9 7 1 , & $ & & % % & 6 q q 0 0 ",
"O O O + + # # $ $ # # # # $ $ # + $ # $ $ $ $ % $ $ % $ $ $ $ $ $ $ $ + + + @ $ % $ $ $ $ $ & & & , , ; & & & , $ $ $ $ $ $ $ # $ # # # $ # # = # # $ $ & & & % % % % % % & , 1 > 1 1 6 1 7 7 8 8 8 8 8 9 9 9 9 0 w w w 9 9 w w y e e t t y t t t t t t y y y y t t a a t y t y t y y a y y t t t t y r r r t y t t y r u r t t t y y t u y t t y e y M M y M V M M M M M m M M v v y v v v v v M M v v M M M M M M M M M M M M t l v t 2 I eXJXFXFXJX!.i L i l M M V V V V V V V V V V V B B C V V B C B V V N V V M M b v M V B B B B B B V V V v v v v v v v M M M V V P P P B P T T U P P T P P P P P P U U V P T T T T T P P m V V V V P V P P P T T U P P T P P T T P P P T U U T T U U U U T U P P P U U U P P V v v , + = # $ > e v V V M v B B V P v v P v P V V V V v M M M y y M M M M y m B P M m B U V b K P I J J P P P K K B B V K B N N B B B K b B K B B N B b b N B N b b N N b B N b b b b a p a s a a b a a # + w i 8 8 9 d 9 9 d 8 8 9 9 d d w w w w w w w w w 8 e w e 8 8 u w 9 w 9 9 9 8 8 8 9 8 8 8 7 7 6 7 7 6 & > 6 > & $ 0 a i & . + * 8 s N r 1 # . * & 0 i s s i i w 8 1 1 > 0 7 9 w w u i i i i u i w w d w 8 1 1 $ $ $ & > % & 2 0 0 0 0 ",
"O O O + + # + # # # # # # $ $ $ $ $ @ $ $ + $ % $ % % % % % % % $ $ % % % % $ $ % % % % % & % & & % & % % % % % % % $ % $ % % % $ # # # # # # + # @ # $ & & % % % $ % % & & & > 1 1 1 1 > 6 7 7 7 8 8 9 0 9 w 9 0 w 0 w 9 9 w u t t u t t t t e t t y y y y y t t t y y y u a a t t a y t t t v v y n y t t v t t y y t t r r t e y y r e t t t M e y V P M y M M M M y M M M M v v v v v v v y M v j v M M v M M C C B B M M M M M M s w a !.KXKXHXmXHXm.0 L q R V B V P V V V C V A V V V V V J V J J V V V V V C C M M M M V v B B v V V v V P v V v v v v v B M V V V V P U P U T T U P P T P P U T T P P T P P P T T U P P P V m P V V V V P P P P T U P T P P T P T U P P T U U T T U U U U T U P P P U P T U V V v t , $ $ % % 1 t b P V M V B B v V v P V P P b b P V v y y y y y m y m m y e M B V V P V b V B b b b b B K V B B B B K B B K B N B B B N B K N N B N N B N B N B B B N N B b b v v s v a a a a a v a w X > e i 8 9 w 8 9 9 8 8 0 8 8 5 w w w i t w d r w w w w w w 8 w w w 0 9 r 9 9 9 9 8 8 8 8 8 0 8 7 7 6 > > > 1 0 6 & & 9 i w > + + # 1 r a i 7 % # % 1 9 i i i i i r 9 7 7 7 0 0 0 w w i i i i i i r r r r 9 8 1 ; $ + & > % & f f 0 q d ",
"X O + + $ # # + # + # # # $ $ $ $ $ % % % + % % % % & 1 1 1 1 , , > , > > , 1 & & & , 1 > > > & 1 & , % % % % % % $ $ @ % % % % % # # # # # # + . = # # $ % % % % % % % % & & > > > > > 6 1 2 8 0 0 8 8 8 9 0 0 w 0 w w 9 9 u d r r e r u e u e v y y y u y t t u t a a t t y a r t a y y y v v t t v t t t t t t v y y r r u t e y t r u t t t y e e m M B M m M M M y m y y y v v v v v v v v M v M M M M v M B M M V V C M u a y r a i r B.mXKXKXFXuXGXm.f  ./ V v V T v v M M V B V V V V V V V V V V C B B V V M M M v B V B B P P V P V P U P P V M v v M P V V V P B P T T T U U T T P P T P P T T P P T T T T P P P P m V V V V P P P P P P P P P P U T V U T U P U T P T U U T T U P U T T P P P U P P T P B v v e , + = & , 8 n P I P B B B v v v v P v P P V V V v v M y e e e M y y M y y e m V B M I V P P I B J P N B N B N M b b B B N N N N N N v B N N N N B b J B N b N B b v K b b b b n M v n s t p n s r 7 O e 5 w 5 w r 8 w 9 8 7 0 8 8 8 7 7 e w w w r w i w r d w w w w w w w 9 w u 9 9 9 9 9 9 8 8 8 8 9 6 & f 7 f > & & 7 6 # 0  .s & # . . % i l s 8 $ $ % & 7 r i i s p r 9 0 9 0 w 0 w q d u i i i p r w 9 r 9 8 1 1 $ + & > % % % f 0 q d ",
". + + + # $ $ % # $ $ $ $ # # # + $ $ + + $ $ $ @ , % % 1 1 1 1 1 7 7 7 6 1 > & & 1 1 1 1 2 1 1 1 1 1 1 > > > , & & % % % % % % % % % % % # # # O + + # $ $ $ $ $ $ $ $ % & 1 1 > 1 1 1 1 6 0 7 7 8 8 7 8 7 8 8 0 8 9 0 9 u w i i w w u t a p t e t y y y y y y t t t a y a a a y y y y y y a a s a a a p i u i i a a i i p t r t t t e e y y y e v e e M B e M v v v a v b v t b v v v a a v v v M M M M v b B a v v v N N B B s w b s s d m.nXGXFXGXLXFXPXg. .K r K Y V V M V P V V P V P P P N B B V P P V V P v v V B B B B M V P P B v V U B V V v v M B M P P v v P P U T T U U T T T T T T T T P T T T T T T T T T V B V V P V V V m V V m P P P P T P m P P U T T P P T T T T T T P P T U P U U U U U T P P P M r , , + $ % 6 w N K V B V B v v V V v v V P P B B M M y y y y e e e e m y v b y n v V V V V B V V V B B B B B b v P v v v v v V P P v V K B B B B B K B B B N B B B N B N B b b v v v y p b r a b b n O > 7 8 8 7 8 8 e e 7 7 7 7 8 8 1 1 1 7 7 7 d e w w w w w w w w w 9 9 q w w w u 9 0 w i d 9 8 8 8 8 8 7 1 1 > 1 > > % % & 1 8 r N , $ . . % w s b w & # % 0 7 9 a p i p i r w e 8 8 8 w w i i p p r t r r r 9 8 0 8 1 $ $ & ; f % 0 q q 0 ",
". + + = # $ $ $ % $ $ $ $ $ # $ $ $ $ $ + + + $ $ $ $ , % , , % ; 1 > 1 1 1 1 > > > & 1 1 1 1 1 1 1 1 1 1 > & > % , % % $ % % % $ $ $ $ # # + # + + + + # $ $ $ $ $ $ $ $ % ; > > > 1 1 1 2 6 6 7 7 8 0 8 8 8 8 9 8 8 9 9 9 w u w w u d t p t u v t t y y y u e t y y t a a y a s a a y t t y y a s p u i u i u a p a i u i r r t t y t t t y e t y e t M B y M a v v v v b v y v v a v v v v v v v v v v v v b v v v b N M N N a r s a i 8 [ iXFXSXKXFXSXyXB.} N I E I a V P C V V V P V P v V V B B V V V V v P V B v M M M V B V V A V V V V B B B B M v M B U T b v v U P v V U T | | T T U T T T T T T T T T P P P P V V V B B V V V V P P T P P P P P P P P P P U P P P T T P P T P P P T U U U U U U T T P P V v e , , # & > w v B V K V B b v v B V V B B P V V B B M M y y y y y e y M v n y r e r v V B M v B B M M v V V V V b V P V V V v P V V B B B b b b b b N B K B N b N B b b v v v v v v v y a b a a B v 1 O 1 7 w d 8 w w w w 8 7 8 8 8 8 > 1 7 5 7 7 e 8 8 e w w w w w w i d u i w w w w 0 9 9 q 9 w 0 8 8 7 7 7 7 0 1 1 1 > & % % % 1 8 a s > X + % & 8 p s i 6 # + 0 9 8 p p p p t r w w 7 8 e w w r d i t t t u r r 9 9 0 1 % $ & f & % ; 0 w 0 ",
"+ + = @ # $ $ % % % $ & % % % $ @ $ $ $ + $ $ $ + $ $ $ @ % % % & $ & , & > > > & & & & , 1 1 1 1 1 1 , & & , ; ; % % % % % % % % $ $ $ $ # + + + + + = # # $ # $ $ $ $ $ $ % , % > 1 1 1 1 6 7 7 7 8 8 0 8 8 9 8 8 8 8 9 9 9 w i u u i i t t r t t e y y e u u a y y a u a y a v a y a y y y y i u p u p p p a p p u i i r r r t t t t v e v e t y y e y y y y a a v v v B v v a v v v v v b v v v v v v b M M b N N N N v b v s i s a p 0 E tXGXSXFXFXMXyX!.A.E K I R C r M V V V V V V V B M V V V V V V V V v V v B M M M A B B M B V V V M V v v B M v v V T m v v b T P T V U T | | T T U T T T T T T T T T P V V M M V V V V P P V P P V P P P P P V P P U P U T P P P T P P T T P T T T P P U T U U U T P P B m 7 , $ , > e p b K P B B b v v v b V V V V V V B B M M y y y e y y y M y b v r t r e t v B B V V V V B B V V B B V V b V V V V V P V B V V B B B B B N B B B N b b v v a v v v v v v y v a n a v K i % O 7 e e e w w w w w w e w w w 7 7 7 7 8 7 7 7 7 7 e w w w w w r d i i i w q w 9 9 w 9 w 0 0 0 0 0 8 7 0 1 1 1 1 1 1 > & % # # 1 9 K r > $ + . $ 7 a s r % + % 7 8 w p s i r d i w 8 e d w w t t w t t t u r r r u 7 1 % % & & & % f 0 0 0 ",
"+ + # # # % % $ % f % & & & % % , % % $ % $ $ % $ $ $ $ $ % % % & $ % % % % & > % & % % & & & , & & & % & % % % > , , % % % % % % % $ $ # # + + + + + + + # + $ $ $ $ % $ $ % & % , , 1 1 1 6 7 1 0 7 7 7 8 8 9 9 8 8 8 0 9 9 w u d i r i r r t t t y y y y y y a y a y a y t y y a y y y a a a p p i r r p p a u i i u w i u u e t t t e v e e y e y e y y V y a v v v v b b v v a v v b M b v v v v v b b B M b N N B N N v v b a s p s 0 K Q.GXFXSXFXSXxX,X!.m.R w P B 8 M P U V V V v V V P V V V V U V V V V v v V M M M V A M M M V A V B V M v B B M M B v v 7 v v v T v T T T T T T U T T T T T T T T T T P V m B M B V V V V V P P V V P P P P P V V P U U P U P P P T P T T T T T T P T U T T T U P U V V B t , $ + $ 1 t b K K B B B v v v v v v V V V V B B M M M m y y y y y y y y v v v v v y t v v v V V B B N N V B V B V v B v V P V V P P V V B K B B B N N N N N N v b v v a v v a v v v n a a t v n b t O > e e e 7 8 w w w d w w w r d d e e w 8 8 7 7 7 7 5 8 8 8 8 e w r w w w r d u w w i i w w w w w 0 8 7 7 7 6 7 1 1 1 1 > % # @ $ 1 w a a 2 O X # $ 7 9 a a 8 $ % 7 7 i a i i p i r w w w w w w r r t r t t t r r r 8 2 & % % & % # ; 9 0 6 ",
"O O + + # # # # $ $ % $ % $ % $ $ , % , % % $ % % $ $ $ % $ % % % % % $ % % % & % % % $ $ % % & % % & $ % $ % % % % % % @ % % % $ $ $ # # + + + . + # + + + + # $ $ % % $ $ % % % & & > > 1 0 7 1 7 7 8 0 8 9 9 9 0 8 8 8 9 9 9 w i i i t r t u t t e y v e v v y a a a t y y t a y a y y a a a a p u i r r p u i r r u w r r r t v t t e t u e v e v e e v T P a b N v v v v n n v v v v v v a b v v v M b B B v b N N B N b v l s a t b 9 i E.FXFXSXSXFXSXiX,X!.m.L s i l E V P V B M M A V P V V U V V U V V B V M B M M M M v M B B B V B B M V B v v B V B V 1 v | T v e / T T T T P P U T T T T T T T T P T P V V V V V P V V V P T T P P U T T T U P P P U P P T U P P P P T T T P T P P T T T T T U P P P V B v , + $ , 8 n K J B B b v v v v v v v V V V V B B M M y m M M M y M M m M a b B v v v v v v B V P I V J J V P V P V b V V B M M B B B B B b B b b b v v v b b v b v N v v v v v t a a a p a t a p n 8 O 8 d e 8 7 8 w r e e w w r t t r i d t w w 9 9 w e 6 7 7 7 8 7 8 w 9 w 9 r r 9 9 r i u w w w w 9 0 8 8 8 0 6 1 1 1 1 1 % & % $ $ $ $ w N i 1 $ + X % 1 r N b 8 $ * , 7 r r d v p w w t t w i r r w r e u y a u r w 9 7 > & & & $ $ 0 9 9 0 ",
". . . O + + + + . # # # # # # # + $ $ $ $ $ $ $ $ $ $ , % % % % , ; , & % % % % % $ % % % % % % $ & % % % % % $ % % % $ $ $ $ $ # # # # # + + + + + + + O O + # @ $ $ $ $ $ % & % & > > 1 1 1 6 0 7 7 8 8 8 8 8 9 9 9 8 8 9 w w d q u r t t e t u y t y t e e t a y a u a t y t a a y y u a t y p p p r r r r r p r r r u w r r t e t t e t t e v e y e e y U P v N N v v v v v v a y a v v a a v b v v M B B b v v b B B B N N a s i r s i 9 V.vXGXFXSXSXSXSXiXeXQ.m.E s I E y P V B v M M M V V V V U U V V V B M V M M M M M B B B v v M v M v V V v v B M M 7 v T e m V 2 , U T T T T U U T T ` G T T T P P P V M V V V V P V P P U T T T T T T P P P P P P P U P T T P P P P T P P T T P P T U U U U P P P V V v e , + $ , r M P P K B N b b v V b V V V V V V B B M M M M M M M B M M V V b V B v v M v v v v b B J I I Y B V V V V V V v M M m B B B B B B C K B N N b b N v v b N v v v v v v v v a a t a p a a a > + e 8 w w e w w d w w w w r d p p p p p p i i r w t 7 8 7 7 7 7 7 8 9 9 9 w 9 9 9 9 w w u w w w w w 9 9 7 0 0 1 1 > 1 & & > 1 & + + $ & 8 s s 8 # X + # 6 0 s N 9 # % > 7 w r t i i p i w t w r w r 9 e y y p i r u r 8 6 > & % $ # 0 u q 0 ",
"O . O + . . . . . . . . @ . O O + + + $ @ + + $ $ $ $ @ % $ % % % % & % , & % $ % % % % % % % % & % & % % % % % % % % $ $ $ $ $ # # # # # + = # + + # + O . + # $ $ $ $ % $ % , & > > 1 1 1 1 7 7 7 8 7 8 0 8 9 9 8 8 8 8 0 9 w 0 i i i t e e u t t t t u v u e y y y a y y t y a a t t t t t t a i i u u i 9 r u r r u w w i p e e v t t t e e y t t t 2 m v v a M N N v v v v v v t a v b v v v v b N v v v N a b N N N B N N b a a 9 i s 7 { xXZXFXGXFXSXKXMXpXeX!.} l K K b V V M M M M V V V V U U U V V V V B V M M y M M V B v B M M M B v V B v v v v M v / e v P , , X T T T T T T T T T T T ` T P P P m V B V m V V P P T P P P P P U T P P P P P P P P P U T P P P P T P P P T P T P T U P U U U U U P V v e , $ , , y B P K b B B b V b V V V V V V V V M V V M M M M B B B V V P P V V B M b b b v r w t p a s b B b b V V b b V b V M M V V B B V B B B B B B B N N N v v v v v v v v t v a v a a a a a b w = , w 8 w d w 8 w w d w w w r w i p p p t a a a a p d r r e w e 7 7 7 7 9 8 9 0 9 9 8 0 w d w 9 9 9 w 8 8 8 7 7 6 1 1 2 & & 1 > % $ $ % # % 8 s p 0 % + + + $ 9 s s 9 5 , % 8 w w i a p p i d w r d r r r r t i r r r r 9 8 ; & % $ $ 2 q 0 ; ",
"+ + O + + + + + . . + . O O O O O O + $ + + $ + $ $ $ $ $ % $ % $ % % & & % % $ % & , ; , & & % & & & & & & & & , & % % % % % % # $ $ $ % $ # # + + + + . X + + + + $ $ $ $ $ @ & > 1 1 1 1 1 7 0 0 8 8 8 7 8 8 8 8 8 0 8 8 9 9 w w w i e e v v e e t y u v v v y a a y y a y a u y t t u y y y u r p p r r r r p r r r r r r u e v e e t t v e e e e v e v v P a v N v v v b v M s y a v N B b v v B b v v v v v b N N B N N N N a s r i s 0 ' xXFXFXFXFXFXGXFXSXiXQ._ d K Y Y B B M M M M V A V V V T V V V V V B M M M y M M B B v v M V V V B v B v v e m v | e e v | v O m T T T T U T T T T T T T T P P V V V V V V V P T V V P P P P U T T T P P T T T P P P P T T P P T P P P P P P P T U P V P U U U U V n m , , $ , , a B K K b B B v V b b V P V V V V M V V M M M M M B V B M B B P V M B V V v y v b v a n n b b b B B V V V V b V V B B B B B B B B B K K B B N N N v v v v v a a e v v t v v v v i s p N e + 8 w 7 w w e 8 e w w r r w w w r i a p n a n s s p s n n p d 8 7 6 7 6 2 0 8 9 9 w 9 0 9 u w 9 0 0 w 8 8 8 8 7 7 6 6 6 1 1 > % $ # % + $ % % 8 b a 8 % + + % > 0 t K 8 % $ 1 w w i n s a p p p t i y t t u u r r u i i 9 8 1 & & $ $ ; 0 0 f ",
"O O O + O + + + . . + . . + # = + @ + O + + $ $ + $ $ $ % , % $ % , % % % % % & % % % % % & % & 1 % % % , % & & ; , & > 1 > & % % % % * = % % % + + + + + O O + + + + $ % % $ $ & & & & 1 1 1 2 7 7 7 8 8 7 7 7 8 7 8 8 8 8 8 8 w w u w u i r i t t t t t u y y t y v t t t t y t t t t t t r t u r t t r r r i r w r r r r r r r d t t a i t w y e e v e 2 v B M C v b K v y t y v b v v v v a N b v v v v v v N B N N b N N B r a M s r u i  .eXFXFXJXFXGXDXKXSXMXyXg.q f  .l v T e v V U P U V U U U V V V U B B M M M y y y b B J J B K V V N R U r y r P R m e e B | v , V U V P T T U T T T T T T P P m V m V V P P P T T P P V P U T T P P T P P T P P P P P P P P P P P P P P T P P P T T T P P U U V V V v 8 , $ + , 8 b K I b V v v B b V V P P P b P B B B M M M M M U V V b b B V U V V V V K V V V V v b b b b M M M M V P V B B V M V V B B M M B B N b v v b B B B v v v B v v v v v v v v v e m a v K t % , d 8 w e w w w 8 w w w w w w i i i i p a s p p s p p b v s i i d r w 0 0 6 6 6 7 9 w 9 w 9 9 9 8 9 8 8 8 0 9 8 0 1 1 6 > > > & & & % % # + $ $ 2 p K 8 1 # + O # 8 t K w , % 1 w t n p p a a p i w i e t u t u t p r i w 7 0 6 & * = 6 0 0 ; ",
". O O + O O + + # # # # + # $ $ + O $ + $ $ $ $ $ % $ + $ % % $ % % % % % & & $ % , ; & % % & & ; % % % % % % % % , % % , & & % & $ % $ % $ $ $ $ + + + O . O O O O + $ % @ % $ & % % & , 1 6 2 1 0 7 7 8 8 7 7 8 8 0 7 8 9 0 9 9 i d i w r r r t t t t t t t y y t t t y u t t t t t t t u t t e r r r r 9 r t r r r r r r r u r t r t t t w r m e e m e e t v t n w a v v v v y v v v a v v v v v v v b v v v B b B b v v v v s a p t s i i i !.GXFXKXFXGXFXFXFXPXyX Xk.l f  .V m 2 V v M U U V V V U T V b v V M m M y e m M L K t 2 % $ % $ % 1 N I e | U e , y v V v v M V P V P T U T T T T T T T P P P T P P P P P P P T T P T P T T T T T T T T P P P U P P T T T U T T P P P P P P P P P P U P P P P P V n 8 , $ $ > w b J P b B B v v v v b V P b P V B B M B B B B V V V V b V V V V V V V V V K P b v v v v m n e m e y M M B B B B M B B B V B B B B B N N b b N B b v v v v v v e v v v v v v v u t v b w $ > 7 e e w w w w 9 w w w w w t r i i t w t d p p p a a v a p a a p a i i r 9 7 6 0 7 7 8 8 8 w 9 9 8 8 8 8 8 8 8 8 0 6 6 2 > > & % % % $ # $ $ $ 1 9 p N i 0 $ $ + $ 1 w s p 6 , 7 w w p d p p i p i r e t t e t t p r i w 9 0 6 & * * ; 0 0 f ",
". . O O . + + $ $ $ $ $ $ $ $ $ $ $ $ $ $ $ $ $ % $ # + $ % % % % % % % ; , & & > , & % 1 % % % % % % % $ % % % % % $ % $ & $ % $ % $ $ # % # % $ = + + + O O O + O + + $ % $ $ & & % & > 1 > 7 7 7 7 7 7 0 7 7 8 8 8 7 0 8 8 9 0 r w u u r u p t t y t u t y y t y t t t t t t t t t t t t e t w r r r 9 9 r t u i r u r u r r t t r r w r t i y t e e r e e t b P a a v v b a a a v a a a a a a v v v v b a a b N b v v v v b M v t u p p d 8 V.FXFXFXFXKXKXDXMXMXpXyX%Xg.i ; v v v } A V P A P B V T T V V U V M M M m e y M s 0 o X X   X X 2 e 2 q | V V 2 e M V v v v e V U V P U U T T T / T T T P P P T P U T T T P T T T T P T T T T T T T T P P P P T P P T U P P P U P T T P P P P P V V U P P V V U v r 1 , + $ 1 t b I P b B v v n V b P P P V V V V B B B M B M B V V P P V V V V V B B V V M n v m y e e 7 1 1 2 e e y M M B B V M M V V B B B B B N b B B N N N b v v v v v v v v v v v v v v v y y v 1 O w 8 e d w w w 9 d w i w w w w w r r d w i i w p s a n i p p a s N n a s a i 9 7 0 1 6 0 0 7 8 8 9 8 8 8 9 9 9 8 7 7 0 1 1 1 > & & % , * $ # + # $ > 2 s s r 8 & + # % % r N i > > w w i a p r w a p d e t r u r t t r i w 9 8 6 % $ % 6 0 0 q ",
"X . O . O + + # $ $ $ % % % % % , $ $ $ $ $ $ @ $ % $ @ # % % $ % & 1 & > > , 1 > 1 & 1 , % & % % , % % % % % % % % $ $ % % $ % $ $ $ $ # # # # $ + + $ + O . O O + + + $ % % $ % % % & > > > 1 1 1 0 7 8 8 7 0 8 8 7 7 0 8 9 9 0 0 9 w w r p i t t t r r e t y t t v t t u t y t u t r e r u t w w q r u r u r r r r i t i r r t r r r w r t p y e t v t e e e T T V a v B N y y n v a y v v v v v v v v v v a v v v b b b B B a v s a r u 9 9 ] mXKXSXGXFXFXMXPXSXxXyXiX9X] 0 e P T V v B P U V v v V V V V V V M M M y y e e . X   X o o X @   ; R R u u 2 y V T e v B e v V I V U T U T | | T T T T P P P P T T T T P T T T T P T P T P P P T T T T P P P T P P T T P P P P P T T P P P P P V P U V V V V P v e > , + $ 8 a b I V v V b v v V V P P P P v V V V v B B B V V V V V V P V V V B b b b v n t r e 7 7 , 1 , , 1 , e m M M B V B M V V V B B B B N b B B B N b b v B b v B v v v v v v v v e v v v t n % , w 8 e 8 8 w w 8 e e w d w w w w w w r w i w i w i i p i p s n b s n a s i i w 8 7 1 1 1 1 1 0 0 8 8 8 8 0 8 9 8 8 8 7 7 1 1 > & % % % $ $ $ + + + $ $ 0 r s a 8 % $ $ $ > t n w 7 > e w a s d i p a r t r r t r t r t 9 i w 8 6 & & % ; 0 9 0 ",
"X . . . . O + + # # % % % % % % $ $ @ $ $ $ $ $ $ % $ $ $ , $ $ , & & 1 & 1 1 1 1 1 & , > & & & & & & & & % & $ & % % % % % , @ * # # % % # $ # % + + + + O O O @ O + + + $ % % & % & % & > > 1 6 1 7 7 7 0 8 7 0 7 7 7 8 8 9 9 0 9 9 9 9 u r t t t t u r t y y t t y t t e y t y e e t t t t e r q w e u r t r r r u i t r r u r d t t w d t i i a p r r r e 7 B I v t y n b t v a a y a v v v v n v a v a v v v v v B N B B B v v v a a u i 9 L iXJXmXKXFXFXMXMXPXMXMXuXyX!.} , 7 v B T P A M P V v M V T U v v v v r e e , $ . X X + * + @ * 2 +   / } y 3 V / e v v v v v v U P T T T T | T T T T T T P P P T T T T T T T P P T P P T P P P P T T T T P P P T T T T P P T T P T T P V P P m U U P B V V U V v e , % $ $ 8 n I P b b v v v V V P P P P P v P n v v v v P P P V V b U V V B B b b a a w w 7 > , , , , , , , , e y y M M V V V B B B B B B M B b B v B M M b v B B b b v v v v t v v v v v e v N r p O 7 w w 8 8 w w w w 8 w w w w w w w w w r d i r w w d t w p d a a a p p s i i p s i i 9 8 1 1 > 1 1 7 8 8 7 7 8 8 8 8 8 8 6 1 1 1 1 > > % & % $ $ + + + $ $ 8 a s p 8 % + $ , > t n w 1 > 7 d p p i p p r r r r e r r r i i i i w 0 & % $ ; 0 0 q ",
"X X . . . O + + # # # % % & % % , % , $ $ $ $ $ $ $ @ $ @ , $ + % % $ % % % % & & & & & & > & & & & , , , 1 & & & & % % % & % % % % % = % # # % % + $ + @ O O O O O + + $ % % % % % % % & > > 1 1 1 0 7 7 8 7 7 0 7 8 7 8 9 9 9 9 9 9 r 9 9 9 9 u t t t t u t u u t t y t t t t t t t u u e e t r r w r r p r r u i r r r r r e r r r r i i r r i a d r t t d 7 t B y t y a v v v v y v a v a v v v v a a a v v v v b N b v N b M y u y a v i 0 a Q.JXDXKXmXMXPXnXiXPXnXuXxXpXE.UXe m v P P T V y v U P V U U B M v n e e e + O o o o * @ @ ; q u C l X C U M ~ v v m b v e V M U U T T U T T T T T P P T T P P T U T T T P T P P T T T T T P T P T T T T T P P P T T T T P P P P P P P P P P P P P V B V U T V v e , $ $ , w n I I V b v v v b b V V P V b V V V v B B V P b P V V V V V B B v s i w 8 7 > , , , $ , , , < , , e M B M M M M V B M B B M M M M B b b v b b M B B b B b v v v v v v e v e v e v N t 8 + w 7 i 8 w w w w w w w w r w w w w w w w r w t w w r r r w i p i p i p p i p s b l s i i 8 7 1 > > 1 0 7 7 0 7 7 7 8 8 8 7 0 7 0 1 > > > , % % $ $ # $ $ # & 1 r b s 9 $ $ = $ , r b i 1 > 7 r i a i p a u r e t r r r u i a i w 0 & % $ ; 6 0 q ",
". X . . O X O + + # $ % & & & & & , , % % % % $ $ $ $ $ $ % % $ $ $ $ % % % % & % & & & & & > > ; > > 1 > > & & , % % & & % $ $ % = % % % * # # % + $ + O O O O O O O + $ $ $ % & % % % % & > > 1 1 0 7 7 8 0 7 0 8 8 8 8 8 8 8 9 9 9 9 9 q 9 u e e u t t t u y t t y t t u t t e t e t u t u e r 9 9 9 w r r r r r r r r r r r t t r r t w t t r i r w r d r 8 e v y v v r a v v a y a v a a v s v v v v a a v a v v b v v b v M y y y a s a i 0 B.KXBXFXSXPXMXxXPXPXiXgXmXuX,X~./ P y M B M e e M P V b M B V B v n t e < O X o o * * ; f 0 q 6 l j l X 2 M j 2 v b v v v v U T T T T V U U J T P P P P T P P T U T T T T T P P P T T T T P T T P P P T T P P P P T T P P P P P P P P P P P P V P V V U T V V v 7 % $ % > i b P K B n v v n P V V V P P V V P P P V V P V P v b P P b B v n t w 8 1 < % % $ $ $ , , , , , , e M M B y e y M M M B B B M M B B B v B v b M b v b b v v v v t v v y v e e v v v n a $ , w 8 w 9 w w w w w w w w w w w w w w r r w w w w i w r w r r p t i i p p p p s b b s s i r w 8 0 > > 1 6 6 1 6 6 6 0 8 8 8 8 8 7 7 1 > 1 , & % % $ $ $ $ + + # & r s a 9 , , + $ , t y n 8 > 7 i a a p p t r q r r u r i s i i w 8 6 & % & 6 0 0 ",
"X O . O X . . + + # $ % & & & & 1 , , , % % % % % % $ # # $ % $ $ % @ $ % % % & % $ % & > > > > & , > > > ; , % % % % % & % $ $ % % % % % % % % % % + + + O O O O O O O + $ % % & % % % % & & 1 1 1 1 7 7 0 8 7 7 8 8 8 9 8 7 2 0 8 8 9 e 9 9 r 9 r t t y t y p t t t t t e t t r u t e r e r t w 9 q 9 u r r u 9 u 9 9 w w r w i d r w w w r d w t w e e t r e 8 v a M M e a v v y t a v a a a y v v M v a a v a a v v N b B B y M y y i t i a & m.GXmXLXmXPXMXiXnXPXxXvXiXyXgX%XIX} , , P y y / T A V T T V v a w e t 7 O X O o @ 0 3 0 q q 2 l ; 8 u u 4 e 2 M m v V V V T V I U T T V V P B T T P P P P P P T T T T T T T P V P P P P P P P T P P P P T P P P T T T T U P P P P P P P P P T V U T V U T V v v e $ $ , 7 i b B B B B V v v n P V P P B v n P P V v v P U T T b P b P b y e 7 7 f % $ + = $ $ , , $ < < , e e y V B y e y m M M B M B B B B V v B b B M B v B v v b v v v t v v v v e v v v e t b   8 8 w 9 d 8 w 8 d e w w w w w w i w i d w w w w i w i w w i i d i w w i i a s s s s s a i a p w 7 0 1 & > 1 1 1 > 6 0 8 7 8 8 8 7 7 0 1 > % & % % % % + O # $ # # % 8 a n i 7 , , $ $ 8 K r 1 > w p i r d p w w u r 9 9 i i i q w 9 0 f & % ; 2 0 ",
"X X O X . O . O O + $ % , , & % & % 1 ; , , & % & % % % % $ $ # $ @ % % & ; > 1 > > 1 1 1 1 1 1 > 1 1 > > > > 1 1 > & & % & % $ % % % % $ , $ $ $ $ + $ $ $ O O . . . . . * # % % % % f % & > 1 1 1 2 0 7 7 7 0 7 0 7 7 8 8 0 8 0 7 8 8 8 8 9 9 9 u 9 9 i u i i e t t r i t i r r r t r r w w w w w w w d t t i w w w r t i w w e r r e e r e e t t e e e e t r e v M v y t y v a s N l a a s v M a y a y t t y M v a v M a a y M v v y a u i i 0 L PXmXMXMXxXMXMXPXPXPXuXxXuXuXiXeX{ ,   r K N T y V P v V M y y v t v , X X O f ; 0 ; q 0 @ ; r q 0 6 > . X 6 w s N K J J V P T U V T T V K V M V V T M T T T P P T T T T T T T U P U T U P B U U P P P P U T P P P P P P T P P P P P P P P P P P m P P U P B m < , , < , M P B B M M v M B B B P U V B V V V B M m P P V V V B B B v v t 8 > % $ $ $ + O + + , , , , , , e n K B n r 8 1 r b e V V v B B b V B B b b b K B N b b b b v b v b a a v y w v b a b $ + e 8 0 9 8 e 8 8 e e 7 e e e d e e w e d r e t e r e r t r t t r r r r t e t r r t s s a a a a p r 9 8 1 1 % % % & 6 0 7 7 7 7 7 7 7 7 6 6 1 1 ; % $ $ $ $ % @ + $ + , 8 p N i ; % % % 1 w K 9 1 1 i i i r p r r w w r w w i r w w w 8 1 , ; ; & ; ",
"O O O O O O O . O + $ % & % & % % , % 1 > & & & % & , % % % $ $ $ % $ $ $ & % , & & & 1 1 1 > ; 1 1 1 1 1 1 > 1 & > & & & , % % % % % % , $ $ $ @ $ $ $ + + + O . . = * = * # $ % % % & & & & 1 1 1 1 6 7 7 8 8 7 1 0 8 7 8 8 7 0 8 8 9 8 9 9 9 9 9 9 r u d d u r e r w w w w w d w r w i w r w t r w i w w w i i w w r w i i w t t t r t t r r e t d e e r r r e 8 v U V M y M s a a a a a a s a a a M v a y v M a a v M M M M v y t t a a p r 0 i Q.mXPXPXPXPXgXuXuXuXgXxXuXiXpXFX} e K   9 J K v v B V A v y y v t t , X X @ ; l 3 o / L o 0 6 6 # @ > $ + # t s a b K V P P U U V P J V K J U P V P B T T T P P T P P T T P P V V U T P P V P P P U P U P U P T P P P P P P P P P P P P P P P P P P P T P V m e , , , e M V V V V B M B B B B V V B B V V m P V V V V M M B B B v m 7 7 , = = + = + + $ , , , , , 7 , > 8 n K B y w 8 8 e v e t V B v B B M b B B v b N B b b b b b b a v b v a a v t a v y n + > 8 8 d 9 r 7 d 8 8 8 e e 5 8 e r d d e d t e t d r r t d t r r r t t r r t r r w t a s a y a p a p p u q 8 6 & & % & & f 6 7 0 7 0 7 0 6 f 1 1 1 > & $ % % & $ $ $ @ + % 1 a a s 9 & = $ 0 r a i 1 & r s i p i r i r t r w i i i w w w 1 % f & & * ",
"X O O O O O O O O + $ $ % % % & % % , % & & & & % % & % % % % % $ $ $ $ $ $ % $ & & & , > > > > > 1 , 1 > > > & 1 & & % & % % % @ $ & $ $ , $ @ $ $ $ $ # + + . * . . = * = * f $ % % & & & & & > 1 6 7 0 7 8 8 7 7 7 8 8 7 7 7 8 8 8 9 8 9 9 d w w u w u u d i r w w w r w w r w t w d w w w r r t i w w i r w w w r d t i r d r r t r d t r r r t r r e r d w r 7 e V Y M t v s a i a s s s a a y a M M s a v a y t v M N N N v u u t a y i 0 9 f k.NXxXPXMXuXuXuXiXiXuXuXuXuXuXkXE T E ,   r T T B V V v v V A V v v 1 X O $ ; q q 2 | >.K l . ; & O $ $ . X a s N B I T P T V V V V K K b v B m m B T V P T P P P P T P P P U P P U T P P P P P U U T U U U P P T T P T P P P P P P P P P T P P P m V P U m e e < , , e M B V V V B B M B B V V V V V U V M V B B V V B V M v v v e , , , # O O O + , , , , , , 7 , 8 8 t B K b r 8 1 7 e v b , v P v v V v b b b b b b N b b v b b n v a b v a y v a a a d 8 . w w 8 i 8 d 8 e d e e w e e d d e e d e r t r e r r t t t t t e e t t r t e r r t r i a i u s a s l a i p r 8 0 1 % % & & & 1 1 f 7 7 7 7 1 7 1 7 1 1 & & & & $ $ + + + + + > r s a 8 & & & & a N 8 % 1 r i i i i i i d w e p p t w i w 7 % f ; * * ",
"O O O O + O O O O O + % % % & % % & % , % % % % % $ % % % % $ % % $ $ % % $ % % $ & % & > > > > ; & & & % % % % % & % % & , % % % + $ * $ $ $ , $ $ $ + # + = + . . = * . * * * % % % & & & & 1 1 1 > 6 0 8 7 8 7 7 7 7 0 7 7 0 8 8 8 9 9 8 8 9 w w w w d w q q r w r r w w r d w w w w w t i d w r d w w t i i i i r w w w t y r r d t r r e r t t t r r r r e r e e M N M a p N N s a s b v s y y y a v y y a r u y s N l a M M v a a a u r 8 i & W iXPXgXuXuXuXuXuXuXuXuXsXiXiXFXY / { } e   t U V B e 2 M V V P B v 2   . 1 u - y l q L E l ; 9 0 + # # . # i N C P T T P P V V V V I V b w e M P M V B V T P T P P P T P V T T T T U P P P P P U U T T T U P T T P T P P P P P P P P P P m P P P P P U P M e < < , , y m V V V B v v M B V P V P V V P V B B B B V V V V V v v e , , $ = $ + + $ , 1 e t t 7 7 e e e t b K K n w 7 1 1 e e B 1 e J b B V v K B b B N K N b b b b b s a b b v t a v a i a p , % w w 8 r 8 8 e 8 d e d r d r e e d r r r d t r e r t t e r r d t r r r r d t r r w r r t r r p a a a a a i t i r 0 1 f & % % > > > 1 6 7 7 0 2 7 7 1 , & & & % $ $ $ $ $ + + + & 9 r p i 0 + % 0 i a 8 % 1 i i i w i w w w w d t r i i w 7 , ; & ; % ",
"= + + + + + O O . . # $ $ % % & % % % % % % % % $ $ $ $ $ $ $ $ % % $ % , % 1 , % % % & > , & & , > & & % $ % % & $ % $ % % % % # # $ + $ $ $ $ * $ # # # # # + + + . . + # # $ # % & % % & & & 1 1 1 7 0 7 7 7 7 1 7 6 2 7 7 6 0 7 8 8 7 8 8 9 0 w 9 9 u w w w t d w i t w i w w w w w w w w i w w w w d t t t i i w r i d t p r e t r r r r r e t t r r t e w r r 9 a l b N N M N N N v v v v l y y a y u t a v a a a M a v s v v v v a r 9 9 r 0 9 E.mXuXpXuXgXuXuXuXuXuXuXiXMXeX/ { E.{ + .   t P n 2 v | M B V M M 1   + 2 @ 2 y u u V T } i i % . % & $ > e v B U T T V V P B B V V v v v t | | V M T U B T T P P P T T P U P U T T P P P U U P P P U T T P P T P P T P T P P P P P P P P P P P V P T P B y , $ , e y V V P B M M v v B P V V V P B M M B V V V V V B M M y e , $ $ O O O + $ , e v v v v v v t e w y v b K a 8 7 , 1 1 e b v , v V B V B K b b b K B N v M n b b M b v a v t y v t t n v . > 7 d w 8 d 7 e d e d e d e d e d d t r r t t e r r r t r r r r r t e t d t e r r r w r r r r t t p p p p u p s r 9 0 6 > & $ % % % > 1 0 7 0 1 6 6 1 > & & & , $ + $ $ $ $ + + $ % 7 i N t > & $ 6 s s 7 & 7 w i i t w i w w w w w i i w e > & ; % ; ",
"+ + + + # + + O # # # $ $ & & $ % , % % % $ $ % + $ $ $ $ $ $ $ % % % % % , , 1 % % % , & & & 1 > > 1 & 1 1 1 % & % % $ % % @ $ @ # @ + $ $ $ $ % * # # # $ # # . . . + * = # * # % % % % & % f 1 1 1 6 7 6 7 7 7 0 7 7 7 1 6 6 0 8 8 7 8 7 0 8 w w 9 9 w 9 w 9 w w w w w w w w w w w w w w r r i i i w w r d r w w t r w w r i r r t t t t t r e e r r e t t t t 8 9 a b p i s y M C b e v u v v a a y y y y a V N M a v s M V y v v u t 9 9 r 9 9 & { LXuXpXMXxXuXuXuXuXuXuXuXmX%XB E.m.& $ >   X w P K P E v V B A M 2 X X 1 @ 2 3 @ ; 1 o t * ; % & f % + & t v P T T V M B M v M B v e m V B U P P M V V U T P P P P T T T T T T T T T P T T P P P P P U U T T P T T P T P P P P P P P P P P P V V P P P B e , $ , e m P P V B B m v M B P V P P P B M M B M V V V M B M y e 7 , , O O O O , 2 e v B B V V v v v v y v B V B y 8 > , , , 8 t B 1 e T M V B V b a b B N b a s b a a s v b a n t v v t t t e O r 6 r r > s 7 8 5 8 e 8 e e d e e e e e d r d r e e r e r e e r r r e r r r e r r w q 9 r w r 9 r r t p a s s i i i w 9 2 1 & $ $ $ $ % > > 1 > > 6 1 > > & & 1 $ $ $ $ $ @ $ $ # + % 8 a s v 6 % > w s p 7 & w r p d i i i i w w w i d t w 7 & & % % ",
"+ + + + # # # # # # = * $ $ = & , $ $ @ $ $ % $ $ % $ $ $ $ $ $ % % $ , % % % % % % % > > > & & , 1 1 1 1 1 1 1 1 % % % % % $ $ $ $ $ $ + $ $ , $ $ # # # # # # o = . . . * # # % % % $ % % & & 6 1 1 6 1 7 1 7 7 7 7 1 6 7 1 1 8 8 8 8 8 7 8 9 0 0 w 9 0 w w 9 w w w w w w w w w w w w w w r i t i w i r w t w w w d t i w w i r r y d t t t d 8 r r e r t t r t 8 8 t p i i a y v v v v v u t a y t a a a a s V M a a s M N B v u u u 9 9 9 9 9 i 6 I MXuXuXPXuXuXuXuXuXuXuXuXMXQ.E } 1 e i & %   X d K B v N T V M M u + @ @ ; @ 2 @ 0 y , @ . ; ; & % X X & v P A V V A M M y v v v m e m B M 7 m U U m m T P T T T P T T T ` T T T | T U T T U P P P P U U P T T T T P P P P T P P P P P P m V V V V P V M e , , 2 m v V P B B B M v B V P U V V P P B V P M B V B M M M y e , , $ + + , , e y v V V V V V v v v v v B P J B v e 1 , , 1 e r v n e M V v B B n b b b n s M N s a v v b a a a y v y y n r $ , w 7 w r 7 i 7 e 5 e e e e e e d r d r d r t d r r t r r e r r e r e t r r r t r r r r q w r r 9 9 q w p u p p i i i i w 9 0 0 > & $ # $ % % > , > > 1 1 > & & & $ % % % % + + + + + # * 1 r N r 8 f 6 w s p 0 7 e i p a a r w w d w w i p w 7 & ; ; & ",
"+ + + # # # # # # # $ $ $ % % % % , % $ # $ $ $ @ % $ % $ $ $ @ $ % @ $ $ % % $ % & & % & ; , & ; 1 % % 1 1 1 1 1 & 1 % % 1 % $ $ $ @ + $ $ $ $ % $ # # # # = # = . * = * = # * # % % f % & & & 1 6 6 6 0 1 7 1 7 2 0 7 1 1 6 6 8 0 8 8 8 8 9 0 0 9 0 9 w w w w w w w w w w w w w w w w w w w r w w w w w i i i w w r i w w w r e w t t t t t r e d r r e r e w 9 r w 2 w N C s v y y v v v v t e e u a v a v N u y y M N v v v v v v t i 9 0 0 9 0 0 s iXiXkXiXuXuXiXuXuXPXsXuXmXE.r . & e 0 0 7 . X . r I N I T B t M M e 2 , 2 1 2 * u L 2 O 0 9 % X . . . ; U U M y v y y v A M v v v V v y e e U P P m T P P T T T T U T P T T T T T T T T T T T U U U T T T T T T T P P P T T T P P P T m P P m V V P P m e , , 2 y n P P B B M M M M V P P V m V B B V P B P V M M m y e , , O O O , , , v v V U V v v v V V v v v B P J B n r 1 % , , e e t V e r P r v b B B N b a v K v v v s s M n s t y y t v v e X 7 w w 8 w e 7 9 e e d w d w d w e r r t r t r n v d e r e t r r r r t e r e r e e u 9 e e w e u q 9 9 r r 9 r u s a i a i i w 9 7 6 & $ $ % % % & & 1 1 > & & & & & , > , % + % # + + + + + , e l r > & 7 p a s , 1 w p p d w w t t i i p p w 7 & & & & ",
"O # # # # $ # # # # $ $ $ $ $ $ $ $ $ $ % % % % $ $ $ $ $ $ % $ % $ % $ % % % % % % & % % % & % , & & & & 1 1 1 , & & & , % % $ % % $ $ $ $ $ $ % % % # $ % f = . . . = * o * = # # $ % % % & & > 1 > > 1 1 0 7 > 6 6 1 0 6 7 7 8 7 0 7 7 9 9 8 9 0 9 w d u w 9 w w w w e w w w w 9 8 e w w i t w w w w w r w 8 d r w w w i t w t r e r t t t e t t r r w e e e r u i 0 0 J E s a t y N u M e y v a a a y y y y y v v a M v v v v v a r w 8 9 8 9 f s 6 N.FXpXkXiXuXvXiXuXMXiXuXHX{ o > i & 8 p 8 $ 1     s I J V M M A B 3 V 7 O 2 2 O $ $ X + 6 * 6 X % @ * ' U y e y A A v A v y y e T M M , e P B y , , v U P U T T T T T P T T T T T / T / P T T P V P U P P T T T P P T T T P P T T P P P U T U V V P P b e , , e v V V P V v v v B V B B V V V V V V B v B B M M v y e , , + + $ $ $ 7 v M M V V P P B v v M M v v M B M b r 7 , , , , 1 8 t b B v t v v B b b N N a b K b b b b v n s v v t v y v y , $ 8 8 8 7 0 0 0 9 d e e e e e t d p r e d r e e r t t r t r t t n d t r e r r r e r r e r e q 9 9 e r e e e r r t e t t y y y p p e e 2 , $ @ $ $ % % ; 1 1 1 > , & & & & % $ % $ $ @ + + + + $ # a s a 8 > 6 i s t , 0 n p w i w i r w i i t w 8 1 & ; ; ",
"# O # # $ # $ # $ # $ $ $ % $ % $ @ $ $ # $ $ @ $ $ + $ $ @ $ $ $ $ $ $ $ % $ $ % % $ & % & % % % % % 1 1 % % 1 ; 1 & & & % % % % @ % $ % % % $ $ % $ $ $ & % * . . . = = = + * # $ $ % % % % & 1 > > > 1 7 1 7 6 1 1 6 7 7 7 7 7 7 0 7 8 8 8 8 8 9 0 w u w w 9 w w w w d w w w w 9 8 e w w w d i w w w d i w w r w e w w i w w t r e r r d r r e r e e r r t r r 9 i 8 0 N I a a t a y e y u v a y y y a M a a a a v v M M v l v v a u r 8 8 9 9 6 w f { mXiXiXuXgXkXiXuXMXiXuXCXY   r w % K 0 p s   % 0 . i E B t % v V M V 7.V 7 $ - O O @ $ * O . & * * i w , , , e y M P R A A e U M e e y m v y y t y V V U T T T T T T T T U T T T T T T P T T U P P U T T P T T T T P T T P P T T P P P V V V V V U P b e e 7 e v B V P B B v B B P V V V V V V V B B b M B B M v t 7 , $ + O + $ 2 y v V V M B B V P P v v v v M V V V B y 7 , % % , 1 e v b B v v v v K N b b b b v N b b b b b v b v v y v n y y , , 8 9 9 9 8 9 9 d w e d e d d e r e d e r e d e d r r e d e r r t r e r e t d t t q 9 e w w r e r 8 9 8 9 q 8 9 r e v t t a t t i e e e 1 , , $ @ $ $ % % & > & > & & , % % % % $ $ $ + + + + + + % 8 i i 1 & 7 a i 8 > 8 a a w i i i w t i d w w 1 f & 1 ",
"O # # # # # # # # # # $ $ % % % $ % % % $ # # # $ $ $ $ $ $ $ + $ $ @ $ $ $ + $ $ $ $ % $ % % % % % % & % & 1 & > > > , & % & % % % % % % % % % $ $ $ # = f % # o . . * * * . = . $ $ % % % % & > > > 1 7 2 6 1 > 1 7 7 7 0 7 7 7 7 2 7 7 9 8 8 8 8 9 w 9 w w 9 8 w w w e 8 w w w 8 w w w i w w i r w w t r w w w w w w w t w w r e e r r r e r e d e r r t d v i w i 9 0 i C a M t M u y y u M a y y a v l M a v a a v s M M N v v y t w 8 9 9 9 8 9 > E gXgXiXuXgXvXiXuXMXiXMXmX& + 6 % i 7 v 5 6 / ' b + & i N 1 t ' V V e T Q.} X X 2 @ O O 0 X % & . % % $ O , , 4 e j A A } / y A e y e P y e y y v V V V T T T T P T T T U U T T T T T T T U P U U P U T T P T T T T T P P T P P P P P P b V B v V I J b e e 4 e n b n P n v v B B V V P V V V V B v B M M V M m m e , , + $ O + , v v V P V B M B V V P v v v y y B V V b n 7 , % , , 8 t v b B B v v r a b b v b b b b v b b v b b v s v y t v a r $ 1 9 d 9 9 9 d w w w e e d e e e t d e e d r d r t e r r e e e r e t r r t t r t e e w q e w r e u 8 8 q 9 8 8 9 9 u e e t t u r t t u e e 2 , % $ + $ $ $ $ % ; , & ; , & % & & $ % $ $ + + + + $ . % w s r 6 0 r p a 2 , p s w a i r r t i p t r 6 ; & ; ",
"O # # # # # # # + + + # # # % $ 1 % % % % % % % % % % % % $ $ $ $ $ $ $ $ $ $ $ $ $ $ + $ $ $ $ % % % % % 1 % 1 1 > > , ; & % % , @ % $ % % % * $ $ $ $ # % * * = . . . = o * * + # $ $ $ % % & > > > > > 7 6 6 6 6 6 7 8 8 7 7 7 7 7 7 8 8 8 8 8 8 0 0 w w w 9 7 e w w w w w w w d w w w w w w i w w w r w w d w w w w r d w w r e e e e r e e r r r r e r r t i 9 w i 8 t n b M y M t M v M M v v v a y a a a a y y a a v M N v v y t r q 9 9 9 r 8 0 i eXmXiXxXuXuXuXuXkXuXnXpX$ $ 7 1 i 8 w 8 _ !.N.' i   & J l E / v / M V V V.} 8 $ O + @ % . % ; % 6   O $ , , e 4 u u u U / G T 4 e P U y e V v B P B V P P P T T T T P T T T T T T T T T T U U U U U U T T P P T T T T T P T P P P P P P V B v V P K v e e e e V U b P B B B v B V V B V V V V v B M B M M M y e 7 , , $ + $ , m V V V V V V V B B B B M M M v M B V V K p 7 , % , , 8 t t b B V B v t w a b b s b N b b v s v a a v v v v y t a > % 8 9 8 r w 9 8 w w w d e e r d r d t w d t t t r d r t r r r r r r r r r e r t r t r r r e 9 9 8 9 9 e e e e e 8 8 e e e e r r r t t p t t e e 2 1 % % $ + $ $ % 1 & , > & & % & $ % $ $ $ + $ + + # # & r s p 9 0 i n w < 7 i t a i i d t p p i w 0 6 6 6 ",
"# O # # # + + # O O O # # # $ $ % % % % % & % & 1 % , & $ & $ % $ % % % $ % $ $ $ $ $ $ $ $ $ % % % & % % & , & > > > > , % & % % % $ % $ $ $ $ # $ $ # $ % $ = = . . = + # . # # # $ $ $ % % % > & > 1 0 1 7 1 1 7 0 7 7 7 7 6 7 7 7 0 7 7 8 9 8 0 9 0 9 9 9 9 e 8 e 7 d w w 8 w w w w w w w w w w w w w w w e w w w r r w i w r e r r r r r r r r r e e r r e w 0 9 u w 0 r b u r y y M y M y a M v a v y a y a a y t a v s M b b s s p r 9 9 9 w 9 9 7 ~.kXiXuXuXgXuXxXPXiXmXpX  6 p 6 i e 2 ' Q.7.Q.{ 0 X   O N K a e T V T e 8 V I e .   #   ; X 9 8 ; & X $ , - , e j j 3 4 A G T V V U y v v T P B U v U V V P U T T T P T T T T T P P T | T T U T T T P T T P P T P T T T P T P P P P T U P b V V J B b r e e v V T V n V v V B P b P b V V P b B v B V M M y y e , , O , O $ e v V V V V B V V V B v v v v v v y M V V b r 1 , , , , 7 t v b V B B b v e a b b N b b N v s s v n v a v v t v e v $ , w 8 9 w w d 9 9 w e 8 w e e e r r r r r t d d r t t t t r t e r r e r e r r e t t r u r w q 8 e 9 q 9 r w 8 e 8 e e 2 e e e e r r r t y y e e e e 1 , % $ + $ $ % 1 % 1 % & & % % % % $ $ $ @ + + % + + % r v p 6 w i a w , 8 i d i r r d i i i w 8 6 ; 6 ",
"O # # O + # + + O + + + # $ $ % % $ % % % % & % ; , & & & & & % 1 % 1 % & % & % % % & % ; , % & % % % & & , ; & > > > & % & $ % $ $ , @ * $ $ # # $ % $ $ % * * * + . . = . # + . # $ $ $ % % & & & & 1 1 7 1 1 1 1 1 7 0 2 6 6 1 7 7 7 7 0 8 8 8 0 8 9 9 9 9 0 d 8 7 e w w w 8 w w w w w w w w w w w w w w w w w t w w w i i w e r r t r r e r e e e e r e t r i i d i w 0 q s t y y y M M M u a y y a a v v v v j a v a a v M s b s s p i r r w e 9 9 , UXMXgXuXuXMXuXPXuXuXCX!.+ 9 + r i o { Z.m.Q.{ w & + 8   8 N Y T V R V K N V 2 1 8 * 6 & 0 s i . o 0 # + $ ; , 4 3 j M j 4 g T G T y 4 V n V b P P V P P V B P T T T P T T T T T P P U T T | T T T T P P P T T T T P T T T T T P P P T U P V P P P J B y e e n U U P v V v v P b P P P P V V V B M M B M M e e e 7 , O $ + e v P V v V V V V V V V P P v v v v M B V V v r 1 , , , 1 8 t v B B B B B V r p v K N b b b v n v a s s a a v r v e r + 8 e w w e w 9 9 9 9 e d w d r d d r d w t n t t d t r r d t t t r r t e r e r r r e 9 e 9 r r e w e e 9 9 e 2 8 8 2 7 2 7 7 e e e r r e t y v t e e 7 2 > % $ + + $ @ % % 1 & % & % % % % $ $ $ $ $ + # + + > w p r w w n s , > i r a t t w i i i r 8 1 & & ",
"O # O # + + + + + + = # # # # $ % % % % 1 % & & & & , 1 > > > & % 1 % 1 & & % % & % & % & , , & & & & & & & & & , & & % % % % % $ @ @ $ $ # # # $ % % $ % * % = = + . o + + # # . # $ $ $ % % % % & & 1 6 1 1 1 6 1 6 6 6 6 > 6 7 6 7 7 0 7 8 8 8 8 8 8 9 9 9 9 8 e 8 7 8 e e d w w w w e w w r e w w w w w i w w i r r w r w i e r t r r e r r e w r r r r t r s s i i i 0 9 p B I a M M M M y a y y a y v a a a a y M v a a a s s s N s i i w w 1 e 8 e V iXuXuXiXxXuXuXuXiXCXB.  1 i $ 8 7.m.~.~.} , 0 & / { w X @ J V M V M C R N u U J t J I C | K & X . 6 @ - , 4 3 4 u j j e h A P A e M B V n V V P P B P P V V U U P U U U U T U P P T T T T T T T T P T P T T T T T T T T T T T P P T P P P P P P P V v r t v B P b b b V v V P P P P P V b V M M v v M m e e 7 , O $ O , m v V P V P V V V V V B P P v v v v v B P P b r , , $ , > e t v b V B B M V v w e v N N a s a a s v a v a a v t r v , , w 8 w w w 8 9 9 w w d e e d r e d e t d e d t r e d e t r t r t t r t t r r r r e e r e q w u 9 e 9 8 e e q e 2 8 8 e e 2 e 2 7 e e e e u t t e r r w 9 7 > , $ $ $ % % % % 1 % % & % % % % % $ $ $ + $ % # % > r M r w a a w 1 8 i a p r i d i i r 8 6 & & ",
"O O # + + + + O . . + . + # # # % % & & % 1 1 & 1 1 1 1 1 1 1 1 1 1 % 1 , , ; 1 % % % & % % % & > > > & > & & & & & & % % % $ @ $ , , $ $ # # # # % % % % f % # * + . . + = . + + # # $ $ $ % % & & & 1 1 7 1 1 1 6 1 1 1 1 1 6 1 0 7 7 6 0 0 8 8 8 7 0 0 9 0 9 w 8 w 8 8 7 8 w w w 8 w 8 w d w e w w w w w w w w w d w w w w w e e t n e r d e t t t r r d e t d i q 9 w 0 0 r Y R v M u M M v l a a y a a y y a y a a a y a a a s b b l p i w y , e e e v iXMXkXiXuXuXuXiXuXCX{   2 > s { B.m.~.| , 7 l ~.E.m.{ 9   2 V V 2 y r J Y Y Y J R L E | a E ' # . % $ @ @ , e 3 q g j g M 4 A T A A v T P T P n T P V P P P V V P P T U U T T T T U U U T T T T U U T T T T T T T T T T T T P P P P P P P I P V J V v v v n B K b P v V P P b V V V V V V b B b v a y e y e , , + < $ e v B V v P V B V V P V B v B v v v v v B B V b r 1 $ , , 8 r t v b B V B B v v 8 , w N n a a a v a n a s a a n v 8 b + , w 7 w w w w 9 9 w r e e e r d e r w r e e d e r r n r r t r v d t t d t e t t r d e t r r w e 8 9 9 e e e r r e 8 8 e e 7 , 7 2 2 8 u e r r r t r r i r w 9 1 , % $ $ % $ % % % % 1 $ % % % $ % $ $ + $ $ & % + 2 v i r w i n 8 > i b p t t a p p i w 0 ; & ",
"# O . # . . + . . + + + + # # # % % & ; f > > > > 1 1 1 > > > 1 1 % , & & & % % , & & & & & 1 % % % % % % % % % @ , , , & $ % $ $ $ $ $ $ $ + $ # + $ & > , $ O $ # O O + + + . . # # # $ % % & % % % , , 7 1 1 e 7 1 7 7 7 7 5 1 1 8 1 1 8 8 8 8 8 8 9 9 9 9 8 8 8 e w d 8 e 8 e w d e e w w w w w 8 8 8 w w d r w w w w d r w e e e e r r r r r e e e e e e e r e w r e e e , t b b v b a p b v v y y a l v a t y v a y y a M v v v v v t e v 7 v 7 e r , E.AXiXuXuXPXpXkXiXFX] X v 5 UX~.[ Z./ , , v !.~.~.%Xb , X   w Y w J { M V P T U R R R V M @ N % # $ & X r ; ; u 3 j 4 y A 4 A A A A V V U U P U T U T V V b V b U v P P | P | T P | U P U U T T T ) / | T T T U T T | T U T U P P T T I P T T U P P P n v B K b b I P P P P P P V V V V B v v v n s e m 7 7 , $ $ + $ e v V V P B V P V n P V V B B B B v t v K P K b r , % , , 1 w n M B B J K B v t n , + V v n y a b b b b b p p t p v e O w 8 w w e 8 8 w 8 w w w r d t w r r r w w w w r r r w r r r t r r r e r r t r t t t t w t w w w w 7 8 w e e w 9 w w w 7 8 7 8 7 7 6 > 7 e 7 7 e r d r w w 9 8 e 7 5 % $ $ $ $ , , % , % , % $ $ $ $ $ $ + $ $ $ O , e s v w e v y 2 1 e v y t t y a r t 8 > 6 ",
"# # + . . + . + O + + # + # # # % % % & > > > > > > 1 > > > > > 1 % % , % % % $ % % % % $ % % % ; % % $ % , , % $ 1 & & % % $ % $ , @ $ $ $ $ $ $ $ $ & 1 1 $ + $ + O . O + O . # O # # $ % % % , % % , > 1 6 6 5 > 1 1 7 , 7 , 1 7 1 1 8 1 8 8 0 8 8 8 9 8 8 9 e e 8 8 8 e e d 7 e 8 7 8 w w d d e e w e w w w r w w w i w r w e r r r e e r e r r r e e e r r r r e r r e e 1 n J v w t v a b v a a a a a a y t t y a y a l M y v v v v y v t e e e 7 r , m.mXuXuXuXvXiXPXuXKXV O , 7.UXV.7.y e , T 7.Z.E.~./ $ , 7 X   w K C | b V C V M V V V V 2 O N w . # & 0 } [ ; @ u u y h y y y A A A V V U U U U U P v P T P v v V U B T P | T U T T P P P P U U T T T T T | ) T T U T U U T T U P U T V V T T V P I I J B J P K J T P V v V B v B B B V B v b b b a e e 7 7 , < O + , v V V P P v v P V V V V V m B v b v a v K J b p e , % , , 8 t v b M B B V V v N r , X n v t B a a v a n a p t i p n > $ w 8 w w w w d w w w t w d r r t w r d w i i i i i t d w w r r t r r t r r r t t e r t r i i w i w w w w w d 8 w 8 8 d e 8 8 8 7 7 6 7 7 , 7 7 5 e e e i w w w 8 8 7 1 , , , $ , $ , % % % % % % % % $ $ + $ $ + @ $ , r a y e y a e 1 2 t v r t y y e r 7 > > ",
"O # O @ + + + + + + # # # # $ % $ % % & > > > > 1 ; 1 1 & & % & % % $ % % % $ $ % $ $ % $ $ $ $ % % % % % & & % % % , % % % $ % $ $ $ $ $ $ $ @ $ $ $ > 2 6 % + # + O . . + + O # # $ $ * % % $ % % , , > 1 , 1 > 6 > 7 7 7 7 7 7 1 1 1 1 8 8 8 8 8 8 8 8 8 9 9 9 7 d 8 8 e e e 8 d 8 7 8 8 e 7 8 9 d 8 w 8 w w w w w w r w w w e e r r e e d r t e r r e r r r w e e w t e e 8 e B K v b K v r M y y y a y y a t y a a y a v N y y v t v v e e m e e 7 8 , | uXuXiXuXkXuXuXiXCXB , UX7.~.7.v , , V G.~.V.E.E % a 8 & %     i E C t B V T V V V V T 1 O 1 7   & 6 9 N l & u 3 2 y 4 e 4 j A A A V U T V T T T T T V P V b n n v m M v T M P T P V P P P P P P T T T T T T T T T V U U U U U T P T P P T T U V I P K B B B B B K v v y v v v v B v B B B B b v n e e , , , O + + 7 v V V V V v V B V P P B B B B v v b b K P K b d 1 , % 1 1 w n v v b B B K V M v 8 1 X 2 b y b p p a a a a p t p i w $ , d w e w w w w w w w r w r r r t r r w w r t a p t w w r r r r d t r e t r e r r d r r r i w w d w w w w w w w 8 e 8 8 e w e 8 e 1 5 1 , 7 1 7 7 7 e e r w w 8 e 8 w 8 > , , , $ % % $ % % , , & & % $ $ $ $ % $ + + $ 1 r v y r v y 2 1 e y t t t t r r 8 1 > ",
"# O # O . + + # # = $ $ # % % % * $ % & & > & > & , & , % % % & % % % @ % % % $ % @ $ $ $ % % $ % % $ % % % & % % , % % % $ % % $ , $ $ $ $ $ $ $ # # & 7 0 % O + # + + + # + + # # $ $ % $ % % $ % % , > 1 , 5 , > 6 8 7 7 , 7 8 1 8 1 1 1 8 1 0 8 8 8 8 9 8 8 8 d 8 8 e 8 8 e w 8 8 e 8 e 8 8 w 9 e w 9 e w w w w w w w r w w 8 e e r r e r t t t r r r r r r r w e r d t r e 8 t y w w a a v a v a a y a t y v v v a a y a v t t v v v t v v v e v 7 7 8 v eXMXiXiXPXuXiXuXkX8 b UX7.UX, e 2 T W.7.~.!.0 0 8 t v 1 1 7 . X 1 Y V T T R U M V B T 7 X   % + $ w 6 9 * q V.M - y 4 4 y h M T T V U T V A U U A V P P V b B U P M t T B U T | T P T T T U P U T T T T T T T T T P U U P P ) T P T U P U P U I I J V b v a n a r y y e e y v B B v B V v b v a t e 7 , , $ + + $ e v P V V P V V B V V V B M B M v v B B V J K v w > % , 1 8 e y v v B b B J B B p r 2 . $ a b a a a p a a p p a s i 8 + 8 e 8 8 w w w w w w w d w r w r r d w t w w w d d t w i r r r r r e t t r d t t e t r e 9 i w w t w e i w w w w w 8 8 e d 8 8 w 7 e 7 8 7 7 7 5 7 7 7 7 w w 9 9 e 8 w w 7 > , , < % % $ % % % % % % & $ $ $ $ $ $ $ + O % 2 v v t y v e , 2 r t e t u t i 9 1 ; ",
"+ + O + + + = + # $ $ $ % % % & % $ % % % & & & ; , & % % % % % 1 % % % % % $ % % % % % % % % % % % % $ % % % % % % % % $ $ % % $ $ $ $ $ $ + $ $ + $ , 7 0 & + + # # + O + # + # # # # $ % $ % $ $ % , > > > > 5 > > 1 1 > 1 , 1 6 7 1 1 1 8 8 0 7 7 8 8 8 8 8 7 7 e e 8 8 e 7 w w w e e e e 8 8 8 e d 8 w d 8 e w w w w w w w 8 e r r e r t d e d r r e e r e r e e r r r e w 8 e v b v p n N v a a y y y u y v v v l y a a a t v t v v v v t v e y 8 8 r > E.MXuXiXuXuXiXkXiX, I { { 1 t ; [ E.UX!.V.e , i 9 0 9 0 t N 7   X e B P v y B V T V B t X X 2 a + 9 f K w % } V 2 e e 4 y u j T T R T V A V A V V v V V t t P I a U V T v T T P T T T T T U U P P V T | T T T U n P T U P P T T T U I P P P V V P b B v v t t r w e e e y v b V V V V V v v v m r e 7 > $ + O < , e v P V V V B P V V B B V B M n v v v v M B v v 1 , $ , 1 e t v B B b B V V V B v v $ + O , b b a a a a a a a s v d > + w 8 8 8 w w w w i w r w w w w w r i w w w r i r w w t d e t r r r e t t e t t e r r r e w i w w i w w i w w w w 9 e e 8 e 7 8 e e 7 7 e 7 7 > > , 7 > , 7 8 7 e e w 8 w 8 7 6 , < , , , & % % % $ % % % % @ $ + $ $ # + $ $ r N y t a p 1 2 e r r r r r i w 0 > ",
". + O + + + + # $ $ % & % % & & % % % % % % % % % , % & % % % % % % % % % 1 % % % , % , % , % , % % $ $ % % % % % % % % % % $ $ $ $ $ $ $ $ + $ $ $ & 2 8 8 1 $ . # $ + . O + + # # # # $ $ % % $ $ % , , , , > , 1 > 1 1 > 5 , 6 7 > 7 8 1 1 8 7 7 7 7 8 8 8 8 8 8 7 7 8 8 8 d w 8 8 8 e 8 7 d 8 e e w w 8 e e 8 8 8 w w w w i r d e r r r e e r r r e e r e r t e w w w r e e 8 8 K | | b a a M a y y y a y y a y y a v a v v t v v v v e v v v t n e w r 1 { mXuXiXuXuXuXkXeX7 | } e t 7 [ V.V.~.[ a % v i t r 8 K Y K w % $ O v T M 2 M v v V B M O . e T r % 9 u i @ 2 ; - 4 4 4 y 2 j A G R A V V V V V V U v e v n v d > P T e M T P V P U T T U U U P P U T | T T U T T T T U P P U T T T U P P P P V V v v y r w w w w 2 e e v V V V P V V P v v m e e 7 > < $ $ O , , v V V B B B v V P B B M B B v m B b b B V M n v > , , > e t b b B K K B J V V v B v X e 1 + v b v a n s a a n a a w , , w 7 e 7 w w w w w w w w w w w r w r w i t y i w w w i p t e r r r r r t e r e t e r e e w p w w r w w i w w w w d e 7 8 7 d 8 8 7 e e 7 8 7 e 6 7 , 7 7 > 7 5 7 7 5 7 8 e 7 5 7 1 , , , & , @ $ $ $ $ % % $ $ $ $ % @ $ @ + 1 p a y a s w 2 7 9 u 9 r i r w 7 & ",
". O O O + + + # # # $ $ $ % % % & % % % % % % % % % % % & % % & % % % % % % % % % % % % % % % % % % % $ % % $ $ % % , % % $ $ % $ $ $ $ $ $ $ $ + $ > 7 8 7 1 % . $ % + . . + + . # # * $ % $ $ + , % , < , , > , , > > > 7 1 6 1 1 7 > > 7 8 8 7 7 7 8 0 8 8 0 e 5 8 8 7 e 8 8 d 7 7 8 8 7 7 e e 8 8 8 8 8 w w 7 e w 9 e e w w e e e e r r e e r r e e e e r r t e e e e r r e e 1 r B v a v a y a y y a a y y t t y a a v a y m t v v t v e v y t t t w w 8 I iXuXuXuXuXiXMX%X8 b r w & | ~.V.7.UX, 8 C 9 8 p 0 I ' E I Y K +   + t P P / | R T U U 1 $ % v v . i f s M , @ @ 4 , e 4 4 v S V A A A V S A T V C y B E H 7 p ( P B e B T T T T U P P U U T P P T P T U P P T T U U P P U U U U U T I U P V V V v r e e e 8 e e v m v v V V P V P P V v v y e e 1 , % $ O $ , , v P U B B B B V V V V B B v v y b b B J P B v e , $ , 7 t b V K B B B B J P V b b t $ B b 8 t n a n a a a p p a i 8 $ 8 d 7 w 8 w 8 8 e e 8 w w w w w w d w i w r d p i i w i a e t r e r d r t r r r r t r r r w i w w d w w w w w w 8 8 8 8 8 8 e 8 e 7 e 5 8 e 8 e e e 7 5 , > 1 6 6 6 1 7 7 8 7 7 7 8 1 , , % & % % $ % $ $ $ % $ $ $ $ % # + $ $ 2 a v a s a 9 1 0 w r r r r 9 8 1 ",
"O . . O + + + # + # # $ $ $ % % & & & % $ $ $ $ % % % 1 % % % 1 % % % $ 1 % 1 % % $ % % % % % % , ; % $ $ $ % $ % % % % % % $ $ $ , $ $ $ $ $ @ + $ > 7 7 2 > & . $ , $ . . + + + . + = # $ $ % # $ % % % , , 1 , , , , > > 1 1 1 1 1 > 7 2 7 7 7 0 8 7 7 0 8 7 e 8 8 7 8 8 7 8 w e 7 8 e 5 8 d w d 8 8 8 w w w 7 8 8 d 9 e w i w e 8 e t t t e e t r e e e t d d e e 8 e r r r e 1 w v b b K i a a y a y a a a y y y a M a y y v v t t v t v v y y r r e 7 r w eXpXMXuXiXiXMXQ.X > e + | E.7.E.| 1 V e i n r 0 C ' K I / K V a b X X b K P u e V U V e e + X X & # 0 ; + + - , e , 4 e e V | V M M M A U T V A y C U B 1 8 n T U , e v V P P V U P P P T T T P V P U T T V V P V n P U T H P U P P V V n V b n v r w e w e e w v v V V P U P V V U P B v y e 7 > & $ $ O O , e v P U v B V V U V V V V v M y M v v b J K b e 7 $ < 6 r v K J B B B b b B I V b v n 1 n b B t r a a i a a i r t w 7 $ r 7 8 i e w d w w w w r w w w w w t r r i w r i i i w t i e r r e r t e t e r r r d t r r w t w e r w 8 w w w w d e 8 8 8 e 8 8 e 8 7 7 7 1 , 5 7 7 > 7 > > 7 6 , > > > 7 7 8 7 7 8 1 , , , % % & & % % $ $ % % $ $ $ $ # O % + $ r N s a N 8 & 6 r u r r i r 9 6 ",
"O O + . . + O + + # # $ $ $ # # $ $ % $ % $ $ $ , % % , % % % $ % % % % % % 1 % % % % % % % @ $ % % % $ % $ $ $ $ % % $ % @ $ + $ $ $ $ $ $ @ + $ , , e 7 8 1 & + # $ $ + O O # + + # $ $ % % % + # , , , , , > > , , , > > > 1 6 1 1 1 > 1 6 6 6 6 7 7 8 8 8 8 7 7 e 8 8 w 8 8 8 8 8 e 8 8 8 8 e e 8 7 8 e 8 8 d 8 8 8 8 e e e w e w w w r r r r r e w e r t r r r e e t r r t t 1 e n v n a t a y u t a a a y a a a a a v y a v v v v v e v e i t w t i i e > Z.MXsXiXuXiXNX~.  w O { V.7.B.Y 8 r w 9 r N 0 I E R Y I I l E m.[ v X O B v K N J K K B v v O X > 1 @ + O $ o 1 ; @ e 3 v M 2 - + 3 u M y A S y A T U 2 a i K W e y B M v U T M T T U I P T T P T P P U T U P U P T T P P U P P U U V B v v v v y e e e e e t v v v B B B V V V V J J N a r 8 1 > > $ # $ $ , 8 V P P V B B B v T V B V B y y V V V P P v v 7 , % , 8 v V J K v y t v b I I P B v v , t N N b a r t a b b a a p w $ > w 7 e d 7 e d t e w d t w i d r r t w w 9 w i w i r r w i r e t t t e t t e r r r r y t r i d r w w w w i w w w w e 9 w w 5 7 8 8 7 7 7 7 7 8 1 7 , 7 , , > 5 7 , > > 7 > 7 7 7 7 7 7 7 > 1 , & % & % & & % % % % % % $ $ O $ $ + > p b s s s 0 & 8 r w a i i 9 0 ",
"O O + . O + + O + # # # % # # # @ + $ $ $ $ $ $ % % % % & & 1 & 1 % % 1 % % % % % % % % % % % % % % $ $ $ $ $ $ $ $ % % % $ $ $ @ $ $ $ $ $ $ $ $ , 1 2 7 8 0 & + + % $ + . + + + # + # $ $ % % , # , $ , > 5 , , , % , > > > 7 > 1 1 1 6 > 1 1 6 6 0 7 8 7 8 8 5 e 8 e 8 5 7 8 8 8 e 5 8 e 8 8 d e 7 8 e w 8 8 w 8 8 8 w w w d e e e w r r e t r v d e e r t r r r e t r e d t r 8 e t y v b v t y y a y y y a y a y a y a a y e v v v v v v e i t t w t d e 1 ' uXiXiXiXiXmXUX  2 UX{ V.~.a 9 ; K 8 8 w i E R E I E Y R ' V.~.7.{ 1 X O v b Y N Y N N e T %X'   . 1 e X o 1 - ; ; 2 2 2 1 O X 2 2 3 3 3 u v A Z C M y 8 K b , m y M U P V P P P U U U T T U P P V H P U U P P P T U P P U P P U V V v v v e t t r e e t t n b b K V P P U U U J P I B b r d 1 & & $ = $ $ , w K P P b b B V V P B B B B y M V B V P v v e , $ > e y H P K n r r t v V P P V V M a % i N b n a a p i t t a a a 7 > 5 e 7 e r w 8 w w 8 8 t r w r w w w t d w w w w w r r t i w r t t d e t t d r t t t d t t r w w w r w w i w w w w w 9 e w w e e 8 8 7 7 7 7 7 5 7 1 7 7 7 > 7 > 1 7 > , , 7 , 7 7 , 7 7 , 7 1 & & % % , % & $ % % $ $ $ $ $ # @ $ + % 8 a N N s w > 0 w r r w w 0 6 ",
". + O + . O . + + + # # # # # # + $ + $ $ $ $ $ % $ % % & & & 1 1 % 1 % 1 % 1 % % % 1 % , , % % % $ $ @ $ $ $ $ $ $ $ $ % $ $ $ $ $ $ $ $ $ + $ $ , 7 8 7 7 7 > # # $ $ # + + # # + # # # % % % , $ = , , > , 7 , % % , , , > 5 & > 1 1 2 6 1 1 1 7 1 7 7 7 8 7 8 8 8 7 8 8 7 e 7 e 7 d 8 e 5 e 7 8 8 8 8 d d 8 e e 8 w w i w w e w e r e r e r t t t w r t t r r r e e r r r t t w 8 e 8 w r 1 r y a a y u y v a y y y y a y y v v v v v v v v t p t w r d w w a uXiXuXuXpXAXT = ' 7.m.UXJ 8 8 i 9 w 0 s E E Y Y C E V | V.~.V.V.' y @     ' N s K v P U $ / iX' $   , X X ; o ; 1 * O o $ 1 O O - y u e 3 u } y e e t T v e I v y B T U V P T H U T U U U U P P P P P P T T P U T T P P P U P U V v v v v t e t r e r t a M V J I P P U T U T V P J B v i 9 1 $ % = . $ , 1 n V P V B B B B v P P B M v M v B v P V m v , , , w p N I V v e e 8 t B P P V V V b p % a K v s a b v t r t t y a , 7 e w 8 8 w d w r w w w w w w w 8 e w w i i w r w d t r d i r e r r r r r r r r t t d t t t r r w i p i t w w w w w 8 w w w w w w d e 8 7 7 8 7 7 7 7 > 7 7 > 7 , , 7 , , > > < > , > 7 > 1 1 > > & % % @ $ % % $ $ $ $ # # # $ $ % $ + > i s s s s 7 & 8 i 9 9 r 9 0 ",
"+ O + . + O + + + + # # # # # # + + + $ $ $ $ @ % % % , & & & & 1 1 % 1 % 1 % % 1 1 % % % % % % $ $ + + $ + $ + $ $ $ $ $ # $ $ , $ $ $ + $ $ $ + , 8 e 7 7 7 1 $ # # $ $ = + # + # + + # # $ % + # $ , , , > > , % % , , , , > & > > 1 1 1 1 1 > 1 1 0 7 7 7 7 8 8 8 7 7 5 8 8 e 8 7 8 8 8 e 8 e 8 8 8 8 8 e 8 8 8 7 d w w w w e e e w r r r r r r t e e r r r r e r r e e r t e e 8 1 e v V v t y v v a t y s y a a a a y a a v v t t v e e v t a p t r t t r 8 %XkXiXsXiXDXP e UX} E.n e r 8 s & p s R E R E Y ' b ' Q.M.V.V./ r U e t X $ V N w b V V V @ a } 1 $ v $ o 1 1 X & @ * % $ 1   + $ ; 2 j e - M C.j j r B e n b v v B P V V P V T T T P P P U U P T U P P T T U T T T P V P P P V B v y y t v e y r t t p v b J J P P P V V V U V P P b v r 8 > $ % # + $ , 8 v I P V B v B B B P P V M v m B M P V v y , , , , p n C K b e e , 1 a P P V B B V B a % v J N v b b b s a a n w e O > w 8 w w 8 e w w w w w w d w w w w 8 w w t w w r r r i i w w t r t t r r t t t t r r e r t r r i i p p t d w w w w w w w w w w w w e 8 7 8 5 7 7 7 7 7 7 7 7 > 7 1 , 5 > > , , > > > 1 > 1 1 1 > ; & % % % % $ $ $ $ $ @ # # $ + $ $ # $ 0 a s a K w % 0 i w r r 9 7 ",
"+ O + + . + . O + + + $ $ $ # # + + + + $ $ $ $ % % % & , ; & > 1 % , 1 & & 1 % % % % $ % % % % $ + @ + $ $ $ $ @ % $ $ @ $ $ $ $ $ $ + $ @ $ $ $ 1 9 9 8 7 7 0 & # + $ $ # + # + # + = + $ $ % + $ $ , , , > > > % % , , $ % , > & ; > > > 1 1 > 1 1 1 0 1 7 2 7 7 e 8 7 7 e e 5 e e 8 8 8 e 7 7 e 7 d 7 d w w 8 8 8 8 e d 9 w e e w w e e t e r r t e w r t d r e e r e e w r e e e 8 9 N I J v a a v a y y a y v y M M v y v v v t v a y y y i y a r e t t y e 7.NXeXiXsXvXv i V.{ & K 0 9 s 8 r a E | K ' | V C V.E.~.~.~.} N C I { } q   f K K E } N V P M 2 > 2 8 o O @ % 9 q ; % . . , + O $ O ; u - @ - 2 u R V 2 v M C v v P P V V V V U T T P V P U T V P P n V P P P U T U U P P P V v v v v v e t t t t t y a n C P J P P J P V P V P P P B n w 7 & $ $ + O , , e v U V B B v B B V V B B M M B P V V v y e , , 2 e b K K n r 8 8 7 1 v P I B b v B K v , n V b N v b N N K b b a r , w w 7 8 w e w w w w w w w w w w w w w w i r i i w i w i i r t r t y t t r r t r r r d r t v r i i t t i r t i i w w d r w r w d w w w w e 8 e 7 5 7 7 5 7 5 8 7 7 , , > > > 7 7 1 > 7 , > , , 1 1 , & & & % % % % % @ % % $ $ % + $ $ $ $ & 9 b s b s > & 9 i w w 9 0 ",
"+ + + + + O + O . + + # $ # $ $ $ $ @ # + $ % $ $ @ % % > > 1 1 1 1 1 , 1 & & & % % % % $ $ % % % $ $ $ $ % % $ % $ $ $ $ + # $ @ $ $ + $ $ + $ , 1 8 8 9 8 7 0 > = . $ & $ + # + + + # + # # $ $ $ $ , , 1 1 , < % % , , $ $ , > & & $ , > 1 1 > > 1 1 7 1 7 7 7 d 8 8 8 8 8 8 8 8 8 8 8 8 8 8 e 7 e 8 e 8 e w 7 e 5 8 8 e w 8 e w e w r t e r r t t r t t t r r r r r e e e r t t w 8 0 r N b N a y y M y y y v v l a a l a v t v t v y v y n p n y r e v p d m | kXpXuXuXpXe I { 0 0 = 9 K 8 0 s Y E | I Y K P { Q.V.V.B.R V Y U B.B.{ ' .   # I J 8 a M R P B K r r e v t N | p $ + . + , = X $ @ 1 2 o ; 3 - j Q 2 2 V M M P v V T T P P U V V P P P T T U P P P P P P P P P P U U P P P B v B v y e r e v t t a v b B K I P I I P P P P T P U P B v w 1 & $ % $ + % 1 w B I V v v M v b V V M M M M B V V n v e , , , m v K K b w 2 1 , 8 e b P J v v v v B b , t N B N n b b b b b b b b v n r 8 7 8 w r 8 w w 8 e w w w d i w r i w r t w i w t d i t d t t d r r r d t e r t e t t d t p p d i w i i i d w w i w r d w w w w w e e 8 e 7 e 7 e 7 1 6 e 7 7 7 , 7 7 > > , 7 7 > 7 > 1 , 1 > 1 & & & & % % % % % % % $ % , + + $ $ $ % > s p b s 8 & 0 w 0 w 8 0 ",
"+ + + + + O + O + + = # $ # $ $ $ $ # # $ $ $ $ $ $ % & , > 1 1 1 1 % , & & % & % % % $ # # % % % $ $ $ % % % % % % $ $ + + $ $ $ $ $ $ $ $ + $ , 1 8 e 9 9 8 6 1 + X $ % # + # + + # + + + $ $ $ $ , < , 1 1 7 & % % % $ $ , , & & & & & & > > > > > 1 1 1 0 1 e 8 e 8 e 8 8 8 e 8 8 8 d 7 e 8 8 8 8 e 8 e w w e 7 8 7 7 e 8 8 e e e e e t r r t e t d r p d t t t t r e 8 w r e w t w 8 p J J N y t y v a y v a a a v a a y v y y y v n y a y p a t w v e u m e n eXkXiXMX%X, s i 6  .0 i 6 0  .N R W E | b T V.E.V.~.B.K R b / ~.V.7.M.E w = X + I K I U P v b K K Y L K K / I @ X , , + . X K w + @ @ @ o o : @ } Z j u T V B v P T T T U V v V n P P U U P U U U U U U P P P P P P P P P V P v v y y y y y a a v B B V P I P P U P P P P T P I I B a w 7 , = % = % , 1 w B T B v B B v M V P V B V B M M m v e , 2 e e v V K b a w , 1 1 8 e b P B a a n v K b , t b B K v b b N b b b b K K s n p 8 8 w w 8 e 8 8 w w w w w w w w w w w d i d t i t w i r d t t t r t r t r r t t r p t r p p i t i t d t r w t w t w w w w w w w 9 8 8 w e e 7 7 7 7 7 e 7 8 , 7 , 7 , , , 1 7 1 , 7 < , > 1 > 1 & & % % % , % % % $ % $ $ $ $ $ $ $ $ % 9 i s s r 7 f 7 9 9 0 0 ",
"+ + # + + . . O + + + $ % $ % $ $ $ $ # $ $ % % , , % , & > & , 1 1 1 ; & & & % % % % @ $ % % % , % % $ % , , % % % $ $ $ + + + + $ + $ $ + + + , 2 8 8 w r 8 0 1 + X # & # + # + + + + # # $ # , $ $ $ , , 1 8 % $ + , , $ $ , % & , 1 > > & % > > 1 1 1 1 1 1 5 7 7 e 7 7 8 5 8 8 8 e 7 7 7 8 8 8 8 d e w w d e 7 7 7 7 8 e 8 e e e r r d r r e r r r r t v t p t t t d e e t w w r e 1 7 p M N y t a v a a M v y v y a v y a a y y y v y p a a a i t e e v e m e !.vX%XmX%X+ f 9 6 0 0 f i K R | K R Y J | m.Z.~.!.{ R I I | ~.E.UXE.E Y K 0 #   1 J N P B P P T Y I b I L I I % > 8 O   % K UXP y 2 - o o @ - @ C A t M e V v n P P V T T v P V n v n V P P U P P U U P H P P P P P V V B P U V v y v v v n v v b B K K K P J J V V V V P P P P P b a w 1 , + + $ $ > 8 t K V B v v v B B V B M M V P B M M e 7 , e v v v b v v w 7 , , 1 7 v B V v t i y y B K 1 t b K P b a b B N b a v b B i b K w 8 w 8 w 8 8 d w w i i e e w r w i r w w i t r t t i i t t p t r r t r r t t r t t r w d t t i i i t r w r w i r w w w w w r w 7 d 8 8 8 e e 7 7 > 7 e e 5 8 1 7 7 7 , , 1 , , > > 1 , > , & & & % % & % % % % $ % $ $ $ $ % + + + $ % & i  .a s 9 > f w w 9 8 ",
"+ + O O . . . + . + # # % $ % # # $ @ $ $ % % % % % , ; % 1 1 % & 1 1 1 > % % % % % % % % % & $ % % % % % % % & f % # # $ # # + + + $ + $ + = $ 1 1 5 7 e e 7 7 > + . + % % $ + + # # . O # # # # $ $ & & & 7 8 % $ $ $ $ & & & % % % & ; , 1 & & % % 1 1 6 6 0 7 7 8 8 8 7 8 8 9 7 0 8 9 w 8 0 8 8 8 0 8 8 9 r 9 9 8 9 9 9 9 9 8 d w w w w w i t i t w w i p p p r r t r e w r t r p r 7 7 r v t v t n v v v v r y v v v v v v a p i u s s a a a s i r 9 r r 9 s 0 UXHXeXmXE.X f * 9 i 0 9 i ' L | R ' V E ~.Z.~.~.{ | N a { E.m.7.~.n T | N K 0 f   1 T V t a v V | P b T T T K 1 1 $ % X 0 p d UXm.. 2 e o o @ X 2 U 2 M t V B T T U T T B U U P V V J B P N T T P P P V V P V P U V P P P V B B B m y M M B y M M B B V V V T T P U P P U U U P V b v 7 , % O $ , $ , e v v K N b a a N C K P V P P M y e e 7 , 7 e v H B b v r 8 1 1 , 1 e b B K a w w i v B b , e I N N b B b v v B B b a b b s a v d w 8 e 8 w t i w w t r d e t r r d t t r r r w r r t r r t p p p t d p r r e e r r t u i w i u i i i u w u w q w w 0 w d w e 9 w w w w w d 7 7 7 7 1 6 7 7 0 7 1 1 1 1 1 1 1 1 & > & & 1 1 1 > % % % , % % % % % $ % $ $ $ $ $ $ $ $ # 0 a i p r 0 # 9 w 9 7 ",
"+ + + . O . + + + + + # % % % $ $ $ % % % % % % % % % % % % % % & & & & & % & & > > > > , & & & f % f % f % f & % % % $ $ $ # + $ + $ $ # + $ , 1 , 7 e e 7 e 7 > $ . + $ % $ + # # . @ O O # * # $ % & % & f 0 $ # # # # $ $ $ % & % > % & & 1 & & & > 1 6 1 1 1 7 7 8 7 7 8 8 8 8 7 8 9 9 8 8 8 8 8 8 7 7 8 9 9 9 9 9 9 9 9 q e e w w w i r t w i d w r i p p p i r t t w e t e r t r e 7 e n t v e e y v v a y v a v y y t a a a i p a s a a a a p r u r r r p 7 E kXeXCXV.  * i 0 d q W L K | i ' C | Z.E.~.~.UXJ v E 7.B.7.Z.[ T | | b I K  .1 + . e V v P } B V P T T V E J 2 1 @ + X * + > p 8 1 , - o @ @ o j :.2 M M R V T T V U P P T B V v v v v n P P P P T I P P P V V V P P P V V P V M M M M M B B M B B B P P P U T P U P P U T T P P V v e , , $ $ , , 2 v V V J N a p p a N B V n V v v m e e e e t n B I b n t 8 1 1 , , 1 e V K B v t w i v J V 1 e P N N B B B B N b b v v b b b N b b a i e 8 e w r w w d r t e r t r r r t r r t r r p t r r p t t t t t r r t r t r t t i i i i i i i i d i w d i w i w w w w e w w w w e w w e 7 8 8 7 6 2 7 7 0 1 7 1 2 1 1 1 > 1 & & 1 1 1 1 1 > > , & 1 % % $ $ $ % $ $ $ $ $ + $ $ # 6 w i a r 0 % 2 8 8 0 ",
"+ = + + + O . + . + + # % % % % % % % % % % % % % % % % % % % 1 % & & & & & > > 1 > > 1 1 1 1 & & & & % % % f & % * $ $ $ $ $ $ + < $ $ $ # , , , > > 7 6 5 e 5 7 % . . # $ $ $ . # # O # O = # = # $ $ $ % % f % % $ $ $ % $ & % % % % , & & , & & & > > 1 1 1 7 8 8 8 7 8 8 8 7 8 9 0 8 8 8 9 8 8 8 8 8 0 0 8 9 0 9 9 8 9 8 8 e 7 7 8 w w i d w i t i i p i i t r t v t r r r e e t t e 7 e t T T M v v v v y v n y y t r y a s i p a s M s v a a i p r r u r r r i eXiXHX'   0 d 6 s K K E L ' E N E V.~.m.Q./ B E W { ~.m.~.7.b n T P | n E ( s 8     r V T | b P V b P b T N & & $ + + 8 9 y 1 1 } R u 3 O - X 2 { 2 N B P V V V M v v v v P v V v 8 v B B V J P P I U P P P B B P P B B V U V M M B B B M P P B M B P P T P b P V b U P U T U P n v , , $ + $ $ , e b b V B b a w r a n N n B v v v e 7 7 m e v P I K n e 7 > , , , 1 8 e P K V a w e r n K V 2 w J v N J b B K B v v v b s s a n b b s a w w w w w w r p r e e r e r r r r t r d p t t p t r t t t t t e r r t t p d r t i i i i i i i i u i q i d u w i w w w w w w w w 8 w w e e e 8 7 1 7 7 7 1 7 0 7 6 1 1 1 1 > 1 > 1 & 1 1 1 1 ; % % 1 % % % % @ % $ @ $ @ + $ $ $ # & 8 i s i 8 1 & 6 8 8 ",
"# + # + + + + + + . * = % % & % % % % % % 1 % 1 % % $ $ $ % % % % & > > > > > 1 > 1 1 > > ; > & & & f % % $ % % % = # # # $ $ + $ + $ , $ $ , > > , , > > 8 e 7 7 % . . . + + + # + O + O # + # + # $ # # $ % % & f f % % % f % % % % % & % & & & & & > 1 1 1 > 7 1 1 8 0 7 8 8 0 8 9 8 8 8 8 0 0 8 8 8 9 8 8 9 r 9 9 0 8 9 8 8 w 8 8 w w i w w i i t i i i i p r p t d d t e w e r r r e 7 7 7 B V v r v v v v a y y t t a a v i j p a a s l v u s a p r r r 9 w b 8 !.MXDXK X i f i K ( l L _ t R } E.m.V.!.| P B R V.C.V.~.>.v ' b T I T I E | I r r + X v V v v V V B P I I J & + % X X & ; % y @ M / u 2 3 3 o - U 0 J J J P V V V b P U V v v v t J I 8 a J P P J P U I T P P V P V B m V P V V M M M B B B B B V V V P P P P V P V b b P U U U b m 7 , + O + + , m b b V n a t w r a v N v v v e y e e e m v n K K b e 7 1 > , , , 7 e v P J b d 7 8 r t B B > e J N N V b N B N v v v v n s n s s s a a n p d r w r r p e r r e r t t r r t t t p p i t r t t d t r t e e r r t t t t t i q u i i i i u w i i i i i u d w r w w w w 8 d 8 e w e 8 d 8 8 6 7 8 7 1 7 7 7 1 > 1 1 1 1 1 1 1 & % & 1 > , % ; % , % % $ $ $ $ + $ $ + $ $ $ # * > w s a 9 0 % > 8 8 ",
"$ $ # # # # + . + # + # % % & % % % % % % % % % % $ $ $ + $ $ % % & 1 ; > 1 1 1 1 1 1 1 > 1 > & & % % % $ $ # # # # + # $ $ + + $ $ , $ $ $ , > > , , , 7 7 7 e 1 & + X X . O + + + + . O + + + # # # # # # % % & $ % $ # % $ % % % % % , & & & , & & 1 > 1 > > 7 7 6 6 7 8 7 8 7 8 9 8 7 0 8 w 8 8 9 9 0 9 9 9 u 9 9 9 9 9 9 8 e d 9 w e e w w a d i d t t p p t r t t y t r 8 d r t r e e e 7 e v b v y v v n a y y a n y v y p p a a a a a s i l s u i t r 9 e v 7 UXmXPXe X 0 d W L I U T ' a } N.7.IX7.T E E I V.E.V.~.UXv b } T T U M U | l K T { / O O 7 I J b Y I M U B Y 9 $ % O O + X o 2 - - e 4 e u 3 2 ; 2 u l K K J N B J J I J N e , V V v U y > v B V V V P U I P U P V V P V M M V B M M M M V M M B V V P V V T T P U P B V P U P P b m 7 $ $ # + , 1 v V J B v a p r t i a v m y t e r r v m v b P b n w 7 8 1 > > , , e t b P B a w 7 e m v B b , e I M M N N b b v v v v a b b b b v s v s b a p p t w r t e e r r r r p r r r t t t i t t t d t t r r r r d r e r r r t r 9 i 9 i i i i i i i w i i u i u i w w i w w w e 7 d 8 w 8 e 7 8 7 7 8 8 7 0 7 7 6 6 1 1 1 1 1 1 , & & & 1 % % % , & & & % % % $ $ + $ $ $ $ @ $ $ + % 8 i i r 9 % > 0 7 ",
"$ # $ # # # + # # . # # = & & % % % % % % % % % % % $ $ $ $ $ % , 1 > > 1 > 1 0 1 1 2 1 1 1 > > & & % $ % # # # # # # # $ $ + $ $ $ $ $ , $ , > 7 , , , > > 7 7 1 > . X X X + + + + + + + O + + + # # # $ $ # $ & & & % % $ % & % & % , % % % & & & & & 1 > 1 > 0 1 6 6 7 8 8 7 7 7 8 8 7 7 8 0 9 9 9 9 9 9 0 9 r 9 9 9 9 9 w 0 e w w w e w w w p t r w r r p n p p r r t y r w t t r e e e 7 7 y V P v v t t r n y a y y y y e p p a i u p a s a a a p t t u 9 r p 7 J PXiX$ . i  .L _ v | v | } M.Z.UXUX' K T U %X~.V.E.' V U T n | b V T P T C ] ~.V.UXT $ O a I J B v n U M N b q %   O % @ - M y j u v 4 4 2 2 - 2 Y Y I K B N v N B v t r m v v e v V d B e v U V P U U V V U U V V U P B M M B B m M M V M B B V V V B B U U P v B V P U P P b v y , $ , $ , , e v V I K N n a r t t t t v y t y t n v v U V b n w 7 > 5 5 > > > , 8 v B J B i w 7 e t v K B , e I B N v N v v v N b v y v v b b s N b N N b a a t e e r r r e t r t t p t t d r t i i p t r r t t r t r v r r e e e d t i 9 9 9 9 i w w w w u w d u w i i i i w w w w 8 e 7 8 e e 8 e d 8 8 9 8 7 0 7 7 7 8 0 6 1 > & & 1 1 ; & & 1 1 % % , & & % % % $ % $ $ $ $ $ $ $ # + $ 1 9 i i 9 % % > 1 ",
"$ # $ % $ $ # # # . # # $ & % & % % % % % % % % % % % % % $ % $ % & , > > 1 1 1 1 6 > 6 1 > & > & % % % # # # # % # $ % % $ # # , + $ , $ , , 8 6 > > , , 7 7 7 6 > = X   . + # = + . + O + + + O # # $ $ % $ $ & f & & & & & & & % & & & & % & , & & 1 1 2 1 1 1 1 6 0 7 8 0 0 8 0 8 7 8 7 8 9 9 0 9 9 8 8 8 9 9 9 9 8 9 9 9 9 8 8 w w d 8 8 8 r w w r i i i a p n p r r t p r p p t e e d e > , r y e e t v v v y y a y y t w u s s u p i p a a s s p r r r w t r w e %XpX= , K L I E K P V } ~.m.m.E.T n Y } ~.V.~.V.' ' | V P V P P U V T P { V.!.m.UXV.T O X 8 Y a w J I V s C t 9 O X   % - - u A - u j u j 3 3 N / Y I b b J K K J a 9 t P v e m e K T I 7 v I U P U U V P P P P P V P V M V V B M M M B B V M B B V V V P V V B v V V P U P b v e , + + # $ > w b J J b b v p t w t y y y y m M v B B V P b n e 8 > > > , > > 7 1 t v J P M t e e e m v V B 1 r I N N N B b v v v B v v p a v b a n v b b v n N v r e e r r t t t p p t t y t t t i t p y d t t r t t t t r r e e r r r i 9 9 9 9 9 9 i 9 9 9 w w i w r w w r r w w w w w 8 8 e 8 7 e w 8 9 8 8 8 0 7 7 8 7 0 1 1 1 > > 1 1 > > 1 % % & & & & , % % $ $ % $ $ $ $ $ $ % + $ $ $ 0 r i w > > % > ",
"$ # # % $ $ # # # # # # $ % & % % % % % % % % % , & , % , % % % % % & & & & > 1 > > > > & & & % & f % % % $ $ # $ % $ $ % $ $ # + $ + $ $ , , 5 6 6 > > 7 , , 7 > > % X X . + # + + + + . O . + O O # # $ % $ $ & & % $ % $ & % & & & & & , ; % 1 & & 1 1 1 1 1 1 7 6 7 8 8 7 6 8 8 7 7 0 8 8 9 8 8 9 8 8 8 9 r 9 0 9 9 0 9 9 9 7 8 7 w w w d 7 w w w i i i i a a v t t y v n r t p t r t t e 6 1 y t 8 e t t t v y y y n v y v p a s a a i p s i s a t r p u w e w y , E.9XX 9 K I Y J E b 7.V.7.~.V.T T U { V.E.~.~.} M T | V T P ) V U P y UX~.V.7.~.7.V.UXe     B J I / K J J s r R R e   , @ - 4 2 A 4 A j u 3 u E s & & > 2 a l s N r 8 N v e 7 e I | I p e B T T V V T I T P P U P B m B V V V B V M V B B B M M m B P U U U P B B B V P T P P v e , + , $ , 2 r n I J B v a r w w i n v v M y v b B K P v t e , 1 1 > % $ , 1 8 e t B P V v w 8 , e t v B B 1 e J v N J N b v v B B M v a a v b v v s b b s b N v v r r r r d t i t a a a n p t t a a n t r t r r v d p r t t t t r e w 9 9 9 0 0 9 9 i 9 9 q w w w w 9 w w w i i w w w w d 8 e d 7 e r 9 9 9 8 8 7 7 7 7 7 7 1 1 1 1 1 > > > > % $ % & % & & & 1 % $ $ % % % $ $ % % $ $ % $ + & 9 i r 7 > % > ",
"% * # $ $ $ # # # # $ $ $ % % % % , % 1 ; , , 1 , , % & % % % % % $ $ % $ % ; , % % 1 & 1 % > , f & & % & & & % % % % % @ $ $ $ + , $ $ , , 7 , 7 , > , > 7 , 7 7 > $ . X . $ $ + + + + + . . + # # O # * % $ $ % & & & % & & & 1 , % 1 % 1 % 1 & & 1 ; > > 1 > 7 0 7 7 7 7 7 0 7 7 8 8 9 8 8 0 9 9 9 0 8 8 0 9 9 9 9 8 8 0 r 9 w e 8 8 7 7 8 e 9 8 w w w w w w t t r t t t r d r r t t t e e e e 7 e T | 2 e v y y t t t t t t s p p i s a s p t N s t 9 i u r p 1 n $ UX!.  K p I I K T 7.~.UXE.[ v M V { ~.~.V.V.K I T K E Y | T U P T T UXZ.7.l.~.7.Z.~.V.+ ,   X n I b b I J N J 8 V.Z.% $ 4 4 4 j j u j M j u 2 @ X     O   9 0 9 l 8 U L v e m V V e m B V P V b B P P P P P P P P V B B V M M M B B B V B M M M B V V P U P V V v B V V T U v v e , $ + $ , 7 v B P K B n a p r t r t r v B V b P P b b v e 7 , , , , > 1 7 7 8 e n B V M M e e e e y v K B e 7 V b b v B b b B b b v y a a a a a a v v v v v v v v v n t t r r p p n y a a i t r d i p t t t i t w r t r w w r r t r e 9 9 9 0 0 0 8 0 8 8 9 8 9 8 8 8 w w d 8 9 w 8 w 8 d e w w w 8 7 8 8 8 8 8 0 7 7 7 8 9 7 > 1 1 6 > > 1 6 1 > & & & % $ % & % % $ $ $ $ # $ $ $ $ + % % $ % 2 w p 9 1 & & ",
"% $ $ $ $ $ # # + # # $ $ $ % % % % , % % , & 1 % , % % % % % $ % $ $ $ % $ % % % 1 & 1 1 1 > > 6 & > > , & & & , % % % % $ % $ + , , + , , 7 7 7 7 7 , > , 7 , 6 6 $ . X . = $ # + + + . + + O # O # # % % $ $ % & & & $ & & & & 1 1 & 1 % 1 % & , & 1 > > > 1 1 7 1 7 8 7 8 0 7 8 8 8 9 9 9 9 8 0 8 8 9 9 9 9 9 r 9 9 9 9 r 9 8 w e 8 d w w i d e w w w w w w r t t r r t t t r r t r r r w e 7 , e V T e v v a v a y t p y n i i a a a s i i y s s a t a i 9 t w v 1 | '   p E I K K UXV.7.~.7.P } v } !.C.E.m.E J B ' T I Y U T P T P V.~.7.~.~.7.!.UXZ.{ $ , ,   X b T B J C K J r u { } e e u j y j h M C 3 2 o   X X     + . o C 0 a V 0 e 7 V T t e v B V V V V B P P V U P P P P V V B V V M B V B B B B B B M V V V P U P V n v v V P U V b v e , $ + $ , 2 m B K K v v a t r w i i t B M v V P P P v e 2 , , , , % , 7 7 8 e t v V V M y e e e , e y P V e e U B B V B b B b v v n v b a v a v v v b v v v v b v b v t t t w r t y a a a a a a a a a t p a y t w r r t r r r t t r w w 9 9 9 0 0 8 8 8 9 9 8 8 8 8 8 e w 9 e w w w w e 8 8 w 8 8 d 8 8 8 8 8 8 8 0 8 9 7 0 6 6 6 1 1 > 1 > 1 1 > > & & & & % % % % $ $ $ $ % $ @ $ $ + $ % % % > w p 9 1 $ $ ",
"$ $ $ $ # # # # + # # # $ $ $ % $ % % % % & $ & , $ % $ $ $ $ $ $ + $ + $ $ % % % % % 1 1 1 1 2 1 ; f > 1 1 > % , , % % $ $ $ $ , , + + , 1 7 1 7 , , 7 > > 7 7 6 1 & + X O + $ + + o . + + O + O + # # $ % % % % & & % $ & & & % 1 & 1 % 1 % 1 & & & 1 1 1 > > 1 1 7 7 7 7 8 7 7 7 8 8 0 9 8 8 8 9 8 8 8 8 9 9 8 0 9 9 8 9 8 0 w w w w w w w w 8 w w e e 9 w w r r r d t r r r r t r t r e r r 7 7 e v v v t e a y a p y y y y j i p a a a p j a a s a a u r 9 e e t e b 7 + w I Y l V.~.{ V.7.n / M UXV.~.B.} / I E E I E K Y T T P U l.~.V.V.7.~.~.7.7.E.e % 8 7 +   + b E I T P l J a u p L A v M j A A V A - @ O o X o O O $   % u 0 q a 0 m T B , e P V B b V V V P P P P P P P B V V V V V B M V B B B B M M B B B P P P U V v v v v V P P V v e e , $ $ , 1 e v K P C v n i r t t a a y v B V V P V v v 2 1 , , , % , 1 6 e e r v V V V y y e e e , y y P B e 1 J B B V K V B B B B v v v v v v v v v b v v v v B B b B n a y r r r t a p p t p a a a a p a a n p r r t p t r w r t t w i w i u 9 8 0 8 7 8 9 7 8 0 8 8 8 d 8 e w d e 8 w e e 8 8 8 e 7 0 8 8 8 7 7 9 8 9 7 6 2 7 7 1 1 1 > > 1 1 1 > > > , % % % % % % % % % % % # $ $ $ $ $ % % % 2 i r 0 $ # ",
"$ $ $ # # # # # # + + # # $ % $ $ % % % $ $ $ $ $ $ $ $ $ $ @ $ $ $ $ $ $ $ $ $ % % & 1 1 1 2 7 6 6 6 > 1 1 > % , ; % % % % % % < , , , , 7 7 7 7 , 7 , 7 > > 5 1 7 f $ O X O $ # + = = + . + . O # + # $ % % & & & & % = & & % & % % & ; % 1 % & & > > > > 1 > 1 1 1 0 0 7 8 7 7 0 0 8 8 8 8 8 8 8 8 8 8 8 9 9 8 8 9 8 8 9 8 8 w w w w w 8 e 8 w w w w 8 9 w t e e r t t t r r d t p e t e r t e 7 7 e v V t t t y y y t t t t p p p p a a p p l p y s s i u 9 e r 8 e s . # i l K ~.m.7.!.] J I I { G.~.7.B.I P | | | l I E I ` P T q.~.q.~.~.V.7.~.7.!.7.O 8 8 8 8 %   @ N R P 8 K / N a t u u u 4 , 4 y 4 @ X O X X     . @   @ o X ' R + e R e e t v V T M V V b V V P P P P V P B M B B V V B B B B M M B B M M B B V P P T P v v v v B P U V v v 1 , + , , 1 t B P K K N y a i w w t a v v B V P V v e 7 , , $ @ , , 1 7 7 d t v B V V V M y e e e e e M K B 8 1 K b B B J J B B b v v v a v a a a v v v v v v v v v v v M B b a p w t i t p p a t p t t a p p p n t p r p t t r t d t t i i i i i 9 8 8 7 7 0 0 8 8 7 8 e 7 8 e 8 e 7 8 e d e 8 8 8 7 e w 9 8 0 7 0 0 7 8 7 6 1 7 0 7 6 1 2 6 > & > > > 1 > , % % % % % % % % % % % $ # $ @ $ & % + , w p 8 & + ",
"% # # # $ $ # # + # # $ $ $ $ $ $ $ % $ $ $ $ $ # % # $ @ # # # $ $ $ $ $ $ $ $ % % % , 1 1 7 2 7 1 2 1 1 1 > , - , , % % % @ % , $ , < , 7 7 5 > 7 > 5 , 6 1 1 7 6 6 $ + . . + + + + + + o * . . + . * $ $ & & % & & $ $ & & % % & & % , , > > & > > 1 1 1 & 1 1 1 1 7 7 8 7 7 6 0 7 7 8 8 8 8 8 8 8 8 8 8 8 0 8 9 9 9 9 9 9 9 w w w d w 8 w e w w w w w w w d e e r r r r r r t t d t t r d t e , 1 y t B t v r t a y y t t y i a u a p a a a b i t a s r 9 r e y e 8 v O . v E m.>.V.~.| | M T B.E.UXB.7.I I E K I E | K R K B T l.L.n.q.V.~.~.V.V.~.V./ $ e , n w 1 ,   O V B C Y N V U J M y A v e M A u X o X X X X . . o @ + @ % O y v T v , e V V B V V V V v V P P V V n V V V B B B B V B M V B M M B V M M M B V P P T V v v v v V V T V v m 7 , + $ $ 1 r B J K B n t t t w t i a a B V V V v v e , 1 @ + $ % 1 0 w r v v b B V V B v y e e 7 e e t B B e 7 P K V B K B b v v v v e v v v v v v v v v v v v b v v v K K N M n t r w t t p t p p p t p p a p y i t t n r y t t y t p q i p p i 9 w 9 0 8 6 6 8 8 8 , 7 7 7 8 7 8 8 7 e e d w e e 8 d 8 8 8 7 7 7 8 8 7 7 8 0 7 1 7 7 7 7 6 1 > & & & 1 1 % % % % % % , , % % $ $ @ $ % + $ & $ + % 8 r 8 > # ",
"$ # # # # # # + + # + # $ $ $ % $ % % $ $ $ $ % $ # @ $ $ $ $ $ $ $ % % $ % $ $ $ $ % % , , , 7 2 7 7 1 2 1 1 1 , , , % , % % % , , $ , 7 7 7 7 7 > 7 > 6 > 6 1 7 6 > & + X . O * + + + + . . = . . + + # # $ & % & & % * $ % & & , % & % % & & % > > > & & 1 1 1 7 1 7 7 7 7 7 6 7 7 8 8 8 8 8 8 8 8 0 8 8 8 8 8 8 8 8 0 9 8 8 7 8 e e w e w w w w w w w w w w e w w w r r w w r t r t r r t r e 2 , e t e e 7 r t v v n y y y a a p i p a a p b a i p p i u t e y v e n , X I } ~.B.m./ P R | m.V.{ Z.}  .b I | N Y Y E R K I T V.~.q.V.b.q.~.~.V.V.~.~.u $ 8 e r w w 8 $ X + I Y V B C y R C M A A M V A e o o o o X o o o @ 2 $ 2 @ , v 2 e 2 B A y V P V V P b V b V V P V B B V P B B B M B B B B B M M B V B M B B V P P T V v v y M V V T V v e 1 $ + $ $ e n K J V b v t p p r t t a v V V V V v m 2 , % # + $ % 1 w p n b b b B V V B v y e e e e t t B V e 7 P B B b J b b v v v v v v v v v b b b v v v v v b b v b C N N N v y t r e e w r e e r r t t r t t t t t p p t t t d t p i i s i i i i i i r 8 0 8 e 1 > > 7 > 7 7 7 7 e 7 8 8 8 d e 8 7 8 8 7 8 9 9 9 r 7 8 8 7 0 1 0 7 8 7 6 1 1 & & > 1 1 % ; % % 1 % % % % % % $ $ $ $ $ $ & $ # % 1 r w 1 > ",
"$ # # + # # # . # + # $ $ % $ % $ % % % & @ % % $ % $ % , $ % % @ % % % % % $ % % % % % , , 1 1 7 7 2 1 1 1 1 1 , , , ; % % % % , $ $ , 1 e 7 7 , 7 1 1 6 , > > 0 6 > , = X X X + + + + . + = o . . + + + # $ & $ & & % $ % % % % & & % % & % % > > > > 1 & 1 & 1 1 7 7 0 7 6 6 6 7 7 8 8 7 8 8 8 7 8 0 0 8 8 8 8 0 0 7 0 8 0 8 8 8 8 8 8 w w d w w w w w w w w e e w w e e e w e r t t t r r t e t e 7 e 8 v v r y v v n y y y a i a i p l a p a p s a p u u i e e t r r 8 , ' ~.} B.>.K J T V.V.~.~.| E R | K K E Y E K R I ' ~.V.~.~.~.V.L.q.q.~.Z.V.B.% 6 9 i 7 w p w e >   X R B e R Y N Y V V V U T V u @ X O * o X X * 0 e 4 u , @ + e 4 P e v T v B U V V V b v P v V V B B B B B B B B B B B B M M m V B B m V P P P P U V y t y v V V V V v e 1 $ $ , , e v J J J b v t t p t t a n N V V V v y e 2 , $ O + & 7 r n N v B V V V V V v v v e e e e t v M B e 1 V B B b J V V v v v v v v v v v b M M M v v v v M M v v B n s n N n v i e e e e e r r e r w r t i t d r t p t p t t t r i s a i i i i i i i p w 8 8 8 1 5 7 > > > 1 7 7 7 7 7 8 7 8 e 7 0 7 8 8 8 9 9 9 8 7 8 7 1 7 7 7 0 0 2 1 1 1 1 1 1 % % 1 1 1 % % % % % $ % % % $ $ $ $ $ $ $ % % 9 9 8 7 ",
"$ # # # # # # + # # # * $ % % % % % & % % % % % $ % % $ % % % % % , % % 1 % % % , % % , , 1 1 1 7 , 1 1 1 1 2 1 , , , , @ % % % , $ , , 7 7 7 7 7 > 7 > 5 6 > > 8 f , , , X X X = + + + . + . . X # + + + = # % $ % % % % % & % & % % & % % % % % > > > ; 1 & 1 1 7 0 1 2 7 7 6 1 6 1 7 0 0 7 7 8 8 8 7 8 8 8 8 9 8 8 8 8 8 8 8 e 8 d e 8 8 w w w w i w w w i w w w e e e e e e r r r t t r e t e v 2 , e n / | e t y v y t t t a s u p i p s p u a s a p p i r v e e y 8 w r / V.B.E M J / V.M.V.7.{ R I E N / K R s E / a } ~.V.D.q.q.~.~.q.~.~.~.~.Z.Y + 8 6 8 i w w n p , > . $ K T V R l J U A M T T v 2 , 1 @ + + ; 0 q w 2 , - 2 - 2 e 4 e y v P P V n P P v P P V V v B B B n v B B B M B B M B B M B B B V B P P U P P P M y t y y V V T B v e , , , , , e v B K b v n p p p p i v N K V V v y e 2 , + + @ $ 1 r a b J B V V V V V V V v y e 2 2 e e v P V r 1 K V K B B B B v v v v e v e v v v M M b v v v M B B v v B b a a N B B b v n d t r t r t r w w w t t t t r p p p i r r r p s s i i r r r r a a p w 8 e r 8 8 7 > , > > 5 1 7 1 7 7 8 8 8 8 8 8 7 7 6 0 0 8 7 0 7 7 8 7 7 1 1 1 1 1 1 1 1 1 % 1 % 1 % & & % % % $ $ $ $ % $ % $ + $ % % $ 0 8 9 2 ",
"$ $ $ # $ $ $ $ + $ @ $ $ $ % % $ % % # % % % % , , % % % % % % % % % % % % % % % % % % % % , & 1 1 1 0 > 1 1 1 > 1 > & % % & % , $ , , 6 6 6 7 6 6 1 1 1 1 1 1 1 f > , $ + X   = . + . . . . . . . # = = * # * $ & & % $ $ % & $ % % & % , > > , & & > & 1 1 1 > 0 6 1 2 8 8 8 7 7 6 0 9 9 8 8 0 7 8 0 7 0 0 8 8 8 8 9 8 8 8 9 7 8 w w w w w p w i i d d r r r r r e e r r r r w e e r t t t t v e 7 7 e e v v v p t p a a p p r p p p a p p p i p a p i q w r y 8 e n t r r 7.k.| U P { m.7.~.G.| J T K E | I R E V J V { V.7.V.V.~.~.~.V.~.~.q.q.~.Y.6 1 > 9 w w d i p p p a O O 6 P P K K b M V A V T V , , . ; = * & l >.# o - @ X o o o @ X u V V V U n P U M B V M T y V B M m V m M P M M M B B B V B B M P P P P P T T V v r r t v b V T B v e 1 , + $ 8 r b J P V v y t t t r t v V K T V v v , , , , O O , e m M V V b P b P v P b P b n e e 2 7 e e B B n O N N v B B B B B b v a y n v v v N M v v v N N v v b B b b n B v m v v v v V v v 7 e e e e e w w w 8 w w r i i p i i i t r u p y t t t t u t u y v a t t w 9 8 7 1 > , , % % > 1 e e 8 e 8 0 9 8 8 0 7 7 0 7 7 0 1 7 7 7 > 6 > 1 > > 1 1 % % & & & & % % % % % $ = % % # % * # % % $ $ $ > 7 8 8 ",
"$ $ $ $ $ + $ + # # # $ $ $ % % # % % % % % % % % % % % % % % , & % % % % % , % % % % % % % , % 1 1 1 1 1 1 1 1 > > 1 & , % % % , % , 1 7 7 7 7 6 6 1 1 > > > 1 6 6 6 > % = .   # # = = = . * = . . . + o = # % % % & % $ $ % % % % & % % % % , & % % 1 1 1 1 1 1 6 6 1 6 7 7 7 8 7 7 0 8 0 8 8 7 8 8 8 8 8 8 8 7 7 8 8 8 9 8 9 7 d w w e e w w w w t r w w w r r r e r e r e w r e t r d r r r v e e 7 7 e m v n a t p p a t t t p p p a i i l u a a p p p r u y r r t w t 7 | ' U T / ~.7.~.7.B | | K Y U R I | Y V V 7.V.7.~.UX~.V.7.~.V.V.~.~.IXD.G & 9 6 9 w w w i p p p d 7 O   > T v 1 b V B V T T v O + . o   % > 0 I 2 @ @ @ - - @ o X ; M Q P P P P U V P B M P y P v y e e y P M e P M M M M M B M V V P P P P P T T b v r p t t M P U V v e 7 , , , 8 t b J K b v t e t y y a v B B V V v e , , $ O O , 7 e v B V V P b P b v P P V b v e e 1 e m v B B v # v B b V N N N N v v a t y a v M N N N b b N B v v B b v b b n b v v v n v n v n v e e e e w d 8 7 8 w t w w r d t d i t p u p u t r r r t r t t y t u e r w w w 8 7 7 > , , > 1 1 7 5 7 8 8 8 8 8 8 7 7 0 8 7 1 1 1 0 7 6 2 7 7 6 6 1 1 , & & & & & 1 % % , , % % % % # & $ % % % f % & , 2 8 8 ",
"$ $ % # $ $ $ % # # $ # $ $ $ % $ % , $ @ , % $ % % % % % % % ; % % % % % % ; % % % % % % % & & > 1 > 1 1 1 1 6 & 1 > & % % % % % , , 2 7 7 7 0 0 1 1 1 & 1 > 1 6 6 7 1 & # X   + = * . * = . = = . . . . * # # $ % & f * $ $ % % & % & % % % ; & % & 1 1 , 1 1 > 6 6 6 6 7 7 7 7 7 7 8 9 0 8 8 0 8 8 8 8 7 8 9 7 7 8 8 8 9 9 9 8 e w w d 8 w w w w w w i w w w e e e w r e e e t e r r r r r r e e e e 1 7 e v v t t w t i t w a a a a a s a a i p a a p i u r r t p w e n , v T V UX~.7.E.~.| I K E v | ' K R L | v UXZ.:.W.UX~.q.7.~.q.V.~.~.Z.l.G m > 9 7 w w r p p p p p p n 8 X O p  .n I R M V V P N % , X 9 * r 8 @ @ 2 u ; 3 M u 3 u u q M V V v B V P V V v v V m P m , e T m y M B M V M M M M B B B V P P P P T T T v v e e n v B P V B t 8 7 , , 1 e v B J K b a a r t y v b B B N V v e , , O + O $ , m v B K V U V P b U V V V V v y e , , e e v V V v $ v v B K B b N b v y t t t a v b B B N N v B N N v v v v b v v n v n v v b v v P v e e e 8 w d e 8 8 w d 8 w e w w i r d t y a t t u u r t t t t t t t r d t i w w e 5 7 7 > > < > , 1 > 6 0 8 8 8 7 7 0 7 8 7 0 7 > 1 2 7 7 7 7 1 6 6 0 1 > > & & 1 & , & & & % $ % % $ $ % $ % % & & % % 1 8 8 ",
"$ % $ $ $ $ $ + $ $ # $ @ $ $ $ # % % $ $ , % $ % % % % % % % % % % % % % % % % % % % % % & , % > > > > 1 1 1 1 & & & & % $ % % $ % , 1 2 7 7 6 7 6 1 1 1 > > > 6 7 6 > & @ X   + + + + = o = * . + . + = * # * % & % % $ $ $ % % % , % % % & % 1 & & , 1 > > 1 > 1 1 6 6 7 7 0 7 8 8 8 9 9 9 8 7 8 8 7 0 8 0 8 0 8 9 9 8 8 8 9 8 w w w w w w w w w w r w w w w t e e e r r r e e r e r e r r t t v v 7 e , 7 v w w w e r a p p a i a p p a p a r p u a a a s a r r t e r y 1 e V UXV.Z.7.~.T V ' J K E J E P | Y C ~.V.UX~.7.~.~.Z.V.~.D.V.~.Z.~.T M e > 9 9 r w i d p p p p p t t 8 X   e T T T v V V B T 2 1 * * 1 q 0 Y | 2 7.V v j M A M 3 C C V T V V P b P m M v m P e v M M B / e B y U M M V m m B B V P P P P T T P V v v u m y v V P T v v e , , , 7 r n V P B v y a y n a v B K P J V v e 2 , + + O , e v v P P P P V V P b P V b P v y e e e e e v M B M $ r N b V B B K N M v n a t a v B N N N N b v N b v v v n b v v n v v n n v n v b v m e e 8 8 8 w w w e 7 8 8 8 e e e e e w w r u t t t t y t t t y y y p p i i i r w e 8 7 2 1 > > > > > > 6 6 0 8 8 7 8 7 7 8 7 1 6 7 7 1 7 1 1 6 > 1 1 1 > & % $ & & & & 1 & & & & $ $ $ # # % % & % % $ > 0 8 ",
"% $ $ $ $ $ + % $ $ $ $ + + $ $ # % % @ $ % % $ % % $ % % % % % , % % % % % , % & % & % & % & ; & & , > ; 1 1 1 & & & % % % % % $ % > 1 7 7 7 1 7 2 1 1 & > & 1 1 6 > f % # X   . . = . * = . . . . = o = * * = $ % & % % $ $ % $ % % % % % % ; & & % 1 1 ; > 1 > 1 1 1 6 7 7 1 0 7 7 8 8 9 8 9 7 8 8 0 8 0 8 8 9 0 9 9 9 8 8 8 8 w w w w w w w w r r r w w w i r r e r r t r d r e d e r r r t e t v e e e e e r t t w t y n p p p a a p j i i y a a p i a p a r w r w v e e r / ~.7.~.~.U | U Y E a E Y J R K T V.~.V.7.~.V.~.7.7.~.7.~.V.~.V.T P v e , e w w w r i p p s p p n w i 7   X e I v r K N K I 6 X - * *   X , 2 X 1 j A M j u u Z V V Q T P V v v B y m M m v e n T m m , T , M B M M M M V V V V P P P T T P V m v v m e v v V U T U v m 1 , , e y M P K B v y a y v v v K I P J v v e , , + O , 8 i b K P P V V V b P V B V V V v v e e e e v m M V b , e v b B V K B K B b v v y a v b N N b v N v v N b v b b P n v n n V n v n b b b v v v e i w 7 8 d w 8 7 8 8 8 8 8 e 8 e 8 9 e r u t t a r i t t p p a s p p p p i i i w r e 7 > > , , , & & 1 1 7 8 8 8 0 8 8 7 7 6 7 6 1 7 7 7 1 1 1 1 1 1 > & % % & & 1 & & & & % & $ $ $ # # % $ % % # & 6 0 ",
"$ $ $ $ $ @ % + $ $ + $ + $ $ $ # % % # $ % % $ $ $ % % % % % % & % % % % % % % % % % % % 1 & , & & ; > , & 1 , & & & & % $ % % % , > 2 8 8 7 0 0 1 1 1 > > 1 & 6 > 1 > % . X   = . o = . = = . . + . o = o + * # $ & & $ $ $ * $ $ % % % % , , 1 % % 1 > > 1 1 > 0 7 7 6 7 7 0 0 7 7 8 7 7 8 9 8 8 9 8 8 8 9 9 9 9 w 0 9 0 0 9 w w w 8 w w w w w w t d r w w w t d r r r t t t t t r r e e e e t e e e e 7 e , a b b a w t r r p i p i p p i p s s a p p u r i t w r e e e e v ~.} E.7.| | | | | U Y B ' E M | 7.~.7.V.7.~.~.7.~.7.~.~.V.Z.~.Y P T e , , v 1 y i i i p p p p p t B n r w X X r K K J J J C 0 *     @ o @ X 3 A - j l l Z U A | M A U U P P v v m v v v v , B V B P e M y m y m M M M V V P V P P P P T T P V V v v e v v v P U T V v e 1 , 7 e v v V V b v a a y y v B P P P N v e , , $ O O , d v K I P K V J P V V V V V K K v y e 2 7 e e e N V B 1 1 v v v B N B B N M v a v a v v v v v a N N b b B N B B b b n v b v b b v K B v n v v t b i 8 1 7 7 e 8 7 7 7 8 7 7 e e 8 8 e e r w r u 9 u w r t t a s s a s n n s a a n d w 7 1 > , , % & > > 1 0 7 8 6 8 8 7 7 7 7 6 1 6 0 1 7 1 6 0 8 7 1 > & & & > & & % & % % $ % & % * % % f f & $ % & 6 ",
"* $ + $ $ $ $ + $ $ + $ $ + $ + # $ $ $ $ @ % $ $ $ $ % % % % % % & % % % % % % % % % % & & , & & > > > % > % , % , & % $ $ $ @ & , > 1 0 8 8 8 1 1 1 & & 1 & 1 1 f > f % =     o . . . . = = = . . . = . = * + # $ % % % $ % % $ $ % % % % % , % % & 1 1 1 1 1 > 0 1 1 6 0 8 7 1 6 8 7 6 7 0 8 8 8 9 8 8 8 8 9 8 8 q 8 9 9 9 9 w w d 9 8 e w w w w w w w w w w r r r r t t r t r t t r r e e e e t e e e e 7 7 r v N n r w r r u p i a p u i u s s s u p r u i w e t e v 2 v e / IX' UXT T } | | J UXY U T P ~.~.UXV.~.7.~.~.7.E.IX~.V.~.7.E v T T < , m e e v t d i i p p i i e K a w t , X X v Y K K K l s p V X o u ; 4 R A V A M A V Q 7.C.v V U v v v v B v b v e m t U B m e m T y , m V M B B V V P P P T P P T P B B V v v v v v B P P V V v e 2 , 7 e b b B V N v a v v v v b P I P v y e , $ + O , , v B I P P J J P P V V V V V P P v y e e e e e v B J N 1 , y M B B N B N N b v a a v a v a v v v v v v N N N N b n n v v b b V b v b b b v v v b B s r 8 8 7 8 8 7 7 7 8 7 7 e e 2 8 8 e 8 e 9 e 8 9 9 r r r t t p s a v n s a s v a p i w 8 7 > & & & & & > 1 1 1 0 8 7 7 7 7 7 6 0 7 7 1 1 6 1 8 7 1 > > & & & & % % & & % $ & & $ % % $ & % & $ $ & 6 ",
"+ $ $ + + + + @ $ O $ + $ $ $ $ $ % $ $ % % % $ # $ % % % , % % % % % % % % % % % & & % % & & > 1 1 > & , % % % & % & % % $ $ $ & % & 1 1 7 7 7 6 1 1 1 & & 1 & 1 1 1 ; % + X   = . o = . * . o = . . . o = . * # # % % % % $ % % % % % % % % % & % % 1 > > 1 1 1 7 7 1 1 8 8 8 1 0 8 7 0 0 8 8 8 8 0 8 8 7 8 9 0 8 9 9 9 9 9 d w w 8 8 e w w i w w w i w w w w e r e r d t t t e e r r r e e 8 e t m e e 7 7 e 1 t v a e r t a i l a p p p p p u p p a i p p p e e n r e e v e T UX/ T T T T [ Y / R R y ~ ~.V.n.q.~.UXV.~.V.~.~.V.7.!.7.P C U P y < y e 1 v 1 w r i p p i p i i w p a d w ,     K N r i s  .i V.V.u 2 j M u A A u M C u 2 y V j V V t v e 2 t P v e e e | V M e M U y e e m T P V V V V P P P P P P P V B B P v v m v v B P U U V B v , 1 e v b B b B N b v v V B b v V P K b v 7 , + O O $ e n B P P I J P P V V b V V V K I v m e e e e t v P P B > , v B V B K B B N N v v a a a a a v v v v v v N N v v v b b n V b b n b n n a v a t n b b n b p w 7 6 7 7 7 7 5 6 6 > 5 2 1 8 1 8 8 8 8 8 q r u 9 9 u r p p a s s v b s v v s s n i w w > > & % % % > 1 1 7 8 7 0 8 8 8 1 1 1 1 1 > > 1 2 6 > > & % % % & % $ & & % % & & % = $ $ % % $ % $ & 6 ",
"$ + $ + + + + + @ + O $ + $ $ $ % % % % % % % % $ $ $ & & % % % $ $ $ % % & & & 1 1 > > , > & > , 1 % % % % % % % % $ $ @ $ $ $ & > 1 > 1 8 8 7 7 1 6 1 1 1 1 > > f 6 6 & #     X = = * . . * . . . . * = + + . = # * & % # # $ % % % % $ $ % , > & & & > 2 1 & > > 1 1 1 7 7 8 7 7 0 7 8 8 8 8 7 0 8 8 8 8 8 9 8 8 8 8 8 0 9 8 d 8 w w 9 w w i w w w w w w r i t e e e r e r e t e d e e r t n v y t r r e 8 7 1 , v V w t v 8 a a p u u i p u s a p a s p p a y t p w 8 8 r r M P T | | | T / T P T M T D.~.q.7.V.q.L.q.~.~.q.V.V.!.UXv { K ' | % 6 9 0 i 0 s t w w i a p p i a b 9 i p i i $ X X I n E } w s N ZX Xo y 4 j M V A M C - % A q M M 3 e 2 , e , m v e V T 1 b 1 P V m e B B m U P V V V V P T T P P m P P P B m b P n v v v V v V V V v e 8 r b V B N b b v v a v b J B B J V v v 7 , $ + + , e V J J J V P P V b P P V V V P P v v e e 8 e r n V V v v O e v v B B B B N N b v t v y y a v N v v v B v n v b B n B n B b b b b v v b a a v a a b b s a p i 8 > , 8 7 > 1 5 1 > 7 7 0 6 6 7 7 8 7 8 8 8 8 9 9 8 d w r p a n n n v s s a s p i r 9 0 0 & % % % & 0 > 1 1 7 8 8 8 0 1 1 > 1 > > 6 > > 1 1 1 & % & & % & $ $ # $ $ $ % % # $ % & f & & & % ",
"$ $ + $ + + $ + $ + @ $ $ $ $ $ % % % $ $ $ % % % % % $ & % & & % > % & & > , 1 , 1 > > > & & & , , , % , % % % $ $ $ $ + + $ % > > 1 1 0 8 8 7 7 1 7 1 1 1 > > > > > > & + X   X . * = . = = . . = . . . + + + + # % % % $ # $ % % % $ $ $ % % > & > > 1 1 1 > 1 1 1 1 7 7 0 7 7 7 1 7 8 8 8 8 8 8 8 8 0 8 8 8 8 8 8 8 8 8 8 8 8 e w w w w w w r r i w w w w w t t r e e r e t r r r r e r e r r r r r r e 8 7 e e v n w w b p a i s i i u p i p p p u u p u p w t r r e r e n e T T / T UXT ' ` U T q.Z.q.~.l.UX~.~.n.D.V.~.~.V.Q.' V B T E Y I % 6 w 9 i r i t i i i a a p p t n i a p w s i 5   + I J E K b i p Z.C.V } / :.V.V - 2 @ X 2 u 3 2 2 2 , , 2 , B 2 v } r 8 % v U y e B V m m P P P P P T U U P P P P V P P V M b b V v v P V P V V V v r e w v K B B B B B b b v K J V K J M n 7 , + + + $ 7 v B J J J V P P P V B V b V V V B M v e e e r a b B V v t $ e v v N N N N N b v v y v a y a v M M b b B B v b B V v v v n b v b b b B v n v b N n b s n a s b p 9 8 5 7 7 7 1 7 7 > 1 > 1 1 1 0 6 0 8 8 7 8 9 8 8 w w r p a a s p a s n b n s p a i i r 9 0 & % # & & > > 1 7 8 8 8 8 7 0 7 2 1 1 1 1 > > & 1 & & % % % % & % & & & $ % = $ % % % & & & % ",
"+ $ + + + + @ $ $ $ $ $ $ $ $ $ % % @ $ % % % & % & & & & & & & > > ; > 1 > > > 1 ; > 1 1 , & % % % % % @ % $ $ $ % $ $ $ $ $ & 1 1 1 1 6 7 7 7 1 1 1 1 1 1 > > & > f & $ + X     . = o = . . . = . . + * . + O # + $ % % # # # $ $ % % % % % % & & > 1 > > 1 1 1 7 1 1 1 7 1 1 6 6 1 7 8 8 9 8 8 8 8 9 8 0 8 8 8 8 8 8 8 8 0 9 e w w w 8 e e e d t r w r w r t r d r r e r e r w w r e r e e e r r r r r e 8 7 1 , 8 e e 8 w w p a a a p a p i a a p p u i i u t t r r e r t y , M ` T / ' / T T T q.b.~.~.q.~.V.q.b.q.~.~.UXZ.E.| l R | V V | l % 8 w 8 i 9 i w d p a s p p s i a p s p w p s r = X $ E a K J K N % Y } 7.} :.7.u + o @ - 2 u 2 - e 1 $ @ $ $ v V M 2 V v e | e M V B y V T P P P P P P P P P P P P P P P V M b U V v V P P P V U V V v e i b B B V B B N N B b J P J J K b t 7 , + + + , e v B V P V V V J P P V V B V P V B v y r e w r p v V V B v , 2 v v N N b N b v v v y y a a a v M v v b N b M B B b B n v B n b b n v v b v b b b s s v p s b K s p e 7 > > > > 1 7 > > 1 6 6 1 1 > 1 7 7 0 0 8 8 0 8 e w w w w i i p a s n b b b n s s s i w 8 1 % $ $ % > > 1 0 7 8 7 7 8 7 7 6 6 1 > ; > 1 1 & & % % $ % % f & & $ % $ * $ % $ $ f $ & % ",
"$ + $ + + + + + + + + $ $ $ $ + & % % $ $ $ % , % & & & , > > & > > , & 1 & > > 1 1 > 1 1 & & $ % $ % $ % % $ $ $ $ $ $ $ % & & 1 0 6 6 0 7 7 1 1 0 1 1 > > & & > > > & $ = X   X . = * . . = . . * = + + . O + O # # % % # # % # $ % % @ % % % $ % & > & & & 1 1 1 0 1 2 1 1 > 7 1 6 0 7 8 8 8 0 8 8 8 7 8 0 8 8 8 0 8 8 9 8 9 w w w w w w 8 d w w w t w d t d t t t r r r r d e e e r r r r r e e r r r d e e 8 8 1 t B v r a p p p a p l p a s s s p p i p a t r r r w e e r y y T T UXT / T T q.~.~.q.~.L.q.V.~.q.D.q.V.~.V.} 9 _ E R ' J Y 0 & 9 9 8 i 9 i w i p p d p p p v d w i p i p b e n ,   f I i I K a l u - y v 2 @ O O @ ; 2 ; 2 q 2 e 1 O @ O , e @ V.V ; v T 2 m e M B M B T T T P P V V P P P P P P P V P P V n V V B v P P V V U T V b v v b b B K B b b N B B J J J J B v t 7 , + O + , e v J I P P V V K K P P V V P P P n v y r e e r p v V V V v , , v v N B N N N b v v n a a y n y v v N v v v v M b b B B n B n V b n n v b v a v v a b n n s n N b p v e 7 8 8 > , 1 1 1 1 1 1 1 1 > 1 1 1 > > 1 1 6 6 7 7 8 8 w w e w i p a s s b b s b a i i r w 9 % > > % % % > 0 1 1 7 8 8 7 7 6 1 1 1 1 1 1 1 1 % % & % % % % f $ % % % % $ # # # % % % ",
"+ + + + + + + + + + @ $ $ @ $ + % % $ $ % $ & & & % 1 ; > > > 1 > 1 1 > ; > > > 1 1 2 1 & & % $ $ $ @ $ $ $ $ @ $ % $ $ $ $ % > 1 7 7 0 0 7 7 1 7 1 1 1 1 > & & & & & & % . X     . = = . * = . . . . = + . + O + + + $ % $ + $ $ $ % % % % % % $ % 1 % & % & > 1 > 1 6 6 6 > 6 6 6 1 6 8 8 8 8 7 8 8 8 0 8 8 8 8 8 0 8 0 9 9 8 8 e d w w w 9 e e w w w r w r r t t t t r r e e e w w r w w r t r r r t t r e e e e 7 t V V y v j s a a a p p u l a a a a p l p r t t r r w e r y e B / / T U UX~.~.~.q.Z.V.~.V.7.~.~.n.~.7.L.T s E E a Y E E l & > w w 9 r i i w i p p a p p p p i w i n p v  .v b 7 X X e n I N N J M N y e ; e e u U Z 2 2 u u 2 8 $ + $ + e $ 7 , >.y e ; v P V e y P T P P T T P P V P P P P P V B B V P V V V b v B V V A U P U V V v v b V K J V B B B J K P J K V b n w < $ = O $ 7 v V P U U U P V K V B V V B B B V B B n u e r t a b V P I n , $ e B B N B N N N b M v a a a a v a v N v v v N B N b B B n B b b b b p a v a a s v s b b b s s b n s K n t t p 9 7 8 0 6 6 1 > 6 f 1 > > & & & > > 1 7 7 7 8 7 e w r w 9 w i a s n s s s b a a a s s 8 0 1 % $ + & > 1 1 0 7 8 7 7 6 1 1 1 1 1 1 1 1 f % % % % % % % = % % $ % $ # # $ $ % % ",
"+ $ $ + + + + + $ + $ $ $ , $ $ % % % % & % & > 1 1 > > 1 1 1 1 1 1 1 1 1 1 > 1 1 , & 1 & % % $ $ $ $ $ $ $ $ $ @ + + $ $ % , > 1 1 1 1 7 8 7 > 7 7 7 2 1 1 & & & & & & % #       . = + . = . = . . o o + O . . + @ + $ % $ $ + $ $ % % % $ 1 % & & & 1 > > 1 1 > 1 1 1 > 7 1 6 6 f 6 6 0 8 8 0 7 7 8 0 8 8 9 9 8 8 8 8 9 9 8 8 7 8 8 8 8 8 w w w w i i r w w r r r d t r r r e r r e e e e w w e r d t t r e t 8 1 , , v b r r i i a s p a p i a p a p a p p p w r r r r r u r e e V / T T T q.~.V.q.~.Z.Y.q.D.~.7.Z.q.~.~.T T E L J Y E K Y r & 0 9 9 w r r r i d p s s p n p p i s p t p r s b m < O $   t K i r v V M M V P A M M R V @ o 2 2 2 ; + @ @ + 2 , 4 e + R V M v M T B e m T P T m U P P P P P P V V B B V V P P P V P B B V V B V U U U V B B V V V K B N N B K J V B B B v e 7 , , O O $ 2 v v V V V U P P J P v B V B B B K B B a r e w r p b V I P v 2 O 7 M b N v N N v b v v a y v a a a v v v v v N N v v m B B n b b b b a v N s a n v v b b b s s s N b b n p a s p w w 8 9 7 0 6 0 6 6 6 & f & > & & > , , , > 6 7 7 8 7 7 8 8 w w t p s b b K K s p i r 9 7 & $ $ + $ 1 1 1 7 7 7 1 1 6 1 1 1 1 1 > 1 f & & % % * = % & % % $ $ $ # # $ $ & & ",
"$ + + + + + + + $ $ $ $ $ , , $ $ % % & & , > & > 1 1 1 1 1 6 1 2 1 1 1 1 1 & 1 & & 1 % % % $ % # $ $ $ $ $ $ $ # # $ $ $ % % ; > 1 7 1 0 7 7 > 2 6 1 1 1 1 & & % & f ; & = X     . . * = . . . . . = . = . O O + . + + % $ $ + $ % @ $ $ % % 1 % 1 % 1 1 > 1 > 1 1 1 1 1 1 1 7 6 6 f 7 8 8 8 7 7 8 8 8 8 8 0 9 8 8 8 8 9 9 8 8 8 e e d 8 8 e d w w r w d w w w e r t e r r e r r r r w w w w e t t e e e r r e e e 1 7 t v n v i p p p i p a a r t i p p p u p t w r t t t r r e e T / UX/ q.L.n.d.n.~.l.q.V.~.~.~.q.L.V./ M T | K E E I E W & 6 9 9 8 w w w i a p p p s a a p a i n a i n w w t e   7 > X   e I s | b v / t V V V R T C 3 % - 2 2 + ; 1 , + 1 e 4 + A T 2 , A M y y V T m P T m B P P B B P m V V P V P P P U P V V B V P V V P V V U P V V I P K K B B N B N V B v v v r e 1 > $ + + $ e v B V V B V I P J J V P P V B V V V v r e e w t a b K P U v e + 1 a v N b N N b v v v v y y v a a v v v v v b b b a n B n B v b b b n b C n a b b N s b s s n N n b s p p a b b s p p i i w 0 9 0 8 6 & & 6 6 & & > % % % % , > 1 1 5 6 1 7 8 w w w i a s N b b s s s p w 8 1 & $ $ % > > 1 1 0 1 1 6 6 1 > 1 > 1 > f & & & % % % $ % % % f % % % # * f & f ",
"+ + + + + + + + $ $ $ + $ $ $ $ % $ & & 1 1 > , 1 1 1 1 6 1 6 6 > 1 1 1 & 1 & & 1 & % % % % % $ $ # $ $ $ $ $ # # # $ + + $ % & > > 1 6 7 8 7 1 7 > 1 1 & & & $ & > > & % # X     . . = o = . = . o = . . + . O + . + $ $ $ $ + $ $ % $ $ $ $ 1 & % % % 1 > 1 & 1 6 1 > 1 1 1 1 7 7 7 7 7 7 0 7 8 8 8 8 8 0 8 8 8 8 8 8 8 0 8 8 w w 8 7 e 7 7 e 8 w w w w w w r e e e t e r e e w r t t t t w w t e e e e r r e , e e 7 e n v y a p i u u a i y u r p a a p a i w t r r r r e 8 e m P T T ~.~.L.q.~.b.q.~.q.~.~.q.~.~.~.T M U T | | R I E R K $ 8 r 7 9 i w w r i i i p a a d i a w p i K R b i v X 7 e m 8 X   0 I I n B y T P T M / A q 2 o 2 2 3 ; 2 j 8 1 1 2 2 , 4 u 3 e B V e e B T T T V U P P B B M V P V V P P P U P U V V B B V P V B P V V V J V P I T P P V K V K B K B v v v r 7 1 = + = + , m b P U V B V P P B b I P V B V P V B v v t y t p v v B J P v y $ , r N b N N v v N v v v v n a a a v v v N b N N N N v n B n H B b b b b N n a a b N a n s a a b b b a s p p b B H s s s s p i r d 8 0 6 6 7 7 > & > % , , , , < , > , 1 1 1 5 7 e e i r i i s s s N N s p r 9 2 , + + + $ & 1 1 6 0 1 1 1 > > > > > 1 f & & % % % % % % % % * % % % # % & f ",
"+ + + + + + O O + $ $ $ % % % % % % & ; > > 1 1 1 1 1 1 1 1 1 1 1 1 1 1 , % % % % @ % % $ $ $ $ O $ $ $ $ $ $ @ @ $ % $ % , , % + % & , 1 2 1 1 & 1 2 7 > & > > & > 1 > $ . X     X . = + . . . = . = . . . . . . = . * $ # # # # # $ $ + $ & % % % % & , 1 > 1 1 > > 1 1 1 1 1 & 1 7 7 7 7 7 7 7 7 7 8 9 7 7 7 7 0 7 8 8 0 8 7 9 8 8 e e 7 7 8 w w 8 w w w d r r r w i d t i w r r r w w w w w w w w w r w w t e e 7 7 1 n t 8 e y y e y v t e v t e v v e y t i p r m e e m u e y e T ~.~.~.q.~.~.q.b.~.~.q.~.V.V.Z./ T T T T T T | T U T v $ e e e e d e t t n t t t p t t a b 7 s r 7 n s b   $ r n w e > .   b J a B K B I M V V A A ; 4 ; - 2 - u / v + 2 t @ 2 @ ; y u v y e e B V V T T V V P P m P V P P V n P P P P m P P P B b P P P v V P v V U U P V V V B V V M V M M v v a e 7 > $ $ + $ 1 u M T B V P P P m m P P m P V V V B m B M m y y y M B B B V V n , $ r t M B v v b B M N b a v a p p a i a n b b N b N v v v V v v v v a a v v a t a v b n s v s v a i a a i t a v n N w r p b b s s K p 9 8 8 6 $ % 7 > , , % % $ % , $ , > > > 5 1 8 0 8 r r i i s s N K s a p i 9 & % # # $ & > 1 1 2 1 6 1 1 1 > > f > > & & % % % $ % % % % $ % f $ % & & ",
"+ + + + $ + + + @ $ $ $ % % & & % & , > ; 1 1 1 1 1 1 1 1 1 > 1 , 1 % , % % % % # # $ $ $ $ $ $ $ @ $ $ $ $ $ $ $ % % $ $ % % $ + $ % & 1 8 7 7 > 1 6 > > & % > & > 6 1 % .       X . # + = = . . . o = o = . . . . . * $ # # # # + + # $ $ % & & % , & & & > > 1 1 1 1 1 1 1 6 & 1 1 1 0 1 6 1 0 7 7 7 8 7 0 0 9 9 9 8 8 8 0 0 8 8 7 e e 8 8 d w w 9 w w i r r w r i t i r i w i d r w w w w t w w r w r r r d 8 7 7 e 8 > 7 r e e v v v y e v t t t e v v t t d t t t e e t e e y , V.R.q.~.V.~.7.~.V.UX7.~.V.~.l.T UXT T | T U V | M T } $ e e 7 5 e e e d r y t r v n r t y p i i K w 9 s $ + > r a w w 8 % .   9 E n i I v V A R M M - @ 3 @ A u j R y , , y j 2 @ X 3 - y u e v M V V b V P P P P P P P P P P B P P P P P P P P B b V V V P b v v v v v v B M B B B v M M v y e v i 8 7 > % # # + 1 e M P P P V B P P V P P V P P P P P V M M y y y y M M B V V V v , + 1 p n N n v B B n N a a s a p a b p a a v v b N N V v n V b v v v b v v b N v b B v v a a v a a i n a p p a a v b a r i p p i p N n N a w w i w 1 > > > > , % $ $ % % , , % , , , > 0 7 8 w r i a b b s s s s i 0 ; % # # $ % & 1 6 7 6 1 1 > > & & & > > % % % % % % & $ # % % % # $ $ $ ",
"$ $ + $ $ @ $ $ $ $ $ $ % & & & , & > > 1 & > 1 1 1 1 > 1 > > > % % % % @ $ $ # + + + $ $ $ @ $ , $ $ $ $ $ $ , & & & $ $ $ $ + + $ $ & 1 7 8 7 > > 6 1 > & % > % > > > $ . X     X . . * . . = = . = = = . . = . . . * $ # # # # + + # $ $ % & , & 1 & ; > > & 1 1 1 1 1 1 6 1 1 1 1 1 1 0 7 7 0 0 7 8 8 8 8 8 9 9 9 8 8 8 0 8 8 8 9 d w 8 7 e w 8 e w w w w r d t w i t i w w t d t w w w w r i w t r i w i r d e > > 8 8 b ' | y 2 e e v v t t t e v e v t r t e r e e e e t y , M / V.~.7.~.q.~.V.q.~.7.7.~.q.| T T | I _ P P / P M 7./ , e 5 e e e e e e e t t t t p p t p t p p P K b b + > r i w i d w 8 >   + n B i w w A v A M A e ; 2 - M @ e - e V X e A 2 X - C M 2 2 e v M P P V U T P P U P P V P P P V P P T P P P P P V b P P b b b v v v v v v v v v v v v v y e v e e t 7 1 , # # # $ 1 r M P P P P V P P P P V V V P P P P V B M M m y y m M V B V P M 1 $ , i b N N b B B b b v a n a a a a s v a a n s N N v v v v v v v b N v a v b v N v n a a a a b v s v a a p a s b b n t w i p d a n i b K b a b n r e 7 7 > > > , $ , , % $ % $ , , & > 1 0 0 8 w i s b l N K K a i 9 1 % # + + $ & 1 1 1 1 1 > > & & & & & & % % $ % % % $ % % % % % % % & ",
", $ $ $ $ $ $ , % $ % % % , , , 1 > > 1 1 1 & 1 > > & % % % $ % # $ # # # + + + + + $ $ $ $ + $ $ $ $ $ $ $ % % % % $ $ % & & $ + $ $ % > 1 7 0 > > > > > & & > & & 6 & $ .       X = = = . * . * = o o * = . * . . . = # # + # + # # + @ $ $ % ; , & 1 > > > % > > 1 > 1 > 1 1 1 1 0 0 7 0 8 8 8 8 8 8 9 8 8 8 8 8 8 8 8 8 9 9 e 8 8 8 8 d 8 8 e e d 8 w w w w r w i w i w i w t p i w w r w w w i d w r w w i e d 8 e e , 6 J U y v v e e v e t t v e v e t t t t m e e t e e e M e B 7.V.~.7.b.q.n.~.7.~.7.UXP V ` T | | E T T U M UXqXy , y e e e e e v e m t t r t p r t p K n s y K p .   w v a w i y d a > 1   X b J a T v U M B A 2 ; - : ; o u - M 7.v ; / } 2 u R } y e u v A P b P U T P P P P V B V B V B V P P P V H V V P P V V V b v v v e e e m m v v v v v v m v v t e w 5 1 $ = + + % 8 v V P B V V P P P P P B V M V V V B B M M m M M y M M v B V V B 8 , , w p K b b b b b b s a a s a a a a a a a N N N b B v v v v v v v v v v a v v v v v v a a a v s n v a p p a b N N a t d s s s a a i w w b K N N B n p w 8 8 8 2 < , , $ + $ % $ $ % % % & > 0 8 0 d s s s N N s i s w 6 , % + # $ & > 1 1 1 1 1 > & & & & & % % = = % % % = * % % % % f % ",
"$ % $ @ $ $ , $ % % % & , , ; , & & 1 & ; , , & % % % % $ $ # $ # + + + + + + + $ + $ $ O $ O $ @ $ % % , , % % $ $ $ $ & 1 > > + $ $ $ & 2 7 6 , , 1 > , & & & & & f & # X       X . . . = . * = . * = * = . * . . . + * = # + $ $ + $ $ $ $ $ % 1 1 1 1 1 , ; & 1 > 1 1 > 1 & > > > 1 1 7 6 7 7 8 8 8 9 0 9 8 8 8 8 0 8 8 8 9 e 7 8 e 9 8 8 e w w w w w w w w w r w i i w w w t i t r r w d r w w w w w w w w 8 r e 1 8 , , p v e v v e v v e t t y t t t t t e v e v t e e v , M y M ~.7.7.7.q.F.l.~.q.~.UXV E Y R ' | / I } P T UXZ.V.1 1 y e e e t e m e e y r r y t r p n 8 a 8 8 K 9 . 9 w n i w i i w a p 8 +   + n T | v V B M q 2 @ 2 ; - @ 2 3 $ 2 2 o M Q $ ; V 7.e , t v V P P P P P V V V P V V V P n B B V P V P P P P P b P v v v t e e e e y v y y v v v y y e t y e y e , > $ + + @ $ e v V P B B V P P U V V V P V P V V V B M M M M M M M M v V V P B w % , 9 i b b b b v v b b b a a a p p a p a v N N N b V b V b b v b v N B B N v v v b s b v v a a v a n a a p a n N N s d t a s b s a b w > 7 i b n b K b a p d r e 1 1 > , % % $ , $ $ $ $ % % > 1 1 8 9 r a s b s s N p r 8 1 % # + $ $ & 1 2 6 > > & & % & & & & $ % % * % = % % % % = % % ",
"% $ % % $ $ , , % % % & % , , , & & & & % % % % % % $ $ $ # $ + + + + + + + + + + $ $ O O O O O $ $ % , , , % % % $ $ & 1 1 1 > $ + $ $ % 1 6 6 % & & ; ; & & & > f 6 % # X X     X = . = o . = * = = . = = o = . = + . + * # + + $ + + + + @ $ % % % 1 1 1 1 1 & 1 1 1 6 6 1 1 1 6 7 2 1 1 7 7 7 7 7 8 8 8 8 8 8 8 8 8 0 8 8 8 d e d w w 8 8 e d w w i w w w w r r r r d i i w w w d r r r w w w w w w w w w w t n e % > 8 r b v v t e e v v e t t y t t r t n v e m e e v e e e e M e ~.~.UX~.q.V.q.l.~./ P T R | J R ' | | I [ 7.~.%XB 7 M , y m e y v e m e y r r t p t y y B ] b n p   = r r p i w r t w a b w w ,   O b I v y V y e A 2 4 2 o @ @ u ; 2 t 2 3 u 3 q / / e e v v P b U P P P V V P P V P P V P B V V V P P P P P P V n v v y y e e e e e y y m y v v v v t e t e e e 7 , $ $ + + 1 e M B B V B B M V m P P P V V P V V V M M M m y M M B M M V U V B w , % 7 i b b b b v b N N b v p p a d i a a n b N N b v V b V P v v v b B K M v v v v s v b b n a a a N a a p a a b s b p w w p p a a b  .i $ + > w e a s b N K b p r e 8 1 5 < , % , % $ $ + # $ % % > 1 0 w p a s b b s p i 9 & $ # + $ % > > > 1 > & & % % & & & & $ % % % % # # % $ * % % ",
"$ $ % % % % , $ % & % , % , , % $ % % & % % $ $ + $ $ @ $ $ + + + + + + + $ + + $ $ + O @ + $ $ & & & % % % % % $ # $ > 7 0 1 > $ % $ $ % 1 6 6 & & & > > > & & > 1 & % + X       X . = . = = * = o * = . * = o . = * . . # # . + + + + + $ + % % % % & % , 1 1 1 1 2 6 6 6 > 1 0 7 7 7 7 1 7 8 6 1 0 0 8 8 8 8 8 8 8 9 8 9 8 8 8 8 e w w e 8 8 e w w w w w w i d r i w t r w w w w i i w w w w w w w w w w w r w i t w 8 1 < , 7 v v v v 2 e v e v v e t t t t v m m e v e e m e M , , } ~.7.m.D.q.n.V.UXP T T Y E R I ' T ' R Z.!.~.!.t , n 8 y y t e e e e v v r r t t r a v w E s p &   9 s r w t i d t i t e w w 7 , X $ v P M B y v M A , q o @ - @ 2 u 2 e t y M u A 2 2 v v P P P V V P V P V P P B P U V V P P P P P V P P v b b v v e y y t e 2 e e y v y y v v v v v y y e e e , , , % # + , r M B V V B V m B B P P V V P V V V m B M M M M M M B B M V P V K p 1 % > w s  .b b v v b b b a a a a t a s v b b b N b v v b v v b b v v N M v n v v v a v b b N s v a b s p p p a a v b s d i p s a n r K B 6 X . $ , 7 9 i n b b b n a p w e 8 1 , > 1 $ $ + $ $ $ $ % % & 7 9 r i a s s b s a 0 6 & $ + $ $ % & > 1 6 & % % & > > & $ # % % # # % % % % % % ",
"$ % % % , , $ , & , & ; % % % % $ $ $ $ $ % $ $ + + + + + + + + + + # + + $ $ + % $ $ $ $ $ , % 1 > , , % , @ % $ + $ 1 8 7 7 1 > 1 & $ & > 6 > % & % % > > & % 1 > & $ .           . = * * . = . . = . . = . o * . . o + # * . O O O + + + % % $ $ $ $ % & , % & & > 6 1 1 > > > 6 1 1 1 1 1 0 6 0 7 8 8 8 8 8 0 8 8 9 9 9 9 9 8 8 8 w w 8 8 d 7 8 8 e w w w w w w w r w t d w w w w w i w i w w w r d w r r r d w w w 8 8 8 6 v e , e e e e v t t t v t r t a v e e e e e e e e e M y P Z.m.V.7.~.7./ V T P P R U R | | | / !.7.~.%X/ + e r t v m y m m t v e v t r r p t a n w w s 9 X $ s 9 p e d a w w a d p r r r > X   , y U y e y 2 ~.Q   @ @ o @ 2 2 2 3 3 q ; M U e M v M n V V V P n B V V P V B V P B B V U P P V B n n v v v v v v y y e e , e y e y v y v v v v v v v e e e , , $ $ = + & r N V V B B P V P P P m V V V P P P P P M M M M M M B B M V B B J n e < , 7 p b b b v v b b n a a a a t a b b b s a n b v b v v P b P b v M v y v M v v p a b N s b a b v a p p a a b b p a a p s b b b v n b a e , = X + $ , 7 w i v b b K b p w 8 1 1 1 & % $ $ $ $ + $ # % & 6 0 w r s s b K N i 9 0 & $ # + # % & 1 f & % % & > f f $ % % # # $ % % # # $ $ ",
"% % % % % % % % % % , , $ % $ % % $ @ # $ + + $ O + O + $ + $ + $ $ + $ + $ $ $ % $ % % > > 1 > 1 1 & $ % $ $ + $ $ , 1 0 7 7 0 1 > > % % > 1 6 > % $ & > & & > > > , % .       X   X = = = = o = o = * = . = = . + . . + % $ . O O + + + + + + + + $ , , 1 , 1 & & & 1 & 1 & 1 1 1 6 1 6 6 7 0 6 7 7 8 8 8 9 9 9 0 8 8 8 8 9 9 8 d 7 e 9 7 e 8 8 w w w w 8 w i w w w i w w e 8 w w w w w w 9 w w w w i w w w w r w w w e 8 7 e e , n V m v e v a p p i a i t a e e v r w w w r e 1 r e v ~.7.V.7.B.} J ' K Y P K / / { R } ~.Z.!.E.7.e , v b r y y m v v t e v r v e e b p v n t p a X = i a 0 p i i w w w i w t a t w w 8 $   O | n , v v e %X} X % @ @ 2 @ @ - u 2 , 4 e e M M M B V V V V V V V P V B V V V V V P V V V V V N b a a a a a a e e e e e e e v v r v v v v B B t t t r e 8 , $ O # # & 9 a V P M M V B P P P P P V m V P V B V M M M M M M B M M V V U J v e , , > w v b v v b b b a a a a p a b b b a b C b p v b b v v v v V V b v v v b b v a b b v b N s y a a a a a a a a s p p p n b n K s p s b a i 8 > = + % % $ , 1 e i n b B b v w w 2 1 1 % % $ % % # $ $ $ $ & 1 2 9 i s s N s a i 9 & # # # % & & & & & % % & & & & % % $ $ $ $ % $ # # % ",
"% % % % % % , % % , % % , $ $ $ $ $ $ $ # $ $ + + + @ # $ $ $ $ $ $ $ % $ % % & > & > > 7 7 7 7 1 , & $ $ + + + $ $ , 1 7 8 7 8 2 1 > > & > 2 7 > % $ % > & , > > > % + X           . * = o = . . = * = o = o . + + O . + # $ + + + + # + + + + + , $ , % 1 1 % & 1 1 1 1 & 1 1 1 1 1 1 1 6 7 6 1 0 7 8 7 7 7 8 8 0 8 8 8 8 9 0 7 9 7 7 7 9 e w 8 w w w w e w w e e w w w d 8 e w 9 w w e 9 w 8 r r w w w w e e w w r d w 8 7 8 e e V P e v 7 v a p a t t t t y e m t t d e w r n y 7 e e 7.V.V.V.K I | M Y E T Y s / / R V.~.~.Z.{ | e t 1 7 b y v v v m m v v e v v t a e w B p K , X 9 s i i i r w r i i i i d p i w w w > + O , b v T B e M >.2 ; X o 2 2 @ , e @ X , v A y M V V V V V P V B V V B B V V V V V P P V B v B K B b v a i r r m e e 7 e m e v b b v v B v v v v y a w e 8 > $ # # * 1 r v V J V V V V m V P P P P P P P B B V V V B B V V V V B B V V J b r > $ , e n b B b B b N n a b a a b b b b a b N b a v v b b v v v v v v v n v B M v s b v v v N b a p p p a s n v b b s s p p s s b b a s b s a i 8 1 , + O < $ % % 8 8 8 i K K K a r r 8 7 1 & % % $ % % $ $ $ & 1 0 8 r p s s i p u 8 & % # # # & & & & & % & & & & % % $ $ $ % $ % $ % $ ",
"$ % % % % % % % % % % % $ $ $ $ $ + # # # + + $ + # # # $ $ $ % % % % > 1 > 1 1 1 2 0 7 8 8 2 1 > % $ + + + + + + , , 1 6 7 8 8 7 7 1 > 1 1 6 7 > % $ % > > > > > > % O X       X   = + o = = o = * = * = . . . . = + + . # # # O + + @ + $ + + + $ $ $ % , % , 1 % & 1 & 1 1 1 > 1 1 1 1 7 1 7 1 7 7 7 0 7 7 0 8 8 8 8 8 9 8 8 8 8 7 e d w w w e 8 e 8 w w d e 9 w w w 8 e 8 8 w 8 8 w 8 w e d w w w w w w 9 8 w w r i w 8 7 7 , 7 v v n v v v p a a p r r r r r n t r r w w w 1 v t t 1 V V.~.' U L E J / J K L R Y U %X7.oX!.' / V + t y r a e v v y y v v v v t v e t b 8 t n p   , i s r i i w d r a d i i r i i i i i w 1 , O , m T t v e % % 2 1 @ e 2 @ , @ O @ v M M V A V B B v B B V B B V B B V V B b V V V V v b v b b n t i t t w e e e e e r v v V n b V B v M v v t p w 8 7 , $ # # # 2 i B V V V V V b V P V V V P P P P V V V V B M M B V B B V B V V I b p 7 % % 8 p B V v v b B N a v v a N a b b a v N b s v b P v v v v v v v v v b M b v v b s a s b b n a a a a a a a a b b a p p d a p  .n a n n b n r p w , , $ % $ $ X $ 8 w w w v J s s a i r 0 1 % $ $ $ $ $ $ $ $ $ & 7 w i a a s a i 9 1 $ @ + % % & > f & % % & & $ % $ $ $ * % % % % % ",
"% % % % % $ % , @ % % % $ $ $ $ + + # O # + + + + # # $ $ % % , % & > > 2 7 7 8 7 7 8 8 8 7 1 , % $ @ + O O @ # $ @ % 1 6 0 7 8 7 7 1 1 > > 1 1 1 % $ % & > & > > & + .             . = = . = * * = * = * = * = . + # + + . # $ + + + + + $ @ + + + + $ % % % % % 1 1 & & & & 1 1 1 1 6 6 1 7 1 6 0 8 8 7 7 8 8 8 8 8 8 8 8 8 9 e e w 8 e 8 w w e d 9 w w w w 8 e d w w w 9 8 8 w w w 8 d e e e e 9 w w w w w d w w r t r w 7 7 , e e v b v e e t p p d t i p d r d d r r w d r r 8 2 e n P 7.[ M ' I N E Y b P E y ' ~.UX~.V.| U ' w 8 v e t v m v v t v v v v B e r v K | t r p + . a 9 d s 8 t i t t t p p r i i i i d t w w 5 O O 7 b V v V M y # X   1 e 2 , - , M U V y U V B B v v v V v B B V B M B V B v v V V B v v B v v a t i p p p e y e v t t v v b b v b v M B B v v p r w 5 , $ # # $ 1 i B B B U V V V V P V V V V V V P P P P V B M M M M M M V M B V I B p 8 , , , t n b v v b C b s b s p n a a b b v n b b V v V b V v v v v v v v v b b v a b n v v b b b b b b a s s a a p a s n s s a a v t i a s b s r p p r w > , , > , % $ $ % > 9 d N N N s s i 0 8 ; & & $ + + + $ # $ & 0 0 i s s a a i 8 , + + # & > > & % # $ % % & % $ $ $ % % * % % * ",
"% % , $ % $ $ $ $ $ $ $ $ + + + + O + + + + + + + $ + $ $ , , , > > 1 7 8 8 9 9 9 8 7 7 1 1 , $ + + O O O # $ % $ % % 1 1 2 8 8 8 7 1 1 1 1 1 1 1 % $ $ , > , ; > % + X             . * * . = * o = * o = + o + . . # = . . # $ + + + + $ + + $ @ $ $ $ $ $ $ , % % 1 1 , & 1 1 1 > 1 1 1 1 7 1 1 7 7 8 8 8 8 9 0 0 8 8 8 0 9 9 w w w w w w w w i w w w w w w w w w w w w w d e w w w w e e w e 7 8 w w w w w w w r r w d w e 8 w 8 1 d B p w r i p p p i p n i e t w d t w i r t 1 w e t a R P R Y K K V P | | v UX7.~.~.~.T T / UX1 r e 7 y m y v v t v v v t v r b v a Y t v > X e a i w i w d w w i r i d t t p t w w i i i & 7 . . > E b a r J v n 1 , 2 8 e v U V V V M v B V B B V V P V B B B B v V V P v v V b v v M V b b b s a p i r i i i i v v v b n b B b v V V b v v v e e 5 , = # # $ 6 p C V B U b B B V P V m P V B B P P P V V V V B M B B B V M B V J J n w , % > e v v v v n C N b N b p a p a b b b s b N v b b V b b n B v v b b v v v b a a b N b v v a a p a a n a n M p a s s a a s n a i i v b b s w w d p p w 7 > , 7 6 , $ $ % , 7 9 i p s K s a i 9 7 6 % $ # + + # + $ % 1 8 t p s s s i 8 1 % + $ % & & % % $ % % % % % % $ $ $ $ $ % = ",
"% $ $ $ $ $ $ $ # # $ + + + + + O O O O + + + $ $ $ $ $ @ , , , 1 1 0 7 8 8 8 8 9 7 0 6 , , $ + O + O O # # $ % % , , , > 2 7 8 8 8 7 6 1 1 1 7 1 % + $ & > & & & $ .               . * = . = * . = = = + * = = . * @ # + . # $ + + + $ + + + $ + + + $ @ , , $ % 1 1 % & & & & > 1 1 1 1 0 1 7 1 0 7 8 8 8 9 9 8 8 8 8 8 8 9 9 d e w w w d i t w w r w w w w w i w w w w w 8 w w w w i d e w e w w w w w w w w r r d w w e e 8 8 1 7 w t 8 r p i a p p i a a i r d t d r r w t e 8 B r 8 1 l R / K | | v } T T T 7.~.7.7.P T | V.{ 1 y 7 v v e y v v v v v m v v y N a e n w r   $ n 8 s i 5 s t i w r r i t w d t r r i i p s i 9 6     7 N K p r 7 p v B B a A U V V B M V M B B v B v v v V B B V v v V v v V v B B v v v M v a p p a i d r i i i p t n b b b P V V V V V B B v v e e 6 $ + # # $ 0 i B V B P V B B V P V V P V V B V P V V V V V V V B B V V B B V I J N p > , % 1 e v v v n b b N N b p a a n b b b v b B v v v v v v v v v v V v v v v v a b b N N s a a a p a y t a a a N b s i r p s K s p a n s b n i e w i p s w 7 % = > t d 8 , % % % & 8 w s N K K a p 0 6 & % # # $ # + + $ > 0 9 p a s i r w 1 # # # $ % & & & f & % f % $ & & $ $ $ $ * ",
"$ $ $ $ $ $ + + + # + + + + + O + + @ + @ $ $ $ % % % % & > 1 1 1 7 0 8 8 8 8 7 7 1 % $ + + O O O O + + # $ % $ % % % % > > 7 7 0 7 6 1 1 1 0 6 0 $ + + & > & & % + X     X         . = = . * = = * * = = . * . + . . # # . + $ + + + O + + + + $ + $ $ $ , $ , % 1 % % & % & > 1 > > 1 1 1 1 7 6 6 7 8 8 0 8 8 0 8 0 8 8 9 9 9 8 e 8 w w w i w w i i w d e w i w w w w 8 w 8 w e d w w e e e m w d w w w w w w r r r w r r r 8 e 8 e 7 8 1 n 1 w a n i i a i w d t w r d r w w r 7 e 8 p r a E E L ' L U ' v P ~.7.~.C./ T R 7.!.v % B v e e v y y y v v v n v P M V N N b i % X w p 7 s i 7 i p t w r t d t w i i w r d p i i p 6 i 6 X   > K d e v b a y v V V v M V v M v v v v v v v v v V v V P B B V v V V P v v M M v a w i i d p a p p p i p a n b b K b I P V V V V V v v v r e > , $ = $ % 0 i N B V b V b P V P V V V P P V V V P P B V V V V B M V B B B B K J b n 1 , % > e v v v v N b b N b n b b v v b N b b N b v v v v v v v v b V b v n B v b b b N N a a v b v s a p p t t n b s p i i p n s p a b a s s a e w w a b s w 8 1 , , e a p 7 # & & & 6 7 i s N K b a r 8 6 & % $ $ + + + % & > 0 t i s a i 8 > $ # # $ % f f & & % $ & % $ % % $ * # # ",
"$ $ @ $ $ + O @ + # + @ + + O O + + $ + $ $ $ $ & , & % > 1 1 2 1 6 0 8 7 0 7 1 > % + O O O X X O + $ $ @ $ $ # $ $ # $ % , > > 0 1 1 1 1 1 > 1 1 % + $ % > > & $ + X               . = o = * . * = o . * = . . = . . # # . + * + + + O + + + + $ $ + $ $ $ , , % % % 1 & % & > 1 > 1 1 1 1 0 1 6 0 8 7 7 0 7 7 7 7 7 8 8 9 9 9 d w w 8 8 e e w w w w w 8 e w w w w e w 8 8 e 8 8 8 7 e e e e e w w w w i w w w r d r r r r d 8 7 > 7 7 r b | w i a a i r i r w n y d t r d w e e r e e t 8 t | { R | K T v | ~.UX7.UXU T T UXZ.~.% r r e v y y y y m v b t v B v n B B J t 8   , v e n i p s 8 p i r r r i i i i i w r i p i i i w w 7 ,     7 K t K b N N K N v v V V M M M y B B B B B v v V B B B B v B V P v v v V B B N v n a a v a a n p p p a s b b B K b P b V V P V B V v v t e , $ + # $ % 6 r v B V V V P V V V P P m P P V M M P T m V V V V V M B B B J J J J b n e > , > 2 m v v N B b s N b N C b s v N N b b N V b v v v v v v v v b V V V B v N b b b n p p b s a n a a b s a t p n s p i p a s p a s i a N n 1 w a n n a a s v e , $ , e n K 8 6 % * % 6 9 i b s a i i 9 0 1 $ % $ $ # # % % & 0 w r i i r 8 & $ # # % & % $ % % & % % & $ $ $ < * % ",
"# $ $ # + + + O + + O + + + + + + + $ $ $ $ % % 1 % % 1 1 1 1 2 1 2 2 8 1 1 , % $ + + O O . O o @ O $ % $ + + @ $ O O @ # + % , 1 6 6 1 1 6 6 6 & & # # & & f % = X                 X . # # + # * = o = o = = o = = o = O O + # # + # + + + + # # * # % $ $ $ % % 1 & > > & & & 1 1 & ; > 6 6 6 7 7 1 7 7 7 2 7 7 8 8 8 7 0 7 8 8 8 8 8 w e w 8 i w w d r w w w r r r e e m 7 e e e e e e e e e w w w w d t w w w w i w w w w w 7 w 7 > 8 n b n N i p a p i t i t r r r i i i w w d 7 e w 8 i b / R ' R U } UX7.7.UX/ v T 7.7.IX' w 7 v r t v e v v v t b K b v K p p N K p   $ s i i d d w i w i i i p t i i i w w w t w i i n i w w w 8 , X   w K J p w b K b M v n N N t t v y v B N M v M B B M v M V V V V B K B v a a v M t a a r r y a a v a a v b b b B B b M B V V V B v v v v 7 , $ O O + , e m B P m B V V B V P P B T P P P V V V V V V V M B B V V V B v B P P v v m e , , 7 t v v n b  .b b b b a v n v v v v B v B v v v b v a v J B N N b N b v b v a v v v v v a i a p s a a a a a a a i p a v a a a a a a b b p 1 w n p b N w r a n i % . % i K n w 7 , , , 8 e i b K b s r w 1 > % $ # # $ % $ > 9 i i d i r 8 ; % $ $ & % $ % % % % % $ $ $ % * * * ",
"@ # + # + + + + + + + + + + $ + + $ $ $ % % % % % 1 1 1 1 1 7 2 1 1 > > , , % + + O O O O + + + + $ $ % % $ $ $ $ O O + O O # , > > 1 6 6 1 f 6 f & + + & f = f . X                 X # # = + # = * = * * = o = o = * . . + # # + = + + + + . + # = % # $ # % % % $ , ; > > > 1 1 & 1 1 > 6 6 6 0 6 7 1 7 7 7 6 7 7 8 8 7 7 0 8 8 w d e w w w w t w w w w w r w d e r e e 5 7 e e e m e e e e e r w e 8 w w w w w w w r i i i w > 7 7 > 7 a b B a w i p d p i i w d r r r i r w w e 7 w w w t v ' M | | / ~.V.UX' n T v ~.~.7.~.p > e v r t v v v v v v t p N K K ' a K s # = 7 i i i d w w i i w i d t t d t i w w i w w i i p t r i w w 7 % O   > K I K n v v v v v B N v a a v v M B M v v B V B M B V B B B N N N v v a s n t a a t t y a y v a v v B b v V B B b M V V V M B v v v e 7 $ + + $ , e y m P P P P P V V P V M U P V V P P P P V V P V B V V B B V V V V B V v y , $ , , e e v a b B b b b b b v v v v v v B v N b v b N b v N N b v v v N v v v v a v v y a v a a a a n s s p i p a i t t y n a p p i a s b v p > 8 s i p s r w 8 r b B i > + 1 8 i b r > % > 8 w w n b b a p 8 7 , % & $ = O + % , 6 7 i i r w 8 & # # # % > % % % $ % $ $ $ * = * * ",
"O O O O O + O + + + O + $ $ $ $ $ @ , $ & & & & 1 % 1 1 6 1 1 1 1 % % % # + + + O O O o + + @ $ % % % , % $ $ $ $ + X + O X @ $ & & 1 6 1 6 6 6 6 % # . f f % * . X       .         . . # + + + * = = * . = o o . * . + + + + # # + + . . + # . # # # % $ % % & @ % % , & > 1 1 & 1 1 1 6 1 6 6 > 1 7 0 7 7 7 6 0 7 7 8 8 7 8 8 w w e w w w w i w w w r r w w w t r t e e e m e v e e e m e e e w w e 8 w w w w w r d r r i i d e e 8 5 1 8 p v w i i i i w i i i r r r r r w r w w 8 w w 8 r a V ' U { V.7.V.' B T v ~.F.7.!.T , 7 p v r y v t v v v M p b I I a ' n K 7   7 p i i r w w i i i w w r t i w t i w w d w w w r i r w w w d w 7 > X O , r v a r t e t n y t a a r n v b b v v B V V V B V B B B v v b b N b b v a t a v v a a y t a v v b v v b K K b b V V V V B B v v v e , , + O + , , y M V P B V V B B P P P V V V V V P P P V P P P V V V B v V V P B B B P y e , , , e e m a b K b B N N b v v v v v B M v b N N B b v v B v v v v N M b v v v v v v v v y v n a a s a s p i a a a i p p p v p r t a n a a s 1 8 p i i s n K w 8 w a p i w % % > w n a w e % , 1 w s K N s a r 7 f > & < . = + $ $ f 8 r r i 0 6 $ + + % > $ $ $ $ $ $ $ % * * * * ",
"+ + O O O O + @ + + @ $ $ $ $ % % % , , & 1 & 1 & 1 1 1 1 1 > > 1 , % # + O O + + + + + $ + $ $ % % % % % $ $ % % + O O O O X + # % & > 6 > 1 6 0 & O = ; f # .               X   X X = # # . + = * = = = . . = . = + . . . + + # + # . + + . . + # # # % # % % , & & , > 1 > > 1 & 1 1 1 1 1 1 > 1 1 7 7 7 7 6 0 8 7 7 7 8 8 8 8 w 8 w w w w w w t d w w r w w e m t r e m e e e e v m e m e e w w e d i w w w w i t t i t t t y d 8 8 7 1 8 d 8 w w w i w w w t d w d w r r w w w w w w w r d T v C.V.UX~.T R T P ~.7.7.7./ V 7 r p p v n v t v v v M b N K N p s K i X # p s d w w r r i i t w i r t r i i p i r t t i i r r r r d i p r w 7 ,     + w n w 8 r t r r a n a p v v b v b v M V B v v M v B B v a v b b b b a a a v a a t a t t y v N b v b B B V B B M V V V V B v v v e 7 , + O O < , e M B V m B B B B V P P V V V V V V P P P P V m m B V B V V V V B B V n y t , , , 2 e v b b b K N N b B v v v v v v B v N N N B N v v B v b v N N b v v v v v v v v v v a a a a b n n s a a a n a p t p n p t i a a v a n 7 7 p a i s b p i i a d i i N t e , + & p B n 8 7 1 7 8 w n b K n i 8 6 > % % $ + + + & 6 0 d i r 9 6 $ # $ $ % % $ $ $ $ % @ % = * * ",
"+ + + O + + $ $ + $ $ $ $ $ % & , , > > > 1 1 1 & , 1 1 > > % % , $ + + + + + $ % + $ $ $ $ $ & , & % & % $ % % , % @ O O X O O + $ % > 6 f 1 6 0 & . . f f . .         .           X . # # . # = = * o = * o = . . . + . . + . # # # + . # + # + # # # $ % % f % & % > > 1 & & & 1 1 1 1 1 1 1 > > > 0 7 7 7 0 7 7 7 7 8 7 8 8 e 8 8 8 w e d w d w w w w r w w e e v e e e e e r d e e e r w w w w w w w r w w r r r t w i i i r 7 7 8 d 7 8 w 7 p 7 8 w w p p a i w r r r i t i w w w w w w w M V.UXV.V.| I B ' { m.7.UX/ T e e d w w v v v v B v v v v V B N K s b + + 9 w i u i w r r r r t i w i i i i a a i i t i i i d t t w r i i r w w , # X   O > n b K a w i p i r r a a a v v v v v v B v v v v v B a a v b v b l n v v n y t t t n y v a v N N N B v B B B v B B V V B v e e , , + < O , , e M M V P V V V M B V V V V V M V P P B V P V B V M V B P v v V V b P b v t , , 2 e e e b b  .K b b b b B v v v v B v v N v v b b v v v v b N N N v v a b v v v v v v y a p p a s n s a a a v a a i i t a a y a t a a b n 1 > t s p p p i w i n n a p a b b a 1 + $ 1 r  .b p 8 > > w n K b b a w 7 > > $ $ # # $ % 7 8 r i r 9 > # + + $ % % % $ % % $ * % * # ",
"+ $ $ + @ $ % $ $ $ % , % $ ; , , , > ; > > & 1 & & & , & % % $ # + O O o + + $ $ $ $ $ & 1 & 1 > , & , % % % 1 , , $ + O O O O . + $ & > > 6 6 0 & . . % & . X                     X + # . . # * * . = = . = . . * + + + + . + $ # # # # + # + + # # $ % = % % , & > > & & & & 1 & & 1 1 1 > 1 1 1 > 1 0 7 7 1 7 7 0 7 0 8 8 0 e e w d w w w w e r r w w i r w e e e e e e e m e e e m t r r w w i w w w w i w w r w d w w r r r 7 6 e e e 7 8 d K p w r w a p p i t i i w w d w w w w w w w w T ~.V.V.E V I T UX7.UX~.P T T , e t y v v v t M M V v v v v n I J I %   w w 8 w i w r i r w r d w w w i r r d i t w i p a p i r r w i w i i i i t 7 +   X O r b N n p a p r w w p a p v v v v y v v v v B B B v v v a b v M n a v v y t t t r v a a v v N B K b B B B B B v B V B B v v w , , # $ + , , e m M V P P V V V B V V V P P V V P P B m M V V P P V M P v v v V P P P v e e 2 e , e e s b b b B b b N B v v v B b v v v a y v B b N b v v N v v a a v v B v v v v v n a p a a v s s a a a a p p t t t a a n a i a v b b 8 > w n s p a b i e w i i a n a i v  .d % + % e p v n w 7 7 w i a b B p w 7 > $ $ $ $ $ # , 1 r r 9 0 1 % % % $ % $ % % % % % $ # % * ",
"+ $ $ $ $ % $ % $ % , , % % % & , & & , > & > & & & % % $ $ + $ O O O + O + $ + $ % % & 1 1 1 1 1 & & & & % % 1 1 , , + O O O X o + $ $ & > f 6 7 & . . % * .                       X + # # # # o = = o . . . . . . * * + . . . # # + + # + # + # # $ $ * % % % % & ; , & 1 1 & 1 1 1 > 1 1 > 1 1 > 1 1 1 7 0 1 6 1 1 6 7 8 8 8 8 8 e e 8 w 9 w 8 r i w w i t e e m u e m e e e e e d r r e r e w w d w w w t w i i w w w w w w p r e e 8 7 7 7 v E n r a i a i p p i i i i w i i w w w w w w w V 7.B.' b T b UX} 7.m.U | T m y r t v v v e v v v B v v V n t V b r   + b 9 i w i r i w r r r e w r r w w w t w w i i d p p t w r r t w r d w w e e 7 , O X O O p b C b a p p p p a v v v y n v B v v v v B B v N v b s b b v a v y v v v r y v t v M v b B N N V B B v B V B B B B v v w 1 , $ + + $ , e M m V V M M V V P V P B P P V V P P B M V V V V P V B b b b b V P V b v y e , , e 2 e p a b b b b b b V b b B v v v v v v v v b v v v v v b M v v v v M M B v v b B v b s a a s n a a v a p p p i t w a p p p a a v s n w 7 8 a b a s p r i a s i p p p w w n K a , % = % 8 r a i e 8 9 i s  .n s w 8 , , $ $ % + $ , 0 8 9 w 8 2 & % $ $ $ % % % % % % * # * ",
"$ $ $ $ $ % % % $ % 1 , % % % 1 , 1 1 & , & & & & & $ $ $ + + + + O + + + $ + + , , , 1 1 1 1 1 & % % % % $ % 1 1 , , # O O O O . + $ $ & > > 7 f & . . = # X                       X . + + # # = = * = . . . . . = . . . . . . # # # + # . + + # # % $ # % # % % % % & & & 1 1 1 1 & 1 & & 1 > 1 1 > 1 1 7 1 7 7 0 1 0 8 9 8 7 7 7 8 8 8 w 8 8 8 r i w w i d w e e e e e e e e r r t t r r e 9 i w r r w w w i i i r t w r w d r r d 8 7 > 7 8 8 P r w s w n p s p p p a a d w w w w e w w w w 8 UXP P V | UX7.7.' T T T / , e t e e v v M M v v V v v | T n V K   O v b 9 K 9 w r i i r d w w i d t r d t t i w w i p p a i w r d w t w r w w d r e 8 #     X $ w n w 8 8 r w a b b v y r v b v v v v v v v v M b b b N N a t v v v v v y y v r v N b v N B B U B v v B P V v V v v v r 8 , $ + O < , m m V V P V M V P V B B m V V M B P P B V P V B B V P V V P U V V b V b B v e e e , 7 e i r n b N b b B b v v B v v v v N N N N v y p v v v N N N v N N v v v v v v v v b b N v n s p p v v n a p p t t a i w t a a n a a w 7 7 i p a n K i w r s n p p b B w > 8 b B w , $ $ , w a v n w w p b N b s p e 7 , , $ O = + % 1 w i i 8 & # $ $ $ $ $ $ % $ # = % * ",
"$ $ @ % % , % , & & ; > > > 1 & & , , , % % % % $ $ + + + + O O + + + + + % % & 1 1 0 1 1 1 , 1 & % % $ $ % 1 2 & & % $ @ O O X O O O $ % % , 2 1 > # . + .                         . $ # + + = = * = o = . . . + + + + + . . . + # $ # # + # # # # $ $ $ # $ % > , 1 & & > > & 1 1 1 & 1 1 1 0 1 1 1 1 6 0 1 7 6 7 8 8 7 7 7 8 d 8 w w 8 w w w e w w w w w r i e e t r r w r w r r r r r r w r w r w w d w w w r r t w t i i i w i w w 8 7 7 7 8 a K w p w i p p p t r w r i p w w e 8 w w d w 8 n I T } { { } UXP P T T T 7 e d r w t v b v v B r B N b K n b $ O , b K y e v t r r r r t r r w w t d r w w t r i t r w r i w i r d w r r w t w r w w 7 , .     . 7 s 8 > w a a i w B v e b p v v v b t b b N N K B b a n M s a a y a v n t t v v y v b B B K B v v v B V M M U B v y e 7 , + $ + O , e n v v M V B M M V M M B V V V V V V P B P P V V P P B V V V v V v V V B v e 7 1 , 7 , w r a n N N N b b v M b B v v B v v a v v N v a v b M v v v v v v v v b v v v a b b b s s a p p p a a a a a n y r p a i p t a n a w 7 7 r a a p s r 8 w i p p i a a K v 1 1 s n b 1 $ % , + 8 P a t w r n b v n n e 1 , , + + $ + % 1 8 w r 8 % $ $ $ $ % $ $ # % % % % ",
"$ $ % % , , % 1 % & , > > > & , & % & % % $ $ $ + @ o O O O O O + + @ + % % , > 1 1 1 1 1 1 1 , & % $ $ % % > > 1 & & $ + + O O O O X # % % > 7 f & = X . X                         X $ # + + + o = . = = * . = . + O O + + + . + + + # + + # + + # # # $ $ $ % & & & & > 1 > > 1 1 1 1 & 1 1 1 > 1 1 1 1 6 7 1 1 7 7 7 7 7 7 8 8 8 e e d e w w 8 w w w w w w w e e e r r u w w e e w r r u w w w r d i t w t r t d d i i i i i i i p i w 7 7 8 7 w a w a w w i a d d r r i d i w w e d w w w e a r T U 7.k.>.{ n V | b [ r , i i r r t y v v v y V N v v B P , X , v b n v v t p t t p p p t t w r w r w w r d d w d i t w w i w r t r i w t d t d w w w 7 $ X     . > w b n 1 b i w r r r v a v v v v b n v K a b b v a v N N y a n y v t t t v v y v b N B B v v V V v v M V B M v y v e , , O O = , 7 n v v M V V M V V V V M B B B V M V V V V P V V P P B V B v V V V b V B v v e e 7 e e w w p n s v N N B b B B N v b M v v v v v b v a v b B b v v y n v v v v v b v v n v v v n s a p t a p a a i i p r i t t r t p a a w 5 7 w a s s n i w r p a p w a d s s 8 , 7 w n b p % O , 8 , a v s n v v v V n r 8 1 1 , $ $ + $ > 2 w w 8 1 $ $ $ $ $ % % $ * * * % ",
"$ % % % % % % 1 % & & , & & & % $ $ % $ $ @ $ $ + O O O O O + + $ $ $ $ , > > 1 7 7 7 1 1 1 , % % $ + $ % > > 1 1 & & $ $ + + O + O O # $ & , 1 f % .   X X             X           X $ + + + + o = = o . . o * = O = O + . . + + + # + + + + + + # # $ # $ % % % , & ; > > 1 > 1 1 1 1 1 1 1 6 > 1 1 1 1 1 1 0 1 6 2 6 0 1 0 8 7 7 7 d e 8 w w d w w i w w w w e e r e r 9 u 9 e e r r r r w 9 r w w w w t i i w w i a p a i r r i p d w e 7 8 7 8 w 7 i 7 w i w w r r i w t t t w w w w w 8 8 r > T N.] 7.R I v n | | E > 7 w i i i a n y v v v V M B J B n X O r V v p N B a r r r t p t t r t w i w r w w w t t w w r t i w w r t d r r w w w t w i r w 7 , .     X + w a r w w r 7 1 8 8 a t v m v b s p N a a b N v v v N v v v y t t t v t v v v b N B N b V v V B B V V B M B M e e , $ $ O + , 8 i v v B V B B M B V B V M V B M V V V B M M B V B m B v V v B v V v V b v v e e 7 e 7 w w i a a b b N b b v b b v v v v v b v v v v v v v v B v v a a v v v b v b v a s v b b n s a p y a a i i t t t t p i a p t i a s w 7 7 r n p s b p w w p s a i s a p b n 7 % 1 1 v K d 7 , + + 7 r b B y y v v v v e e e , $ $ + $ $ % 6 8 9 8 ; % + # $ % & $ # % # * ",
", % , , 1 1 % % % % & , & & % $ $ $ $ $ + O + + O + O + O + $ , $ & & > > 1 1 7 7 7 2 1 1 & , @ $ @ + $ , 1 1 > 1 1 , % $ + + O O O O + $ $ & > 6 & .                               X $ + O + + = = * = . = = . + O + + + + + + + + # # # + + + + # $ $ $ $ % % % % % > > 1 > 1 & 1 1 & > 1 1 1 1 1 1 1 1 1 0 1 6 6 6 6 1 1 7 8 8 8 8 8 8 e 8 w w w w i t d w w e e r r r r r r r r r t r i r u t r i w w w i p r t i p p y d p r r t i w e 7 5 8 5 8 8 n w w i i i p i d i t w i i i w w w 8 8 6 r / N.V.' a K T U b | a f w w w i a a y v v M B 8 n V K t O X n v v v b N N n p t t r r r e d w i i w i w i w w w w i w d w r w r w r i w i w w w t w t d w 8 , .         > n B i 8 , e a , e 7 2 e m p a i n b v b K B a v N M M v v v e v v t y v v N N N N P V v v V V V v V V V v m 1 , $ $ O $ , 7 w a v M B B m m V M B B V V P m V V V V M M V V B M B B v V B V V V b v v v e e e 8 7 w w i i a s N K B v v b B v B B v b N v v b b v v v b v v v v v v v v b v v v a v v s v s s p p n a p i t i p p t n a a a i a a a w 7 7 r d p p n a w w i p i w p n s b B r > > , > r I K 8 , = + > w v v v v v v v v t e 7 , $ $ $ + $ % 7 9 w 1 > # # $ % % * * # # * ",
"& , , ; % 1 % % % % , % % % $ $ + + $ $ + + + + + + + # $ % % , & > > 1 1 1 1 0 7 7 2 > , % # # $ @ + $ > 1 1 1 1 1 > & , + O O O O O + $ $ % > > & X                               . # + + + + * = . o = . = . + = @ + + + + + + # # # # + # # # # * $ $ # # % % % % , > 1 > > 1 1 1 1 1 1 1 1 1 1 1 1 1 1 1 1 6 6 1 6 1 7 7 9 8 8 e 7 e d w w w w t t r w w r t e r u r r r r r u u p p u r w i d r w w w r r i r w i w d t t t r w w w e 8 7 7 7 w v Y b r w p p a a a t w t d t w w w w 8 8 w 0 I m.| N E K Y E N s N > 7 p d a a a v v v B V e v U v $   1 J v a v B N s N M v v t e r r r w r t r r w t i w t r w r w i w w i w i w i w w w w w w r i w w 7 % . .       $ w 8 e , 6 6 % w 7 , > p > d i i a a b K B a a v N v v a a a v t y n v B N B B B v V U V v v v U M M B v t 7 , , $ $ $ % 7 w n v V V B B M V V V B V B B m P V V P B B P V B B V B B B B B B B B V B b n t w e 8 w w r i a b N C v v v v M M b B v b b v v b B v b M v v v v v v v v v M v v v v v s b a n s a a n y y t t p a y t a a a i p a v p e 7 7 w r i a p p d w w t i 8 e H b a b a 7 > > > > 7 b J t , + + , e v B v v B v v v v e , , & $ + + $ & 7 w 8 1 % $ $ $ $ $ # * * # ",
"% % % % % % % % % % % % % $ $ $ + $ $ @ $ + $ + $ $ $ % , % 1 1 > 1 1 1 7 6 7 1 1 1 > & % # # + + + $ $ > 1 1 > 1 > > % % + o X + O O @ # $ % & 6 & X           X                   . # + + # O = . . = . . . + . . . + + # + + + + $ $ # + + # # # $ $ # # # # $ % % & > > ; 1 & 1 > 1 1 1 1 > 1 > 1 1 1 1 1 1 1 6 7 6 0 7 8 8 8 e e e 7 8 w w w w d r w w w w t t i r r r t i r r r r r i r u i r r r w r w w i i i w r i t i t d i t i w w w 8 8 w w K n p p p s p a p i w i w w w w w w w 9 6 i 1 E I b a K l I s K 9 9 0 i p p a v v v v v V V B V ,   7 b v v b N N b v v M v y y v v e r i d i r r w w i i d i t i t i i w w i w d w i w w i i w w t t w 7 w 7 = . X       . , 6 d e 1 e e 1 > 8 # 6 7 8 r i a N v v v b b v y t t y t r t v b B N N B B v V V V V v B P M M M v e e , , = # $ , > r a v M M M M V V V P V B V V V V V P B V V V B M B V B B V B V B B B B b v v t w 8 8 w w w r a n b b v v v v M b M V v B b v v b N v B M v v v b v B v v v v v v v a p p a v b b n s p p t a p p a n r t i t t r i a p e 7 8 w r p p s p r w w a d e t b  .a a s w 5 , 7 , , 1 n B v 8 % O $ e v M v v b v v v e e e 1 & $ + # % > 7 9 7 > % $ $ $ # * # # # ",
"$ % % % % % % % @ % $ % % $ $ $ + $ $ $ $ $ $ % % > , > 1 1 1 1 7 7 0 7 7 0 6 6 1 > & $ # O + + + + $ & , 1 > > , & , % $ + + O + O O + # # % & 6 * X                     X       X . $ + # # + * = = o = * . . . = + + # + + # + # $ # + $ = + * # # $ % # % % % % % & & & 1 1 1 & 1 2 1 1 1 1 1 1 > & 1 1 1 1 > 1 0 6 1 7 7 8 7 8 8 e 7 8 d w w w w w w w i r y t i u r u i i r r r r r r u r t i r r r d w w d t r i t d r i i r i p p d t w w 8 7 , i i a a d i i i i i i d w w w w w w 9 8 i 6 i N E a E a s s s E = i r 9 p p y v v v b B v V v ,   X p v a a v N v v v N v v v v t e r r w i t w d t t i t w i i w t r d w w r r r r w w w t w w w d i w 9 s d & $ . X X X     , n | P % e d r > p 6 1 w 8 w a a v v N v a a t t t r r r y y v N N N B B V V v v V P v v M M M M t e , , $ $ = % > w i v m B V m B B V M B V B B V V V V M P B M M M M B B B B B B B V K M v v y r w 8 8 w w w r p a n v v v v v B v v v N v v a v N b v M b v v v M v b v v v M v v v v a a a v n s s s t p p p p p p t r r i t r t t a p d 7 8 w r p s p a i w w a a w a a b s a b p 7 > , > > % , e V v e , O $ 7 r v v B v v v e v e 8 1 & $ + + $ & 8 7 2 , * # % = * % * % ",
"$ $ $ $ $ % % % $ $ % % $ $ + $ + $ $ $ $ % % % 1 1 2 7 8 8 8 2 7 7 7 8 7 7 7 6 1 > $ + O O O + . + + & & & & > % % % % % $ + + + O . = # # $ & f = X               =               + $ + # # O . = * . . . * . . . + + + # + + + + + $ + + + + = # # # $ # % % % % % > & 1 & , & 1 1 1 6 1 1 > > 1 1 1 1 1 1 1 > 1 1 7 7 1 7 8 8 8 8 5 7 e 8 w w w i r i w i i a a p r r r i u t t r r r r p p w w i t w t i t r t t a p t i w t w i a a a w d 1 7 e 7 a a d w w w w r w r r t w i w w i w 8 7 0 0 9 i I K K K  .s I 0 0 9 r s t t y n v v B V V b v O . a b v K a t b N a v N n v v v v v t t r w i i w w i i w w w w w r w w r w w w w w r w r t d w w w w w d r 0 8 i $   . $ , X X + n Y 8 8 b P 8 ' i 8 a e t v n v b N b t a v y t r t t y v M B b N B K n V V V v v V P M M M v m e , , $ $ $ , > 8 r a M V P V B V V V m B B B M B B V P P P B B P V B B v b b B B V V B v v v p r w w 8 8 9 w i a a a B b b B b v a v N N v a v B b v b v v b b B B v v b v v v v v s b n b v s a p t p t a p p t t r r r p t t r a s n w 9 w w i p n i p i w w p i w a w p s a n a 7 7 > > 7 > & % , M v e , + $ , e b v v v v v v v 8 2 > % # + + $ 0 7 7 > % # # % * # = * ",
"$ $ $ $ $ $ % & $ $ % $ $ $ $ % $ % % % 1 ; , 1 7 2 7 7 2 8 8 8 2 8 9 8 8 0 1 > , + + O O O O O X O $ % % & & , & % % $ $ + + + O O + + # $ % & > +                               X = # @ + + . . . # + = . . . = o . o = = * * + $ $ $ # $ # # # # # # # # # % % , % & > 1 > > 1 1 1 1 1 > 1 1 > > 1 1 1 > 1 1 1 > & > 1 1 1 0 7 8 e 7 7 e e e w w r d w r i p s y y y a a y u y y y y y y y y a t r r r r r t u t t t t y p t e y v v t e e e e e e e 7 r n , w w t i w r w r t w w w w w e 7 5 w 8 w | J n K B | b 1 r t 8 n n 9 s v b N a I B b $   w n r b b b v v v v v a v v v v v a y t w r r e r e r t e r t r w i w w t w w w w r r w w r w w i w w w i w w 8 8 7 , $ O 1 1 % X   + K a d > 7 b E p b p a a a v B K K v v n p t t y n a v b B b b b B V B v B B B B B K B N v t e , , $ $ $ $ , 1 e e v b B B K V B B V V V B M M V V V V B M B B B M B P V B m B M B J b b b b v t e e 8 8 e w t y a b K N N N K b r v B v v v b B v B B v v v v v N N b a a n b N s a a b a s v n a t t t a p a p p p p p p t r p n a w w e e d p a d t w w w r i t p a s N a s a r 0 & 6 0 $ & & # 1 a K e & $ % + 8 t b N K b s a a 9 1 ; % $ + + > 7 8 7 & % $ $ $ $ $ = ",
"$ % $ $ $ $ $ $ $ $ $ $ % % % % , , 1 , 1 1 7 2 e 7 7 e 8 8 e e 8 e 9 8 8 6 > % + O O O O O O O O + % $ % % $ $ % % % $ @ + + O O O O O + $ % % > +                               . + # + = + . . + # . * . . . = . = . o = = * + # $ $ # $ # # # + # # # # % % % % % & & > > > > > 0 1 > 1 1 > 1 1 1 1 1 > 1 1 1 1 1 1 1 6 7 7 7 5 7 7 7 7 8 e w w w w w w w a a y a a a a a y a y y y v y v y y t t r t u t t t t t t u t t r e e y v v e t e e 7 7 7 > , 8 8 w w i w i i t d w w w w w w e 7 8 w 8 w I I C  .b J r , r d w N w v M a w r K N K , X , s s a N b b v v b N N v v v a v v b a a r r r r r r e t d t d r i w i w d i w w w r w w r w w i w w w i w w e w w w 8 7 + % e n e $ X X , 7 p 7 r E 8 b n s s v b K b a v a t r w r w t a v b b b b K B V B B B B B B B V B N v n r 1 , $ $ = $ , , e v v v B V B b v b m V V B B M M V V m B B B V V V m B V V V V B V V B b b v t e e e e e e r t a v v b N b b K b y v b N v v N N b b v b b b v v v n v b N N N b a b v b v a a p p p p p p a a p r t t i t t p y v i w w 8 8 w i p p t i w r w d t t t v s a s M t 7 2 1 6 > & & & + & t K a $ . & > 7 i a s p a s p w 8 1 % $ + $ $ > 7 0 & % $ % $ $ % % ",
"% % @ % $ $ $ $ $ $ $ % % & & , 1 1 1 1 1 2 7 e e e e 7 8 8 e 8 9 8 9 8 2 > $ + O O X X X O O O $ $ % $ $ + $ @ % % $ $ $ + o O O @ O O # $ % , & + X                             X + # + + + + o = . = o . = o o o = o o = * = + $ $ # # $ # # # # # # = % $ $ $ % % % % & ; > > 1 6 1 1 1 1 1 1 1 7 1 1 1 1 7 1 & > 1 1 7 7 1 > 7 6 7 5 8 e 8 w w w w w w w i u a a y y y a a a a v v y v v t y y y y t t t y t t t t u y t t y y y t e e y t e v e e w 8 d J r r d i p p i i d w w w w w 8 8 e w 8 8 a W I b p 8 , > r w w b r a v I v e B v w   X t s b N a v v v N b N N B b v v v b v v v y t t r r r r r r r r r w d w w w w w w w i w r w r w i w i w d e 8 w w d t i w t , , e 7 e 7 = . 1 w b K E w w N s n s b K  .a v a p p t r t r a a b b B N B B V b b V V V V K B B N v y e 8 , $ $ $ $ , 7 e t v b B B B v v v M V B B M M V V V B B V V V V B V B V V V B B V V b v v t e e t e e e r r t n v a v v a N K B a N N b b v b B N v v M N N M v v a s N N N b s v b s v n s a p p a a a a p p p w r t d t t p a a i w w 7 w w w i a p i i d t p p t t a a y s s a 9 8 1 & f > & > % . # p K y ; # + # ; r a s s b t r u 8 1 % $ % + % 1 0 f & % % # % * % ",
"$ % % % % % % % & & ; > 1 1 1 1 1 1 2 0 2 7 7 7 2 2 7 7 8 8 8 8 8 8 0 > % + O O O X O X O O O O $ $ $ $ $ $ $ $ $ $ $ $ $ + + O O O O + + $ $ % & O                 X             X . + + . O . + . + + = . . . = = o = = . . * # # % $ # # # # + # # # $ # % & % $ % % & & & , > 1 1 1 1 1 > 1 1 7 1 0 1 1 1 1 1 1 > > 1 1 1 1 > > 7 7 7 7 5 8 8 w w w w w w t t t a a y y y a y y y v y y y y p y y y a y y t t t t u t t t t e v e y y t v v m e 7 e w 8 w I a p a t i p i p w w w w w w w e d w 7 e w I I a > = $ 8 r w w r a p b T K a b w X X w b p a K t v s v b N N N B N B N b v b v v v y v e r r r r w w r w 9 9 9 9 w w w w w w d r w w w w w w w w 8 d e w w w w w r , , 5 7 r p w , X 7 t B UX, w b s v s n b b b s a p t t i p p p a b b b K K B V V B B V V J V B B B v v e e 1 $ $ $ , , 1 r t b B B B B B B M M B M B M B B V M B B B V B B M B M B V V V V m V B B v v r t t e e e e r t t y a n b b N B N n v b N v v B N b v v v N N b v v s M b v n a v b b v b v a a p p a a a i a a p t t p y t t i a a i w w d w w i i p i i w r r r p t u y a a s N a 7 9 > % 1 & $ & 2 & + + 9 K b 1 # . = 7 i s s b p p i r 8 > % % # & > 0 7 6 & # % # % = ",
"$ % % % > > > > > > > 1 1 2 7 7 7 8 8 7 7 7 6 7 7 8 8 8 8 8 8 8 7 , , $ + . X X X X O O O O + $ $ $ $ % % $ % & % # % # + $ + + O O + O + + $ % % O                   X           X + + O . O . + + . = * . . . = o = . o o = o + # $ # # # # + + # $ $ $ $ $ $ % % % & & & 1 & > > 1 1 1 > 1 > 1 1 7 1 6 1 6 0 1 > 1 > 1 1 1 1 7 > 7 e 7 7 7 8 8 w w w w w w w r y a y a y a M y y a M y y y u y t y y y y y t t y t t r y y r v e v e v t e v t v e , e 7 6 r n n p r i p p d i w i w w w w w 8 9 7 d > K B 7 $ $ 6 r w p a i s n K d p I a + X > v b a a n a v v v v v b b N b N N v v v v s v v y r r r r r w 9 w 9 r 0 9 9 w w w w w w i w w w w w w w w w w w 8 w d 8 w w 7 e > , e w 8 w r 1 X , w | a 7 i i s n n v b b p p t t r r p t p a n N B N K K P V b V V V V K N B N b y e 1 , , $ $ $ , 8 e v v v v B B B v B M M B M M B B V B V V V m V B B B B B B M B m B V v v B v v t e e e e e e r p n a v b b N N N b v v v v v b b v v v v v b v b v s b N b s s v N b a s s a a a a p a a i a a i a p p a t r p p p i r w e w i r i i w w e w w w w t e t y a a N s 0 8 > % 6 & # & % 8 1 . + 9 N N 8 # . + > 8 r a a s p r e 0 & + % # % > 0 7 & # # $ # $ ",
"% % % > > 1 1 1 2 1 0 7 7 7 7 7 7 8 8 0 7 1 0 0 8 e e e 8 8 7 8 , $ + O X X X X X O O O O O + + $ % , % , % % % % % % $ $ + + O + + O O + + $ % $ .                     X         . # # + + + . + . . = = o . . o = o = = = o = + # $ # # # # # + $ $ $ % $ $ & % % % % & & & 1 > 1 1 1 1 1 1 0 1 0 1 7 1 1 1 7 2 6 1 6 1 0 1 1 7 7 8 5 7 8 e 8 8 8 w w w w w t t t t t y u a a a a a M v v v v y a a y a t y y t y y t y y y y e t t v e t v v v v t e e r w 8 s p w w r r i t r i i r w w w w 8 8 e e 1 r w = # , 7 w w a b p a p C a b K %   1 n v v N n a N v v a v v v v v v a v v a v v M v v v y t y r r i w i r r d 9 9 8 9 w w w w w r w w w w w w w w w w w w e w w w r n 1 + 1 e 8 p n 1 e X $ I w 7 w i a N  .b a a n v a p t r r r i a b b N K B B V b V b B V B B b B K N n w 8 2 , , $ = , 1 e e v v b b b B B B B M M M M M B B M V V V V V B B V V B V V V B B M v v v v v y e r e e r w t t p s v b b b b b s v v v v v b v v b b v v v v v b a s b N N M v a b a v a s s a a a p p i p a a a p a a t r p p t w w e 8 e w w w t d r r w w r r t e t a a s b b 9 8 6 & 1 1 & $ $ $ 1 8 # X 6 K s 9 $ . O & 8 i a a p r r 9 1 $ $ = . $ f 7 f $ # $ % # ",
"% , , 1 2 6 6 6 7 7 7 7 0 7 0 6 7 7 8 8 7 7 7 8 8 e 8 8 7 > % % O O . X X X O X X X O O o O + $ , , 1 1 1 % % & % , , % $ + + + O O O O + $ % % $ O                               . # $ # # + + = . * . . o = . . = = o * = = = O + # + # # # # # # $ $ $ $ % $ $ % % % & & & & 1 > 1 > > 1 1 0 1 6 6 1 6 1 1 1 6 0 6 > 1 1 1 1 7 7 7 7 7 7 8 8 7 7 w w w r w t a y t t y a a a a a a M v v v v a a a y y a y y y a a y y a a y v e v v v v t e e e t e 8 e e 1 t r 8 8 e r t r w i t d i w w w w 7 w 8 8 > , + # > 9 9 w i p p p i n K I 7   $ v n y v N b a N a n v v v v v v v v a v a v v N v v v v n t r w w i i 9 w i r w e d w w w w w i w w w d e 8 w e d 8 8 w w w w w 8 t w 8 8 w w w 8 n e 7 > , r 0 i w p b N b s a N n a a a t i t r i a b b b b b V V b v M M N B N B B v a w 8 8 , , , , , 1 7 e r v v b B b B B B M M B B B B B V V V V M V V B P B V B B B B B v v v v v v e v r r e d r r t t a v v v n s a v v v N v v N v v v N v v v v v b v v v N N b b a v v a a p n a a n a p a a n y a i n a r w t n r w w w 8 e w r t i i i d w i i t r e u v a a l s r 7 6 > & 6 > % % + % 7 7 $ $ 6 s s r & + + > 2 9 u i t r w 8 > % # + # , > f & % # % % ",
"1 1 1 2 7 7 7 6 8 7 7 7 1 7 1 1 1 6 0 7 8 7 8 w 1 1 1 1 % $ + X X X X X O X O O O + $ $ + + @ $ , 1 1 1 2 , 1 , % , , % $ $ + + + O + O + + + % # X                               . # $ # + . . . . . . = * . . . . . o . o = o . + # # # # $ # + # $ % % $ $ % $ % % % % & & % 1 1 1 > > > 1 7 1 1 7 1 1 1 1 6 1 1 1 > 1 > 1 > , > 7 7 8 5 7 e 7 e w r w t d t a t r u y a y y y y y a v v v v v v a y a y a s y a a y y a a y v v e e v e v e v e v e 8 7 e 5 w 8 7 1 8 w d r w w t i w w w w w 1 w 7 w , , $ % 7 w a n p w d r V e t d X . w e v b M a b b p v s v v v v b v N N N v v v M M v v v n y y t r w w u d w w 0 d 8 e w w w w w w w w w e 9 w w e 7 e 8 e e 8 w e 8 e d 8 = , i w r 1 r d 1   > p n w 9 i b B  .N a a a a p p a a w r a a a v b v V V v v v M b b K B N v t r e w > , $ $ , , 7 7 t t v b B B B B B B B M M M M V M M B M M m B B V B M m B B B B v v v v v v m v t r t e w r r t i a a s a a a a v v b v v N B v b v v v v a a a N b s a n b b b N b n a a a p a v a a i p p a t r a v w t a a y w w w 8 w d t d t w w w w w r r u 9 r v a s b v p 0 6 6 % > 6 & # & & $ 1 9 >   2 a b 9 $ + + + 8 r a t r w 8 0 > % # # $ & f ; # % # # ",
"1 7 7 1 0 7 7 7 7 7 7 7 0 7 0 1 7 0 7 8 8 7 6 > 1 & $ = . X X X X X X O . O + + + $ + $ + $ % % 1 1 2 1 1 1 > ; 1 % & % $ @ O O + + O O + + $ $ + X                               . # % $ # # + o * = o = o . * . . . . . = o = . + $ $ $ # # # # = # $ % % = & % % % ; , % , & & > > > 1 1 > 1 1 1 1 6 1 1 7 6 0 1 1 1 1 1 1 > 7 , 5 7 7 7 7 7 7 7 e e e d w a r t y y y y a a t v t v t v t v a a a v v v M a a a v v y y y y v e v e v v v v r v n w w w w 8 8 7 I J w w i a w p i w w w w 8 w 7 7 e w 1 + , , > w r i p r I r i  .i X . 9 r v n v e v v v v a v v v b N N v v v v b v v a s v a v a v n a p i i w i w 9 8 8 w w e d 8 w w w e 8 8 d w 8 w w w w w w e 8 w e 7 w w 8 > , 7 w e t p w w e , X n v a r w a b n p b N a a a p p w t a a p n b B v v b V v P v V V B N b v p w e , , , $ $ , , 7 t v v n v v B M M M m M V V M M M M B M B B B M m M V M v V V V n v v v v v v v t r r d p e r p i a a v v n b b v b b B b b b v v N N v a v v v p s M b b N N s a a s v b a a a t p t p a a n p y r t a a t w w r w w w w t r p i t r t t d w e 2 e r v N N M s p & > 7 & & 0 & + 1 1 . + 8 r ;   r s s 9 . + + & 2 w w r i 0 0 1 & $ $ % f f f % % * # ",
"7 1 7 0 7 0 8 7 6 7 7 7 7 7 7 7 8 8 8 8 6 f > & + + . X . + = % = + $ $ $ $ $ $ % % % % % $ % 1 1 6 1 1 1 1 > 1 % 1 , % $ + + + @ O O O + + $ $ +                               X = * % $ # # . = = . . . = . . . . . = o = = o . + $ * # # # $ # # $ # $ % & f % % % % % & & & > > > & & > > > 1 1 1 6 1 0 0 1 1 1 > 1 6 1 1 1 7 7 , 7 7 7 7 7 7 5 8 e 7 8 w w 9 e t t t t y y v v v t v t v t a y y a v l a a a a l a a y y a v e v v v v v e t s N a i w w w 7 > b b i d w a w p d w w t r e 8 7 d 8 w 7 = , , 7 i w d v i b i K a $   > s N v v v v v v v v v M v a v N B b v v v v v v n v a a a a s s a a w w w w w 8 9 9 w w e 8 e w w w 8 w 8 9 e d e w w 9 w w 8 w e 8 8 8 8 8 1 , , d w w d w w w > $ O K K 8 w a p N b b b b a i r r t a v b v v C N P V V b v v v v v B N b v p e 8 7 , $ $ , , 7 e e t v v v v B B B M B B B V V M V B B B M B B B M B B M B v V b P v b v v v v v t t r r r r r t p a a n a v b v v v v B N v v v v N b a a a v a n N N v b N N b s n v s v s a p p p a p p y t r i t r a a i t i d r w w w w r i w r w d w w w w t t r y a s a a s 6 > 7 & 6 6 & $ % 1 , & , 9 M 1   9 K t 8 % % o & 2 9 r r r 9 0 & & % % % % f f % % # ",
"1 7 6 6 1 7 7 7 > 6 1 6 7 7 0 7 7 7 1 > % # = + . . . # $ , 6 7 1 , , 1 > > > > , 1 1 , % , % 1 7 > 1 1 1 > & & 1 , % @ $ + + + O + O O + + $ $ O                   .             + % % $ $ # + o = = * * o = . . . . . = o . . . + $ # # # + # * $ $ % $ & % % % % % , , % & & > > 1 & > > & > 1 1 1 1 1 1 1 1 1 1 1 1 1 1 1 1 > 7 > 7 7 7 7 7 7 8 e e 8 7 e e 9 e u r t u y y v e v t t t v v y y y y y a a a y a M M v a a a v v y t v e v v p a a a d w 9 w 8 1 i a s p w a w i t r i d t w 8 8 w e e 8 % , 7 e d w i b a p p s > X , p n a v v v v v v v y N N v v v B B b v v v v v v v v v y a a v v v a i w w w 9 9 d 9 w 8 d 8 8 w w w e d e 9 w w 8 e e e 8 8 w w 8 d e 5 7 r w , > e w w w w d w 8 > + , a B w 8 i n a a b b n p p p r t n v b n N N b v V V V v b V b N N N b p w 8 7 , , $ $ , 7 e e r v v v B V M M V M M B V B B V V M M M M M M m B B M B B B v V P v b v v v v t p t e e t t r a p p p p a s v v a v v v v v b v N N v v v v a b N b a a b b b N n v a n a a p a p a p a i p i a t r t a p a a i i w w w w w p w w r w w w r t w e u u p s v v s 6 & > > f 6 & % + % 1 % + 1 a b X $ i a N 8 # X O % 1 w r r r 8 6 & % % # % f % % % % ",
"1 1 6 1 1 > 1 > 6 1 1 6 1 1 > > > , , + . . X X + # & 6 7 7 8 9 1 1 8 8 7 6 6 6 2 1 1 & % % & 1 1 6 1 1 1 > 1 % % % % % $ $ + + # O O O + + $ $ X X                             . = $ f % $ # = * = . * = = . = o = . . . . . . . + # # # # # # $ $ $ $ % $ * % % % % % & % & & > > ; 1 1 1 2 1 1 1 1 1 7 1 7 7 1 1 1 1 7 1 7 1 7 , 7 7 7 1 7 7 7 7 8 w 8 e d w u r t t t t y y y y t v v t t v v a y y v y a a y a a a a a y a v t v v e v e v a t a v a w 9 w d 8 8 i b a w i w w i w w t w w 8 w w 8 8 w , % 7 e r w w a n i K < X = i n a a v v v v v e v t v M v s v v b v b v v b b v a v b v v a b b N b i i i w 9 9 d 9 8 8 8 e e 8 d 8 8 8 e 8 e 8 d e 8 w d 8 8 8 8 8 w 7 e r w 1 , 1 w e w t t w 8 w w X , H p 8 p w r a b b s v v a r y y t v v b N v v v v b P b V b N B N b v t e 7 7 , , $ $ , 2 v v v v v B B B V V V M B V V B V M B M M M M M M M B B n v B B v b v v v n v v r n t w w r p w p a a p a a a v v v y v v v v b v N B b b b N v b b b a a v n a v a v a a a a p t p p a p a p a n t r t t i p p r w w w w w i i w w i t w w w i e e e y s s s s b 0 $ $ % & 6 % % $ + + + $ $ % a a . . r l n & % O O % 0 8 9 w 9 7 & % % # % % f % % % ",
"1 1 1 > , , , , , > , , % % $ $ = + + . X X X X + $ > 0 7 8 7 7 8 8 8 8 8 0 1 2 1 1 > % % % % % 1 1 1 1 1 1 & & , % % % $ # + + O O O O + $ $ + X                                 # & & & % % # * . * = = . * * o = . = . . = . . O # # # # # # % % # % % % % % % % % % % & & & , & 1 , 1 1 1 0 6 > 7 2 6 1 7 7 1 1 1 1 1 1 0 1 7 , 1 1 5 7 7 7 7 8 8 8 8 w w w t e t t t t y y y y v y y y y y a a a y a a a a y y y v a v y v v t t v v y y a n a a b b p w t w w e d i w w w i i d r r w r d e d i 8 8 d , , 9 7 8 w 7 w a p  .. X 8 p n  .b v v a a v t v v v v v v v v v v v v v v v v v a B b v v n M s v a s i i i 9 w r 9 8 w 8 8 8 8 d w w 8 w d 8 8 8 8 e 8 d 8 8 7 e 7 w e e 8 7 , $ 8 w w i t w w r 8 8 , + 9 N a 7 w N K n t v v r v t n v n v n V v v v v P v v v B B b B v a t r e 7 , , , $ , 1 e v v v b B B M B B M V M V B V V M V M M M M M M B B M M M M v v b b b b v v v t a t w w i t w p p a a s v a a v y a a a v N b v b B v v N N N b N b n s a v p s a s a s n a a p t a a p a a a n p t r r r p t w w w w w w t p i i i r w w w r t u t a s a a y b 7 $ + $ > 6 & & % $ @ $ 1 % O & K 0 X + w K a 2 $ X + , 2 7 9 9 0 > > & # % % & & % $ ",
"& % & % , $ $ % $ $ + + O . X X . . X X X X X X O + O + $ % , > 8 e w 8 7 1 1 1 > & % $ $ % & % 1 1 1 1 1 1 1 & % , , % $ # # + O O O + + + + % X                               . # & ; & & % % = * = * * . * . = o . . . . o . O + + + # # # % $ $ $ % $ % % % % % % 1 & % 1 % & % % & > > > 6 6 6 > 1 1 7 1 0 1 1 1 6 7 7 1 1 7 5 1 7 7 , , 7 8 5 7 7 8 e e e e e e t r r t t y y t y v y v y a a M y y y y y y y a v a y a a v y t v a a a a v a a s s a d r w t 7 8 8 8 w 8 a i r i t t r p e w w 7 7 e , > w 9 w p 9 8 s i #   1 s r a K a n v v a v t v v b v v b b v a a b v b v v v v b v v v v v v s a b s a i i r d w w w e 8 w w e w w 8 e 8 8 8 e e 8 e 8 8 e 8 d 7 8 w d 8 7 w > , 7 8 w d w w w w 8 t 7 . $ n b 8 8 v B a a b N p v e t t v v v V B B B B v P V v K N b v v n t r 7 7 , , $ , 1 e e e y y v B V B B B V M B V M B V V V V V B M M M M B M m M B M v V b v v V v v y t t r w r p t t p a n n s a a v v v y v v v v a v N v v N v v b N N b b M s a b a a a a a v a p n v a a p t p y a i w r t r d w w w w i i r t w i i w w w w w t t r r p a s s s 8 % + & > 6 > & % % 1 , $ $ % # % K w   $ r C r 1 + X $ , 7 8 9 8 6 > & % $ = & $ & % ",
"$ + + + O O O O X X X X X X X X X   X X X     X X X X X . = + + > 1 1 1 1 1 > > & % # + $ & & & > 1 1 1 1 1 1 1 1 % , $ $ # + O . O O O O + $ + X                               . * f f f & & % * * * * = * * . * = = o . . = . O O . + # # % = * % % % % % & % % % % % % 1 % 1 & & % % & > > > > > 1 1 1 1 1 1 1 7 1 1 1 7 6 1 7 , 1 7 7 , , e 7 7 7 8 e 8 e 8 e e e e u t u r y y y y y y y y y a l v y y y a y a v a l a a y y y a v v a a v n a a p a s p w w w 8 7 > w n e d w t i i w i i w w w 7 8 e , 7 i i i s r w n 1   % s b i a K i a a v v v v v v N v v v b a a v v v b v b v v a v a a v v s a a s s s i i i d u w w w w e 8 e 8 8 8 e 8 e 8 7 d 8 8 8 8 8 8 7 8 e w w w w e 8 1 % 7 w w w r i w a 7 8 7 $ > t w 8 e i a b b b a e v m v v v v v v v v v v P b P B B N b v a t w e 1 , , , % 1 1 e e t n v v B B B B B B B M M B V V B M M M M M M M M M v v M M v v b v v v v v a p t t t t i a t i a p a a a v y v a a a a v a t v v v v b M v b N K b b b v a b v a a a n s a p a n a i t i a t p t t t y y r w w w w r r r d t d r w w w w r e e e u u s N s a 9 % + % > > 6 % + $ & & + $ > % X p b $ X + r v e , @ O % , 1 9 7 f f > % $ % f % $ $ ",
". X X X X X X X X X X X O O O O . . . . = . = . . . . . . X X X O + , , > % % & % + + O + % % & 1 1 > 6 1 1 1 1 1 , , @ $ # + O . O O O + + + +                                 X = & & & > & & f * * + * + = = * * o = . = o . O O . + # # # # $ # % $ % & % & % % % % % % % % 1 1 > & & % > > > > > > 1 1 1 1 7 7 1 1 0 1 1 > 7 , , 7 7 7 , 7 7 e 7 8 8 w e e 2 e u r e r r t v y y y y y y y a v v v M a a a y a y v v a y M v v a v v v a a N b v p a b a r w w 7 8 > p I t e 8 w i i w w w 8 7 8 7 8 w > 8 w i a n r w p   # d s i s K b b a v a v v v v N B N a v v v v v v v v v v a v v v v a v v N n n s p a i i i u d w w w 8 d e w 8 w d 9 e e 8 8 8 8 e 8 e 7 8 7 8 8 7 8 e d 7 8 e = > w e e r i w d a 8 7 8 $ + n r 8 8 a N a p p v v v v v v v v B B v v V b v v B K B B b a t w e e , , % , 1 e e r t v v v B B M M B B B B M M V M M m M M M M M B M m M v B M v v v v v v b b n p r p p t i a t t w t i a v s n a a y a y a a y v N b v N N n N N b a s v v a b v a a a a a a t a a a a p a v r t a t a n y r i t d w w w w r i w w w w w t w e e r y s a i t i 9 $ + $ & > f 1 % $ + + 1 % $ % $ . i s + X % v v e $ X O , , 8 0 7 7 f & $ # & % % % ",
"X X X O X O O O + + $ $ % $ $ $ $ $ $ $ $ $ # + # # @ + O X X X X . O O + $ $ $ + # = # # $ % & > 1 7 7 6 1 1 1 1 & % $ $ + + + . O O O + $ # .                       .         . # > 1 > & & > * $ % $ $ $ # # + $ @ O O . X O O O O + + $ $ $ % % % % & & & % $ % % % % % % % , & 1 & % 1 % % & 1 1 1 & 1 > 7 7 1 0 1 0 1 7 7 7 , 7 , 1 1 8 1 1 8 7 8 8 8 w w r r u e u y y t t t y v y y y y t y v a v v y v v v v v a a a v v v v v t t y v v v v v a v v a e i t w 8 w a n n a r w i i w w r 8 7 d e 5 1 w w n p w a i $   i i i a s b M N s b v a a v b b b b N b N b b b a b a a a n b a a a a a p v a a v a a p i p i w 8 e e d 8 8 8 e 8 8 8 e e e 8 8 5 7 7 8 e e 8 8 8 d w e e 8 8 e 6 $ , p b w 9 i w w w 8 7 , % $ t w 7 w b n t s s n v p a v v a v v b v v v v b v B B v v v a t e 7 5 1 , > 7 7 8 w a a n v M M V V B B B B B v B B B B M M M m v b s v b b N N N N b b v s s b a t t i n r r r y y p p n t p p n a a a n b N N a s v a v a s a N b b b n a v b a n a a a a a a a p p p a s p r t p p t t t p r n t r w i i r r a i w w i w r t t t t t v v t t p 7 , + = , > > > $ $ $ % % $ % % $ $ O b i . + 1 N n 2 % + . % 1 7 8 7 > % $ $ = $ $ % ",
"X X X O O + + + @ $ % % % , , , > > % > > > % % % % $ $ + O O X X X X . + + + + # # * # # $ % & > 1 1 0 6 2 1 1 1 > % $ # # + + + . . . + # = .                                 . $ & f f & & > f % % $ $ # # # $ $ $ + O O O O O X O + + $ $ $ % % f $ & % % & % % 1 % & & & % & & & & 1 % % % > 1 1 1 1 1 1 0 1 1 1 1 1 1 1 7 7 , 1 1 1 1 1 8 > 1 7 2 6 7 7 9 e r e e e t y r t t t y M j y y y v a a a a n v v a a a v v v v a v v a a t a v y a v a v v v a i w w w w 8 i n a p r r r w w 8 r 7 7 e 7 > 1 w p r 9 p a $ X 7 a a a n b b n v b s v a a v b b a a b v n a a a b N b v v N b b a v b a a s n a a v a a a a i t w w w w e 8 8 8 d 8 8 7 8 8 8 7 e e 5 8 5 e 8 8 7 7 7 e 7 e 7 d e , < e a a i p i w w w w 7 , % > > 7 7 7 a N a v s a p y v v a N B B b v a v v v b N N v v t w e 7 7 > > > 6 > 8 w p a v v M M B B B B v B v B M M m B M M M M b b v b b b b b b b b l v n v a a t r a p t r r p t t p y y a a a a a a v s s n b v b b b a v a s v b v l a b b a a a a s p a a a a a p a p p p r p n t p a p e t w r w i i y d p w w w i w w w r r e r t t y n i 8 $ + + , > 5 > % # % % $ $ % $ $ 6 + > a 8 X * & a s , + $ + > > 0 7 1 & % $ # $ % % ",
"O O + + + $ $ $ % % , , 1 1 1 1 2 6 1 6 0 1 1 1 , % % $ $ O O O   X X . O O O + + # # % % % & & > 1 6 7 1 1 1 1 1 & % % $ $ + + + + O . + + .                                 . . % & 6 1 > > 6 & % % % $ # # # % % $ $ + O O O X O O O + + + $ % % % & % % % = % % % 1 % % % % & & , & % % % % > 1 1 1 , 1 6 7 1 > 1 1 1 1 1 1 1 1 1 1 1 1 8 1 1 1 7 1 6 6 7 9 e w e 8 e r r u u t y y y y y y a a v v a v y M v v v a v n a v t a v v v v a v p a v a a v v n s e 8 w 9 7 e s w w d r r w w w w 8 8 8 7 > 7 i t 1 w b 1   = a a b v b N b b a a a a s b b b N b b N b b s v a b b N s s N b b n b b a a b b a a a p a a n a a w i w w w 8 e 8 w e 8 8 8 8 e e 8 8 8 8 8 8 e 7 6 5 e 8 8 e 8 e e 1 $ , w s n a p i 8 w w d 7 > $ # 9 i 1 w H a y v a a a v v a v v v v b b b v a v N b v a y e e 8 6 > > 5 > 7 7 e r n a N B v B B B B V v B b M M M M M M B B v v b b b b N b B n a n b N a p n a t p p t r r t p p p t a p n a s a s v b b b b b b b b a a v a a s b v v v a a a p n p p a a a a a p t t p n w t p a a a r r w w d r i i i t t w d w w w d w t r r t p p t t w 8 , + $ % , 1 > % $ $ & $ $ % & + 8 >   r b # X X 9 K r % $ + $ % 1 0 7 1 & % $ $ % & ",
"O O O O + + + $ % % , , 1 1 2 8 6 1 6 1 1 1 1 1 , , % % + O X X X X X X . . . O + # # $ # # % % % > 1 1 1 1 1 1 1 & & % $ $ $ + + + + O + # + X                                 = % > 6 6 > > > & & & % % # + # % % % % # O O X O O O O + + $ + % $ & $ % & % f 1 1 % % > % % % % & & & 1 1 % 1 & & & > ; > > 1 7 7 1 1 6 1 7 6 1 7 1 1 1 1 1 1 8 7 7 7 7 0 8 8 q e e e e u t e t u y y y y y y v a v a a a v M v v v v a a y a y a v v v v b b v v v a a a a t v d w w 8 7 7 w 9 w w w r p i w d e e 8 7 > 8 a 7 > n a   . t w p v a b b N b v a a a v a v b b b b b b N N b b n b b b v b b a a b b a a s v a n a p a a p a p p i w w e w d 7 e e 8 5 5 w 8 e 7 7 7 8 8 8 e 7 6 7 8 8 8 7 8 7 w 7 , = & w b b n a i 8 8 w 7 7 > = 7 b r 1 r p p a b a a v v v a a v v B B B b v v v v v v t w t e 7 > > , > 6 8 e r t a v M B V V B B V V V V V M M M M M M M s a v s b N v M N N b b N N b a a p p p p t r p r r t p a a a a a a v v a a a a b b v v v a a s a v v v n a v s n a s a a a a a a a a p r t y a r t p p i a p r i r y p p i w w r w t i w e 8 w r r u r t p t t w 8 , = + % > 1 > & # $ $ $ $ % 2 X & t X > i r X O # 0 N r + # $ $ 1 7 7 1 & $ $ % % % ",
"+ + + O O + + $ $ $ % % , , , 1 1 1 1 1 1 > > > , % % $ + O X X X X X . . O O O . # # # * $ $ % % > 1 1 1 1 1 , > ; , % $ $ + @ + + + + + # . X                               X # % f f 6 f 1 1 1 & 1 % % # # + % % & % $ O O . . O . O + + + + % % f & & % % & % % , , & & ; , % % % % % ; > > , % > & & 1 & 1 1 1 1 1 6 1 0 6 1 1 1 1 1 1 1 1 1 1 0 1 1 6 6 7 8 8 8 e e u u e u v u y y y y y a v y n v a v v v v v v a v a v a a v v b v v v a v v a a a a y s b n w w w 8 > w w w w d a p w 8 w w 7 7 7 r b 1 r p %   8 K w a b b s b N N a s n s v v b v b b a v a v b s b M N b b b b b v a v a a a a a a a p p p p a p t a i i w e d 8 8 e 7 7 e 8 8 e 7 e 7 7 7 e 8 d 7 7 8 8 7 8 e 7 e 7 w 7 , + > t b b b v i w w 8 7 f % , 7 w 7 7 t i a b b v n v v b v v b N N v v b v v v v a t t r w 8 > > > 1 7 8 e r r v v M B P P v V v V V V B M M M M M y y a s v v b b v s s b N N b b v a a a p a i r r t t r p t p a a a i p a a p p p p a b a a a a n s b N b n s a n n s v a a a a s a i a a a p i p p t p p t r p t t t d i i d r w w t w t r w 8 e w t e e r t p t r w 8 , $ = $ > 1 1 % $ $ $ $ $ % 1 O + s > . % N % $ X + b b 6 # + $ & 1 7 6 > % % % % % ",
"$ $ + + + + + + + $ $ $ @ % % , & & & , > & % % $ , $ $ $ + O O X . . . X . O O . # . # = # # $ % > & 1 1 1 & 1 > , & % % $ $ + . . + . + = .                   =           . . # % ; 6 > 6 6 1 1 1 1 & % $ # $ $ % & % % @ O O . X O O + O + + * % $ & & & & % % % % % , % % 1 $ % $ % % , > > ; & & , 1 1 1 1 1 1 1 > 1 1 1 1 1 1 1 1 1 8 8 1 1 1 1 1 1 1 0 7 8 8 8 2 8 e e 8 t e t t y y y y v v v v a a v v a v v a v v v v a v v v v v a v a v v v v v v s a  .b r w w 8 , w i i i r i r 8 8 w e 8 1 8 t n 8 b ,   , v n b n B N v b N b a b v v s s a s b b b n s a a a a a s v s v b b a a a n y i a a i a p p t p p p r p i w w w w 8 8 8 8 e 7 e e 7 8 e 7 7 e 5 e 8 8 8 e e d 8 5 8 8 7 w e 6 $ $ 7 n a  .K K a i w 7 > 7 % O > w w d w p a a a a v a b v b B B B B M B v v v v v a a r w 8 7 1 > 1 1 1 e r t v v M M v P v v v v V V M M M M M M M y a n a v v v v n a b b b b a a b a a p a p r r a r r t i a a a a a v b a a a a a a a a p a a a v N b N s p a a v a a a a a a v n i a a v a p p t i a p r r t a t w r i w t t i a d r w i w w w r e t e t r r r r w 7 , $ $ % > > 1 % $ $ % $ $ $ $ > $ r i @ + a a $ X O > s s % $ + $ % > 2 1 > % % % % ",
", @ $ + + + + $ + + + + + $ $ $ % $ % % % % $ $ $ @ $ $ $ + + O O O X . . . . . . + # # # # # $ $ & > 1 1 1 & & > > & % % $ $ + + + + . + + X                                 X # $ & f 1 6 6 6 1 1 & % & $ $ $ % & > > % $ + + . O O . . + + + % $ % % % & & & % % % ; & % % % % & % % % & , & 1 & & & & 1 1 1 1 1 1 1 1 1 1 1 1 1 1 8 1 1 1 1 1 7 7 6 1 0 7 7 8 8 8 2 8 e 9 9 e t u t y y y y y a v a y v a a y y y n a v v N v v v v v n a a a v v v v v N v a s v i w w 8 > 0 t n p i t w e 8 e e 7 1 e d t a w . . p b r B N C b s v b N s b b b M v v N s N b M s v a a v p a a a a b v a a v a y p p i i p p t t a p a t p p i w t d w e 8 8 7 8 8 8 8 5 8 e 7 7 e 8 8 8 8 8 e 8 e 8 8 8 e 8 r r > + , 8 r n K N n b p 9 7 8 > = $ 7 r e 8 t a a a a a a a a v v b N B K N v a v b v a y w e 8 8 1 1 5 7 7 e e e t v M B v V v V v v v v M B M M M M M M n s a s v s n v b b b v b b b a v a a i t r r y t r i i p a s n v N N b a a s v s a a a a a n b b b b v a a a a a a p p a a a a n a a i a y p t t a p t t t t d w t t i t d i i i w w w r w w r t e r e e t r r i 8 , = $ % & % 1 % $ $ % @ $ $ $ 1 # 1 s & + > b 6 $ . O 8 l 9 % $ + $ & 1 1 > # # % * ",
", , $ + + O + + $ + + O + + + $ $ $ $ $ $ $ $ + $ $ $ $ $ $ + + O O X . . . O . + + # # # # $ # $ & > 1 1 & & 1 > > % , % % $ + # # # + # O X                   X           X . # # & > 6 f 6 7 1 , 1 & & & $ $ $ & 1 > , % $ + . . . . O O O O # # % % & & < & % % , % % % % $ , % % % % % % & & & % $ & 1 1 & 1 1 1 1 1 1 6 1 1 1 1 1 1 8 1 1 1 1 1 7 1 6 7 8 9 9 8 8 9 r r r v e t t y y y y y v a v v a a y v a v a a v v v v v v a v v v a v v b v v v M a b v n v i w w w % r N n i w d w e e 5 > > 7 w w H . X w a n b a n b b p a N N s N N b n v n b N b v a v v s n b p a b b b N b s a s n p p a p t i t i a a a n a a d w t p i w w d e 7 7 8 5 8 8 8 5 7 8 e 8 8 8 5 8 8 e 7 8 8 d e , 8 d 7 O X , r a a a b N b i w > 7 1 O , 8 , 8 t a v a s n a a v v v v a v b N a a b N v t t e e 8 8 5 7 1 1 e e e m e v v v B v v V P V v V B B B M M M M M a a a v a s v b N b s a b N b b a a p a p r t n r p t t a a a a a s n a p r p a b v s n a a s v a a b a s a a a t p p p p p p p v a t t t n p p t a n p t p t r i i i t w w r i a r w w t d w r t e e e r r r r i 8 , $ $ % & % 1 % $ % % $ $ $ > 1 + & K > # . i a > X + , 8 B 1 % + + % > 1 > % % # % ",
"$ $ $ $ $ $ $ + + + + # $ $ $ + @ + + + + + O + + + + $ $ $ + + = O + O O O O + # # # # $ # # $ % & & 1 1 1 > > % & 1 % $ $ $ $ + # # # + X X                               = . * * f f & f 6 1 1 1 > > & % % % % > 1 1 & % # $ O + O X . O O + + $ % % & % & & % % % % % & & & ; , & % % & % & % % & % % % , 1 6 2 1 1 1 1 7 7 1 7 1 0 7 1 1 1 7 7 1 7 7 0 1 7 0 8 9 8 8 9 9 9 r u t u t y t t a v a v y v v y v v M M v v v v v b N v v b B B b N N K B B B N K b K b r 7 w i 8 7 d n r r i > 7 e w , , 7 8 V X $ 7 p a b b b s b b b v a n N N N b b n v v a a b b v a a a n n a b b b b b b b b a a p a p a d a a p a v a p i p a a p w i p 8 w 8 7 7 7 e 7 7 e 8 8 e 7 8 5 7 8 d e w w w w w 8 7 7 e 7 % X 8 w a b b b b N v e 7 2 $ O % r w i a a i r a b v a a a v M b v V b v b b v a t e 8 8 7 5 0 1 1 7 8 w t v v v v P B v P V M M V M M M M M M M M t a s a n p p b a b N b a b b b a v a p t t r r p p p p a a a a s a a a a a v N a p a a a a s n n s s a a a a a n a p a a a t p a a i a n y v n t t t p t t r e w r w w w w i r r i i r w e w r e t t e e e r e d 7 , % $ & & 5 1 % % % % $ % ; % > , + 9 a % . + N 9   &   + N s % # . X & 8 & f % $ # ",
", $ % % % % $ @ + O + + $ + + + + + + $ + @ + O + + + + + $ $ $ + + + O O O = + $ $ $ $ $ $ $ $ $ & & 1 1 1 1 > & , & & $ $ @ + # + + + + X                               .   = # $ % & > 6 > 6 2 2 6 > > & % % & > 1 1 > % $ $ + O O O O O O + + $ % % & & & $ % % 1 % % & & & % % % $ % $ $ % % & & % % % & > & & & > 1 1 1 1 7 7 1 1 1 1 6 1 1 1 7 7 7 7 7 7 7 9 8 8 8 9 9 9 w r r e r t t u a y v a v v n v v v N v v v b b a v b N b N N B B B N v v v a n n s s s p w w w e 8 w i 8 7 8 w 1 t 7 7 8 > b 1 X , r v b b  .s v v b b a v a v b v n a s s a a a a v v a s s v a a a a s n v s b b a a a p a a a a a a y n a t i i p p i i d t w w w 8 7 7 8 7 7 7 7 8 7 8 8 8 7 e e w 8 8 w w w 8 e e 9 d 1 = O 7 i v s N K s v t e e 1 + + , b i w a n r w i a a a v v v v v B v v v b a y a w w e 7 7 7 6 6 f 7 8 w e v v v v v v B M M M V M M M M y y y M p b a a v a a v a v b a a b N b v a n p p p p p t p t t t p p p a a a n s n n a p a a a a v a v v a n a a p a a a i t a s a p a p i t t p p y i r t t t d r t r a d r w w w d t w r i w w w w t d t t e e e r t e 7 , $ $ & & f & % % % % $ % % % , % + 8 i & + # > a 6 + + X 0 N 9 * # $ $ % 7 & & $ # ",
"1 % % % % % $ $ @ # # + + + + + $ $ $ $ # O + O O O + + + $ $ $ $ # $ + + + O + % % % % & $ % $ % & > > 1 1 1 ; > & & $ $ + + + # + + + . X                               X X = % % & ; f > 7 6 7 1 6 1 > > , % & > 1 1 1 > > % + + O X . O O O + # $ $ % & & & 1 % & & , & % & % % % % $ $ % $ & & , & 1 % ; , % & & 1 1 1 > 1 1 2 1 7 1 1 1 1 1 1 6 1 7 7 8 8 7 8 9 8 0 9 9 8 e r r r r t t t y n y a v y v n a a v v v v v v v v v B N B N v N b v a a a v v N s s b b a w w w e 8 8 8 7 7 w 5 t > w 8 e n X , 7 n n b b b b b b b b n s v v a p a a a a a p a s a s v s v b s v v v M v b v n s a a p a a a a n a p p p p r i i d a p i r t d w w 8 8 8 8 7 5 8 e 7 7 7 8 8 e 8 w e d e 8 8 e d e 8 w w 7 >   $ 8 r s  .K n b v e e e , O X i w w a a i i i a n v v v v v v b b B B b v y a r r e 8 7 7 0 5 > > 8 w e v v B v v B v M M M M M B M B M M M M v b a a v n a a a s n a n N v a a v a a n t p t t p p t a t a p p a a v v a a a a a a a a n a a a a v a p a a n a t t a n a p p n p r r t i p p t t t r t t t t a p r w w w w r w r i r w w w r e t r e e r r t 8 6 , , $ % & , 1 % % % % $ $ , & & & + 0 i 6 % # X w N . $ $ X r a 0 # % + O 1 & & % # ",
"1 1 % , % % % % + # $ # $ $ + $ $ $ $ $ # + + O O O O O + + $ $ , , , # % + + % & % % & & $ & $ $ % & > 1 1 1 1 > & $ $ $ $ $ + + # + O X                                   . . = $ & f 1 7 6 6 6 0 7 7 0 > > & > 1 1 1 1 1 1 1 $ + O O O . O . + + $ $ & & & & , 1 % 1 & & & % % , % % & $ & & $ $ % & % , > > & & > > 1 > 1 > > 6 6 1 1 6 0 1 1 6 1 0 6 7 2 0 0 8 8 7 7 8 9 8 9 r u r e t t t y a y a v y y t t a v a v b b b N M b v B N N v a v v v b v b b N b n N N n w 8 w w , > r a 8 8 t 8 > t 1 d = O e t a a p b b N b b b b s v a a a a a a a a a a a a n a a a a v a a a s v b b b a a a a a a a n a v a i t p p t a i r p a p w r t p w w e w 8 8 7 7 5 7 7 e 7 e e d w e 8 7 e 7 7 8 e d 8 w e 7 # O + 8 a n a N B v v m e 2 , O O 7 p d w i s a a a v v v a a v v v b B B v v a t r d e 7 6 6 7 1 7 7 w v v v v v V V B M M V M B B M B M M M y b b a a b s a b N N s a M s a p a p a p y t p i p p n t a a a n a a a a a a p p p a a a a s n s s a a a a a a a a p a n v a r t a p i t r p t p i i r t r t t t p p i r r w w r r t d r w w w r r e e e e e r e 8 1 , $ $ % & 5 1 & % % % $ % % 1 1 , + 1 i 8 > O + # b > O 7 + $ i r % + # $ $ & & % = ",
"1 , , , % % % % $ $ # $ $ $ $ $ % % % $ $ # $ + O O O O @ + $ @ % % % % + + + % % & & & & & & % % % & 1 1 1 1 1 , , % $ $ $ $ $ # # + . .                                   = = # % % & > 6 6 6 6 7 7 1 7 1 > > > 1 1 6 6 1 1 1 $ $ + . . . . . O + # $ $ % & > 1 , > , & & & & & , & % % % & % @ $ $ % & & & , > > > & > 1 1 0 6 1 6 > 6 1 1 1 7 1 6 1 > 7 6 6 6 7 8 7 0 8 8 8 8 e u e r u p r y y v t y v v v a v B b N B B b B N v v b N v v v v b v b v v v s b b b s a i w 8 r 1 % i b a w a 1 , e i > X , s p p p s b b b N v b v b v s a a b v a a a a a a a a a a a a a t t p p i a p a a a p a a a a a p a p t r a a p i i w p p i w d t i a w w w w 8 8 7 7 7 5 8 8 8 e e 8 8 8 8 e 7 7 e e e 8 8 e e e = X , e d n B v V M y r e 8 , X % e i 9 8 w a a a v v a a a v v a v v N B v t t r w w 7 7 1 1 1 7 8 r t n v v V V B M M V M m M M M M M M m M s N b a s a a b N N v b b s a a i i a a p p p t a p a a a a a a n y y p a p a a a p a a a a p p a a a s a p a p a p a a n p t i a y p r p p i p i t t r r r t t d t i i d t d r t w w w w w r w e t t e e e e e e 6 , + = , > 1 & % % % % $ $ & 1 1 1 + % p r 0 + % . 7 a # & 0 O 0 a w $ $ & # & % $ $ ",
"1 1 1 , & , % $ $ $ # # $ @ @ $ % % % % % $ $ @ O @ O + $ + # # $ $ $ + + + + + $ % % & & & % % $ & & 1 1 1 1 1 % % $ $ $ % $ $ # # + + X                                 X . * # % % f > 1 > 6 6 7 7 0 2 1 1 > 1 1 1 1 1 0 1 1 % $ + + + O O . . + + # $ & & > & ; > > > , & > & & % % % % & % $ $ % % $ $ $ % > & & % % > 1 1 > 6 1 1 1 1 6 1 1 6 1 0 6 > 1 1 f 7 7 0 0 8 8 8 8 e e 9 9 r t u t r t t y y t v v v b v v b B v B N v v v v v v v v a v v N N B s b b s s n s a 8 i w > 7 p b N i 1 % 1 b   , r i i i p b  .n p s M s v v b v v b s n s b a n s a n a a p p p p a p p a a a a p a p a a n p a a p p a r t i p p i w r p a d r w w i d r r w w w e e 7 e 8 8 e 8 e 8 8 8 8 e 8 d 7 w w e 8 8 e e e > + X , r v a n B V v n a e 1 , . = 8 d 9 8 p v a a a a a a v v a a a v N v t t t w 8 7 1 6 f 5 7 8 w r t v v B B B M M B M y M M M y M M M M a b N b v a a N N s a b b b v v a a a a a a p p p p p p i i p p y n t t t i p a a a p a a a a a p a n a p a p a i t r a a a i a i t r t t t t r r t t r r r r r w w r i i t w w i i i r w i w w e e e e e r e e 8 6 , , $ % > 1 1 % % , % $ % % 1 & 6 + $ p i 8 $ + > O N 9   w > # 8 b 6 X # $ % % % $ ",
"2 1 1 1 1 & % % $ $ # # + $ $ $ $ % % % % % % $ $ $ % $ $ $ $ $ $ $ = + + + + $ # $ % & & % % % % % & 1 1 1 1 1 & % $ $ $ % $ + = + + .                                   X . + # = $ & > 1 > 6 7 0 1 7 6 > > 1 2 6 1 6 7 6 > > & % # + + . . . + + + # $ % % & > > > > ; > 1 & & & & % & % % , % % % % $ $ $ % % % % % % & > > > 1 1 1 1 1 1 6 1 1 1 1 1 1 6 1 > 7 7 6 6 7 8 8 8 9 q w u r r r e r t t y v v v a a v a v v a v b v b v v v b b a a a a v N B B b  .N b b N b b t w w w 1 8 a n 8 > < w 7   s p i i a a s K b a b n a b b b b s a a s v a a a v a a a a n p a a v n v n v a a n i p a p a a a p r p p t i p a t d r t i t w w w w i i r r d r w d w e e 8 7 7 8 d 8 7 d 7 e 8 8 8 w d 8 5 w d 8 e e , O X , w r i v B B v v t 8 > + X , i d i p a y t t y a v v a v v v n v a t p t w w e 7 5 7 7 7 8 w r r v v B B M B B M v v B M M M y M M M a n a a b s a b N s v b b v s N p a a n a a y t p a i a a y p p p p t t i p a i a a s p a p a p p a a a a a p a a r t p a t a v t t r i p y t t w w r r r e t t w w i i t w w w d r w w w r w w e e e e e r e 8 7 > , , $ , > f , % % % % % % & 1 1 2 % # i a 8 % O 8 + 9 s X 7 r # $ i w # X $ % % % % ",
"1 1 1 1 1 1 & % , , % % $ $ $ $ $ % % % % , % 1 , % , , , , % % $ $ $ $ + + $ $ + # % % % & & $ & % & 1 1 1 , 1 & $ $ $ % % + o + # . X                                   X . = # # & , > f f 1 7 7 7 1 > 6 6 > 7 6 1 1 1 6 1 > > % $ # + + + . + + + # $ % % & > > > ; , 1 & 1 1 1 > > > , ; 1 % % $ % $ $ & > % % & & > > > > 1 1 > 1 1 6 1 1 > > 1 1 1 6 6 7 & 6 7 6 0 8 9 8 8 9 e 8 9 r r r r r r t t v t v a v v a a v a y a a N N b v B N v v N B B b v v b b b s b N n i n 7 8 d e 7 w w 7 + 8 b   1 p i b b N n s N N n b a a a b b M n a t a a a n s a i p a a a p p s s a a a a a a p a a a a a p i a t p a t i p t w r r i i r w w i w i t w i i t w t e d 8 8 7 8 7 w 8 7 7 e e 8 8 7 8 8 e 8 w e 8 e e 7 , . X , w a a v v B B b n e 6 $ . 6 s s 9 n a t t p v b b b B B v s v a a n t r w 9 7 7 7 8 8 8 e e v v B M M B V B y y M B M m y y M y y a s a a N v a n n v b b v p a n p a p a a i t r a n a a a a y n r r p p p a p i a n p a p a p a p a a a a p p p a a r t p p t a t t i a n a p t w w w r t r d r r r r i w w w w t r r w d r r w r e e e r r r 8 5 7 > > , > > > ; % % % % $ $ & 1 1 8 % $ a s 8 $ O > % + v 7 $ s 7 # 6 s 0 . $ f % % % ",
"1 1 6 7 6 6 1 f 1 f & & $ , $ # % % $ $ $ $ $ $ $ $ $ $ + $ $ $ $ # . = O + * + # # = $ $ $ $ % % $ $ & > f > > > & % # $ $ # = . = o X                                   X + # $ $ $ & & f 1 2 0 7 1 0 1 1 1 1 > 1 6 6 7 1 7 1 > & % + O . O O . + . + $ = % & > > 1 1 1 1 > 1 > > > & 1 & & & & 1 % % % % ; % $ % , 1 1 & % & % 1 % 1 2 2 7 7 1 1 1 1 7 7 7 7 6 6 7 7 8 8 9 8 8 9 9 9 9 r r u y y y y v e v v v v v v v v v v v v b v a y v v N v v v v v v v b B v b b v v v a p e w r 6 , e > , e > O y v a t p a v v v b b v s v v v n s a a a a a v a a s a p i a a p p a a a a s p p i a p p n p n s p p a s p d a n i i p w i i i t w i w w r d i p i a t r r w w w w 8 w 8 7 e e e d 7 8 8 e 8 d 8 8 8 e 7 w w ,   . > 7 m v B b v v b b w > + $ 7 v r t e r w p b v v b b n n s v s s n i e 7 8 7 7 7 7 8 w w i a N K B b b B K K K N N b b v a i i i b v s a n l v a s v a a a a a p a a p p p p t t r p a i a n v a a a a p p a a a n n a s n t t a t i a a a a i p p a n a p t t t t d i i t d t i r d i i i i i i r w d w w w w r i i r r w w w w 0 w u w 9 r 9 7 1 1 & & $ & & & % % $ $ $ & & , 0 > 8 + * s s 9 $ $ + 2 + w s + w i > . a b O $ % + $ $ ",
"6 6 > f > > > > > > & & , $ , , % % $ $ $ # $ , = $ + + + + + = # # . + # # = . O = O + + = # + # # # $ % & > > f > $ # # % # + . = . X                                   . + # # # $ & & 1 1 0 1 7 1 1 1 1 1 1 1 1 > 7 7 6 7 1 > , % + O o . O + . + # $ % % % > > 1 1 1 1 1 & > > > & & & & & % % % % % $ % % % % & , & & & $ 1 1 1 1 1 1 7 7 1 1 > 1 1 7 1 2 > 6 1 7 7 8 0 8 0 8 8 8 0 9 9 9 t e t v e v e v v v v v v v v v a v v v v v v b B b B b b B v v b b b B B B v v v a w w r 8 1 w , 7 7 + , t t a i a a s b b v s n s s v v s a a a a n s a n a a a p i p a i p v p a a p n p a p s s a s a n s p i a t w a a r r i w w w r w w w r w w w i p p i p p t d t w w w 8 8 8 e 8 d 7 7 8 e d 7 7 e 8 e w d e d 7 $ O O 7 e e v v b N b b v r 1 + + , v n r p p d v i n s b s b N N b b y d w e d e e 7 > 8 8 d w a b N N B b K B N N N B N N b v a a p v a a a v n v a N b b b b b a a a p p p t p p a t p a i i a a a a a a a p s a a v p y a p t r t t i a y a a p a t p y a a a t n a p a a p a i i r r t p d i r i w r t w w w w w w i w w w w w w w q d w w r w 8 1 1 1 % & & > > % ; % % % $ & & 1 1 7 + # i a 9 $ $ + 1 > , a 1 6 s i # 0 N 7 # % + $ % ",
"> > f , & & & & > > % % % % , # $ $ $ $ + $ $ # + $ + + + O O O . . . . . . . X . . . . . . . O . + = $ % & & % > > % # # % $ + * = = X                                   X + + $ $ $ % & > 1 1 1 1 1 6 1 1 1 > 1 6 2 7 7 0 0 1 6 > % $ + O . O . + # # $ % % % > > > 1 1 1 1 1 1 > > > 1 & & & & % % % % % % % $ % % , % % % % 1 % 1 % 1 7 1 1 1 1 1 1 1 1 1 1 6 1 6 6 7 7 8 9 8 8 8 8 w w w 9 t y y e y y v v v v v v v v v a a v v v v v v b b v v v b B v v v v v v v n v v a a r w w w 7 7 % m > O n t p t a a a n v s b a a a a a s a a a a n a a s p p a n a p a a a n v a a a n t a a a n s p p a s a p i d i i a p w w r w w i d w w w r r r t i p i i i a a i p p i d w w w w w e 8 7 d 8 8 e 7 8 8 8 w 7 8 w d > + X $ , 7 e v n v B b B v t , O $ 8 t e w r p a p K s b b b K N N s p t r r r r e 6 7 8 e e i p n N K b B b b b N b N b b b v a a a a a a a a v s n N v v v n v a p a a a p p i t a p y y t d a p t p a p p p a a a a t t p i r w t t t a n a a p p r i t a t i p p i t i i p i t t w r d y y t w w w r i w w w w d w w d 8 w w w w w i w w w w 9 7 1 1 & % $ & > 1 1 > % % % % $ & 1 1 6 + # i a r $ $ + , w + w i @ w K % X p s # $ + % > ",
"% & % % & % % % % % $ $ $ $ $ # $ $ $ $ $ + + # + + + O . . X . X X X = . X X X . X X X X . X . . O + $ % & & & > > & # # % $ + = . X                                   X . + # $ $ % % & 1 1 1 7 1 1 6 1 1 1 1 1 1 1 7 7 1 7 1 7 > > % + O . . O . . # $ $ % % & & > 1 1 1 1 > > 1 1 1 > 1 1 1 1 % 1 & , % % % % % % % $ $ % & % 1 % 1 > 1 1 1 1 1 1 1 1 1 1 > 1 6 6 6 0 0 8 8 9 9 9 9 r 9 r r y e t v e t t v e v v v t t a a a a v v b b v v b v v v v v v v B v v v v v v r p v p w w w 8 1 1 t $ $ b p p t n a v v b M n a b a v v v v a a a a a v a a a a v a a a a p t a a a a p p t a a n a s p a s a a t t w i p i w d t d r i t t r t i t w t d p i i r d t i p i t t w w w w w w e 8 9 w e e e e 8 8 8 8 8 w t e , O X + > t r t v v B b b v r , + = e 8 w e i b a b s b b b b n s i a i r t d r 8 7 7 8 w w i s b b b B V K b B b N b b v n s a a a p a p a a a a a s n a v s v a a n a a a t a i p p n a t y a a t t a p a n a a a a p p p a p p a p p p p p p p a a p a p r r r r i w i i i r d w w r i i t w w w w w w i w w w w w w w e w w w w w 0 w w r 0 7 6 2 1 1 & $ & > 1 1 > 1 % % & & & 0 7 0 $ $ w s i 1 + @ $ 9 $ & s % 1 s 9   0 b > $ + $ > ",
"= + $ & & % $ $ % $ $ = $ $ $ $ $ # # # + + O O + O . . . X X X . X X . X . . . X X X X O X X O . O O % % % , % & & & $ $ % $ # # = X                                     . # # $ $ % & > 1 1 1 1 1 1 1 1 1 0 1 6 1 6 6 6 7 7 7 6 > & % $ = . . + + + + # # $ $ % & > > 1 1 1 1 1 1 1 1 1 1 > 1 1 1 > & & & & % % $ % $ $ $ % % 1 % 1 1 % 1 % 1 1 1 1 1 0 1 7 0 1 1 7 7 7 8 8 8 8 8 8 9 9 9 w q e t t t e t t e v v v v t a v v v n v v b N v v v v v v v M v v B b v v v v v v v n a t i p w > e 2 O e v m y t s n b v b s v a v a s s v v v s a a a a a v a a n a a b v a t p a a p p p t a n a p p s n p i i i p w i p r w p t i i t i i r d i r r i i p i r d d p p p p i i p d r e e 8 d w w w w w e e e w e w e 8 e e 7 >   . $ , 9 r a n n N b b s i > . > 8 a t w a i w a s n b b b s i b a i w d w 8 > 7 7 e d a s b K b B K b N b N B b b v s a a a a a a a a s a s n N s M v b b n s b s s a p p p i p p p p a a a a a a n a a n v v a p p a a p a a p p p p p p a t n y a a t t r t p p p p i i i i w w i i r w w w w w i w w w w w w r w w e 8 e 8 w 9 9 w 9 8 8 0 7 1 1 % % & > 1 > , & & & & 1 1 1 8 1 % # 8 s r 1 + $ + & 8 X r 9 # 9 N & # i r $ + $ % ",
". . + # $ $ $ $ $ $ # $ $ $ + $ = # + + O = O O X . X X X X X X . . . . . . . + . X X . X X . X X . . O + % % % % & % # # # # # = .                                     X . # # $ $ % % % > 1 1 > > 1 1 1 1 1 1 > 6 1 1 7 1 1 6 6 6 6 & $ # + . . O + + # $ $ $ % & & > 1 1 1 1 1 1 1 1 1 1 1 1 1 % & , & $ % % % % % % $ $ % @ % 1 % % % % 1 1 1 > 1 1 0 7 7 7 7 0 7 7 7 7 8 7 8 9 9 9 9 w w 9 e t y e v e e v e v v e y a v a v v v v v b v v v v v v v M M b v v a a v v v v a a a p d p w > e $ + v e e t v a a v b v b s v b b n v b n s a p p a a s a a n a p a b n a a a a a a p p p p a p p a s s a i w a p w w i w w p w i i w w i w w d t w t i p d p p p p p p p i i p i r w 8 8 e w w w w w 8 d 8 d w r w 8 7 7 e d , O X X , w a p p K K s s s w 1 . 1 b n i i w i p p a s b b n s b s i w e e 8 7 7 6 7 e d s b K b b b b b b N K b b M n b v b a p a a a v a a v n v s s v b a a b v a a a p p p t p r r t a a i p i t y a a i i a p t p p i t a t t p p p p p p t p t i i t a a p p p p t t t w w t i i t r w w w w i w w w w e d t w w w 8 8 d w w 9 w w 9 8 0 1 1 1 > & & > > , & & & & > 1 1 > 8 1 % # 6 a 9 1 + & # + w X 1 a + $ N w . > a 1 + + $ ",
"X X . + + + # # # + # + O + O = O . . X X X X . X X X X X X . . . O # # # # # $ + O O O O X X O X . X . + $ % $ % % % # + # # # . X                                     X + # = # # $ % % > > > & > & > > > 1 1 1 1 1 1 1 7 7 2 6 > f > % # + . . + + + # # $ $ % % & 1 > 6 1 1 7 1 1 0 1 1 1 1 1 1 1 > & & % % $ % & % $ $ % $ % % 1 % % % 1 1 1 1 1 1 1 7 1 1 1 7 0 1 7 7 7 7 8 8 9 9 9 r r r e e e t v e t e v e v e t a a y a v N N b v v v v v v v v M M M t v y v v v v v v r i v r r w , e + 7 v e e v v v s s b s b b v b a a v v n a a a a a n v a a s a a a a a p a b a a a a a p a a p p i i p i i w p i w i i w w a t d i w w i i w t d i i p p a d a a p p p p i p i i i w e 8 e e w w w w w w e w d w e e 8 8 8 w e < X   . > 8 w r n N b n a p p % % e i a p w n i i p p s n v a s a d r w 8 8 8 8 7 7 w p p n b N n b b b N b N b b b v n s v a a n s v s a a b a p a a a a a p a a a p a a a a t p t r i a i w i i p p p t t t a i t t p r t a p p p t p p p a r i i i t i a n i i i i d r w w w w p i d r w w w w w w w w w 8 w w w w 8 w e e 9 8 0 u w 9 8 8 1 1 1 & > , & 1 & & % & & > 1 1 > 8 > % # & p 7 1 + , & + 1 & O p 0 O 9 a # + p 9 $ + % ",
". X X X X . + + + + . . O O O O . . X X X X X X X X X X O O + + $ % > 6 1 1 > 1 , , $ # + O O X O X X . O + % % $ % $ # + # # # .                                       X O # # # + # $ % % % ; % % % & > & > > > 1 1 > > 1 > 1 6 6 6 > $ # + + O . + + # # # $ % % & > > 2 1 1 1 6 1 1 1 1 1 1 1 2 1 1 1 & 1 & % % % % % $ % $ $ % % % % % % 1 1 1 1 1 1 1 1 1 1 1 6 1 6 6 0 0 1 0 0 0 8 8 9 0 e e e t e t e e v v v v t a y t t v N B b v v b a v a v v v v v e v v b b v v y b w a b p i w , 7 $ v e v v v b a v v b N v M n v a a s v s a a s v a s a a p a s a p p p p a b i a a a a p p a p i i i w t i w i t r d i w 8 i t p p i t p i w r i w t p p p p a p p p p i i i w i i w d e 8 8 8 8 8 8 8 8 8 8 w e 8 d r w 8 e r > , O   X , > w w a N b a p s n % = 7 s a w s i i i t p a p d i p a i w 8 e e d 8 8 r p a s b B B b v b N N b b b v s a a a a v s b n v a a v a a a v s n a a p a a a a n v b y n p r a a p t a a a a a a a y a i i a t t d y p t t p t t p p t t t t w t t a i p p d i i i w t t y d i w i w e w t d w w 8 w w w 9 e e 8 d w 9 0 0 9 w 7 2 7 1 1 1 1 ; 1 & & 1 & & $ % > > 1 1 w 1 > $ & i 8 > O & 2 $ + w   r s # 1 s & $ w u > $ $ ",
". . . X X X X X X . O O . . O X X X X X X X X X X X . + $ $ % $ % > 1 7 1 1 8 1 1 > 1 > , , $ O + O . . O = $ $ % % % # # # # X                                         X = + . # # % & & $ & $ % % % % , , > % % 1 1 1 1 1 1 1 & 6 1 > & $ # + O . O O + + # $ $ % & & > 1 1 1 1 6 > 6 1 1 > 1 1 6 1 1 1 > > > % % % % % % $ + % $ $ % % % 1 1 & > & > > 6 1 7 1 1 7 1 1 6 7 7 8 8 7 8 8 9 9 9 e e e e m v e v t p n a a p v n t a a v v b B B P b b v v n m e v v v e v v e u v v v e b a > w $ 8 p r t p i a a v b a b a s v n s v v b v n a a a a a t t t t a p p t t t a v a a i a a v p i d p i w i i t w r w r w t i t i e w w w w w w w i i i t i p p a p p p i i a a p p p p i i w w 8 w 8 d 8 e w 8 8 w w d 8 8 8 8 7 9 9 8 $     . $ & 7 i p b N  .b t w 1 $ 7 s n w w w i a n b b a n n s i w w w w 8 e d w i i s s N N v a a a s n v b N b v p t a a a a a v b a p a b b a a b v a p p a n a a a p t t n y y a i a t t i a a a p n p a a y p p i r n t t p d y t t r t p p p t d p i r w r p i i w w w w w w w e e w w w 8 8 e d e 8 8 e w w 8 8 8 8 0 8 9 0 7 0 7 1 1 1 & 1 1 & & % & & $ & & 1 1 1 6 7 & + , 8 8 % + & & > X e + % K & $ 8 2 + , p 2 % $ ",
"X X X X . X . X X X X X X X X X X X X X . . X . X . O + $ $ $ $ % , 7 7 8 1 7 8 8 1 1 7 1 , , $ + O O O + + + $ $ % $ # # # + .                                         X . + . + # $ & % & $ $ % % $ & & ; & > & & % 1 1 1 1 1 f & 1 1 & $ # + O . O + + $ $ $ $ % & & > > 1 1 2 6 7 0 0 7 7 7 0 1 1 1 1 1 > > % 1 , % % $ $ $ % $ $ $ % % % 1 & & > > > > 1 2 1 7 0 1 1 6 0 7 7 7 7 8 8 9 9 9 e e e e e e t e r t y a p a a a t a a v v b b v v v v v v v v v v v v v t v v v v v n v n r 7 8 , w p r t p p a a v a v a b s a a a a s a a a a s n a a p i t i p p p p p a i i a p a p a a a i a a i i i i d r t d w i w w w w w w i w i i i r p i i i p p p a p p i p i i i i p p p d i w w 8 w w 8 e 9 8 e d w w 8 9 e 8 8 e 8 9 9 f = X   X # f 8 i s b n s a i w 8 7 9 e 8 a p i i p s s i s a p p w w w 8 e w w r i a b b b b b b b N N J b b b b a a a s a a a s s b v a p a s a a a a p a a a a a a n s t p p p a a p t t t a a p a a p t p p a p p t t r t p t t t t t p p p t t r y y i r d w t r i w t w w i w w w d w w w w w w w w w 8 e d w e 8 8 8 8 8 8 9 0 6 6 1 1 & 1 & 1 1 1 & 1 & & & 1 1 1 > 1 6 % + & 7 7 % $ > 1 8 X 7 > + b 8 $ > 8 % + r 8 , $ ",
"X X X . X . X X X X X X X X X X X X X X X . O O + + + + $ $ $ $ $ & 1 2 e 2 1 8 7 7 8 1 1 1 1 , % $ + O O + + + # $ # # + + .                                           X . # + # $ % % % $ # # $ $ $ $ % > & % & & & & & > > 1 6 > 6 f & $ + . O O . + + + $ $ $ & % & % > > 1 6 7 6 6 7 7 0 7 1 1 1 1 1 > > 1 1 % % % % % $ $ $ $ $ $ $ % % % & & & & > > 1 1 1 1 1 1 1 1 1 2 7 7 0 7 8 9 9 9 e e e e e t e v r i i p a a t i y y v v a v v v v v v v v v v v t v v e v v y m v n v v p w e 1 , r p t i a t a s v b b b a n s a a v n b v a a a v n a a p a a r i a a y t t w t a p a a p y y a p p p i i t w i w i w w w i r w t i r i i p d p i i p p p p a p p p p d p a d s p p a i i w 8 w w w e 8 d 8 8 e e 8 9 e 8 d 8 8 9 d 0 1 # X     = > 8 w i a s  .p t w 7 , w N p p i w w p a a a p a p i w d 8 w w w r d i v b N b s b s b b N b b n a p p a n a a a n n N v v a a v a a a a i a a p p i a a a i t p a p i t t n y p a p p p p t p d y t t t r y d t t p p t p t t t r r t t a d t i r t r r d i t t w w w w w w w w w w w w w w 8 8 d e 8 8 d 9 8 0 8 7 6 6 6 1 1 > & & 1 1 1 ; & > , & 1 1 1 > 6 1 & + % 2 6 % $ 1 8 i X % 8 X 9 a + % 8 > . 7 r 1 + ",
"X O . X X X . X O X X X X O O O O . X . . . O O # + # # $ # = + # $ & , 1 1 1 e 7 7 7 1 2 1 1 1 % % $ $ + $ $ + # # # # + + X                                           X . + + # # % $ $ # + # $ + $ $ % % & % % % & 1 1 ; 1 > 1 6 > > & $ # + O O . O + + $ $ $ $ & $ % & > 2 > 1 1 > 6 1 1 6 7 7 1 0 1 1 1 > , 1 1 ; & % % $ $ $ @ $ $ % $ % & % & , > > > > > 1 1 1 1 1 1 1 8 1 0 7 8 9 0 8 7 e e e e e t e p p p p n v p t a v a v v a v v b v v v v v v v v v v v v v v v y v t v r 1 d > 1 v a t p i a v n v s v v v v v a a b b b b s a p a a a p p t y t t a a n a i t t y n p t t y n p p d p t r w w w w w w w w w d w d i t i a p t p d p p s p s d p p p p p a a s p p p a a i d w 8 e 8 w 8 8 e 8 8 w e e e e w w 0 0 9 d w > +     X = % 7 9 p v b a p i 8 1 w K p p p w i p p i p a p s a p r w w w w r t a a b N b b b s a a a b s a a p a a a a a a a a a p a a a s n n a a i n a a a p a a a a p p p p p t i p a a p p a p a r r t p r p t t t t t p t p p p r t y d r r r y t p a i w w r t i i w w i w w w w w i w w w w 9 w w w w w 8 7 e 9 8 7 8 7 6 6 6 1 1 , > 1 1 1 1 , , & & & 1 1 1 7 > 2 % + $ > > + + 2 1 p + O 1 . 1 b # + 1 1 . & i 8 + ",
"+ + . X X X O X . . X X X O O + O O O O O O O + # + # # # # + + . O + $ , 1 2 1 1 2 2 1 1 7 1 , , % $ $ $ $ + + $ + + + . X                                             X . + + # $ $ % # # + + + + + $ $ % % $ $ & % & > 1 > 1 f 6 1 6 & % # + + . . + + + # # $ % % $ % % & 1 > > > 1 1 1 1 1 7 1 7 1 1 1 1 1 > ; 1 % , % $ % $ $ $ $ $ $ $ % % % % & % , , > > > 1 1 1 1 & 1 7 2 7 6 7 8 8 8 8 8 8 e w w d t a p p s n n a p a v v v v a v v v v v v v v v v v y v v v v v v a v a n w 1 w > t y y t p a p v s a v n n v b s p a a s a a a p p p a a t p p n i a p a p a y i i a a p r t p n p p i i w w w w w w w w w w t i w t p t i p p d d p p a a s s p s p p s s s a p p s p s s p p i 8 8 d 8 8 8 w e 8 d 8 e 9 8 8 w 8 8 8 9 d 7 > $       . $ > w d i p n b p w 7 5 p b s p i w w w s s a a a p d p w i i i p a s N b b s v b n v b a a a a s p a p a s a a p p a t a a v n s a a i a a a a a a a a a y a p p t p p a p a p p a a y r t d y r p t t t t t d y y t p w t y y t t r r r y a i w w w i p d r w w w r w 9 w w w w w w 8 8 e w w d e 8 7 9 8 8 8 8 6 1 7 1 > > > 1 1 1 1 & & & & 1 > > 1 7 1 1 > @ $ 1 % + $ 9 % a & X > $ + a ; # $ > + # r 9 % ",
"% = O . O X O X O O . . O O O O O O O O = O + $ # # # # $ $ + + X O + + @ , , 2 1 1 1 1 7 2 2 1 > & & $ $ $ $ + + O O X .                                               X # # # % % % % # # + O + + + + + $ $ $ $ $ $ & & > > > 1 1 1 > & % # = . + + O + + # $ % $ % $ % % & , & > > 1 1 2 6 1 7 7 7 7 6 6 6 1 1 1 1 1 1 & & % % % $ $ $ $ $ $ % % % % % , % ; % > 1 1 1 > 1 1 6 6 1 6 7 7 8 7 7 8 d e e e w r w i p p a p p r a a a v v v v b v v v v v v v v v v v v v v v v a v v a e 1 8 7 t n t r t a p n a a a s v s v v a a a a a a a p a a a a a a a p a p t p p p y n a i p t p r t p i t d w d t w w t w w w w w w w w i t d r i t t p p p p p s p p p s p a a p p p s p a a p p p p w e w 8 d e e 8 8 8 e e 8 d e 8 9 7 5 7 7 7 7 1 + X     O = , > e d p a a p w > d p a a w w w w p p a i p i r w r t i i p p s n v v b n v a a a n a a a n a a a i a a p p p a s n a a b v a a a a a a s a a p p a n p p p a y n i t i a a y a n p t t y p t d y t t t p t p p p r r r n i t r r w d i i i w w i i i w w w w i w w w w w w w w 8 8 w w e e e e 8 9 8 7 8 7 0 1 7 1 > > > 1 1 1 1 & , & > & ; 1 > 1 1 1 > $ $ % % + $ p $ r 8 O $ & + 8 9 $ + % % + 9 9 1 ",
", % , , $ + = O O O + O + O + O O O O + + + $ $ # # # $ $ $ # + + + + $ , , , 2 1 1 1 1 7 7 1 1 > & % $ $ + = O O X X X X                                               X = * # % & % $ $ . + + o O + + + $ + $ $ $ % % & > > > > 6 6 > & % # # + . + . + + # # $ $ % % @ % % , & > > 1 6 6 6 6 7 8 7 0 6 1 7 7 1 1 1 1 1 % 1 % % % @ $ $ $ $ % % $ $ % % % % % > > > > & & 1 1 6 6 1 6 7 8 8 8 7 8 d 8 8 e w i w i i i p t i t t p a v v v v b v v v v v v v v v v v v v v v v p n N w 9 8 1 8 r n r r a i i a p p a a a b b b b v v a n a v v p a a i a i p a w t t p p t p p p p t p p t r r w r w w r r r w t w w w i w w r i i p i i i r w p p d p p s a p s p n a p p p i p s p p p p p d w w w w e 8 8 9 8 e 8 8 e 7 7 8 0 8 5 0 8 8 8 7 1 $ X X   X O $ 1 8 8 w w p p i 6 8 d r w w d i w d a a i i w w i d i i i i p a s b v a a a p t a p i a a a a a a a a a a p a n M a p a s a a a a a a a n a a a a t p p t i y a p a n p p a p p t p p p t p y d i p t t t i t i t t p p t r p t w t i t d r w i i w e d w w w i 8 w e d d 9 8 e 8 w d e 8 e w 8 7 0 1 8 7 6 1 6 ; > & 1 1 1 1 & 1 & > 1 > > > > 1 > 1 , $ $ 1 $ + O v % w 0 # > $ + 1 y & X $ % O 6 r 9 ",
", > > , , , $ + $ + = $ $ $ # + # $ # # + + + + # # # # % % $ # % $ # @ $ , , , 1 1 1 1 1 1 , , f & % $ + + X X X                                                       X = # # f & & % # # O + + O + + + + + + # $ % % & & > > > > f 1 ; % % # + + . + + + # # + $ % % % % % & % > > 1 1 6 6 6 7 7 7 7 7 7 1 2 1 1 1 1 1 1 & % , % % $ $ $ $ $ % % % $ % % % , > & > & & & 1 1 1 1 6 1 7 7 0 7 7 7 8 e e e w i w w r i r r i a r t a v v v v b v v v v v v v v v v y v v v v v t v C w 8 w , w y p r r i a i a t t p a a v b v s a p p p a a n t i a i i w t t w r w t t p p t a p t p p p t w w w 9 w w w w w w d w w i i t a d i p p i p i w s p a p p p a a d s a n s n s s n a d p p p p p w w w e 8 8 8 5 e 8 8 d 7 e 7 7 0 0 d 9 9 7 7 8 d 1 = . X   X O O % 7 8 w w w w 6 w t w w w r r 7 w d p s a i i p a a p p i a a a a s a b b N b v a t w r a a v b b b n a t a a s a p a a p a v a a p a p a a v t i t t i t a a y a a a a p p r p a p a a t y r p i p p i t t t p p p r w t p n w w w w r w w r w w 8 e w w w w w 8 e 8 8 9 e 8 w w 8 7 1 e w d 0 1 0 7 7 1 > 1 1 1 1 1 1 1 & & 1 1 1 1 1 1 1 > 2 1 1 1 % $ % % + . b > 9 8 + 0 + $ $ s > . $ $ O % w i ",
"> > 1 1 1 1 1 1 % % $ $ $ $ $ % + # $ $ % $ # + + + + $ $ % > > > > > > > > > 1 > 1 2 1 , , , , % $ # . . X                                                             . + # ; & & & & $ # + + + . . = = + * * = * * % % & % > f & & > > > $ # # + . . . O + # # $ = f & % % & > & > f 6 6 6 7 1 6 6 6 > 6 6 6 1 1 > > 1 > > % % ; % % % $ $ $ $ $ $ $ $ % % % & & , , % 1 1 1 1 7 1 6 > 7 2 1 7 7 7 8 e 8 e w e d r t t d r r e e v t y v v y v y v v v y v v v v a a y n v v b N M n e 7 8 w r r e t t n v b a p a n a a a a p s p a p s s a d i p p i i d r p a a a a a i p i i p p i i r w w r w w w w w w w r t i r i i w t r p t d r r t t p n v a a a n p a b b v n a i p r r r t t t n p w w i w 8 7 8 e 9 e 8 e 8 7 8 7 e 5 7 7 e 7 7 7 7 7 , O X     . . o f 0 8 7 > 8 6 6 p l r r s w e 8 e r n r r e r v v t v v v i a a n s a a a p p p p y a p t a a a p p a a a p a p a n p a p p a a p a a t a t p a p p t p n a a p a p a p p n p t t t t t r r t t t t r t r t t p t t t t r i r r w w w d t w w w w w r w w e e e 8 7 e 8 8 w e e e 5 e 7 7 7 8 8 7 2 6 > 6 > > 1 1 0 > > > 1 > > > 1 1 1 1 ; 6 6 > % % % $ + O s > 6 p . 9 % $ X r 2 $ + + . O 0 r ",
"> 1 1 1 6 1 1 1 > > > % $ $ # $ % % % % & % $ $ $ $ $ % % > 1 1 1 1 > > > > 1 1 1 1 > 1 % % % $ $ # + X                                                                 . = # & & 1 > & & % + # + + = . . + = * = * # # * % % % & & & f > > & $ # + . . . + + $ # $ % % % % % % & $ & & > > > 0 0 2 7 6 6 6 6 7 6 6 1 1 1 > > & & % , % % % $ $ $ $ $ $ $ % % $ % % % ; & 1 1 1 1 1 6 1 6 > 7 7 1 7 7 7 5 e e e w w d r w w t t e v v v v e y v y y y y v v y v v v v v v v v v v v y w 7 1 w w n y r t t a a a t a a a a p a p p s s d d a a d a a s a a a a p p i i t w d r i i r i t i i w w w w w w w w w w w w w r w w w w r p p t t r y d r t y y p p a a a a a a a a a a p p t t r t y a p i i w w 8 e e d 7 8 8 8 8 8 8 e 7 e e e 7 7 e e 5 , , , + X   X + = = $ f 6 0 8 9 7 0 p K N t a w 8 1 8 r r t t r e v e v v e t t a a a v a v p a a a y n a p a n s p a a a a p p p p y p p p p p p s n p a p t i p a p p y y a a n a a p a p t t r w t y p t r r t t t t t t r t p y d t t r i d t w w w r r w w w w w w 9 8 8 w w w d 7 d w 8 w d 8 e 8 8 7 8 8 8 7 7 7 7 > 6 > > 6 1 > > > 1 > > > 1 1 1 1 6 7 > & % $ $ $ O + s > 1 a + 9 7 $ . 9 8 $ + + O # 0 i ",
"1 1 1 1 1 1 1 1 1 > 6 > & $ $ % > 1 > > > & , & & % % & > > 1 2 0 1 6 6 1 1 6 1 1 > , % % $ + O . .                                                                     + = # & 1 & 1 & , % $ # . * O . . + . * + + # * $ $ % % f $ % % > f > & + + O O O + + $ $ % % * # % % f & $ % & & & 1 6 6 7 7 7 6 7 0 8 7 1 1 1 1 1 1 > & & & & % % $ $ % $ $ $ $ , % % % % % % % & 1 & 1 1 6 6 6 1 0 7 7 8 e 7 7 e 5 e w w w w w w i a e e v e y v e e v y y v v e v v v v v v v v v y v a d 8 1 7 w a a a t t r y t t p a p i a i t r p p a d a a a p p p p p a a p p i i d t w r w i w r d t w w w w w w w w w r w i w i w d t d i i r p t p t t t t p p t a a a a i p a p p p p p a n y i p i a i p i t w i w w 8 e 8 8 e d e 7 8 8 e e e e 7 e 7 7 7 7 7 7 7 < + X   . = . . = > 6 6 9 9 6 9 N K a n r 1 , > e e e t r e t y y e e d a a a a a n s p a a v a p p a a a a a a s a n a p i t r y p a t i a n a a a t i t t t y a a a p a p a a p p a i t r w r r t t t r d r t t t d r p d y y t t r p p t w w w w 8 w w w t w d 8 7 8 w d w 7 7 e w e e 8 8 8 8 e 5 8 0 7 7 7 1 1 0 6 1 > 6 1 > > 1 1 > > ; 1 1 1 1 7 7 > & $ % % % + + s > 6 s $ 8 r $ O 1 w $ + + + # 6 w ",
"1 1 1 > 1 1 1 2 2 6 > 6 > & > > 6 1 1 1 1 1 2 6 1 > % % % & > 1 1 1 1 1 0 7 1 1 > % $ $ + O O X                                                                       X . # $ 6 & 1 & 1 & % $ # * = . + . . + + + + + # + $ $ % % % % f & & > & # + + O O + + # $ $ % % $ $ % & % % % & & & f > 1 6 7 7 7 2 7 7 7 0 7 1 0 1 1 1 , & & & & % % % $ $ $ @ $ @ # % % % % % % % & % 1 1 1 6 > 6 7 8 7 5 7 7 7 7 e e e w w w w w t i r r t v y y v v y y y v v v v v v v y a v v v y b a r 7 7 e i v p t p t y n t r p a a a a a p p p p a p i a s p p p p p d p i i r d i i i t i i w w w r w w w w w w w w w t d w p i p p a p p p t p p t t t p p n a i a a n a i a a a p a a a a a a a t a i a i a a d w w 8 w d 8 e 8 8 7 e e 5 7 7 7 7 5 7 7 7 7 7 7 7 7 7 , +   X . . . . = % % 6 8 9 7 0 r K t r e e e w r r t t t e e t t t a a v v a a a a i a a a i r t i a p a a a v v v a p t t t t p a t t a a a a a y a i i p a n a i t p p a a a a p v a t t r d r r d t t r r r t t t p t t r t t r p i i i w w w w 8 w d t w e 8 8 8 e w e 8 7 7 w 7 8 8 8 8 e 8 8 8 8 8 7 7 7 1 1 7 1 1 1 1 > 1 1 > > , > > 1 1 1 7 0 > $ % % % $ O + a > > s & 7 s % O & p > + O . + > 0 ",
"1 1 1 > 1 1 1 1 1 1 6 1 1 > 1 1 1 1 1 1 6 2 7 7 1 1 > % % & & > 1 1 1 1 1 2 > > $ + O O O O X   X                                                                       + # * f 1 & 6 & & & % # = * + . . . O + + + + + $ + % % % % * % % % % & # + + + . + + # % $ % # $ $ % & % % & % & > > 1 1 1 0 1 1 6 7 7 8 7 6 7 1 2 6 > & 1 1 & & & % % $ $ $ + % $ # # % % % % % & % & > 1 1 1 1 1 0 7 7 7 e 7 > 7 e 7 7 8 8 d w w w i v e v t t t t y v e t v v y v v v v v e v v y y b a w 8 w w i v i p t p t p t r r t t n a p a p i p p p p p p i p p p p i a p p r i i a a r w w r i w w w w d r w w w w w t t i t d i w w i i i p t p p i a p a a a i n v v v a p a i a n a p t a a p a y a a a a p p w w w 8 8 8 8 7 d d 8 8 7 5 7 e 7 7 7 1 7 7 7 7 7 7 7 , , * X   = = . X + # # & 8 0 % 1 i w e 8 8 8 8 e 8 t t u m e y y y a n a a a p a p i a s a t r t a i p a p n y a a p n r r t i p p i i a a a a n y a a t a a a p t r p n a a a n p n a i t t w r r n y t w r r r t p d y t t r t r i d i r r w w w w w r w w w w w w w 8 w w e e d e 7 8 d 7 8 8 8 0 7 7 1 7 1 1 1 7 1 1 1 2 > > 1 1 & & > > 1 1 1 1 > & % % > & + + + p > ; s f > b , + # i 0 # + . . % 8 ",
"1 1 1 > & & & 1 1 1 1 1 1 1 1 & 1 1 7 6 6 7 7 7 2 1 > > & & > > 1 > > 1 1 1 , $ O O O X X X X   O O X X X                                                               = # % 6 6 6 6 6 6 > & % = * = . . + . . + + + + + $ $ $ % % % % * # $ $ # + + + + + + + $ $ $ % $ $ % % % & & & & > 6 > > 1 6 1 1 1 1 7 7 7 1 1 7 7 6 6 1 1 1 & > & & % % $ + @ $ $ # # $ $ $ $ $ & & & > > 1 1 > 1 1 1 7 > , 7 7 7 7 7 7 7 8 7 w w w w e t r t t r v y m v t v y m v v v v v v v n v v a r e 8 w w i d a a p i p r r r w r w t t i p i i p p p d p i w p p i p i i i i w i i i d w w w w w w w w i t r w w d w w w i w r w r w r w w t p p t p a p a p a t a a a a a a i p i p a a p r t i p p y n a a p p d i w w e 8 e e 7 8 7 7 7 7 e 7 7 7 7 7 7 7 7 5 1 7 7 , 7 7 0 =   . . X X . . . # $ & f 1 & w 8 7 7 1 7 7 1 7 e e e e e e y r p t a a a a v p n n a a p i a p p p p p p a a p p y y t t p a a p i a p i p p a a a y p a i t p t y a a y y p t t a i i t t p y y t t r r r r r t t r r t d t r t r i d w w w w w w 8 w w w i w w 7 8 e d e 8 d 7 7 e 8 8 8 8 7 7 7 0 7 1 7 1 7 1 1 0 6 , & > > > > > 1 1 0 1 1 > % % & 1 $ + + $ t 1 % a 7 $ s 2 # + t w # # O . % 8 ",
"1 1 1 > > & & & > > 1 1 > > & 1 1 7 6 6 6 7 7 1 1 1 > > > > 1 1 1 1 > > , % $ O X X O X o X X . + + + O X X                                                           X # $ % 6 6 0 6 6 6 > , & & * = * . . . . . . O + + + + $ $ % % % % = $ & # # + + . + + + # % % % % $ % % $ & & % % f f f > 1 1 1 1 1 0 7 7 0 6 6 7 6 6 1 1 1 1 1 1 & & & % % $ $ $ $ % $ + $ $ $ $ & % & & > > > > > > 1 > > 5 7 7 1 7 7 6 7 e e 8 w w w e e t e r t t n y y y v v v v v v M B v v t v b t r 7 1 w w d r p a t t r r r r r r r p p t t r d a p p a i i w d p i d d r r r t d i w w w e d w w w w w w t i i i w w d w r t i i i t p d p p p r w t t a a t p p a a a a p p a t t p a a a t p a a p p p p i p a p i w r w 8 5 w e 8 8 8 7 7 e 7 7 e 7 7 7 7 7 7 7 7 1 1 5 7 0 f # . X X . . . + . . # 6 6 & w d t i p w w e 2 e e e e e y y w t t p p p v v a a a a a t p p p t p t p t p p a p y p i p y n a a t i p p i p a a a a a p a i i p p a a p p r r t p a t i t p a p t t r r r y t t r r r r r r r w w w w w w w w w w d w w w w 8 5 7 7 8 8 7 8 8 8 7 7 8 e 8 7 0 7 1 7 0 1 7 1 6 1 1 1 1 > & > > & > > 1 1 1 6 6 1 & % > 1 $ O # $ i 1 % a 7 # i 8 $ # 8 i + + + X $ 8 ",
"1 > 1 > & & $ $ $ % > > 1 1 1 2 0 7 7 7 7 6 1 > > > > > 1 1 1 1 0 1 > 1 , , + X X O + + O + # $ $ + + O X X                                                           X = $ & 0 > f 6 6 1 > & & & * * = + . . . O X . O + + + + # $ % % % % % & # + + + = + + + # # $ % $ $ $ = % & & % % > & & > 1 1 1 1 6 1 7 7 0 7 1 6 7 6 6 1 1 1 1 1 > & & & % $ % $ % % $ + + @ $ $ $ $ & & > > > & & > > > 7 7 7 7 7 7 e 7 7 8 e e w w w e e e e r r t t y y y v y y y v v v B M v v v b p e 1 1 e t a i t w w r t p t d r r r t p p r t p s b a a a p i p p s s a a i i a p i w e 8 e w w w w w w w w d i w w r r r w w i a i i i p p a i t r t p p t t p a a a p r i a v n p t a a a y n p a a p p t t i d a i r i w w 8 8 8 8 8 7 e 7 7 7 1 7 7 5 1 7 , 7 , 7 7 7 , , % 0 f = X X . X . . . . + % 6 9 > 8 r a n t e 7 7 7 e e t v v t r t i p i i t n a a p a a p t r a p p p p t p p p a p a a a y p n y a t t t p p i a a n i i a v p p a a a t p r r t p p t w r r t i t w t r t d r t r r r r r t i r w w w e w w t d e e w w 8 8 8 7 e e 8 7 e e 7 8 e e 7 7 7 7 7 0 7 6 1 1 1 7 1 > > 0 1 & & & > & > > 1 1 6 6 7 6 & % & & $ . $ & p 1 & a 8 + r r % $ 1 a + + . X # 0 ",
"> 1 7 2 2 1 , , & & > & > 1 1 6 1 7 0 1 7 8 7 0 2 1 , 1 1 1 1 1 1 1 1 & $ + + + # # $ + $ $ + $ % $ + # # X                                                           . . % f 6 7 7 7 7 f f > > & % # # # + O . O . . O . # . # # # % $ $ $ % $ = + + + + + + + # # # % # % % % % & & & & & & & & > > 1 1 1 1 7 1 1 6 6 7 0 6 6 1 1 1 1 1 1 1 1 1 % 1 % % % $ % + $ @ + % % % $ % & , > > > 1 2 7 7 7 7 7 7 e 5 7 7 7 e 7 8 e 8 7 e e e e r p p a t t a a a v v B v v v v v v e n 1 7 e e e i p r t r t t p p p r t a t r p t r a p a p p p t w i i i w r t t w w w w w w w w w 9 9 8 w w w i w w p a i w w r i p p p p i p p i p p p p p n p n a p p a a a t n v a a a p p n v a t t i t p t p t t i p i r w e 7 7 8 e 8 e 7 6 7 7 7 , 7 7 , 7 7 7 7 7 1 1 5 7 6 f f > #     X = . . * # X * f 7 5 8 i a n p i e 7 1 7 e e t e e t p t t t i t p p a a t y y n r p n t e t t r t p p t t t p p a i i t t p n v d t t p p a p a a p p p n a p p t t t e r r r r w r r r r r t t t r r r r t r t r w 8 w w w w 8 r w w w w w w w 8 w d 8 7 8 6 6 5 e 7 e 7 7 e 7 1 1 > 1 0 8 1 > 8 0 > % 1 1 1 > % > 1 > 1 2 6 > & > 2 $ 1 1 X + 1 + r ; % s 9 + 9 K # 1 1 r % + = . . f ",
"$ $ % 1 1 1 1 1 1 1 1 > 1 1 1 1 1 7 1 1 1 7 7 1 > 1 , 2 1 1 1 1 > > , % $ $ $ $ % % & & & & & % & % # $ % X   X                                                       X # $ & 6 7 7 0 0 6 7 1 > & & * # # # O . . O . O + . . + + # $ % $ $ $ % + + + + + + + . # # # % % * = % & & & & & & & & > > 1 1 1 1 1 1 1 1 6 2 6 6 1 > 1 1 1 1 1 1 1 > 1 1 % % % $ $ $ $ % $ $ $ $ % + $ & & ; > > 1 1 , > , > , 7 1 7 8 7 7 7 e e 7 d 8 e r e e r t t i t t n a p a v v v v v v v v v t 8 7 t r r p a p p i t p r t r t t t t r t r r t y i p d p i i i i i i r d w i w w w w w w w w w w w w w w w w t p d w w i i i p p p d p p p p t p p p r y a a s a a a a t t i a a p p p p a y p p p p p a a i r d p p i t w r 7 e e 7 8 5 7 6 7 7 7 7 5 7 7 7 7 7 , 7 7 1 8 7 6 ; > > % + X X . . . O + . . . $ > 1 7 w i r w e e 7 e e v t e e t t d t p a t r p p p t w r t t p n t t t a p t p n y t t p p p a a p a a t a p t p t p p p p a p a a a a a p t d t t r r r d t p p r d y r n r i t r t r t y w w w w w w w r w w w i w w w 8 7 w e e 8 8 d 8 e e 7 7 7 7 7 7 1 1 1 1 0 7 1 1 7 1 1 > 1 1 > & & 1 1 1 > 1 1 & > > 1 & > , X % 1 + r 0 $ p 9 . 7 s $ 1 6 t & O + . + * ",
". O + $ & > 1 1 2 6 1 1 1 1 1 1 1 1 1 1 6 0 1 > > % % % % , , , $ % % % % % % & & & > & 1 1 1 1 > f & & & =                                                           X = % & 6 6 0 7 8 7 6 1 6 & & % # # + . . O O . . . * = + . # $ $ % % $ $ + + + # # # + + # $ # $ % % % $ % % % & & & & & & > 1 1 1 1 1 0 7 7 7 8 7 7 7 1 1 7 1 7 1 1 1 1 1 1 1 % % % $ $ % $ $ $ $ $ + $ $ $ % & , & 1 1 , , > 7 7 , 7 7 7 5 e e 8 w e e 8 e d e e r r r t w t p p i a v v v v v v v v v e , 8 r t r p a p p a t p t r r p y r r r r r w w d i w i i i i r r i w w w i w w r w w w w w w w d w 8 w w w w p i r w d a i r p p p p p p p s t p p p y t i p n p a a a p i a a p i t t i t i i a a a n a a a i i i p i i w d e 8 8 e e 7 7 7 7 7 7 7 7 7 , 7 , 7 7 > , 7 7 > > > > > > , +   X . + . . # = X X = $ $ , 9 w 8 7 e e e e e e e t t r e r n y t t p a p t w t p p t t r i a a p t p a p i r p p a p a p p p y i a a i p r p t p a a i a a a i p t t t e r r r t t p p p t r t y t r t t d r t d d t w w w w d p r w w w w w 8 e 7 w d 8 e e e 8 e 7 e 7 e 7 7 7 1 0 1 7 1 1 1 1 > 1 1 1 1 1 > > > 1 1 1 > > 1 > > % 1 > > $ O 1 & + t 8 + 9 7 O 1 p & > 6 p > O + . = * ",
"X X O + + $ % , > > > 6 6 1 6 6 1 1 2 1 1 6 1 > % % $ $ $ $ % $ + $ $ $ % & 1 1 & & 1 1 1 1 1 1 1 6 1 1 0 #                                                           X = % & 6 6 7 7 7 6 > 1 1 > & % % $ # + . O . . . . . . . . + # $ $ $ $ % + + + # % # + + # $ $ # # # $ $ % % % % % & & % & & > 1 > > > 0 1 7 7 8 8 7 7 1 1 7 6 1 1 1 > 1 ; , % 1 % & % & % % % % $ $ $ $ $ $ $ % % & & > , , > , , 7 > 7 6 6 > 7 7 5 8 7 8 e e w e e e e t w r p p i t v t v v v n v v b e 1 e t r r p d r r t a a n a i n r w e r t e e i w w w w w w w r w w r w w w w w w r w w w w w w w w e e w w w i i i r r t p p p p p p p p p s p a p i y a p a i t i a a a a v a i p p t t i t t t a a a a a a p p p i i i i r d 8 8 7 5 7 7 7 7 7 7 7 7 7 7 , > , 7 , 7 , > > > 6 1 & 1 1 , .   X + = . # * = . O . . # 6 w w m e v e e e 8 e t e e e r p y t t n a a i t t t p p p p a a a t p p p t t r t r p p p a a a i t a a i t p t p a a a a a a a p i t p t t t e r t r p t t r r r r t t t d t t t t r w w w w w w i w r r w w d 8 8 7 8 8 8 7 8 8 8 5 e 7 e 7 7 7 e 1 1 7 7 1 1 1 1 1 1 7 1 1 & & 1 , > 1 1 6 6 6 1 1 % , 1 % O @ 8 $ + t 9 . 1 7 . & i > & ; i f O = . = = ",
". X X O O + $ $ & & & 1 1 1 1 1 1 1 1 1 1 1 1 , % % $ + # + O + + + + $ % & 1 1 & > 1 1 1 1 1 1 1 6 6 6 0 %                                                           X * & ; 6 6 7 0 8 1 0 1 1 1 1 & % % $ # + . . . . . . . . . # + # $ $ $ $ O + + # $ % # + # % # $ # # % # $ % % & & & & % & & 1 > 1 > 1 1 > 6 2 7 7 6 > > 7 0 1 1 1 1 1 > > > 1 , , % , & % % % $ % $ $ % $ $ $ % $ % & , , 5 > > 1 1 1 7 , 7 > 7 7 7 7 7 8 e e 8 8 w t d r w r d t r i n t v v v v t v v e 8 r v i i n p t t a v v a a a n t e w e r e e d w w w w 8 e d w w w d e w w w w w w e w 8 w 8 d 8 8 e w w r w w i i i w w i a p p p p n s n a a p a p p a a a t t t a n t a a a p p i a p p p t p p n a a a i p p i p d t t i w e e 7 8 7 7 7 > 7 7 5 7 5 > 7 7 , 7 7 6 , 5 > > 6 1 & > 1 1 $ X   X . + = * & $ = . . O = > e a a p r e e 8 1 e r r r r r t r r t t r r r r d a i i a v v i w p n r t t t r t r t p a n y p p n p p t t t a a n y t p a y t t r t r r r t r r t t t t t r r t p r t t w t r t t w w w r t r w w w w w 8 8 e 8 8 e e e 5 7 7 7 7 7 e 7 e 5 7 , 1 1 7 0 6 1 1 7 1 1 1 > & & 1 1 > > 1 > 6 6 1 6 1 & & 1 $ . % 9 # # i w O % 1 X 1 r 0 $ * i f . * o = . ",
"X X X X X O + $ % % & & & & & & 1 & % & & % $ $ % $ + + O O O X O @ + $ % 1 % 1 > 1 1 1 6 6 6 6 6 6 6 > 7 % X                                                         . = * f 6 0 7 7 8 8 7 7 0 1 > > & & % $ # . . . = . = . . . . . # $ $ $ $ O + + + # # # = # # $ # # $ # # # % = % % % & & % & & , & 1 1 1 > 1 6 7 7 0 7 1 1 6 7 1 6 1 1 1 1 1 1 > ; % & & % % % % % $ % $ $ $ $ $ $ $ % % , , > > , 1 > 1 7 > 7 7 6 7 7 7 5 8 7 7 8 w w w w w w t t d r p v t r y v v v t 8 e e r w i a p p n v v v a i i t r e e d e e 8 9 e 8 9 8 w w w w e w 8 e w d 8 w w w d e d 8 w e e w w w w r i w r r i t w p n s a n p s s a s v a a p a p a a a i i a a i t t a a a a p a p a i t t p p i t i p i t d r i t i w d e 7 7 7 7 7 7 7 7 7 , 7 7 , > 5 7 , 6 , > > > 2 1 1 > 1 > 6 % .     . * = = 6 # = # + X + , w t n r e d e e 1 e r r r r r r r r r t t r t t t p p v a i r t p p t t t y d r r t p p p a a t y p p p p n a a p p t a a n p t t r r r r r r t t i p a y t r p t r r r t t r t i w w w d i t w w w w 8 w e d 8 d e e e e e 7 7 e 7 7 e 7 7 , e 7 7 1 1 1 1 1 1 1 1 1 > % & 1 1 1 1 1 0 1 > > > 1 > & 1 + . 1 9 # % r w + + % O 1 9 8 @ # i f . . = = o ",
"O X X O O O + + $ $ & & & & % % , % % & % $ $ $ $ + + + O O O X O O + $ % & 1 ; 1 > 1 1 1 1 6 1 1 0 & > 6 $ X                                                         . # & f 0 6 7 8 8 7 8 7 8 1 , 1 1 & & * * = * o o = . . . + . . . # # * $ O O . + # # # # # $ # $ $ # # # $ # # % % % & & % % ; > > > > 1 6 6 7 8 7 7 8 7 1 7 1 6 1 1 1 6 2 1 1 > % 1 % % , % , % % % $ $ $ $ % $ % $ $ % , , , , , , , 1 > 7 1 7 7 7 7 7 7 8 8 8 8 8 w 8 w w w w e r t e e v t v v v v r 1 1 e r w d p p p a a a v t p t r e w r e e 8 e w 8 e e 8 e w w w e e 8 8 8 e 8 w 8 e 8 d 8 e 8 w w w w w w w w r w w p d i a b s s s a a a n a a a n p p p a i n p p a a t t t p n a a y n a p p p a t t d t r t d i t t t t r e w e 7 7 7 7 5 7 7 7 7 7 , 7 7 7 7 , 7 1 6 1 > 1 1 > 1 1 > 6 6 f % .   X = + . & = $ % $ . . = % 8 d w w w w 8 8 r r e r t r y t r r t p p p p p t i a a r t p p t r t p p t r t t p p a p p i a y p p p p p p p t t i a a y t r r d r r r t w w i a a n y p p r r t w w w r t t d w w i w w w w 8 w d w w 8 e e e e d r 7 7 e 7 7 7 7 7 7 7 7 7 7 1 1 1 7 6 1 > 1 ; > & , > 1 6 1 1 1 6 > > 1 1 1 & 1 + X 8 8 + 8 w w , + $ O f 8 9 + + w 0 . . . . = ",
"+ O O O X O O O @ $ $ & & & > 1 2 % $ % & $ + $ + + O O O O O . O O + $ $ % , > 1 > 1 1 > 1 > > 6 7 f > 6 % X                                                         X # % & 6 6 0 7 8 7 7 7 2 1 1 1 > f * f * * = = . . . = . # . . . # # # * O . . + # # # # $ # $ # # # # # # # $ % % & & & % & , > > > > 1 1 > 1 1 7 0 0 7 0 1 6 1 6 6 1 6 > 1 > 1 1 1 1 1 1 1 , % $ $ # # $ $ % % $ $ $ $ $ % , , , , 1 , 1 < , 7 , 1 7 5 6 7 e 8 8 8 8 8 8 w w w r e e v e t v v v v t t 1 8 w a r t p r r t i a y n p p w w w t e 8 8 8 w e d 7 e 7 7 8 w w w 8 8 d 7 e 8 8 8 8 8 e 8 e w w w w w w w w t w w d s p s b a n s a s n s s a a y p a p a t y i p a a i i p a y a a y p p p a a i t t y r t t r i r d r r r r d e e e 7 7 8 7 e , 1 , 7 , 7 7 > 7 , 1 1 1 1 2 , > 1 1 > > f & 6 f X   X = # X # & 6 , % O X   $ 8 e 8 8 e 8 d r e e r t n p w r w r t r r t p r r t t r t n p t r r t p p r p t p p p p t t a a a a a p t t p r t t a a y n r r e r w r w t w t t y t d t t r t w r w t r r w w w i w w w w 8 w 8 e w 8 w w e 7 7 e e 7 7 e e e 7 5 7 7 7 e 8 7 1 1 0 7 1 1 > > 1 1 1 1 & & 1 > > 0 7 1 > 2 1 1 % 1 + . 8 8 + 9 w w 2 + + + % 6 i . @ i 0 . . = * . ",
", , $ + + O O X O + + $ % , & , & 1 1 & f & & % # + X . . + + + X . . . # $ > 6 f 1 7 6 1 1 1 7 1 , > 1 8 , .                                                   X   X X = , 6 6 7 8 8 7 8 8 1 e 1 1 1 1 , > , , $ $ + O . O O O O O O O O + % % + + O + + $ + + # $ + # # # # # $ $ $ % % $ % & $ % % & & & > & & 1 2 7 7 7 2 7 7 6 6 > 1 7 7 7 1 1 1 > > > > 1 0 > % % & & $ $ $ $ & % % $ % % % , > & & 1 1 % & & 1 1 1 1 6 6 , 1 8 7 1 1 7 e 1 e e e 8 8 e y r u a p s N a 9 2 2 8 e t v v e e A v e v N r a s i i i i s 7 0 7 7 8 9 9 7 8 w w 8 7 e e 8 e 5 w e e d w 8 8 7 7 d r r t i t w e r w e t p a b b n s a a p a a a a a a a p a a p t p y a a a p p d a a d n a d y p v t t r d t i a p d r w t i w i w w 8 8 7 1 6 6 , 7 , , 5 7 , 7 7 7 7 , , 7 , > , > , , 7 , > > 6 , = X   X O X O + , 7 8 7 +   X 1 w 8 0 9 w r w 7 7 w d w d t p i i t w w n a a t t t p p t r r t r r r r n y t w w t t n t p a a p p p p a n n a a p d r i r w w w w w i d r d r w r d t w w d r r d n r i w w p i w w w 8 8 e 8 e d 8 7 8 e 8 e 7 8 8 8 7 7 7 7 e 5 7 , 8 7 6 > 6 1 7 7 1 1 & & & & & & 1 1 1 1 1 6 6 1 7 , > # X % w 9 % 8 i 0 1 # . $ 2 8 w # + w 6 X . . + . ",
", , , , % $ $ $ $ $ % % % % & , & & & 1 & f & % % $ # # # . X X . . . X . # % > > > 1 1 1 1 , 2 1 1 1 1 > , X                                                       X X + , > 6 7 7 8 8 8 1 e 1 1 2 1 1 1 > > % $ $ + O O . X O O X X O + + $ $ + . = + + $ $ + # # $ # + $ # $ # $ $ % % $ % & % % % & & & & & & 1 > 1 1 0 7 7 6 7 7 6 1 6 0 6 0 7 1 1 > 1 > 1 1 1 > > & % & % $ & % $ $ $ $ @ $ % , % % , , & & 1 1 1 1 2 2 1 > 2 8 7 2 1 7 e 1 e e e 8 8 9 r r t p i a s t 8 8 r v y u e e v v , v V M v b N i s s 0 9 w r b r r 9 0 0 8 9 7 w e e 5 e 8 7 e e e w w w 8 e 8 8 8 w d w w i w p t t r t n v b a a a a p a a n a a a a a a p p p p n y p a a p n r p p r t a r d r d t d t t r w w i w w w w w i r w w w 8 7 1 6 6 7 7 7 7 1 7 7 , , > 7 > 7 , 7 > , 7 7 , , 1 > 7 > , , O X X . O O O = % > 1 6 > + O & i i 9 r w w w 7 7 w t r i i a p i i d t t p p a y t r t r r t r t t t i t t t p a p t a a v a a i a a a p p s s p p p w w w w w d p a p p p p i t n y r d e w e r e e w w w i d w w w w w d 7 8 e e 7 8 8 8 8 8 8 8 8 e 7 7 7 7 7 7 5 7 7 7 > 1 7 6 7 1 > > & > & & & 1 1 1 2 6 6 > 6 1 > > + X > w 7 & 9 r 8 & + + % 1 8 e + + q 1 . + = + = ",
"> 1 1 1 1 1 , & , % $ , $ $ % % % & & & & % % % & & % % % = . X . X X X . + # % % & > 1 1 1 1 1 8 1 , 1 f $ .                                                       X X $ , 1 6 0 8 7 8 8 8 1 8 1 8 1 1 1 > > & % $ + + o O O O O X . . O O + $ . + . + + $ $ + $ # # $ $ $ # # $ $ $ $ $ % % & % % & & & & & & 1 1 > 1 > 1 0 7 6 6 6 1 6 6 6 7 1 1 1 1 > > 1 1 & 1 1 > & % & 1 % % & % $ $ + $ % % % % $ & & & , 1 1 1 1 1 1 > 1 1 1 2 1 1 2 2 2 8 e e 2 8 8 e 8 r r r u a r 2 e e r r t y t e e y V u r K 6 0 f =     0  .6 > 8 i p 9 7 w w 8 w e d 8 5 7 7 5 8 e 8 w w w w 8 e w w w w r w d p r r r t a n v a a p a a a a n a a p p p p p a p p a p t p p p n p n a d v p t t r r d r r d e w i w d w w w w i w w w d 8 7 1 5 7 7 7 7 7 7 7 , 7 7 8 7 5 7 , 7 > > 7 7 5 7 > 7 , , , , , X   X O + . X O + , 6 w 9 $ = 7 p i i 9 8 w w 8 8 t w w i i i p p p r t t p p d t r r r r r t t d v t w w i a v i r a a a a a a a a i p a a a a p i r w w w t t i i n d p d n y t n r r r d e d d e w w w i t w w i r w e 8 8 8 d 7 7 7 e 7 7 e 8 8 e 7 7 7 7 7 7 7 7 7 0 6 6 1 1 1 > > > & & & 1 & 1 1 1 6 1 2 1 7 > > & O + 2 r 1 1 9 r 7 % . + & 0 9 8 + + e 1 . . . = . ",
"> > 1 1 1 , & & % , $ $ $ $ $ $ # # # % $ $ $ * & & & 6 > & $ $ + = . . . . # $ & & 1 1 2 1 1 8 8 1 1 , & # X                                                       X . + , 1 7 7 7 7 0 2 8 8 1 8 1 8 1 1 1 > & , % $ @ + + O O O O . X O O + $ + O O + + + # $ # + # + + # + # # $ $ $ $ $ $ % % % % & & % & & & 1 & & 1 1 1 1 1 6 6 6 1 7 1 6 1 7 7 1 6 6 6 2 > > 1 > & % , 1 % , ; & % % % % % % $ $ $ % $ & % $ & , > > & % 1 > , > 1 1 1 1 e 2 8 1 8 8 2 e 8 9 9 w r i 9 0 2 1 e e e v v u M V e y K 0 f . f 0 0 % s s O   + 0 p i 9 w w w w d 7 8 d e e 8 7 e e 8 w w 8 d w w w w i w t a r t r r t p a a a v a p p a t a a p p a p p p p p p t t t r t r a i d p r t d r r d e r d r d e i w t w w w w w w w w e e e 7 7 8 7 7 > 7 7 , 7 7 7 7 5 7 7 , 7 , 7 > , , 7 > , 7 7 > 7 > , $ O   X O + O X . O = & 7 7 & % 6 i i w 8 w d w 8 8 w w w w r i p p r r t r r t t t d y t t t t p t a t r w p a a i i p i a p a p p i i i i d i i i w w w w w i w i r t p p d r r t p d r t r t r r w w w r w r w w w w w 8 w 8 e 8 e 7 7 d 8 7 7 d e 7 7 7 7 7 7 7 0 7 2 7 6 6 1 1 > > & > > > > 1 1 1 6 1 7 1 6 1 > > $ . # 9 r & 1 r i 7 % . + 1 0 9 7 O $ 9 1 O . . . . ",
"$ % , , $ $ $ + = + + + + + # # # + # # # # # # % & f f > > 1 6 % & $ $ $ $ & & > 1 1 6 1 1 1 1 0 6 6 > & # X                                                   X   X . # & > 6 7 0 7 8 8 7 8 8 8 7 7 0 2 1 > > & % $ $ $ + + O O X X . O O O + + + . O + # # # # # # # # + + = # # # * $ # $ % % % % 1 & % % & % & > 1 1 1 1 1 6 1 1 7 7 1 1 6 1 0 1 6 6 6 1 6 1 1 > > > 1 & % & , , & & & ; % % % % $ % % & % + $ % % , % % , , , 1 % 1 1 1 1 2 0 7 7 2 7 7 7 7 8 8 9 w w 8 2 e t M a u r t y u e E V + & i I K K s i E E > X X + 0 9 w 8 8 9 e 8 8 8 7 d 7 d d 8 e d 8 w e e w w w w w i i i i p a a a n a v s v a p p p t t p t i a p p p p t p i i t t r t i w t p w d r d e r e r e e e e w w i i r r w w w w w w w 9 8 7 7 7 7 7 , 7 7 , , 7 > , 1 7 , 7 > > , 7 7 , > 7 7 > 1 7 6 5 1 , =     O + O X . .   X % > , % > 8 w e 8 e w w 8 w w w w w i i a t t r e r r t t t t t t r t y p p p t t r r p p i p p p n y p p a p p p p r i w 8 8 e w r t p i t r d e r d r d t t r t d n y r r r w w w w w w w w e w w w e 8 7 8 5 e e 8 8 e 7 7 7 5 7 7 7 7 7 7 1 0 6 1 1 1 > ; > > > > ; 1 6 6 1 1 7 1 1 1 > > O X $ r w 6 6 r i 7 $ . + 1 7 w 6 . % w & O = * = . ",
"+ + O O + . O . O X O X X . = . . + O = # # + # $ $ $ % & & & > & 6 6 & > > > 1 1 1 6 2 1 1 2 1 7 6 > > % + X                                                         . + & 6 7 0 7 8 7 8 8 2 8 8 8 7 7 7 1 1 1 1 % % % $ $ + + O O . . X O + + + + O + + + + + + $ + # + $ + # + + # # # # # $ $ % % % % & & $ & & 1 1 6 1 1 > 1 6 1 1 7 1 6 1 1 1 7 1 6 1 1 1 7 1 > 1 1 1 > % $ % % & & $ % % % % $ % % $ % % $ $ $ % % % , , , % % % % 1 % 1 > 1 1 1 1 7 6 7 8 8 8 8 7 8 7 1 e y a y r r y y M % t & 8 ' E l 9 K K s a w 6 a % # # 6 r r w 9 e 7 5 e e 8 e 8 w w w w w w w w w w w e w w w i t t t p p p a a a i a p p a a a a a p p a i t p a a t t t y d t d r d r e r t d e d e d d r e d e w e w r t d w d w w d w w w 8 7 7 7 7 7 , > 7 7 , 7 7 1 5 > , 7 7 7 7 7 7 7 7 , 7 7 1 6 7 e e 1 .   X + O . + @ + . X . . + + % 8 w 7 , 7 w i w w w w i i i p i w r r e r t d t d r t d y t t t p a a n t r t p p p p a a a p s s n p p t i i 8 w 8 d w d i i p p r r r r t d d d e d t d t r r d t w w w w e 8 8 w w i w 8 8 8 8 e 7 5 8 7 7 7 7 7 7 7 7 7 7 1 1 7 7 6 1 1 1 > > > > > > > 1 1 6 0 7 7 1 1 7 , % . X > r 8 6 1 w r 0 $ O # 8 8 r 2 . % w $ . . = o . ",
"X . X X   X X X X X X X X . X X . . X . . . = + . # # * = * & & f f f 6 & & > & > 1 1 1 1 1 1 1 6 f f > % +                                                   X       X # & 1 7 6 7 7 8 2 8 8 8 8 8 7 7 7 6 6 1 1 1 , % % $ + + O O O . O O O + + + . O . + + + # + + # # + + # . + + # + # $ $ $ % % % % & & & & & & 1 1 1 > 1 1 6 6 0 7 6 > 6 7 1 7 6 0 1 > 1 > > 1 1 1 1 > > % $ & % % $ % % % $ $ % % $ @ % % $ $ % $ $ , $ $ % % % % % % 1 , & & & > > > 1 1 1 1 0 7 6 1 1 e e e 9 t v y r u 8   K } I E s  .K I l a 9 $ 1 8 1 > 6 9 i w w w e e 7 e d e e w w w w w w w w w w e d w w w r w w w t t p t t i p p p a p n y p a a t p p p p y a p r r t p p n r r t w e n r d r r e d e w e w 8 w w w i w w w w w w w w w 9 7 7 7 5 7 7 7 7 7 7 7 7 e , 7 > 5 7 e e e 7 e 7 7 7 5 7 6 7 e 7 8 , . X X X O + O % & + X . X X = , 8 8 8 8 r a w r r t t w d t i r t r t r r t r r r r r t p p d t t t y t t r p p t p n a a a s p a p i i w w t w w w w w i i d d p t t t d e r e e r r d d e w i w w w w r w e e 7 w w d 7 8 e 7 e 7 8 7 5 8 7 7 7 5 e 7 7 7 1 7 6 6 1 1 1 1 > > > > > > 1 1 0 1 7 1 7 1 1 1 % $ . . 0 i 8 6 0 r u 1 $ . $ 9 w t 1 X > w $ . . . . . ",
"X   X X   X X   X   X X   X X X X X   . X X . . . . = * % # $ % $ % & & & % $ $ & & 1 1 1 1 2 1 6 1 6 > % . X                                                       X . # % f 6 7 6 7 7 7 8 8 2 8 8 8 8 7 6 1 1 1 1 1 % % $ + + + O O O O O + + $ + + . . + + + + + # + # + + # = + # # + $ # $ $ $ $ % & % & % > > > > > 1 2 1 1 1 1 7 2 6 6 > 7 1 1 7 1 1 > > & > 2 1 1 & > 1 & & & & $ $ $ $ $ $ $ % $ $ + $ % $ $ + + @ + + + $ $ $ $ $ % % % $ $ $ % & & > > % & > 1 1 6 7 e u a t 2 e r v 2 X Y { ' ' K  .i  .E ' I w $ , 1 w 9 6 > 7 w 9 t e d e d e w e 8 e w w w w 8 8 i w w i w r w r w t i a a a y n a p a p t p r r n p y y n a p p n p p p r t p p a r d p d t p p e e d e w w d e w w w w w w e 8 e 8 e e w w w w e 7 7 7 7 , 7 7 7 , 7 7 7 7 7 , , 7 7 7 5 8 7 7 7 7 e 7 > 7 7 > > 7 , X   X O X . X + % , % = X X X , i b v d w w w w d w w w w t t i p p r e e e r r r r t p p a t w w t a a a t t r p y y a t p p i r r i w w w w w w w i a a r t p n d t r e t d d e r r e w w i r w w r d w w e d 8 e 7 7 8 e e 7 e 7 8 1 7 7 7 7 e e 7 7 7 7 1 6 1 6 0 1 1 1 > 1 > > 1 & 1 1 7 7 6 1 0 1 1 $ $ X + 9 r 6 1 8 r r 1 + . % r r i 1   > w # . . * * = ",
"                                    X       X   .   . = . = . + = + + + # # $ $ % & , > > > ; & > > > & + X                                                 X     X . . = % 6 1 7 7 7 2 2 8 8 9 0 8 0 7 7 7 0 6 > 1 1 > % $ $ $ + O . . . O O O + + + . . + $ + + + + # # + + $ + + + + + + + $ $ $ @ % , % % % 1 ; , > & 1 1 1 6 1 1 1 2 7 0 1 1 7 7 1 1 7 0 > > 7 & 1 1 & 1 & > % > % & & % % $ $ $ % $ $ $ $ # % $ $ # % $ @ $ $ $ $ $ $ $ $ $ $ % % & % % % ; & & > 1 1 6 7 r a r r w w i 9 + w k./ } ' K K s 9 [ mX{ & 8 > 1 8 w 9 $ $ w e 7 w w r n e r n r i w i r 8 w 8 w d w w i w w w r r y a a p p t t p t t n a a B y a i a a a a p p i t r t p t t r e r r e r e w e d r d e d w e w w w w 8 w r w w w w e 8 7 e e e e e 7 7 7 7 7 6 8 8 7 7 7 7 e 5 e 7 7 e 7 e 7 e e 7 7 7 5 7 7 > 7 6 > =     . + . + $ & , % % X O X , e n v 7 n w t i w t w 8 r t t d r r t r t r t r r r t n p a t t i t y t a i y y p a t n p p p p i w w d w w w t d t w w v d r r t t d e r t t d r d r t w w r w d t w i e w d 8 8 8 e 7 8 8 8 8 8 7 6 e 6 7 7 7 7 7 7 7 1 6 6 6 6 1 1 1 1 1 > 1 > 1 1 1 > 7 7 7 0 7 0 & + O X $ 8 8 1 2 8 r 8 & + + 8 9 9 w $ O 8 8 + X . . . = ",
". . . . X X X X . X X . . . . . =   .   = . X X .     X   X X . . . . . O + + + $ % % & % & & f > & % $ .                                                         X X . + % 1 1 7 7 7 7 7 2 8 8 7 8 8 8 7 7 1 6 1 1 1 > > % $ $ + O O . X X O O + = + O O + $ $ # + # $ $ + # # + + = + + + $ + $ $ % % % % % % % , , > 1 > 1 1 1 1 1 6 7 7 1 1 1 0 1 1 1 7 7 > > 1 & 1 1 & 1 % > > % & & , % % $ $ $ % % $ $ $ # % % @ # $ # # % $ $ $ $ $ $ $ $ $ $ $ % % % $ % % % f > > 1 7 r w 8 r w q K / 7 Y { ' [ E K s s 9 l G.' 0 2 2 > 7 9 9 $ O 8 w 8 i 7 e d 7 e w r i w i d 8 w 8 r r r w w r w w w w r t t t p p r p r t a t i b t t w t y y t r p t r t t p i r r d r r t r d d e r e w e e d e w w r w 8 w w d r w w e w d e e e m e e 7 7 e 7 6 5 7 e 7 e 7 7 8 7 e 8 7 7 7 7 e 7 7 7 7 > 7 , 6 7 1 > $ + X X . . . . # % , , , , X O , 7 t e w e w w w r w w r t t t r r r t d t r r r r r t a p i t t r d t t t a n a a y p p p p p a w w i w w w w w t r w r t d t p t m r r d d r e r d e w w w w w w w i e w 8 8 8 w 8 7 8 8 5 e 7 7 6 7 6 5 7 7 7 7 7 5 2 6 6 6 6 6 1 > > > > > > 1 1 1 > 2 1 1 1 7 > % $ O X % e 9 1 7 9 r 0 % X + 9 w 9 w $ O 8 w $ . . = * * ",
"+ = + . + . . . . = . . . . . . X . . . . . = . . X   X X       X X X X X . X . + + $ % % % f % % * $ = X                                                 .       X X X + , > 6 7 0 7 8 8 8 8 7 7 8 7 8 0 6 6 0 0 1 1 1 > % % $ $ + O . . . . . + + + O O + + $ $ $ + % $ $ # $ O + + + + + + % # $ $ % % % % % & & & > 1 1 1 1 1 1 > 6 7 7 1 1 1 7 1 1 1 7 1 1 1 2 & 1 1 & > % > > & % & % & % @ $ $ % % $ $ % $ $ % $ $ % $ + # # $ # $ $ $ $ $ # $ $ $ * # = $ $ % % & % 1 8 9 0 1 u e 8 E m.n } } ' [ b I i 9 f . I s ; % % & 1 8 r + X 0 r t d 5 8 w 6 8 8 w r e r t 8 w e r w w w r w d r w w w w r r t r w a r r t r r n t t r r r d t r y d i t t p t t r d d r d r d w e d d e e e w e w d w e 8 e w w r w w w e d e r r d t e 8 e 8 8 7 7 7 7 7 5 7 7 8 8 e 7 e 5 e 7 e 5 8 7 7 7 7 , 8 > > 1 2 $ .   . . X . + # , , 5 7 = X X $ e e 8 7 w w w r d e r t e t r t t t r r t r r r t t a a y d r i t r t t p p t p t p a n s d i w w i w w w i i w w w t d r r d n d r t d r e r e r r w w w w w t w w d e e 8 e e e 8 8 7 e e 8 7 5 8 7 7 7 7 7 7 7 7 6 1 1 7 7 1 1 > 1 1 1 > & 1 1 1 > 6 1 > 1 1 > % + + . & r w 7 7 w r 0 * X + w r 9 r $ O 7 9 # O . o * = "
};
